luts/negative_new/fuji_400h.cube
# Created by: G'MIC (https://gmic.eu)
TITLE "fuji_400h"
# LUT size
LUT_3D_SIZE 13
# Data domain
DOMAIN_MIN 0.0 0.0 0.0
DOMAIN_MAX 1.0 1.0 1.0
# LUT data points
0.038024287670850754 0.045300919562578201 0.032425958663225174
0.0875382199883461 0.042763356119394302 0.034580934792757034
0.15671278536319733 0.044624552130699158 0.031375989317893982
0.24846889078617096 0.040238264948129654 0.028494128957390785
0.3605925440788269 0.020505419000983238 0.026725020259618759
0.47895115613937378 0.008406246080994606 0.021450895816087723
0.60365360975265503 0.0092817572876811028 0.01519012451171875
0.71052950620651245 0.011555256322026253 0.0090861003845930099
0.79576641321182251 0.0086829988285899162 0.0075347451493144035
0.87014919519424438 0.010188981890678406 0.0031871721148490906
0.93172979354858398 0.071126796305179596 0.0035917693749070168
0.98358410596847534 0.15824709832668304 0.0028371324297040701
0.99937868118286133 0.21679557859897614 0.0018988515948876739
0.02512023039162159 0.091673307120800018 0.033978976309299469
0.078813560307025909 0.096047885715961456 0.033441953361034393
0.15562297403812408 0.098321907222270966 0.027461107820272446
0.25731292366981506 0.098617404699325562 0.025984460487961769
0.36665526032447815 0.08737451583147049 0.020178401842713356
0.48181924223899841 0.061737090349197388 0.015198202803730965
0.60282975435256958 0.037237532436847687 0.011746051721274853
0.71114569902420044 0.031078966334462166 0.0056652892380952835
0.79919874668121338 0.04517015814781189 0.0049297106452286243
0.86799979209899902 0.089028500020503998 0.0038203818257898092
0.92743366956710815 0.14949433505535126 0.00145721435546875
0.97744041681289673 0.20822861790657043 0.0048070270568132401
0.99717605113983154 0.25640872120857239 0.0042348224669694901
0.0094281211495399475 0.15809054672718048 0.036224022507667542
0.04758758470416069 0.16268600523471832 0.034019708633422852
0.13240952789783478 0.16766843199729919 0.026342578232288361
0.24261102080345154 0.16905975341796875 0.020575130358338356
0.36281272768974304 0.17132657766342163 0.01313286554068327
0.48615074157714844 0.16959576308727264 0.0076351091265678406
0.60402989387512207 0.15505662560462952 0.0083951316773891449
0.70416611433029175 0.15767727792263031 0.0059225196018815041
0.78879272937774658 0.17480865120887756 0.004145005252212286
0.8593367338180542 0.20047047734260559 0.0043365028686821461
0.91915816068649292 0.23363578319549561 0.0037482318002730608
0.97233837842941284 0.27204355597496033 0.0031962075736373663
0.99662166833877563 0.30972909927368164 0.0021748263388872147
0.0028786454349756241 0.24452629685401917 0.027467839419841766
0.01071828231215477 0.24142900109291077 0.027799509465694427
0.089042976498603821 0.24612408876419067 0.02268563024699688
0.21967990696430206 0.2546122670173645 0.014384924434125423
0.34960907697677612 0.2629641592502594 0.0084440791979432106
0.48269146680831909 0.26840820908546448 0.007052732165902853
0.60124516487121582 0.27089646458625793 0.0078431377187371254
0.6944127082824707 0.27546560764312744 0.0056591108441352844
0.77625608444213867 0.28728523850440979 0.003897693008184433
0.85131704807281494 0.30231314897537231 0.0054355096071958542
0.91290879249572754 0.32294005155563354 0.0043991985730826855
0.96621650457382202 0.34827327728271484 0.0029093273915350437
0.99509191513061523 0.37116596102714539 0.0019320917781442404
0.00089106842642650008 0.34148046374320984 0.013584990054368973
0.0036683324724435806 0.3385065495967865 0.017600908875465393
0.03945382684469223 0.33853256702423096 0.015741504728794098
0.18021999299526215 0.34597280621528625 0.0087103303521871567
0.3207891583442688 0.35495507717132568 0.0045153000392019749
0.45492714643478394 0.36371931433677673 0.0060998653061687946
0.58077114820480347 0.37050697207450867 0.0078804763033986092
0.67985767126083374 0.37451866269111633 0.0050595453940331936
0.76397836208343506 0.38577425479888916 0.0042757671326398849
0.83782219886779785 0.39641475677490234 0.0075307660736143589
0.90133500099182129 0.40667781233787537 0.0041173598729074001
0.95535743236541748 0.42594316601753235 0.0039354213513433933
0.99140208959579468 0.43908071517944336 0.003942572046071291
6.2112245359458029e-05 0.43888545036315918 0.009766806848347187
0.0023774988949298859 0.43842649459838867 0.0095156654715538025
0.010536358691751957 0.43355533480644226 0.010397682897746563
0.12141134589910507 0.43560263514518738 0.0080742482095956802
0.28860628604888916 0.44253525137901306 0.0047293719835579395
0.42269912362098694 0.45191910862922668 0.0073309503495693207
0.55023497343063354 0.46159741282463074 0.0077894623391330242
0.65973812341690063 0.46722659468650818 0.0056498358026146889
0.7445264458656311 0.47575685381889343 0.0040052225813269615
0.81946259737014771 0.48256772756576538 0.0049115498550236225
0.88397109508514404 0.48578700423240662 0.005023702047765255
0.94288301467895508 0.49642494320869446 0.0047036116011440754
0.98723435401916504 0.50336760282516479 0.0051808822900056839
0 0.52660679817199707 0.01030883751809597
6.3189341744873673e-05 0.5264245867729187 0.01074713934212923
0.0034232644829899073 0.52010029554367065 0.016793882474303246
0.079072527587413788 0.51664215326309204 0.015501448884606361
0.25989389419555664 0.52048403024673462 0.012744918465614319
0.40021693706512451 0.52694636583328247 0.0084047801792621613
0.525054931640625 0.53324753046035767 0.0077935014851391315
0.63343393802642822 0.54045760631561279 0.0076461341232061386
0.7195054292678833 0.55239242315292358 0.0067560235038399696
0.79893618822097778 0.55784273147583008 0.0054553314112126827
0.86710262298583984 0.55945593118667603 0.0039355708286166191
0.93066692352294922 0.56300193071365356 0.0027969060465693474
0.98148530721664429 0.56556814908981323 0.0036277321632951498
0 0.60270524024963379 0.020640607923269272
0.000482058065244928 0.60210585594177246 0.025282466784119606
0.0029546401929110289 0.59855955839157104 0.036062922328710556
0.067069962620735168 0.59169608354568481 0.046637069433927536
0.24951966106891632 0.59046715497970581 0.035711608827114105
0.38697168231010437 0.59406870603561401 0.017184030264616013
0.50545608997344971 0.59898382425308228 0.0078547308221459389
0.61072075366973877 0.60549747943878174 0.0052798101678490639
0.69517421722412109 0.61419737339019775 0.0068813399411737919
0.77558910846710205 0.62143838405609131 0.0063294204883277416
0.84983372688293457 0.62702101469039917 0.0030284957028925419
0.91720402240753174 0.62753450870513916 0.00093796674627810717
0.97648078203201294 0.62739747762680054 0.00078470568405464292
0.00074269913602620363 0.66987156867980957 0.073401942849159241
0.0014640508452430367 0.67015939950942993 0.080878734588623047
0.0082011502236127853 0.66833269596099854 0.094412766396999359
0.11595698446035385 0.66264504194259644 0.10338571667671204
0.26747515797615051 0.65828436613082886 0.098918318748474121
0.39501011371612549 0.65850549936294556 0.081186078488826752
0.49897921085357666 0.66228240728378296 0.062678501009941101
0.59306490421295166 0.66692459583282471 0.031207723543047905
0.67808729410171509 0.67228221893310547 0.014435098506510258
0.75745534896850586 0.67877572774887085 0.0066292108967900276
0.83214306831359863 0.68576085567474365 0.0029678195714950562
0.90211081504821777 0.69018447399139404 0.00091649970272555947
0.96725839376449585 0.68992084264755249 0.00025287704193033278
0.0031082602217793465 0.73328483104705811 0.154316246509552
0.0090699587017297745 0.73343539237976074 0.1589672714471817
0.071786366403102875 0.73044556379318237 0.16390207409858704
0.20125393569469452 0.72633153200149536 0.17355827987194061
0.30428329110145569 0.72194421291351318 0.17863863706588745
0.40947899222373962 0.72009468078613281 0.17498175799846649
0.50348615646362305 0.72234094142913818 0.15976302325725555
0.58569991588592529 0.72472774982452393 0.13494284451007843
0.66477459669113159 0.72833752632141113 0.10760790109634399
0.74060237407684326 0.73395156860351562 0.069107338786125183
0.81455349922180176 0.73990726470947266 0.030749915167689323
0.89082038402557373 0.7502482533454895 0.016030600294470787
0.95835316181182861 0.75184732675552368 0.010869343765079975
0.092287532985210419 0.7940484881401062 0.23836351931095123
0.14042142033576965 0.79332566261291504 0.24199037253856659
0.20841088891029358 0.79015052318572998 0.24483457207679749
0.28252860903739929 0.78706550598144531 0.25284722447395325
0.35648608207702637 0.78360533714294434 0.2606188952922821
0.43319779634475708 0.78089725971221924 0.26464730501174927
0.51130455732345581 0.78230798244476318 0.25826403498649597
0.58894246816635132 0.78422027826309204 0.24196325242519379
0.65870851278305054 0.78698891401290894 0.22843761742115021
0.72868341207504272 0.79162383079528809 0.20400343835353851
0.79775315523147583 0.79519718885421753 0.17255094647407532
0.87081819772720337 0.80277395248413086 0.14346008002758026
0.94559264183044434 0.81134587526321411 0.13590072095394135
0.26424944400787354 0.85601162910461426 0.33870309591293335
0.2834562361240387 0.85374444723129272 0.33845439553260803
0.31898018717765808 0.85272270441055298 0.3404383659362793
0.36398962140083313 0.85125869512557983 0.34604647755622864
0.41739717125892639 0.84882783889770508 0.35469383001327515
0.47463354468345642 0.84725892543792725 0.362497478723526
0.53352624177932739 0.84725111722946167 0.36347895860671997
0.59505319595336914 0.84831655025482178 0.35643899440765381
0.65742528438568115 0.85053980350494385 0.34790775179862976
0.72104251384735107 0.85356557369232178 0.33325996994972229
0.78955191373825073 0.85762262344360352 0.31816413998603821
0.85689789056777954 0.86208373308181763 0.3013603687286377
0.92740327119827271 0.86771988868713379 0.28338930010795593
0.38460111618041992 0.91960781812667847 0.45302873849868774
0.39855742454528809 0.91781425476074219 0.45301553606987
0.42056334018707275 0.91755735874176025 0.45726221799850464
0.45081567764282227 0.91481775045394897 0.46061551570892334
0.48689591884613037 0.91378617286682129 0.46941289305686951
0.53143072128295898 0.91322809457778931 0.48033854365348816
0.57606405019760132 0.91175365447998047 0.4850195050239563
0.62228894233703613 0.91384977102279663 0.4835360050201416
0.67518621683120728 0.91720867156982422 0.48123174905776978
0.73117315769195557 0.91973567008972168 0.47391358017921448
0.79206079244613647 0.92341142892837524 0.46741601824760437
0.85487008094787598 0.92738932371139526 0.45568117499351501
0.92156797647476196 0.93122649192810059 0.44293442368507385
0.047558292746543884 0.047785244882106781 0.076230339705944061
0.093704819679260254 0.047689370810985565 0.07846563309431076
0.1622096449136734 0.046412777155637741 0.079251110553741455
0.25584939122200012 0.034026335924863815 0.079751051962375641
0.36729109287261963 0.014155443757772446 0.07989221066236496
0.48760303854942322 0.0078378859907388687 0.0808882936835289
0.60998910665512085 0.0099389171227812767 0.075634747743606567
0.71872192621231079 0.010627776384353638 0.069568589329719543
0.80021911859512329 0.010014493018388748 0.065887272357940674
0.87079018354415894 0.017306892201304436 0.058692138642072678
0.93116754293441772 0.083296820521354675 0.058397360146045685
0.98140382766723633 0.16763018071651459 0.054941184818744659
0.99831593036651611 0.22641670703887939 0.062252476811408997
0.032863512635231018 0.099962763488292694 0.083129525184631348
0.090870678424835205 0.10400441288948059 0.085387840867042542
0.16512361168861389 0.10272146761417389 0.082059763371944427
0.26383692026138306 0.095539599657058716 0.081856384873390198
0.37345552444458008 0.083986304700374603 0.07904314249753952
0.49138128757476807 0.060873113572597504 0.076804205775260925
0.6103249192237854 0.040472216904163361 0.069716960191726685
0.71761906147003174 0.036007914692163467 0.06062857061624527
0.80092668533325195 0.049768067896366119 0.053663305938243866
0.86740511655807495 0.098133906722068787 0.048208095133304596
0.92638307809829712 0.16164314746856689 0.04766414687037468
0.97980105876922607 0.21611005067825317 0.044626675546169281
0.9978821873664856 0.2610323429107666 0.055335640907287598
0.01309489831328392 0.16849783062934875 0.085455529391765594
0.066389165818691254 0.17434054613113403 0.086563006043434143
0.15064901113510132 0.17597711086273193 0.08137030154466629
0.25186920166015625 0.17428384721279144 0.076942846179008484
0.37266936898231506 0.17628993093967438 0.068627342581748962
0.49467551708221436 0.17178858816623688 0.058337822556495667
0.6090085506439209 0.15872742235660553 0.049146134406328201
0.70993274450302124 0.15917514264583588 0.040561407804489136
0.7921110987663269 0.17848576605319977 0.035120196640491486
0.86143773794174194 0.20703732967376709 0.030398858711123466
0.91943740844726562 0.2445564866065979 0.03211066871881485
0.97329378128051758 0.28025847673416138 0.030667278915643692
0.99755334854125977 0.31411436200141907 0.038332290947437286
0.0063759749755263329 0.25519701838493347 0.079438105225563049
0.021561162546277046 0.25548240542411804 0.08166821300983429
0.10941804200410843 0.25824686884880066 0.080688253045082092
0.23292694985866547 0.26229241490364075 0.070652440190315247
0.36241447925567627 0.26943427324295044 0.048238161951303482
0.49104458093643188 0.27197679877281189 0.032006237655878067
0.60537540912628174 0.27055245637893677 0.023165520280599594
0.70039933919906616 0.27433007955551147 0.0173519067466259
0.78163617849349976 0.28678774833679199 0.014129713177680969
0.85380643606185913 0.30420023202896118 0.013412804342806339
0.91364294290542603 0.32664567232131958 0.014261163771152496
0.96695041656494141 0.3512190580368042 0.017389604821801186
0.99775230884552002 0.37264308333396912 0.020187648013234138
0.0035796370357275009 0.35372039675712585 0.06853097677230835
0.0060291364789009094 0.35202124714851379 0.07501722127199173
0.060234788805246353 0.34979978203773499 0.078283779323101044
0.20049610733985901 0.35625714063644409 0.066953189671039581
0.33803543448448181 0.364714115858078 0.042092625051736832
0.47045606374740601 0.37200489640235901 0.022296875715255737
0.58890306949615479 0.37344729900360107 0.012275456450879574
0.68561416864395142 0.37418612837791443 0.0084276087582111359
0.76882648468017578 0.38343977928161621 0.0075122909620404243
0.83979368209838867 0.39517241716384888 0.0073257149197161198
0.90160828828811646 0.40739399194717407 0.0060368259437382221
0.95766949653625488 0.42428508400917053 0.0082358112558722496
0.99521797895431519 0.43719172477722168 0.011552085168659687
0.00022084853844717145 0.45120912790298462 0.066517069935798645
0.0033334619365632534 0.44913867115974426 0.068663306534290314
0.019681204110383987 0.44173529744148254 0.076308019459247589
0.15333147346973419 0.4421980082988739 0.071385957300662994
0.30201739072799683 0.44922226667404175 0.052138518542051315
0.43620699644088745 0.45757725834846497 0.027196653187274933
0.56192445755004883 0.46575766801834106 0.01150150690227747
0.66582775115966797 0.46942165493965149 0.005602473858743906
0.74930077791213989 0.47443720698356628 0.0040434743277728558
0.82303863763809204 0.48016637563705444 0.0039535523392260075
0.88600057363510132 0.48425185680389404 0.006642315536737442
0.94509822130203247 0.4934055507183075 0.0067915222607553005
0.99060148000717163 0.50143128633499146 0.0066444696858525276
0 0.53709930181503296 0.070177741348743439
0.00086792593356221914 0.5339234471321106 0.075905755162239075
0.005803725216537714 0.52736079692840576 0.085859335958957672
0.11108972877264023 0.52258497476577759 0.08909258246421814
0.27442598342895508 0.52539324760437012 0.070639379322528839
0.41197633743286133 0.53087574243545532 0.043105330318212509
0.53298306465148926 0.53625243902206421 0.020249355584383011
0.63921546936035156 0.54524356126785278 0.010604723356664181
0.72649204730987549 0.55446809530258179 0.0068873986601829529
0.80339854955673218 0.55701601505279541 0.0047751632519066334
0.86909312009811401 0.55801701545715332 0.005956701934337616
0.93143784999847412 0.5612369179725647 0.0040505202487111092
0.98347455263137817 0.56515532732009888 0.0048488094471395016
0.0013128542341291904 0.60953491926193237 0.088690690696239471
0.0027045903261750937 0.6076619029045105 0.09844081848859787
0.0061570112593472004 0.60291498899459839 0.10877290368080139
0.10171549022197723 0.59696149826049805 0.11623838543891907
0.26322066783905029 0.59473109245300293 0.10551874339580536
0.39777916669845581 0.59762364625930786 0.081747911870479584
0.51240676641464233 0.60108441114425659 0.056871689856052399
0.61352372169494629 0.60788106918334961 0.03117574006319046
0.70288741588592529 0.61675882339477539 0.016593648120760918
0.7828553318977356 0.6240730881690979 0.0071173426695168018
0.85246944427490234 0.62706655263900757 0.0045972187072038651
0.91694676876068115 0.62833720445632935 0.003336229594424367
0.97503829002380371 0.62795388698577881 0.0028731850907206535
0.0021655212622135878 0.67249065637588501 0.136548712849617
0.0045986399054527283 0.67274689674377441 0.14223736524581909
0.019231937825679779 0.67071449756622314 0.14908422529697418
0.14305958151817322 0.66449666023254395 0.15957368910312653
0.27851065993309021 0.66055119037628174 0.1582166850566864
0.39961948990821838 0.66134405136108398 0.14513829350471497
0.50465577840805054 0.66448593139648438 0.12801049649715424
0.59773176908493042 0.66756927967071533 0.092845797538757324
0.68195426464080811 0.67280924320220947 0.063002705574035645
0.76156318187713623 0.67950350046157837 0.030879151076078415
0.83728039264678955 0.68825322389602661 0.016274590045213699
0.90430498123168945 0.69051307439804077 0.0076771005988121033
0.96765375137329102 0.69062632322311401 0.0044064987450838089
0.0064284531399607658 0.73484909534454346 0.19632658362388611
0.022114712744951248 0.73488253355026245 0.19899217784404755
0.10593562573194504 0.73263704776763916 0.20466683804988861
0.22138401865959167 0.7269977331161499 0.21351516246795654
0.3180834949016571 0.722423255443573 0.22060039639472961
0.41348651051521301 0.7208438515663147 0.22008985280990601
0.50794136524200439 0.72297698259353638 0.20457346737384796
0.59156441688537598 0.7260785698890686 0.18137441575527191
0.66894137859344482 0.72974598407745361 0.16316358745098114
0.74332910776138306 0.73517221212387085 0.13481254875659943
0.81857949495315552 0.74298250675201416 0.095171906054019928
0.89188581705093384 0.75021111965179443 0.071249924600124359
0.95798546075820923 0.75219267606735229 0.056937318295240402
0.12162942439317703 0.79476088285446167 0.26603767275810242
0.16279241442680359 0.79420584440231323 0.27106830477714539
0.22801828384399414 0.79148566722869873 0.27591589093208313
0.29818174242973328 0.78859752416610718 0.27946346998214722
0.36496290564537048 0.78419345617294312 0.28889158368110657
0.43821054697036743 0.78156489133834839 0.29655006527900696
0.51465368270874023 0.78271651268005371 0.28865319490432739
0.59299427270889282 0.78616595268249512 0.27370893955230713
0.66274547576904297 0.7891959547996521 0.25975281000137329
0.73182183504104614 0.79342776536941528 0.23994334042072296
0.80062097311019897 0.79781162738800049 0.21382375061511993
0.87244594097137451 0.80366158485412598 0.19498074054718018
0.94495940208435059 0.81101930141448975 0.18698179721832275
0.26945751905441284 0.85551446676254272 0.35579928755760193
0.29090026021003723 0.85512912273406982 0.35864576697349548
0.32694414258003235 0.85346835851669312 0.36111000180244446
0.37082958221435547 0.85095733404159546 0.36474370956420898
0.42195984721183777 0.84885931015014648 0.37456747889518738
0.47746437788009644 0.84733206033706665 0.38245269656181335
0.53510421514511108 0.84754735231399536 0.38380205631256104
0.59747946262359619 0.84894192218780518 0.37775775790214539
0.65919351577758789 0.85112720727920532 0.3707846999168396
0.72313672304153442 0.85448652505874634 0.35689434409141541
0.78845113515853882 0.85863780975341797 0.34065037965774536
0.85614252090454102 0.86276388168334961 0.32467442750930786
0.92819154262542725 0.86725413799285889 0.3097623884677887
0.39019858837127686 0.91990363597869873 0.46378132700920105
0.40311089158058167 0.91941571235656738 0.466348797082901
0.42127975821495056 0.91481852531433105 0.46527385711669922
0.45072931051254272 0.914348304271698 0.47084423899650574
0.49119806289672852 0.91416323184967041 0.48268762230873108
0.52981901168823242 0.91166430711746216 0.48873302340507507
0.57636898756027222 0.9127998948097229 0.49833333492279053
0.62396514415740967 0.91410678625106812 0.49721595644950867
0.67734777927398682 0.91601639986038208 0.4931066632270813
0.73187112808227539 0.91984868049621582 0.48669415712356567
0.79062461853027344 0.9235835075378418 0.4784197211265564
0.85281288623809814 0.92625343799591064 0.46696546673774719
0.91996878385543823 0.93130624294281006 0.45962721109390259
0.059453509747982025 0.052550461143255234 0.14341667294502258
0.1078188419342041 0.054569859057664871 0.14746691286563873
0.17134787142276764 0.051803946495056152 0.1491398811340332
0.26220911741256714 0.035379566252231598 0.15117982029914856
0.3778516948223114 0.011592386290431023 0.15412767231464386
0.50331252813339233 0.0048269233666360378 0.15800967812538147
0.62300103902816772 0.0044885524548590183 0.16179120540618896
0.72714066505432129 0.0044045690447092056 0.16248808801174164
0.8083309531211853 0.0063967537134885788 0.16813324391841888
0.87449133396148682 0.031543131917715073 0.17177410423755646
0.93101280927658081 0.1129809245467186 0.17551323771476746
0.98079270124435425 0.18965692818164825 0.17751200497150421
0.99784600734710693 0.24554157257080078 0.18538981676101685
0.041548427194356918 0.10441871732473373 0.14855144917964935
0.099375434219837189 0.10792839527130127 0.15346460044384003
0.17391207814216614 0.10960984975099564 0.15857411921024323
0.26759853959083557 0.098285064101219177 0.15995219349861145
0.38308337330818176 0.07608427107334137 0.15740111470222473
0.50516116619110107 0.052537836134433746 0.15773122012615204
0.62482935190200806 0.040120907127857208 0.16191183030605316
0.72581034898757935 0.042649108916521072 0.16435857117176056
0.80634790658950806 0.067339636385440826 0.16477985680103302
0.86893117427825928 0.1195768341422081 0.16430547833442688
0.92495942115783691 0.1843051016330719 0.16759870946407318
0.97692066431045532 0.23337538540363312 0.17009392380714417
0.99846047163009644 0.2779657244682312 0.18149945139884949
0.016541395336389542 0.17736212909221649 0.15395596623420715
0.075911656022071838 0.18040211498737335 0.15705344080924988
0.16958940029144287 0.18328297138214111 0.16156408190727234
0.26992949843406677 0.18226084113121033 0.15952505171298981
0.3873380720615387 0.1783725917339325 0.15373590588569641
0.50891256332397461 0.17398564517498016 0.15522307157516479
0.62291222810745239 0.16618871688842773 0.15454941987991333
0.71857476234436035 0.17361427843570709 0.15198273956775665
0.79747062921524048 0.19184321165084839 0.14927607774734497
0.86311793327331543 0.22133974730968475 0.14319474995136261
0.91889041662216187 0.26155245304107666 0.14722870290279388
0.97240626811981201 0.29171869158744812 0.15541055798530579
0.99775946140289307 0.32373163104057312 0.16764576733112335
0.0072973514907062054 0.27157220244407654 0.1599392294883728
0.037601843476295471 0.27307206392288208 0.16178277134895325
0.14583995938301086 0.27501526474952698 0.16561207175254822
0.26008665561676025 0.27606445550918579 0.16101588308811188
0.38386592268943787 0.27597585320472717 0.14661884307861328
0.50495761632919312 0.28002336621284485 0.13688620924949646
0.61491304636001587 0.27773568034172058 0.12843061983585358
0.70614266395568848 0.28047206997871399 0.12329352647066116
0.78584533929824829 0.29368111491203308 0.11693640053272247
0.85529595613479614 0.31168347597122192 0.11806759983301163
0.91215872764587402 0.33800292015075684 0.12422391027212143
0.96448111534118652 0.35994067788124084 0.13063833117485046
0.99606430530548096 0.3828752338886261 0.14265695214271545
0.0039247251115739346 0.37256497144699097 0.16387738287448883
0.01342474203556776 0.37267300486564636 0.16384489834308624
