luts/negative_new/fuji_800z.cube
# Created by: G'MIC (https://gmic.eu)
TITLE "fuji_800z"
# LUT size
LUT_3D_SIZE 13
# Data domain
DOMAIN_MIN 0.0 0.0 0.0
DOMAIN_MAX 1.0 1.0 1.0
# LUT data points
0.063456036150455475 0.063654772937297821 0.052603807300329208
0.10657203197479248 0.06458592414855957 0.051348667591810226
0.17612792551517487 0.058555107563734055 0.050463225692510605
0.26133447885513306 0.046486798673868179 0.049454484134912491
0.36304375529289246 0.024943618103861809 0.044670358300209045
0.47266057133674622 0.0080696409568190575 0.039601240307092667
0.58339065313339233 0.003820142475888133 0.031921491026878357
0.69359028339385986 0.0033725663088262081 0.025155071169137955
0.78644305467605591 0.0026016684714704752 0.015783257782459259
0.86179542541503906 0.0054920422844588757 0.0068773007951676846
0.93136376142501831 0.0074617573991417885 0.0038079055957496166
0.98633348941802979 0.013316464610397816 0.0024449366610497236
1 0.077841736376285553 0.0011917114024981856
0.063488870859146118 0.10603102296590805 0.058197036385536194
0.1013711541891098 0.10715469717979431 0.05378640815615654
0.17126369476318359 0.11119576543569565 0.051125470548868179
0.26067319512367249 0.10940882563591003 0.046893294900655746
0.36363393068313599 0.098348475992679596 0.040448177605867386
0.47177243232727051 0.076019629836082458 0.033799923956394196
0.5832856297492981 0.049411669373512268 0.023916985839605331
0.69095891714096069 0.032669231295585632 0.018062127754092216
0.78600239753723145 0.027289910241961479 0.010499542579054832
0.86413371562957764 0.032940372824668884 0.0027486614417284727
0.93149429559707642 0.060313310474157333 0.0021424088627099991
0.98537349700927734 0.10261788219213486 0.0024744670372456312
1 0.15677165985107422 0.0012057435233145952
0.064878366887569427 0.15949743986129761 0.067882359027862549
0.097047559916973114 0.16017518937587738 0.064649634063243866
0.16073265671730042 0.17363549768924713 0.055087998509407043
0.2555634081363678 0.18953685462474823 0.040768086910247803
0.35857996344566345 0.18663816154003143 0.029872579500079155
0.46670031547546387 0.1810811460018158 0.021782310679554939
0.57765567302703857 0.17184345424175262 0.013412086293101311
0.67991924285888672 0.16708727180957794 0.0077956253662705421
0.77625375986099243 0.16606509685516357 0.0036415399517863989
0.85500615835189819 0.17151345312595367 0.0026972752530127764
0.92153084278106689 0.18707685172557831 0.0021919100545346737
0.97896778583526611 0.21201726794242859 0.00064252963056787848
0.99902784824371338 0.24214966595172882 0.00097449804889038205
0.066004730761051178 0.22563375532627106 0.081633515655994415
0.097965434193611145 0.22033891081809998 0.079925283789634705
0.15037168562412262 0.23197798430919647 0.070721298456192017
0.23331773281097412 0.25582671165466309 0.049729336053133011
0.35125818848609924 0.28156375885009766 0.022328529506921768
0.46476680040359497 0.28723552823066711 0.011068590916693211
0.57034265995025635 0.28142222762107849 0.0094993440434336662
0.67093890905380249 0.27644756436347961 0.0058412589132785797
0.76184630393981934 0.28021049499511719 0.004196586087346077
0.84256488084793091 0.28909128904342651 0.0039215688593685627
0.90899443626403809 0.29703435301780701 0.0038990096654742956
0.96992039680480957 0.31052395701408386 0.0020304960198700428
0.99729496240615845 0.32902112603187561 0.0020017137285321951
0.062607966363430023 0.29471710324287415 0.093807592988014221
0.1003839522600174 0.28960809111595154 0.095626980066299438
0.15022900700569153 0.29483136534690857 0.091022923588752747
0.21805819869041443 0.31690433621406555 0.075708635151386261
0.32584258913993835 0.35111922025680542 0.039750013500452042
0.45587307214736938 0.38519465923309326 0.0085690664127469063
0.56969636678695679 0.3920847475528717 0.0052520302124321461
0.66553336381912231 0.38539668917655945 0.003921927884221077
0.75061869621276855 0.38569605350494385 0.0039309035055339336
0.82704979181289673 0.38864213228225708 0.0046757417730987072
0.89602631330490112 0.39006268978118896 0.00360870361328125
0.95629537105560303 0.39457780122756958 0.0020549548789858818
0.99097228050231934 0.40832513570785522 0.0036037969402968884
0.060808833688497543 0.36846533417701721 0.11121009290218353
0.10314413160085678 0.364898681640625 0.1127779483795166
0.15003548562526703 0.35948091745376587 0.11204066872596741
0.21126244962215424 0.37491652369499207 0.10316039621829987
0.29980984330177307 0.40559691190719604 0.080593496561050415
0.41700360178947449 0.44429662823677063 0.037434998899698257
0.55363267660140991 0.48472833633422852 0.0049421275034546852
0.66056770086288452 0.49330458045005798 0.0011203541653230786
0.743033766746521 0.49048349261283875 0.0029404433444142342
0.81260144710540771 0.48472374677658081 0.0039431555196642876
0.88029885292053223 0.47922053933143616 0.0029205770697444677
0.94282060861587524 0.47762450575828552 0.00091901293490082026
0.98515033721923828 0.48571434617042542 0.0024002823047339916
0.07333807647228241 0.44022995233535767 0.13088807463645935
0.11468137800693512 0.4371563196182251 0.13334251940250397
0.15983228385448456 0.42845657467842102 0.13409166038036346
0.21254585683345795 0.43130025267601013 0.12905856966972351
0.28992938995361328 0.45724135637283325 0.11649162322282791
0.38521891832351685 0.48934334516525269 0.09040214866399765
0.50700175762176514 0.52848535776138306 0.044269457459449768
0.63711345195770264 0.56867271661758423 0.0089812185615301132
0.73399651050567627 0.5804869532585144 0.0032490449957549572
0.80433946847915649 0.57451522350311279 0.0039803748950362206
0.8694654107093811 0.56543505191802979 0.00095865584444254637
0.92914271354675293 0.56052309274673462 0.0012795391958206892
0.97610479593276978 0.55941230058670044 5.4931639169808477e-05
0.10448756814002991 0.50881391763687134 0.15456412732601166
0.13857677578926086 0.50633937120437622 0.15725387632846832
0.17779417335987091 0.4986661970615387 0.15788312256336212
0.22289270162582397 0.49121272563934326 0.15614522993564606
0.2892819344997406 0.50841861963272095 0.15088659524917603
0.37293961644172668 0.53488844633102417 0.13688898086547852
0.47592002153396606 0.56806999444961548 0.11474588513374329
0.58972209692001343 0.60384112596511841 0.075322091579437256
0.70908170938491821 0.6416938304901123 0.035818122327327728
0.79756420850753784 0.65523213148117065 0.013549086637794971
0.8623468279838562 0.64793652296066284 0.0048104827292263508
0.92040878534317017 0.64176833629608154 0.0054897083900868893
0.97153180837631226 0.63785892724990845 0.0016112832818180323
0.15124660730361938 0.57599568367004395 0.18537637591362
0.17539605498313904 0.57388705015182495 0.18681962788105011
0.21102839708328247 0.5689663290977478 0.18928307294845581
0.25004208087921143 0.5588565468788147 0.18902195990085602
0.29874274134635925 0.56002211570739746 0.18555955588817596
0.37222385406494141 0.58311492204666138 0.1792638748884201
0.46467685699462891 0.61210078001022339 0.17028252780437469
0.56380939483642578 0.64227312803268433 0.15668417513370514
0.6647716760635376 0.67218601703643799 0.14079424738883972
0.76676106452941895 0.70423734188079834 0.11755905300378799
0.85025578737258911 0.72011977434158325 0.089379012584686279
0.91304582357406616 0.71947008371353149 0.065089508891105652
0.96796339750289917 0.71560215950012207 0.045437321066856384
0.21926489472389221 0.64432930946350098 0.22800430655479431
0.23803766071796417 0.64112013578414917 0.23264485597610474
0.26160344481468201 0.63799023628234863 0.23035629093647003
0.29153764247894287 0.62987583875656128 0.22772349417209625
0.33087852597236633 0.62332278490066528 0.22558312118053436
0.39165711402893066 0.63683211803436279 0.22407300770282745
0.46892562508583069 0.65885376930236816 0.22314634919166565
0.55663204193115234 0.68488931655883789 0.22180527448654175
0.63932669162750244 0.70962893962860107 0.22055383026599884
0.72829371690750122 0.73574590682983398 0.21749767661094666
0.82000166177749634 0.76425683498382568 0.21343955397605896
0.90073698759078979 0.78672909736633301 0.21021637320518494
0.95965093374252319 0.78787350654602051 0.19675125181674957
0.30223914980888367 0.71283841133117676 0.28844162821769714
0.31505826115608215 0.71206068992614746 0.29067537188529968
0.33284720778465271 0.70885086059570312 0.2908225953578949
0.35563865303993225 0.70250499248504639 0.28750413656234741
0.3840503990650177 0.69407731294631958 0.2833196222782135
0.42618387937545776 0.69442451000213623 0.28269875049591064
0.48901847004890442 0.71089279651641846 0.28821399807929993
0.56235349178314209 0.7334246039390564 0.29574939608573914
0.63745564222335815 0.75561928749084473 0.30148997902870178
0.71275830268859863 0.77600038051605225 0.30293506383895874
0.7919960618019104 0.80028665065765381 0.30895918607711792
0.8716118335723877 0.82672083377838135 0.31745737791061401
0.94629520177841187 0.84864962100982666 0.326915442943573
0.40745130181312561 0.78739428520202637 0.38447695970535278
0.41489621996879578 0.78670287132263184 0.38509804010391235
0.42711186408996582 0.78467315435409546 0.38406127691268921
0.44531255960464478 0.78050202131271362 0.38279274106025696
0.4668828547000885 0.77417892217636108 0.38125389814376831
0.49443838000297546 0.77003705501556396 0.38012042641639709
0.53892087936401367 0.77791553735733032 0.38490653038024902
0.59663170576095581 0.79503929615020752 0.3947664201259613
0.6563381552696228 0.81350213289260864 0.40164276957511902
0.72184532880783081 0.83116942644119263 0.41094812750816345
0.78693753480911255 0.84929567575454712 0.42065039277076721
0.85440415143966675 0.86745083332061768 0.43003612756729126
0.91947025060653687 0.88736832141876221 0.43756899237632751
0.53852230310440063 0.87031513452529907 0.5263981819152832
0.54210859537124634 0.86931353807449341 0.52594804763793945
0.55014944076538086 0.86773645877838135 0.52464801073074341
0.56333142518997192 0.86664193868637085 0.52558451890945435
0.58188861608505249 0.86360198259353638 0.52793926000595093
0.60245817899703979 0.861763596534729 0.5308072566986084
0.63026797771453857 0.86236715316772461 0.53318655490875244
0.66761481761932373 0.87255138158798218 0.54004198312759399
0.71300673484802246 0.88624942302703857 0.54901707172393799
0.76031500101089478 0.89861363172531128 0.55610543489456177
0.81306278705596924 0.91175222396850586 0.56558752059936523
0.86579215526580811 0.92258429527282715 0.57216733694076538
0.91387790441513062 0.93174225091934204 0.57248383760452271
0.069306723773479462 0.065586850047111511 0.088077977299690247
0.11192525178194046 0.068373285233974457 0.089426465332508087
0.181409552693367 0.059757024049758911 0.090940259397029877
0.27329921722412109 0.04379025474190712 0.094396226108074188
0.37555545568466187 0.021488398313522339 0.093904726207256317
0.48387548327445984 0.0074791554361581802 0.089632801711559296
0.59471285343170166 0.004103686660528183 0.088271185755729675
0.70032143592834473 0.0047626718878746033 0.085243940353393555
0.78998827934265137 0.0037825191393494606 0.073740370571613312
0.86789917945861816 0.0064210481941699982 0.059836205095052719
0.93461364507675171 0.0084794433787465096 0.053490102291107178
0.98569720983505249 0.015323668718338013 0.047635875642299652
1 0.07832711935043335 0.04409496858716011
0.072145305573940277 0.11232530325651169 0.094236545264720917
0.11373947560787201 0.11488167196512222 0.095817252993583679
0.17995870113372803 0.11604168266057968 0.09607899934053421
0.27302649617195129 0.11326441913843155 0.097164496779441833
0.37550458312034607 0.095693983137607574 0.093873642385005951
0.48146846890449524 0.074324712157249451 0.086952954530715942
0.59251278638839722 0.046224124729633331 0.08263784646987915
0.69844210147857666 0.029568152502179146 0.076261527836322784
0.79056781530380249 0.026103928685188293 0.064028643071651459
0.86773550510406494 0.033128879964351654 0.052903853356838226
0.93262547254562378 0.060120288282632828 0.045126896351575851
0.98561161756515503 0.10279856622219086 0.040855064988136292
0.99995261430740356 0.15840527415275574 0.042718701064586639
0.082163825631141663 0.17592720687389374 0.10334884375333786
0.11592232435941696 0.17401435971260071 0.10431528836488724
0.17700384557247162 0.17952671647071838 0.10233477503061295
0.26790639758110046 0.1909877210855484 0.095071949064731598
0.36973327398300171 0.18695388734340668 0.087446324527263641
0.47785291075706482 0.17914077639579773 0.079443030059337616
0.58663678169250488 0.16937148571014404 0.070987328886985779
0.6881103515625 0.16052544116973877 0.060242239385843277
0.78201121091842651 0.16156333684921265 0.047905176877975464
0.85818511247634888 0.16970841586589813 0.039671041071414948
0.92374604940414429 0.18701921403408051 0.03241189569234848
0.98053210973739624 0.21310907602310181 0.029649727046489716
0.9988282322883606 0.24497121572494507 0.034350108355283737
0.09062398225069046 0.24257902801036835 0.11520439386367798
0.12075991183519363 0.23841625452041626 0.11722937226295471
0.17047615349292755 0.242291659116745 0.11403820663690567
0.25088420510292053 0.26388615369796753 0.10043536871671677
0.36320245265960693 0.28376150131225586 0.082834340631961823
0.47371873259544373 0.28467196226119995 0.0662270188331604
0.57746350765228271 0.27917656302452087 0.045560739934444427
0.67546427249908447 0.27606308460235596 0.035082738846540451
0.76487666368484497 0.27995061874389648 0.029915349557995796
0.84535610675811768 0.2884252667427063 0.02065543457865715
0.911884605884552 0.29526054859161377 0.018719527870416641
0.97113686800003052 0.30980226397514343 0.016567530110478401
0.99765694141387939 0.33076906204223633 0.018638251349329948
0.092554233968257904 0.31382867693901062 0.12914566695690155
0.12595464289188385 0.30968502163887024 0.1314975917339325
0.16903303563594818 0.30673712491989136 0.12979908287525177
0.2330993264913559 0.32451921701431274 0.11989538371562958
0.33830198645591736 0.35718065500259399 0.097969919443130493
0.46246996521949768 0.38478249311447144 0.065312512218952179
0.5738646388053894 0.39126715064048767 0.032496478408575058
0.66709524393081665 0.38526323437690735 0.016801362857222557
0.75090521574020386 0.38521853089332581 0.014942004345357418
0.8295096755027771 0.38744986057281494 0.010482294484972954
0.89783656597137451 0.39079457521438599 0.0088547952473163605
0.95870840549468994 0.39820688962936401 0.0078019085340201855
0.99333757162094116 0.41259557008743286 0.010371488519012928
0.095263056457042694 0.38532140851020813 0.14370337128639221
0.1289357990026474 0.38230937719345093 0.1453545093536377
0.17189973592758179 0.37415817379951477 0.14612320065498352
0.2263682633638382 0.38168191909790039 0.13984315097332001
0.31215274333953857 0.41085445880889893 0.12573637068271637
0.42717954516410828 0.44786480069160461 0.096742056310176849
0.55808264017105103 0.48488163948059082 0.048730678856372833
0.66277402639389038 0.49406841397285461 0.018158556893467903
0.74290770292282104 0.48828914761543274 0.0091877654194831848
0.81341147422790527 0.48100945353507996 0.0072743436321616173
0.88127857446670532 0.47795239090919495 0.006607444491237402
0.94317293167114258 0.48057717084884644 0.0046480214223265648
0.98794800043106079 0.48834145069122314 0.004897397942841053
0.10684271156787872 0.45527458190917969 0.16181762516498566
0.14251454174518585 0.45204809308052063 0.16427576541900635
0.18328197300434113 0.44273656606674194 0.16419002413749695
0.22846662998199463 0.43905377388000488 0.16019394993782043
0.30027177929878235 0.46070054173469543 0.15260647237300873
0.39761132001876831 0.49385592341423035 0.13463406264781952
0.51577049493789673 0.53312349319458008 0.10330250859260559
0.64042800664901733 0.57118427753448486 0.058803468942642212
0.73518991470336914 0.58139675855636597 0.025845486670732498
0.80524170398712158 0.5734248161315918 0.012326199561357498
0.8693346381187439 0.56466853618621826 0.0058664958924055099
0.92942827939987183 0.55989378690719604 0.0044170753099024296
0.97976440191268921 0.55954986810684204 0.0034519569016993046
0.13297848403453827 0.52066117525100708 0.1833101212978363
0.16291308403015137 0.51743447780609131 0.18487381935119629
0.19909946620464325 0.50867676734924316 0.18482561409473419
0.23962976038455963 0.49827715754508972 0.18334120512008667
0.29519078135490417 0.50878274440765381 0.17941392958164215
0.38284710049629211 0.53825068473815918 0.17091472446918488
0.48657268285751343 0.57211357355117798 0.15647901594638824
0.59646463394165039 0.60741335153579712 0.13261568546295166
0.70971071720123291 0.64216214418411255 0.10068918764591217
0.79710114002227783 0.65434831380844116 0.069409027695655823
0.86234766244888306 0.64814019203186035 0.03873913362622261
0.92006403207778931 0.64096236228942871 0.020460166037082672
0.97457361221313477 0.63642770051956177 0.0098205413669347763
0.17760543525218964 0.58547341823577881 0.21198037266731262
0.19740605354309082 0.58389198780059814 0.21215449273586273
0.22950917482376099 0.57723206281661987 0.21273171901702881
0.26547649502754211 0.5665287971496582 0.21145984530448914
0.3079429566860199 0.56230735778808594 0.20888026058673859
0.37821033596992493 0.58523833751678467 0.20402838289737701
0.47024798393249512 0.61370724439620972 0.20025971531867981
0.57099217176437378 0.64400315284729004 0.19439050555229187
0.66813069581985474 0.67431759834289551 0.18499983847141266
0.77171558141708374 0.70757746696472168 0.17205415666103363
0.8524700403213501 0.72170960903167725 0.15359365940093994
0.91263926029205322 0.71854007244110107 0.12615853548049927
0.9684901237487793 0.71489489078521729 0.10094688087701797
0.23533232510089874 0.65192824602127075 0.24980264902114868
0.25334218144416809 0.64896982908248901 0.25358754396438599
0.27571332454681396 0.64488875865936279 0.25041395425796509
0.30687412619590759 0.63546741008758545 0.24948042631149292
0.33880501985549927 0.62631642818450928 0.24590085446834564
0.3932323157787323 0.63561993837356567 0.24338449537754059
0.47208604216575623 0.65904980897903442 0.24522416293621063
0.56067311763763428 0.68557006120681763 0.2488497793674469
0.64495581388473511 0.71146351099014282 0.25083768367767334
0.73218518495559692 0.73776650428771973 0.24814866483211517
0.82232975959777832 0.76585996150970459 0.24966472387313843
0.90106230974197388 0.78504902124404907 0.24731850624084473
0.95893973112106323 0.78657287359237671 0.23376321792602539
0.31382119655609131 0.71739274263381958 0.30787426233291626
0.32468882203102112 0.7158820629119873 0.30775189399719238
0.34410354495048523 0.71255558729171753 0.31025362014770508
0.36633065342903137 0.70618194341659546 0.3066958487033844
0.3920656144618988 0.6979295015335083 0.30124425888061523
0.42875120043754578 0.69436508417129517 0.29961919784545898
0.49156707525253296 0.71067923307418823 0.30752864480018616
0.56391078233718872 0.7328609824180603 0.31472766399383545
0.6386602520942688 0.75459533929824829 0.32018595933914185
0.71565288305282593 0.77739441394805908 0.32543164491653442
0.7946123480796814 0.8018486499786377 0.3353324830532074
0.8726227879524231 0.82624942064285278 0.34096187353134155
0.9464682936668396 0.84913718700408936 0.35153335332870483
0.41438964009284973 0.79062432050704956 0.3995940089225769
0.42265984416007996 0.7894824743270874 0.40140858292579651
0.43434423208236694 0.78648054599761963 0.40087029337882996
0.45115476846694946 0.78346139192581177 0.39823666214942932
0.47271046042442322 0.77849632501602173 0.39588448405265808
0.49944266676902771 0.77306878566741943 0.39493289589881897
0.54259032011032104 0.77936416864395142 0.40000417828559875
0.59916990995407104 0.79622459411621094 0.40837991237640381
0.65872162580490112 0.81378024816513062 0.41719141602516174
0.72323572635650635 0.83120924234390259 0.42656517028808594
0.78842389583587646 0.84989625215530396 0.43612116575241089
0.85371166467666626 0.86759763956069946 0.44404751062393188
0.91883677244186401 0.88666409254074097 0.45304286479949951
0.54086935520172119 0.87106132507324219 0.53499096632003784
0.54490911960601807 0.86961078643798828 0.53431636095046997
0.55095326900482178 0.86740511655807495 0.53042817115783691
0.56519562005996704 0.86759293079376221 0.53358149528503418
0.58376747369766235 0.86614543199539185 0.53605836629867554
0.60557860136032104 0.86296194791793823 0.53897231817245483
0.63268005847930908 0.86393463611602783 0.54199111461639404
0.67000532150268555 0.8735542893409729 0.54861181974411011
0.71434402465820312 0.886016845703125 0.55680721998214722
0.76217347383499146 0.8980516791343689 0.56413143873214722
0.81308436393737793 0.90985965728759766 0.57050859928131104
0.86404836177825928 0.92180031538009644 0.57821887731552124
0.91401010751724243 0.93273073434829712 0.58331853151321411
0.082444764673709869 0.070546902716159821 0.14745889604091644
0.12530182301998138 0.072966769337654114 0.14887711405754089
0.19002631306648254 0.06684565544128418 0.15105125308036804
0.28235322237014771 0.045845974236726761 0.15204243361949921
0.39457345008850098 0.016128046438097954 0.15572625398635864
0.50461834669113159 0.0036872264463454485 0.15855404734611511
0.61400836706161499 0.0030931958463042974 0.16021111607551575
0.71386134624481201 0.0038805643562227488 0.16364844143390656
0.80131268501281738 0.0043524946086108685 0.16088950634002686
0.87593680620193481 0.0051852804608643055 0.15535090863704681
0.9388313889503479 0.0051941666752099991 0.15145955979824066
0.98908698558807373 0.014029514044523239 0.1490975022315979
1 0.081030718982219696 0.15062806010246277
0.080418728291988373 0.11682486534118652 0.15323105454444885
0.12722252309322357 0.12230554968118668 0.1567823737859726
0.1929769366979599 0.12377850711345673 0.15857453644275665
0.28301841020584106 0.11665851622819901 0.15961727499961853
0.39011085033416748 0.092930980026721954 0.15971893072128296
0.50378537178039551 0.061672944575548172 0.16051560640335083
0.61248123645782471 0.036323383450508118 0.15946012735366821
0.71207666397094727 0.02209065668284893 0.1583356112241745
0.79964178800582886 0.021692970767617226 0.15447378158569336
0.87391722202301025 0.028195040300488472 0.15034912526607513
0.93733072280883789 0.051989715546369553 0.14673918485641479
0.98578828573226929 0.10327699035406113 0.14609237015247345
0.99987363815307617 0.15981209278106689 0.14932619035243988
0.07680714875459671 0.18509027361869812 0.15907703340053558
0.12585607171058655 0.18380627036094666 0.16416700184345245
0.19367653131484985 0.18902462720870972 0.16686275601387024
0.2815244197845459 0.19508445262908936 0.1648230105638504
0.38642528653144836 0.18883505463600159 0.16389742493629456
0.49734431505203247 0.17687095701694489 0.16315707564353943
0.60309135913848877 0.16594229638576508 0.15714626014232635
0.70246845483779907 0.15553727746009827 0.15068115293979645
0.78757274150848389 0.15599842369556427 0.14477379620075226
0.86289119720458984 0.16489702463150024 0.14000485837459564
0.92752569913864136 0.18574187159538269 0.13634549081325531
0.97979259490966797 0.21118445694446564 0.13662271201610565
0.99892419576644897 0.24542593955993652 0.14301702380180359
0.096103042364120483 0.26490312814712524 0.1700894832611084
0.13374082744121552 0.26134985685348511 0.17508725821971893
0.19707959890365601 0.26510867476463318 0.1774781197309494
0.27314454317092896 0.27342960238456726 0.17024041712284088
0.38022503256797791 0.28703024983406067 0.1664116382598877
0.48764997720718384 0.28476902842521667 0.1605500727891922
0.58988350629806519 0.27726945281028748 0.14570300281047821
0.6864815354347229 0.27682581543922424 0.13529324531555176
0.77015703916549683 0.28004452586174011 0.12640824913978577
0.84708082675933838 0.28370115160942078 0.12042476981878281
0.91455972194671631 0.29575347900390625 0.11617289483547211
0.97350358963012695 0.3121630847454071 0.1191222220659256
0.99867647886276245 0.33342540264129639 0.12714390456676483
0.12325282394886017 0.34434404969215393 0.18454840779304504
0.1561514288187027 0.34133294224739075 0.19018436968326569
0.20396146178245544 0.33533674478530884 0.18992578983306885
0.26032260060310364 0.33694714307785034 0.18277356028556824
0.35893583297729492 0.36539122462272644 0.17500840127468109
