luts/negative_new/fuji_800z_++.cube
# Created by: G'MIC (https://gmic.eu)
TITLE "fuji_800z_++"
# LUT size
LUT_3D_SIZE 7
# Data domain
DOMAIN_MIN 0.0 0.0 0.0
DOMAIN_MAX 1.0 1.0 1.0
# LUT data points
0.10179699212312698 0.13159157335758209 0.097945027053356171
0.19168081879615784 0.13587017357349396 0.096458122134208679
0.33967694640159607 0.13071314990520477 0.097707204520702362
0.55133908987045288 0.08375181257724762 0.092500351369380951
0.77057415246963501 0.020613307133316994 0.077734313905239105
0.93742859363555908 0.016828933730721474 0.056261353194713593
0.99997413158416748 0.10375891625881195 0.033715881407260895
0.1012808233499527 0.20055577158927917 0.11148792505264282
0.16851049661636353 0.20740383863449097 0.10639630258083344
0.33274355530738831 0.22395627200603485 0.09091503918170929
0.54558151960372925 0.21804127097129822 0.076413817703723907
0.75594747066497803 0.20309543609619141 0.055951450020074844
0.92195963859558105 0.21056252717971802 0.030180508270859718
0.99969696998596191 0.24117287993431091 0.014368483796715736
0.093692734837532043 0.30686011910438538 0.13223607838153839
0.15518884360790253 0.30317598581314087 0.13227753341197968
0.30445477366447449 0.34996786713600159 0.1080077663064003
0.5395972728729248 0.39202085137367249 0.044653140008449554
0.73340737819671631 0.3829534649848938 0.013928327709436417
0.90206688642501831 0.38588973879814148 0.0042510689236223698
0.9957587718963623 0.40043148398399353 0.0056357290595769882
0.077342823147773743 0.43203973770141602 0.15460866689682007
0.15018507838249207 0.42224150896072388 0.15936416387557983
0.26874402165412903 0.44574865698814392 0.14420449733734131
0.49089023470878601 0.51743155717849731 0.084548607468605042
0.7345854640007019 0.56897324323654175 0.0052832062356173992
0.88258373737335205 0.55053490400314331 0.0042349421419203281
0.99171215295791626 0.54768717288970947 0.001544892555102706
0.11266373097896576 0.56561702489852905 0.18356946110725403
0.18067002296447754 0.55492806434631348 0.18782685697078705
0.26985752582550049 0.54596638679504395 0.18413925170898438
0.45362973213195801 0.60025042295455933 0.16765563189983368
0.6749153733253479 0.66389656066894531 0.12446229159832001
0.87862002849578857 0.70893955230712891 0.056521967053413391
0.98622888326644897 0.70341968536376953 0.019829036667943001
0.27732095122337341 0.70482099056243896 0.26490595936775208
0.30742043256759644 0.6987764835357666 0.25800344347953796
0.36621898412704468 0.6833113431930542 0.2568938136100769
0.48346850275993347 0.70310831069946289 0.25758787989616394
0.65491956472396851 0.74420827627182007 0.26055285334587097
0.82938480377197266 0.78760725259780884 0.26799795031547546
0.97541660070419312 0.8349650502204895 0.27677738666534424
0.5658988356590271 0.85912120342254639 0.49255585670471191
0.57862222194671631 0.85723960399627686 0.49235421419143677
0.61200511455535889 0.85114437341690063 0.49715602397918701
0.663116455078125 0.8495597243309021 0.49949178099632263
0.75306499004364014 0.8714643120765686 0.51739025115966797
0.85137033462524414 0.89738738536834717 0.53137445449829102
0.94512921571731567 0.92533320188522339 0.54365259408950806
0.11374563723802567 0.13999006152153015 0.16975568234920502
0.19543395936489105 0.1410040408372879 0.1726720929145813
0.36555948853492737 0.12675027549266815 0.18483340740203857
0.58013367652893066 0.051940303295850754 0.1852700263261795
0.7856256365776062 0.0097707109525799751 0.17949981987476349
0.94273471832275391 0.0074380012229084969 0.16871753334999084
0.99965697526931763 0.067002825438976288 0.16207589209079742
0.1110571026802063 0.22183318436145782 0.18285608291625977
0.19226045906543732 0.22320200502872467 0.18559721112251282
0.35839641094207764 0.22542069852352142 0.1827799379825592
0.56827586889266968 0.20667438209056854 0.17874050140380859
0.77648532390594482 0.18339748680591583 0.16720755398273468
0.93521463871002197 0.18649463355541229 0.15538795292377472
0.9981696605682373 0.2271496057510376 0.14956976473331451
0.11856602877378464 0.34579789638519287 0.19923323392868042
0.1943841427564621 0.33684954047203064 0.19963371753692627
0.33664876222610474 0.36399000883102417 0.19311776757240295
0.55110841989517212 0.38414886593818665 0.16096648573875427
0.74844765663146973 0.37974432110786438 0.13235802948474884
0.90913981199264526 0.38334929943084717 0.12144198268651962
0.99881845712661743 0.400901198387146 0.12191877514123917
0.13830941915512085 0.47020807862281799 0.21663486957550049
0.20012974739074707 0.45580267906188965 0.21798151731491089
0.29957914352416992 0.45966997742652893 0.2099890261888504
0.50889164209365845 0.52516853809356689 0.18754401803016663
0.73813271522521973 0.56584388017654419 0.13783919811248779
0.88742285966873169 0.54943752288818359 0.080443091690540314
0.99438178539276123 0.5494539737701416 0.067841984331607819
0.17964260280132294 0.59249031543731689 0.24148403108119965
0.2342439591884613 0.57960015535354614 0.2424946129322052
0.30296701192855835 0.55931597948074341 0.23524078726768494
0.46231004595756531 0.60331588983535767 0.23038002848625183
0.68172717094421387 0.66568619012832642 0.22102634608745575
0.87654387950897217 0.70651185512542725 0.19696401059627533
0.98744654655456543 0.70011752843856812 0.14558479189872742
0.31755268573760986 0.71669697761535645 0.31368386745452881
0.34434971213340759 0.71101158857345581 0.30752092599868774
0.39084154367446899 0.69529569149017334 0.29799768328666687
0.49149990081787109 0.70248019695281982 0.29706194996833801
0.6581236720085144 0.74491649866104126 0.3162740170955658
0.82734537124633789 0.78925496339797974 0.33547064661979675
0.97102099657058716 0.83307009935379028 0.34691080451011658
0.5767747163772583 0.86185723543167114 0.51714438199996948
0.58892697095870972 0.8584294319152832 0.51558369398117065
0.61930036544799805 0.85454761981964111 0.51698988676071167
0.66662454605102539 0.85169023275375366 0.51898467540740967
0.75307440757751465 0.87015795707702637 0.53641623258590698
0.85001266002655029 0.89651650190353394 0.55380159616470337
0.94472938776016235 0.92439466714859009 0.57149302959442139
0.14163906872272491 0.15090037882328033 0.29777109622955322
0.22953775525093079 0.1565202921628952 0.30413243174552917
0.37722784280776978 0.14644159376621246 0.31677144765853882
0.62736248970031738 0.034454435110092163 0.33773636817932129
0.83612382411956787 0.0035431056749075651 0.34443089365959167
0.96829605102539062 0.0033056221436709166 0.33168697357177734
0.99985998868942261 0.056018590927124023 0.33308911323547363
0.11894185841083527 0.2223295271396637 0.30699709057807922
0.21806463599205017 0.2324206531047821 0.3158949613571167
0.38241606950759888 0.23501589894294739 0.32537740468978882
0.63021206855773926 0.19587713479995728 0.34133696556091309
0.82565134763717651 0.15477217733860016 0.33742886781692505
0.95579665899276733 0.17392107844352722 0.33181661367416382
0.99998563528060913 0.225520059466362 0.33340740203857422
0.070811331272125244 0.38110357522964478 0.32635655999183655
0.21367371082305908 0.38432228565216064 0.33365842700004578
0.38435369729995728 0.38210579752922058 0.33765777945518494
0.60067605972290039 0.38681310415267944 0.33730787038803101
0.78702455759048462 0.38211160898208618 0.33339565992355347
0.92715996503829956 0.38223466277122498 0.32061004638671875
0.99608778953552246 0.40062558650970459 0.32226300239562988
0.18379564583301544 0.53838372230529785 0.34893074631690979
0.27589499950408936 0.53150290250778198 0.35083827376365662
0.38280403614044189 0.50957536697387695 0.34492760896682739
0.5544281005859375 0.54337352514266968 0.3413880467414856
0.74885249137878418 0.55861490964889526 0.32357913255691528
0.89515239000320435 0.54617100954055786 0.29523691534996033
0.98850506544113159 0.54815220832824707 0.29862233996391296
0.30076310038566589 0.64301323890686035 0.36982175707817078
0.33547034859657288 0.63239377737045288 0.36381682753562927
0.39422991871833801 0.6048087477684021 0.35217377543449402
0.49993613362312317 0.61298286914825439 0.34667026996612549
0.70675861835479736 0.67620724439620972 0.36547204852104187
0.87436836957931519 0.69782930612564087 0.36220589280128479
0.98408693075180054 0.68889647722244263 0.31978201866149902
0.39519521594047546 0.74077713489532471 0.41259849071502686
0.41403540968894958 0.73566371202468872 0.40743529796600342
0.45452079176902771 0.72220563888549805 0.39695769548416138
0.51530653238296509 0.7060888409614563 0.38012427091598511
0.66907376050949097 0.74485784769058228 0.40605199337005615
0.83279097080230713 0.79383689165115356 0.44374629855155945
0.97450590133666992 0.83527040481567383 0.46514251828193665
0.59926599264144897 0.8700559139251709 0.57069236040115356
0.61151725053787231 0.86810016632080078 0.57159298658370972
0.63592612743377686 0.86256355047225952 0.56509113311767578
0.67862725257873535 0.85630577802658081 0.56796479225158691
0.75395870208740234 0.86873620748519897 0.5780910849571228
0.85218292474746704 0.89541482925415039 0.5993112325668335
0.94450420141220093 0.92448717355728149 0.61900085210800171
0.18838869035243988 0.16321159899234772 0.46634864807128906
0.27666428685188293 0.16697154939174652 0.472675621509552
0.42074120044708252 0.16674603521823883 0.48871210217475891
0.61748194694519043 0.13140249252319336 0.51552397012710571
0.83135795593261719 0.014958340674638748 0.53259891271591187
0.98847520351409912 0.0063932980410754681 0.52301961183547974
1 0.1420903205871582 0.51034486293792725
0.17718425393104553 0.23652631044387817 0.47473594546318054
0.26908892393112183 0.2447303831577301 0.48440733551979065
0.43285167217254639 0.25027021765708923 0.49695152044296265
0.62702006101608276 0.23952455818653107 0.52279937267303467
0.83017665147781372 0.20185078680515289 0.53513073921203613
0.98208200931549072 0.21790236234664917 0.52655047178268433
0.9996914267539978 0.28367123007774353 0.52273809909820557
0.077312901616096497 0.36071312427520752 0.47943183779716492
0.21951320767402649 0.36827379465103149 0.48723521828651428
0.41651290655136108 0.3888038694858551 0.50302135944366455
0.62509000301361084 0.39963904023170471 0.52501589059829712
0.81972229480743408 0.4089314341545105 0.53945732116699219
0.94996923208236694 0.42593878507614136 0.5333327054977417
0.99918854236602783 0.44225165247917175 0.52795112133026123
0.11971649527549744 0.56774365901947021 0.51601803302764893
0.26697120070457458 0.56880098581314087 0.51961630582809448
0.43847092986106873 0.56627100706100464 0.52488988637924194
0.61340075731277466 0.5700080394744873 0.53253757953643799
0.77994036674499512 0.57182556390762329 0.5318063497543335
0.90840703248977661 0.5711132287979126 0.51568061113357544
0.99359214305877686 0.57305747270584106 0.51564639806747437
0.38623893260955811 0.70212030410766602 0.5463218092918396
0.43497467041015625 0.69597995281219482 0.54428988695144653
0.52490544319152832 0.68350398540496826 0.54376429319381714
0.58902233839035034 0.65536248683929443 0.51926064491271973
0.73586320877075195 0.68864184617996216 0.53718769550323486
0.87801861763000488 0.69771289825439453 0.52937203645706177
0.9830094575881958 0.68678939342498779 0.49065393209457397
0.51325833797454834 0.78242373466491699 0.57329219579696655
0.53292030096054077 0.77767467498779297 0.56916052103042603
0.56680130958557129 0.76718580722808838 0.55781573057174683
0.59633058309555054 0.74025183916091919 0.52287083864212036
0.68915039300918579 0.74662834405899048 0.52537542581558228
0.84261715412139893 0.79534882307052612 0.5664600133895874
0.97009849548339844 0.83193916082382202 0.58602726459503174
0.62995225191116333 0.88519829511642456 0.64946174621582031
0.64076465368270874 0.88413429260253906 0.646686851978302
0.66666018962860107 0.87949550151824951 0.64592641592025757
0.7005687952041626 0.87023639678955078 0.63690102100372314
0.75652492046356201 0.86695373058319092 0.63560038805007935
0.85292762517929077 0.89599120616912842 0.66218310594558716
0.94302034378051758 0.9264950156211853 0.68455833196640015
0.27767500281333923 0.18503792583942413 0.63942456245422363
0.34773403406143188 0.1809094101190567 0.64429962635040283
0.4827582836151123 0.18158477544784546 0.65583431720733643
0.64385724067687988 0.19047476351261139 0.67134672403335571
0.81340467929840088 0.17292943596839905 0.69455105066299438
0.95783501863479614 0.16274373233318329 0.69676321744918823
1 0.23541992902755737 0.68182897567749023
0.26487618684768677 0.25487712025642395 0.64514374732971191
0.34102916717529297 0.2567165195941925 0.65009325742721558
0.48050937056541443 0.26468512415885925 0.65932184457778931
0.64848214387893677 0.28055784106254578 0.67164367437362671
0.81346577405929565 0.28677389025688171 0.69588613510131836
0.95574504137039185 0.29793936014175415 0.7015799880027771
0.9995577335357666 0.3522498607635498 0.69538670778274536
0.18394568562507629 0.36096116900444031 0.64723271131515503
0.30055266618728638 0.37607905268669128 0.65154629945755005
0.46237245202064514 0.39441797137260437 0.65868693590164185
0.64309418201446533 0.42076313495635986 0.67610019445419312
0.80140239000320435 0.447835773229599 0.69460201263427734
0.94620400667190552 0.46496894955635071 0.70379334688186646
0.99882322549819946 0.49935668706893921 0.70152664184570312
0.13515016436576843 0.52524673938751221 0.64596223831176758
0.2544567883014679 0.52612757682800293 0.65091979503631592
0.4211060106754303 0.52933323383331299 0.65423166751861572
0.61620992422103882 0.55822616815567017 0.67181289196014404
0.78605055809020996 0.58881783485412598 0.6938554048538208
0.92345196008682251 0.60768651962280273 0.70930421352386475
0.99505496025085449 0.61376303434371948 0.70749199390411377
0.36647948622703552 0.70813077688217163 0.68548929691314697
0.42933917045593262 0.70697486400604248 0.68806779384613037
0.53714072704315186 0.70147305727005005 0.69035685062408447
0.65633326768875122 0.70141881704330444 0.69221299886703491
0.77241736650466919 0.70601528882980347 0.69978588819503784
0.89490115642547607 0.7140231728553772 0.70063883066177368
0.98914843797683716 0.70923703908920288 0.68984013795852661
0.58267354965209961 0.82462853193283081 0.7193712592124939
0.6057010293006897 0.82268333435058594 0.71934992074966431
0.64651882648468018 0.81719958782196045 0.71624153852462769
0.70060092210769653 0.80065232515335083 0.70219093561172485
0.74281305074691772 0.77156567573547363 0.6750226616859436
0.86331480741500854 0.80782341957092285 0.70295101404190063
0.97168493270874023 0.82324820756912231 0.7013247013092041
0.67810124158859253 0.90765970945358276 0.75146609544754028
0.69007390737533569 0.90795773267745972 0.75410276651382446
0.70757913589477539 0.8989250659942627 0.74627423286437988
0.74375361204147339 0.89615380764007568 0.73837459087371826
0.778328537940979 0.88281738758087158 0.72233635187149048
0.84838753938674927 0.89124214649200439 0.72838455438613892
0.94632315635681152 0.92846375703811646 0.76327818632125854
0.40115374326705933 0.22322091460227966 0.79312944412231445
0.46116924285888672 0.2245028018951416 0.79849636554718018
0.56900084018707275 0.23783305287361145 0.79930210113525391
0.68761610984802246 0.2540302574634552 0.8054623007774353
0.82407498359680176 0.3061598539352417 0.81153911352157593
0.95029145479202271 0.32793539762496948 0.82769680023193359
0.99992531538009644 0.34889346361160278 0.82807087898254395
0.39805400371551514 0.28919553756713867 0.79489296674728394
0.45444861054420471 0.29200440645217896 0.79819697141647339
0.55906933546066284 0.30542761087417603 0.79977846145629883
0.69020324945449829 0.3293842077255249 0.80746400356292725
0.82338899374008179 0.37450847029685974 0.81274008750915527
0.94157534837722778 0.40315774083137512 0.82685333490371704
0.99668091535568237 0.41419455409049988 0.83170408010482788
0.36850446462631226 0.40138664841651917 0.79235595464706421
0.42731913924217224 0.40609478950500488 0.79177355766296387
0.54208385944366455 0.4226548969745636 0.79363590478897095
0.68290644884109497 0.45169919729232788 0.80412626266479492
0.81562399864196777 0.4924321174621582 0.81050580739974976
0.92924326658248901 0.51445645093917847 0.82349246740341187
0.99733442068099976 0.53984171152114868 0.8283233642578125
0.23478303849697113 0.5034145712852478 0.78087097406387329
0.32674828171730042 0.51123607158660889 0.78410941362380981
0.4915219247341156 0.53569597005844116 0.79002076387405396
0.65361505746841431 0.56676477193832397 0.80000025033950806
0.79952442646026611 0.60090517997741699 0.81166303157806396
0.91221171617507935 0.63427472114562988 0.82524532079696655
0.99317044019699097 0.64933961629867554 0.83384901285171509
0.34494361281394958 0.67036241292953491 0.78989541530609131
0.38801530003547668 0.6709522008895874 0.79092860221862793
0.48692566156387329 0.66600954532623291 0.79291164875030518
0.61301368474960327 0.66957265138626099 0.7941814661026001
0.76990330219268799 0.70003390312194824 0.80743533372879028
0.89768970012664795 0.73164331912994385 0.82757508754730225
0.99038100242614746 0.75337785482406616 0.84198665618896484
0.54375118017196655 0.82514047622680664 0.81879240274429321
0.57066637277603149 0.82340562343597412 0.81939208507537842
0.63732558488845825 0.82148939371109009 0.82245653867721558
0.71012455224990845 0.8222651481628418 0.82391160726547241
0.79692816734313965 0.82233119010925293 0.82819771766662598
0.88765650987625122 0.82880765199661255 0.83131146430969238
0.97958827018737793 0.83875179290771484 0.82931256294250488
0.7099604606628418 0.93074870109558105 0.84489572048187256
0.72821885347366333 0.93406921625137329 0.84796875715255737
0.74977898597717285 0.92719507217407227 0.84590679407119751
0.79203611612319946 0.92568075656890869 0.84719729423522949
0.82944124937057495 0.91327404975891113 0.83925187587738037
0.87069457769393921 0.90881407260894775 0.8270300030708313
0.9547916054725647 0.93352371454238892 0.84815061092376709
0.58428335189819336 0.3477027416229248 0.9234125018119812
0.61854439973831177 0.3538413941860199 0.92463225126266479
0.68419063091278076 0.36630520224571228 0.92386442422866821
0.77341598272323608 0.39574804902076721 0.92307198047637939
0.86702471971511841 0.44285780191421509 0.92089259624481201
0.95288670063018799 0.50338810682296753 0.92007142305374146
0.99702632427215576 0.52067124843597412 0.93111789226531982
0.58614683151245117 0.40478357672691345 0.92464530467987061
0.61710381507873535 0.40755251049995422 0.92385172843933105
0.6830296516418457 0.4217439591884613 0.92424875497817993
0.77149933576583862 0.44656482338905334 0.92088574171066284
0.86562883853912354 0.48895260691642761 0.9225916862487793
0.95511788129806519 0.53801840543746948 0.92399293184280396
0.99597501754760742 0.55515950918197632 0.93012487888336182
0.57598048448562622 0.4984281063079834 0.92068743705749512
0.60545605421066284 0.49743455648422241 0.91859060525894165
0.67637735605239868 0.50974452495574951 0.92002815008163452
0.76533377170562744 0.53143250942230225 0.91851240396499634
0.85858571529388428 0.5639643669128418 0.92021030187606812
0.94451910257339478 0.60316741466522217 0.91993254423141479
0.9956548810005188 0.62016481161117554 0.92906641960144043
0.51477867364883423 0.57956588268280029 0.91728073358535767
0.56516146659851074 0.58906596899032593 0.917735755443573
0.64510548114776611 0.60039275884628296 0.91734969615936279
0.74350863695144653 0.61721742153167725 0.91659247875213623
0.84295773506164551 0.64077097177505493 0.9127124547958374
0.93328434228897095 0.67410027980804443 0.92182832956314087
0.99366044998168945 0.69357103109359741 0.92630916833877563
0.4476202130317688 0.67832440137863159 0.91254293918609619
0.47860687971115112 0.67607563734054565 0.91202735900878906
0.55962526798248291 0.67766809463500977 0.91338849067687988
0.68589204549789429 0.69102996587753296 0.91548186540603638
0.81241464614868164 0.72024327516555786 0.91609036922454834
0.91811329126358032 0.75125378370285034 0.92289143800735474
0.98807966709136963 0.77556377649307251 0.92851442098617554
0.55529272556304932 0.82057809829711914 0.91854876279830933
0.57637417316436768 0.81786876916885376 0.91806280612945557
0.62448561191558838 0.81482785940170288 0.91846632957458496
0.68850064277648926 0.80717599391937256 0.91694188117980957
0.76961463689804077 0.80207246541976929 0.91741335391998291
0.8915412425994873 0.82598614692687988 0.9244314432144165
0.98136287927627563 0.86137610673904419 0.93384605646133423
0.68371939659118652 0.94149899482727051 0.9290958046913147
0.69662618637084961 0.93985581398010254 0.9278678297996521
0.72793716192245483 0.93937152624130249 0.92992794513702393
0.77616691589355469 0.93785494565963745 0.93050718307495117
0.83398520946502686 0.93816846609115601 0.93590807914733887
0.89946973323822021 0.93735450506210327 0.93506556749343872
0.96991300582885742 0.94958674907684326 0.93976449966430664
