luts/negative_new/fuji_160c_+.cube
# Created by: G'MIC (https://gmic.eu)
TITLE "fuji_160c_+"
# LUT size
LUT_3D_SIZE 5
# Data domain
DOMAIN_MIN 0.0 0.0 0.0
DOMAIN_MAX 1.0 1.0 1.0
# LUT data points
0.034334909170866013 0.046647045761346817 0.026341263204813004
0.26958295702934265 0.025607733055949211 0.028067944571375847
0.61061352491378784 0.0033483467996120453 0.018278757110238075
0.86575025320053101 0.022882558405399323 0.0077264523133635521
0.99797219038009644 0.26904568076133728 0.040340647101402283
0.00031913307611830533 0.27991199493408203 0.0084839165210723877
0.23927894234657288 0.28049999475479126 0.0052318945527076721
0.60111153125762939 0.2730383574962616 0.0052179074846208096
0.84309029579162598 0.30905786156654358 0.0047177784144878387
0.99615901708602905 0.4003218412399292 0.013344857841730118
0 0.55384236574172974 0.0081092687323689461
0.11463364213705063 0.54169076681137085 0.001949310302734375
0.5443604588508606 0.55140501260757446 0.0045041101984679699
0.80051654577255249 0.5663764476776123 0.0062611899338662624
0.98021417856216431 0.5846865177154541 0.0042113359086215496
0.01180134154856205 0.75387120246887207 0.11316655576229095
0.24824702739715576 0.7446100115776062 0.13209627568721771
0.51242029666900635 0.74183714389801025 0.13557735085487366
0.74258166551589966 0.75295048952102661 0.14666438102722168
0.9489586353302002 0.77954500913619995 0.1825859546661377
0.36543723940849304 0.93866938352584839 0.40489447116851807
0.43352881073951721 0.93806672096252441 0.41420251131057739
0.55845892429351807 0.93347364664077759 0.43423807621002197
0.72547835111618042 0.93686068058013916 0.45814764499664307
0.90000271797180176 0.9445335865020752 0.49381527304649353
0.075607404112815857 0.066527046263217926 0.21949923038482666
0.30530998110771179 0.046041660010814667 0.22614471614360809
0.63850593566894531 0.0039655799046158791 0.23228317499160767
0.87144565582275391 0.1457778662443161 0.27371904253959656
0.99857181310653687 0.33572205901145935 0.3229992687702179
0.0176430344581604 0.29562228918075562 0.24381518363952637
0.31568658351898193 0.30523210763931274 0.2532351016998291
0.62908941507339478 0.31626889109611511 0.25703483819961548
0.84918266534805298 0.36153480410575867 0.27435678243637085
0.99381840229034424 0.43736788630485535 0.31126537919044495
0.073728658258914948 0.57831907272338867 0.27529555559158325
0.29072058200836182 0.56458461284637451 0.26860010623931885
0.57085740566253662 0.56548130512237549 0.26270553469657898
0.80580329895019531 0.57472854852676392 0.2485281378030777
0.97961330413818359 0.59271490573883057 0.27569851279258728
0.18167756497859955 0.76283478736877441 0.31904003024101257
0.33146542310714722 0.75312632322311401 0.32455375790596008
0.54472756385803223 0.74965029954910278 0.33070296049118042
0.75122356414794922 0.75707519054412842 0.33357056975364685
0.9511522650718689 0.77507346868515015 0.34844091534614563
0.38863545656204224 0.93897902965545654 0.48092570900917053
0.4516044557094574 0.93731492757797241 0.48740217089653015
0.57269877195358276 0.93258661031723022 0.50109398365020752
0.72930127382278442 0.93610274791717529 0.52319073677062988
0.90509092807769775 0.94392484426498413 0.55312007665634155
0.17079232633113861 0.09620329737663269 0.51016318798065186
0.38212433457374573 0.10412829369306564 0.52675509452819824
0.65584176778793335 0.10280776768922806 0.55010950565338135
0.86880314350128174 0.11439033597707748 0.53303664922714233
0.99793004989624023 0.31664517521858215 0.5475994348526001
0.17765377461910248 0.29007545113563538 0.51928162574768066
0.39137974381446838 0.32509556412696838 0.53255856037139893
0.65100681781768799 0.3479512631893158 0.55274289846420288
0.85373765230178833 0.37220242619514465 0.55095070600509644
0.9933658242225647 0.45671215653419495 0.56886905431747437
0.19466096162796021 0.58609956502914429 0.55565905570983887
0.39722698926925659 0.58825349807739258 0.5623016357421875
0.63333415985107422 0.59902393817901611 0.56973552703857422
0.81526881456375122 0.60928636789321899 0.57205092906951904
0.97562277317047119 0.63126003742218018 0.58446389436721802
0.38792937994003296 0.78721290826797485 0.59535902738571167
0.47052118182182312 0.77796852588653564 0.58934330940246582
0.59591233730316162 0.76723295450210571 0.5739559531211853
0.76561719179153442 0.76417523622512817 0.56870764493942261
0.95275545120239258 0.77398306131362915 0.56344318389892578
0.45621106028556824 0.94640958309173584 0.63032710552215576
0.49211198091506958 0.94363892078399658 0.62525779008865356
0.59483855962753296 0.94074976444244385 0.63125723600387573
0.73536103963851929 0.93715459108352661 0.64127737283706665
0.91125977039337158 0.94309008121490479 0.66445446014404297
0.39817506074905396 0.16981549561023712 0.74785429239273071
0.51303279399871826 0.18103158473968506 0.75426101684570312
0.70213943719863892 0.24966701865196228 0.76430809497833252
0.86711561679840088 0.32191663980484009 0.77921837568283081
0.99323785305023193 0.35655245184898376 0.75552606582641602
0.40377011895179749 0.34873682260513306 0.74610435962677002
0.50757378339767456 0.36010509729385376 0.74843066930770874
0.68908560276031494 0.40595445036888123 0.76026791334152222
0.85194951295852661 0.45967179536819458 0.77990788221359253
0.98929083347320557 0.47160077095031738 0.76105630397796631
0.31568062305450439 0.53821545839309692 0.73550260066986084
0.43880435824394226 0.54507726430892944 0.74257612228393555
0.64992368221282959 0.59073197841644287 0.75739425420761108
0.82095640897750854 0.63721024990081787 0.7775464653968811
0.97849577665328979 0.64223843812942505 0.77464485168457031
0.39627248048782349 0.77491068840026855 0.77420651912689209
0.48101657629013062 0.778106689453125 0.77620899677276611
0.62987589836120605 0.78260773420333862 0.78073924779891968
0.80001538991928101 0.79665029048919678 0.78610813617706299
0.95849055051803589 0.80225414037704468 0.79167920351028442
0.51799952983856201 0.9534153938293457 0.80246484279632568
0.56596934795379639 0.94876885414123535 0.80397742986679077
0.66651320457458496 0.9471735954284668 0.8049197793006897
0.77341395616531372 0.94187438488006592 0.79698455333709717
0.92850977182388306 0.94641250371932983 0.80588805675506592
0.61169439554214478 0.39382323622703552 0.93761646747589111
0.66326737403869629 0.41400650143623352 0.94265997409820557
0.75854295492172241 0.45210564136505127 0.94126683473587036
0.87360435724258423 0.52581095695495605 0.94211387634277344
0.9897921085357666 0.56221556663513184 0.9460139274597168
0.60717630386352539 0.48946240544319153 0.93970787525177002
0.65250074863433838 0.49952757358551025 0.94292557239532471
0.74582177400588989 0.53190433979034424 0.93947732448577881
0.86853671073913574 0.58933579921722412 0.94296407699584961
0.98672538995742798 0.61531525850296021 0.94514483213424683
0.53864192962646484 0.60543709993362427 0.93588238954544067
0.60589170455932617 0.6213608980178833 0.93635660409927368
0.7174915075302124 0.64701950550079346 0.93655741214752197
0.84729963541030884 0.68872547149658203 0.93926137685775757
0.98042380809783936 0.71397137641906738 0.94570291042327881
0.47412464022636414 0.75600016117095947 0.93635076284408569
0.52410411834716797 0.75515937805175781 0.93393611907958984
0.6315382719039917 0.75493687391281128 0.93212807178497314
0.81607598066329956 0.80111116170883179 0.93943238258361816
0.96572685241699219 0.83792537450790405 0.94566637277603149
0.53165805339813232 0.94764029979705811 0.95166784524917603
0.57749122381210327 0.94640529155731201 0.94963449239730835
0.67830055952072144 0.94738668203353882 0.94973427057266235
0.81276637315750122 0.94702756404876709 0.95215851068496704
0.95367980003356934 0.95596277713775635 0.95545130968093872
