luts/negative_new/fuji_160c_+.cube
# Created by: G'MIC (https://gmic.eu)
TITLE "fuji_160c_+"
# LUT size
LUT_3D_SIZE 7
# Data domain
DOMAIN_MIN 0.0 0.0 0.0
DOMAIN_MAX 1.0 1.0 1.0
# LUT data points
0.034334909170866013 0.046647045761346817 0.026341263204813004
0.17227990925312042 0.040227912366390228 0.027257239446043968
0.3809535801410675 0.0072480593807995319 0.025508657097816467
0.61061352491378784 0.0033483467996120453 0.018278757110238075
0.7935062050819397 0.0021319221705198288 0.010766168124973774
0.92560100555419922 0.11618689447641373 0.0096721723675727844
0.99797219038009644 0.26904568076133728 0.040340647101402283
0.0026544309221208096 0.18111728131771088 0.019277729094028473
0.14276207983493805 0.18155115842819214 0.014412255026400089
0.38281646370887756 0.17660364508628845 0.0070590749382972717
0.60926187038421631 0.15846243500709534 0.0046216030605137348
0.78433489799499512 0.17754843831062317 0.0039855958893895149
0.91515541076660156 0.2561696469783783 0.0067359772510826588
0.99706250429153442 0.34369751811027527 0.023522157222032547
0 0.37756842374801636 0.0076143154874444008
0.037969086319208145 0.36850264668464661 0.00099840352777391672
0.34020426869392395 0.37759554386138916 0.0020558226387947798
0.58556002378463745 0.38146457076072693 0.0037381788715720177
0.76178216934204102 0.37965101003646851 0.0031512691639363766
0.89343029260635376 0.41864588856697083 0.0078431377187371254
0.99397927522659302 0.46157753467559814 0.0062242094427347183
0 0.55384236574172974 0.0081092687323689461
0.0042253979481756687 0.54591012001037598 0.002644961467012763
0.29721525311470032 0.543892502784729 0.004161834716796875
0.5443604588508606 0.55140501260757446 0.0045041101984679699
0.72816765308380127 0.56223803758621216 0.006159673910588026
0.86490029096603394 0.57243186235427856 0.004081306979060173
0.98021417856216431 0.5846865177154541 0.0042113359086215496
5.6846467487048358e-05 0.69040596485137939 0.030660845339298248
0.041699726134538651 0.68759483098983765 0.042487289756536484
0.30705207586288452 0.67944371700286865 0.058196078985929489
0.51475298404693604 0.68150115013122559 0.055982239544391632
0.68371152877807617 0.68966847658157349 0.054112900048494339
0.83285188674926758 0.70904314517974854 0.048107702285051346
0.96125984191894531 0.71628665924072266 0.063093714416027069
0.14531813561916351 0.81520849466323853 0.20170979201793671
0.24256666004657745 0.8117331862449646 0.20585376024246216
0.37673908472061157 0.80427092313766479 0.21748752892017365
0.51867926120758057 0.80339217185974121 0.22006882727146149
0.66381090879440308 0.80765408277511597 0.23252259194850922
0.79280507564544678 0.8143312931060791 0.24537380039691925
0.93290942907333374 0.83575397729873657 0.27329489588737488
0.36543723940849304 0.93866938352584839 0.40489447116851807
0.40302428603172302 0.93953442573547363 0.41108471155166626
0.47155365347862244 0.93625116348266602 0.42297148704528809
0.55845892429351807 0.93347364664077759 0.43423807621002197
0.66978877782821655 0.93413567543029785 0.44611662626266479
0.78358131647109985 0.93960541486740112 0.46821117401123047
0.90000271797180176 0.9445335865020752 0.49381527304649353
0.058967411518096924 0.057389680296182632 0.13474741578102112
0.18808093667030334 0.049974061548709869 0.13471333682537079
0.40188327431678772 0.01167004182934761 0.13532741367816925
0.62630927562713623 0.0062033561989665031 0.15475986897945404
0.80068254470825195 0.068180620670318604 0.17624843120574951
0.92395079135894775 0.20259253680706024 0.19605664908885956
0.99785298109054565 0.30770066380500793 0.21944437921047211
0.026551699265837669 0.19296418130397797 0.14615683257579803
0.19782355427742004 0.2005736380815506 0.15110693871974945
0.41208088397979736 0.19701318442821503 0.14884443581104279
0.62246197462081909 0.20642399787902832 0.15457327663898468
0.78859573602676392 0.23577983677387238 0.16449111700057983
0.91117697954177856 0.30037385225296021 0.17655995488166809
0.99664759635925293 0.37063604593276978 0.21143099665641785
0.0059347115457057953 0.39724117517471313 0.15035358071327209
0.14472609758377075 0.3893754780292511 0.15000276267528534
0.39144435524940491 0.38953834772109985 0.14434505999088287
0.60324263572692871 0.39636081457138062 0.12053526192903519
0.76738435029983521 0.40004059672355652 0.12374201416969299
0.89708644151687622 0.43322563171386719 0.14681251347064972
0.98870718479156494 0.47517678141593933 0.19270086288452148
0.0031182533130049706 0.56740069389343262 0.15055595338344574
0.079929500818252563 0.55986511707305908 0.15501680970191956
0.34167081117630005 0.55028331279754639 0.15469524264335632
0.55573886632919312 0.55660164356231689 0.15143120288848877
0.73029863834381104 0.56902098655700684 0.13273943960666656
0.86837196350097656 0.57416480779647827 0.11655886471271515
0.97836881875991821 0.5871003270149231 0.15801854431629181
0.011308228597044945 0.69904118776321411 0.19709658622741699
0.15837015211582184 0.69419360160827637 0.20392404496669769
0.34925153851509094 0.68394297361373901 0.21006888151168823
0.53238654136657715 0.68540716171264648 0.21392147243022919
0.68987226486206055 0.69262200593948364 0.21286740899085999
0.83272218704223633 0.70550072193145752 0.21250194311141968
0.96309149265289307 0.71068078279495239 0.22060699760913849
0.20617327094078064 0.81790381669998169 0.28846049308776855
0.28247082233428955 0.81338667869567871 0.29451203346252441
0.39796191453933716 0.80594676733016968 0.29535916447639465
0.5334741473197937 0.80404043197631836 0.30399155616760254
0.66808861494064331 0.80769234895706177 0.30641639232635498
0.79736846685409546 0.81595653295516968 0.32320329546928406
0.93421477079391479 0.83402371406555176 0.34304690361022949
0.37928172945976257 0.94003450870513916 0.44594454765319824
0.41430953145027161 0.93938136100769043 0.45016258955001831
0.47853592038154602 0.93520736694335938 0.45746335387229919
0.56964939832687378 0.93335658311843872 0.47053053975105286
0.67101967334747314 0.93307948112487793 0.4789072573184967
0.78615856170654297 0.93939942121505737 0.50474411249160767
0.90357714891433716 0.94419485330581665 0.5259939432144165
0.089159004390239716 0.073096469044685364 0.31658056378364563
0.23845614492893219 0.072605147957801819 0.32481145858764648
0.42914837598800659 0.04478677362203598 0.33823463320732117
0.63854598999023438 0.0036357205826789141 0.32817763090133667
0.81122928857803345 0.025165228173136711 0.33707082271575928
0.93009716272354126 0.20091836154460907 0.36596310138702393
0.99927407503128052 0.3437504768371582 0.41228196024894714
0.09028894454240799 0.19451338052749634 0.33030053973197937
0.24362200498580933 0.21313050389289856 0.3429810106754303
0.44471955299377441 0.22007468342781067 0.34838190674781799
0.64063465595245361 0.20426088571548462 0.34979608654975891
0.80035513639450073 0.24733036756515503 0.36290541291236877
0.91918987035751343 0.3315805196762085 0.38830900192260742
0.99644631147384644 0.41628274321556091 0.42437103390693665
0.018875749781727791 0.40153270959854126 0.35548850893974304
0.22916767001152039 0.40896731615066528 0.35951724648475647
0.4415164589881897 0.41283026337623596 0.36755716800689697
0.62939333915710449 0.42182180285453796 0.36990424990653992
0.77407974004745483 0.44232895970344543 0.37817788124084473
0.89570897817611694 0.46921908855438232 0.38354134559631348
0.98889219760894775 0.50361758470535278 0.41122135519981384
0.14138802886009216 0.59038764238357544 0.38521936535835266
0.28809714317321777 0.58609211444854736 0.38729783892631531
0.42966821789741516 0.5724683403968811 0.37874439358711243
0.59201455116271973 0.57744419574737549 0.36923691630363464
0.7425721287727356 0.57884204387664795 0.36320009827613831
0.86953592300415039 0.58433634042739868 0.35825648903846741
0.97774744033813477 0.60216444730758667 0.38142842054367065
0.26157468557357788 0.71408170461654663 0.40661877393722534
0.31522122025489807 0.71145528554916382 0.39714983105659485
0.4256136417388916 0.69963425397872925 0.39064425230026245
0.56041502952575684 0.69530385732650757 0.38793560862541199
0.70775717496871948 0.70175957679748535 0.39135438203811646
0.83873671293258667 0.70838910341262817 0.38796082139015198
0.96297883987426758 0.7092931866645813 0.38760760426521301
0.28849169611930847 0.8237113356590271 0.42409172654151917
0.34610816836357117 0.82188838720321655 0.42722246050834656
0.43745768070220947 0.8146355152130127 0.42918869853019714
0.54838418960571289 0.80907523632049561 0.42951023578643799
0.67597359418869019 0.81035608053207397 0.43410593271255493
0.80228787660598755 0.81971549987792969 0.44327166676521301
0.93458479642868042 0.83616346120834351 0.45870453119277954
0.39823627471923828 0.93799692392349243 0.52048522233963013
0.43387284874916077 0.93831020593643188 0.52411556243896484
0.49562498927116394 0.93716061115264893 0.53195822238922119
0.5767558217048645 0.9353833794593811 0.53945767879486084
0.67620319128036499 0.93384182453155518 0.55018132925033569
0.78718602657318115 0.9400220513343811 0.56724321842193604
0.90554136037826538 0.94396495819091797 0.58598035573959351
0.17079232633113861 0.09620329737663269 0.51016318798065186
0.29179280996322632 0.098862983286380768 0.51917088031768799
0.47528502345085144 0.10874753445386887 0.53512203693389893
0.65584176778793335 0.10280776768922806 0.55010950565338135
0.79894012212753296 0.088028356432914734 0.53548920154571533
0.92843377590179443 0.17868275940418243 0.53488337993621826
0.99793004989624023 0.31664517521858215 0.5475994348526001
0.20338165760040283 0.2236301451921463 0.51765292882919312
0.30904659628868103 0.23144353926181793 0.52341216802597046
0.48326942324638367 0.25117915868759155 0.53643965721130371
0.65314757823944092 0.25599467754364014 0.55232745409011841
0.79529213905334473 0.26390030980110168 0.54169368743896484
0.91785520315170288 0.31457647681236267 0.54740422964096069
0.99666613340377808 0.39958205819129944 0.55950123071670532
0.15525729954242706 0.37586638331413269 0.52020019292831421
0.28796625137329102 0.38897964358329773 0.52701836824417114
0.47026154398918152 0.41784164309501648 0.54198539257049561
0.6462634801864624 0.44209828972816467 0.55338108539581299
0.78221714496612549 0.44786942005157471 0.55680567026138306
0.89633560180664062 0.4799029529094696 0.57080870866775513
0.99026250839233398 0.52369314432144165 0.58552473783493042
0.19466096162796021 0.58609956502914429 0.55565905570983887
0.32007351517677307 0.58591544628143311 0.56011301279067993
0.47636693716049194 0.59035873413085938 0.56477195024490356
0.63333415985107422 0.59902393817901611 0.56973552703857422
0.7575874924659729 0.60463869571685791 0.57410448789596558
0.87088465690612793 0.61598056554794312 0.57375609874725342
0.97562277317047119 0.63126003742218018 0.58446389436721802
0.33588731288909912 0.73242151737213135 0.58522456884384155
0.39719796180725098 0.72903621196746826 0.58641666173934937
0.50855600833892822 0.72301900386810303 0.58178085088729858
0.6063159704208374 0.71297192573547363 0.57229793071746826
0.72053533792495728 0.71126455068588257 0.56706088781356812
0.84468924999237061 0.71196001768112183 0.5559583306312561
0.96366399526596069 0.71703755855560303 0.55547857284545898
0.41987654566764832 0.83833497762680054 0.60170960426330566
0.4530850350856781 0.83474129438400269 0.59836030006408691
0.50020116567611694 0.82992792129516602 0.58093720674514771
0.58236372470855713 0.82015019655227661 0.57376343011856079
0.6873353123664856 0.81460380554199219 0.57443660497665405
0.80842524766921997 0.82120966911315918 0.57739496231079102
0.93965393304824829 0.83644658327102661 0.58987808227539062
0.45621106028556824 0.94640958309173584 0.63032710552215576
0.47340273857116699 0.94607198238372803 0.62698328495025635
0.52062547206878662 0.94202786684036255 0.62584036588668823
0.59483855962753296 0.94074976444244385 0.63125723600387573
0.68232697248458862 0.9366382360458374 0.63717377185821533
0.79297769069671631 0.93837207555770874 0.64793658256530762
0.91125977039337158 0.94309008121490479 0.66445446014404297
0.31477451324462891 0.13701161742210388 0.67454200983047485
0.39557597041130066 0.1406790018081665 0.67981314659118652
0.53560322523117065 0.15849693119525909 0.68641954660415649
0.68308806419372559 0.21119262278079987 0.6988939642906189
0.80897724628448486 0.24531775712966919 0.71012425422668457
0.9062197208404541 0.26691329479217529 0.69548523426055908
0.99559259414672852 0.32063394784927368 0.68703562021255493
0.33201712369918823 0.2583375871181488 0.67384952306747437
0.40728023648262024 0.26248306035995483 0.67719537019729614
0.53710222244262695 0.27492645382881165 0.6856120228767395
0.68380248546600342 0.31981262564659119 0.69928956031799316
0.80135428905487061 0.34433162212371826 0.71055668592453003
0.90436404943466187 0.36105287075042725 0.70135623216629028
0.99579751491546631 0.39025458693504333 0.68963295221328735
0.29540693759918213 0.38547870516777039 0.67176568508148193
0.39048087596893311 0.40431016683578491 0.67672997713088989
0.52369362115859985 0.42670732736587524 0.6830066442489624
0.66862785816192627 0.46378839015960693 0.69602662324905396
0.78561574220657349 0.49011462926864624 0.71078741550445557
0.89265602827072144 0.49345129728317261 0.70673161745071411
0.98874020576477051 0.50805139541625977 0.69901531934738159
0.28295257687568665 0.54750603437423706 0.67642724514007568
0.36338901519775391 0.54778367280960083 0.68035036325454712
0.49179536104202271 0.5640711784362793 0.68464517593383789
0.63905608654022217 0.58817201852798462 0.69678372144699097
0.76401281356811523 0.61901301145553589 0.71549195051193237
0.87259364128112793 0.62455427646636963 0.71498841047286987
0.97868061065673828 0.63921630382537842 0.72025138139724731
0.35473686456680298 0.72025579214096069 0.71030682325363159
0.4138244092464447 0.71436852216720581 0.7101476788520813
0.51005285978317261 0.71887302398681641 0.70948588848114014
0.62990182638168335 0.72569435834884644 0.71819424629211426
0.74539095163345337 0.73555314540863037 0.72043979167938232
0.85657304525375366 0.73744815587997437 0.72044181823730469
0.96338862180709839 0.74831944704055786 0.72982072830200195
0.43105864524841309 0.85059869289398193 0.73067069053649902
0.47142088413238525 0.85159134864807129 0.73293209075927734
0.54426699876785278 0.84757620096206665 0.72897440195083618
0.63363850116729736 0.84250354766845703 0.72704517841339111
0.71698164939880371 0.83024024963378906 0.71573835611343384
0.82714307308197021 0.83207905292510986 0.71729558706283569
0.94712978601455688 0.8353537917137146 0.71715426445007324
0.51760596036911011 0.94792813062667847 0.75334423780441284
0.54153341054916382 0.94742441177368164 0.75494462251663208
0.59142816066741943 0.94572019577026367 0.75432294607162476
0.63787996768951416 0.94584900140762329 0.74260842800140381
0.70565581321716309 0.93967288732528687 0.7370026707649231
0.80684167146682739 0.93904101848602295 0.74413174390792847
0.92344880104064941 0.94624656438827515 0.75664806365966797
0.48049330711364746 0.21984153985977173 0.81769776344299316
0.52896618843078613 0.2279118150472641 0.82012921571731567
0.61537832021713257 0.25149577856063843 0.82285946607589722
0.72016149759292603 0.29770925641059875 0.82677310705184937
0.82134687900543213 0.37203246355056763 0.83499729633331299
0.9154890775680542 0.39513754844665527 0.83786755800247192
0.99354606866836548 0.40475669503211975 0.82506042718887329
0.48050683736801147 0.30845001339912415 0.81686484813690186
0.52607548236846924 0.3182796835899353 0.81781131029129028
0.60989844799041748 0.33662238717079163 0.81760948896408081
0.71228915452957153 0.37587124109268188 0.82280242443084717
0.81414675712585449 0.43824884295463562 0.83336818218231201
0.90940803289413452 0.45543619990348816 0.84036225080490112
0.98704010248184204 0.46322083473205566 0.82610738277435303
0.45780447125434875 0.43597292900085449 0.81029480695724487
0.50563234090805054 0.44402843713760376 0.81421339511871338
0.59241843223571777 0.45970651507377625 0.8176884651184082
0.69585800170898438 0.48964306712150574 0.82205808162689209
0.79853588342666626 0.53714972734451294 0.83459174633026123
0.89426040649414062 0.55424928665161133 0.8387635350227356
0.98399776220321655 0.55353128910064697 0.83096921443939209
0.37085658311843872 0.53993511199951172 0.80121892690658569
0.42988735437393188 0.54504036903381348 0.80600458383560181
0.54439240694046021 0.56656432151794434 0.81226557493209839
0.66475570201873779 0.59736263751983643 0.81782561540603638
0.77654439210891724 0.63683915138244629 0.83132022619247437
0.87548810243606567 0.65068584680557251 0.8342214822769165
0.97758668661117554 0.6532367467880249 0.83417534828186035
0.37522813677787781 0.68580466508865356 0.81211268901824951
0.42422768473625183 0.68473643064498901 0.81278592348098755
0.50345033407211304 0.68394571542739868 0.81132042407989502
0.61514091491699219 0.69121742248535156 0.81373190879821777
0.74609899520874023 0.72768539190292358 0.8254932165145874
0.86693549156188965 0.75886094570159912 0.83992236852645874
0.96868598461151123 0.75857996940612793 0.83866208791732788
0.43084296584129333 0.8345831036567688 0.83569347858428955
0.46840864419937134 0.83520960807800293 0.83486223220825195
0.53922343254089355 0.83742785453796387 0.8372197151184082
0.63596457242965698 0.83778131008148193 0.83836609125137329
0.74075663089752197 0.84098964929580688 0.84006565809249878
0.85351479053497314 0.85295397043228149 0.84901970624923706
0.9542350172996521 0.85780119895935059 0.85284417867660522
0.51582056283950806 0.95601522922515869 0.85263955593109131
0.54008066654205322 0.95180678367614746 0.85296761989593506
0.59506690502166748 0.9514966607093811 0.85357856750488281
0.67462790012359619 0.9497140645980835 0.85424399375915527
0.76037073135375977 0.95060080289840698 0.85938411951065063
0.83498066663742065 0.94561457633972168 0.85178351402282715
0.93468385934829712 0.94678932428359985 0.856414794921875
0.61169439554214478 0.39382323622703552 0.93761646747589111
0.6425284743309021 0.40516841411590576 0.94185745716094971
0.69036376476287842 0.42213732004165649 0.94381421804428101
0.75854295492172241 0.45210564136505127 0.94126683473587036
0.83356261253356934 0.49703148007392883 0.93982106447219849
0.91487497091293335 0.54826372861862183 0.94342917203903198
0.9897921085357666 0.56221556663513184 0.9460139274597168
0.61242973804473877 0.4504791796207428 0.94187361001968384
0.63750338554382324 0.45608675479888916 0.94173365831375122
0.68443393707275391 0.47169589996337891 0.9413180947303772
0.75245004892349243 0.49765518307685852 0.93973058462142944
0.83144271373748779 0.53713494539260864 0.94064599275588989
0.91273623704910278 0.57956260442733765 0.94043707847595215
0.98761403560638428 0.59095549583435059 0.94496315717697144
0.59724950790405273 0.5332103967666626 0.93706047534942627
0.62170124053955078 0.53574514389038086 0.93884944915771484
0.67240685224533081 0.5492708683013916 0.93941563367843628
0.73984229564666748 0.56977975368499756 0.93880957365036011
0.81984496116638184 0.60304194688796997 0.9400445818901062
0.90454316139221191 0.63994520902633667 0.94039380550384521
0.98620176315307617 0.64496678113937378 0.94461345672607422
0.53864192962646484 0.60543709993362427 0.93588238954544067
0.57753187417984009 0.61639529466629028 0.93684285879135132
0.63695943355560303 0.62888568639755249 0.93628549575805664
0.7174915075302124 0.64701950550079346 0.93655741214752197
0.80353766679763794 0.67258995771408081 0.93965440988540649
0.89195030927658081 0.7049407958984375 0.93971872329711914
0.98042380809783936 0.71397137641906738 0.94570291042327881
0.46925839781761169 0.69309127330780029 0.93319815397262573
0.50115275382995605 0.69313722848892212 0.93277066946029663
0.56652593612670898 0.69788074493408203 0.93448072671890259
0.66211670637130737 0.71263879537582397 0.93324917554855347
0.77524518966674805 0.74793404340744019 0.93576300144195557
0.88341426849365234 0.78016525506973267 0.94085747003555298
0.97156769037246704 0.79731124639511108 0.9443545937538147
0.48993521928787231 0.82167458534240723 0.94167762994766235
0.51257950067520142 0.81961262226104736 0.9362826943397522
0.56411492824554443 0.81972777843475342 0.9395865797996521
0.63629084825515747 0.81883668899536133 0.93774348497390747
0.73100024461746216 0.821644127368927 0.93818873167037964
0.85979384183883667 0.85241460800170898 0.9456486701965332
0.96046888828277588 0.87836706638336182 0.95000451803207397
0.53165805339813232 0.94764029979705811 0.95166784524917603
0.55366122722625732 0.94601267576217651 0.94952237606048584
0.60477089881896973 0.94657015800476074 0.95003193616867065
0.67830055952072144 0.94738668203353882 0.94973427057266235
0.76639389991760254 0.94719767570495605 0.9506385326385498
0.86143660545349121 0.95064222812652588 0.95413732528686523
0.95367980003356934 0.95596277713775635 0.95545130968093872
