luts/negative_new/fuji_800z_-.cube
# Created by: G'MIC (https://gmic.eu)
TITLE "fuji_800z_-"
# LUT size
LUT_3D_SIZE 7
# Data domain
DOMAIN_MIN 0.0 0.0 0.0
DOMAIN_MAX 1.0 1.0 1.0
# LUT data points
0.027696901932358742 0.030494032427668571 0.025378791615366936
0.16044370830059052 0.031003629788756371 0.027745354920625687
0.35431835055351257 0.0089995292946696281 0.021866802126169205
0.55851596593856812 0.0080456901341676712 0.011734995990991592
0.73690307140350342 0.0040151108987629414 0.010017963126301765
0.87504792213439941 0.0014254850102588534 0.0095138251781463623
0.98410511016845703 0.010039550252258778 0.0013716304674744606
0.025288809090852737 0.13862331211566925 0.041638318449258804
0.13863664865493774 0.15630359947681427 0.028984503820538521
0.34544941782951355 0.17361575365066528 0.012845282442867756
0.55033332109451294 0.13864332437515259 0.0082481680437922478
0.7256009578704834 0.12070874869823456 0.0036860296968370676
0.86179107427597046 0.13420809805393219 0.0020425533875823021
0.97481399774551392 0.19823084771633148 0.00237274169921875
0.010797358117997646 0.28728771209716797 0.067750982940196991
0.12386942654848099 0.28680881857872009 0.068638220429420471
0.30759701132774353 0.34369507431983948 0.019281156361103058
0.53264760971069336 0.37221893668174744 0.006337394006550312
0.69741612672805786 0.34906831383705139 0.0066382912918925285
0.83552825450897217 0.35352051258087158 0.0072735357098281384
0.95859205722808838 0.37912669777870178 0.004536094143986702
0.048398423939943314 0.42318236827850342 0.12455987185239792
0.14161756634712219 0.41352191567420959 0.12753701210021973
0.26831117272377014 0.43773233890533447 0.11329417675733566
0.46682044863700867 0.49875518679618835 0.060710068792104721
0.68057167530059814 0.53923428058624268 0.0064702052623033524
0.81140220165252686 0.52447229623794556 0.0065047917887568474
0.93555581569671631 0.52780747413635254 0.0049680224619805813
0.15569481253623962 0.53980547189712524 0.19419007003307343
0.20157743990421295 0.53219056129455566 0.19276013970375061
0.27636095881462097 0.52524161338806152 0.19005416333675385
0.42217642068862915 0.57046687602996826 0.18355296552181244
0.61217665672302246 0.62636476755142212 0.16089899837970734
0.7958720326423645 0.67506152391433716 0.12683403491973877
0.92279344797134399 0.67699438333511353 0.063614621758460999
0.28388804197311401 0.66326206922531128 0.28886586427688599
0.30768916010856628 0.65814661979675293 0.28352880477905273
0.35251340270042419 0.64582353830337524 0.27836781740188599
0.44928067922592163 0.66130280494689941 0.28224080801010132
0.58971279859542847 0.70474570989608765 0.28993022441864014
0.74649506807327271 0.75299167633056641 0.29456052184104919
0.91034930944442749 0.8094903826713562 0.29346939921379089
0.48346802592277527 0.82973778247833252 0.47387304902076721
0.49950367212295532 0.82699763774871826 0.47471648454666138
0.53218287229537964 0.82200843095779419 0.47751829028129578
0.58161097764968872 0.81928879022598267 0.4782225489616394
0.67343157529830933 0.84966933727264404 0.4934210479259491
0.78119754791259766 0.88221490383148193 0.50327646732330322
0.89747363328933716 0.91528046131134033 0.50915944576263428
0.052006110548973083 0.047735624015331268 0.13851244747638702
0.17549796402454376 0.033037733286619186 0.1387544721364975
0.3860112726688385 0.0059129302389919758 0.14090070128440857
0.5834851861000061 0.0058778650127351284 0.14747637510299683
0.74446302652359009 0.0034090976696461439 0.15148116648197174
0.87538903951644897 0.0042116651311516762 0.15257512032985687
0.9821588397026062 0.063628405332565308 0.14938466250896454
0.033069700002670288 0.16992029547691345 0.14518450200557709
0.18042758107185364 0.17873255908489227 0.15238586068153381
0.37141016125679016 0.17045331001281738 0.15019777417182922
0.56861704587936401 0.16074135899543762 0.14640696346759796
0.73193812370300293 0.15075209736824036 0.14258243143558502
0.86479216814041138 0.16907620429992676 0.14019328355789185
0.97311818599700928 0.22236788272857666 0.14187484979629517
0.10266687721014023 0.33609393239021301 0.17779724299907684
0.18911272287368774 0.32769984006881714 0.17989876866340637
0.340960294008255 0.35658970475196838 0.16397114098072052
0.54030132293701172 0.37225028872489929 0.13562189042568207
0.70146411657333374 0.35906055569648743 0.10714416205883026
0.83929908275604248 0.36197394132614136 0.11609808355569839
0.9641832709312439 0.38374635577201843 0.12630841135978699
0.15434782207012177 0.45811900496482849 0.21330435574054718
0.21388675272464752 0.44760105013847351 0.21567945182323456
0.30316689610481262 0.44654858112335205 0.20403242111206055
0.48189327120780945 0.50491058826446533 0.19168740510940552
0.67890816926956177 0.53601264953613281 0.16002458333969116
0.80935096740722656 0.52439999580383301 0.10902517288923264
0.93683487176895142 0.52741038799285889 0.097036994993686676
0.21563136577606201 0.56218415498733521 0.25745350122451782
0.2539210319519043 0.55599677562713623 0.25611039996147156
0.31104168295860291 0.53772687911987305 0.24989502131938934
0.44071429967880249 0.57498538494110107 0.24965193867683411
0.61994701623916626 0.6293100118637085 0.24938149750232697
0.79569876194000244 0.67060285806655884 0.23271618783473969
0.92278957366943359 0.67167145013809204 0.18921416997909546
0.31219050288200378 0.67406374216079712 0.32855665683746338
0.33421391248703003 0.66929703950881958 0.32585668563842773
0.37904524803161621 0.65755581855773926 0.32215839624404907
0.46099448204040527 0.66327464580535889 0.32208138704299927
0.59356784820556641 0.70316112041473389 0.33230578899383545
0.74904400110244751 0.75303900241851807 0.34378397464752197
0.91137087345123291 0.81331604719161987 0.3543943464756012
0.49044838547706604 0.83390063047409058 0.49363338947296143
0.50525224208831787 0.83072024583816528 0.4933154284954071
0.53510040044784546 0.82432287931442261 0.49290114641189575
0.58315670490264893 0.82003217935562134 0.4961831271648407
0.67338168621063232 0.84870117902755737 0.51212775707244873
0.78075987100601196 0.88022792339324951 0.52143853902816772
0.89609599113464355 0.91463583707809448 0.53223145008087158
0.078120753169059753 0.05679137259721756 0.30215680599212646
0.20771630108356476 0.056550238281488419 0.308270663022995
0.38815009593963623 0.033154312521219254 0.32388892769813538
0.61226350069046021 0.0034330030903220177 0.3302275538444519
0.78151798248291016 0.0024812435731291771 0.32838749885559082
0.8920443058013916 0.038831688463687897 0.3317597508430481
0.98722410202026367 0.15334337949752808 0.34052538871765137
0.064510047435760498 0.17380635440349579 0.3102601170539856
0.20996671915054321 0.19036900997161865 0.32006475329399109
0.39865788817405701 0.20123493671417236 0.33337527513504028
0.60468864440917969 0.18004271388053894 0.33728918433189392
0.75556850433349609 0.18894943594932556 0.33546364307403564
0.87387579679489136 0.22358688712120056 0.3379058837890625
0.97890830039978027 0.26826828718185425 0.34319740533828735
0.057461816817522049 0.37188833951950073 0.33137577772140503
0.21889619529247284 0.37320652604103088 0.33759906888008118
0.38937857747077942 0.37902429699897766 0.34466111660003662
0.57165521383285522 0.38283798098564148 0.34440252184867859
0.71164113283157349 0.38321802020072937 0.32966199517250061
0.84705251455307007 0.3869050145149231 0.33341872692108154
0.96533399820327759 0.40447795391082764 0.33417493104934692
0.22548075020313263 0.5151485800743103 0.35717928409576416
0.29607999324798584 0.51017922163009644 0.36000180244445801
0.38076061010360718 0.4891112744808197 0.35445359349250793
0.52157843112945557 0.52262222766876221 0.35528555512428284
0.67939954996109009 0.53618746995925903 0.33926045894622803
0.81124067306518555 0.52761304378509521 0.31446510553359985
0.93627703189849854 0.53617972135543823 0.31163039803504944
0.31761232018470764 0.60862904787063599 0.38299068808555603
0.34495222568511963 0.60037463903427124 0.38083532452583313
0.38841924071311951 0.57982242107391357 0.36778762936592102
0.47277453541755676 0.58409696817398071 0.36040151119232178
0.63761067390441895 0.63836920261383057 0.3815741240978241
0.79733514785766602 0.67117446660995483 0.37792927026748657
0.92157119512557983 0.66803634166717529 0.33858144283294678
0.36979919672012329 0.69875550270080566 0.41748222708702087
0.38772067427635193 0.69322854280471802 0.41280871629714966
0.42553681135177612 0.68048346042633057 0.40657049417495728
0.47600233554840088 0.66587841510772705 0.39052993059158325
0.60092973709106445 0.7056393027305603 0.41275915503501892
0.75507014989852905 0.75716322660446167 0.43825402855873108
0.91229170560836792 0.81277215480804443 0.45131781697273254
0.50323259830474854 0.84270739555358887 0.5388677716255188
0.51551872491836548 0.84047865867614746 0.53671073913574219
0.54794138669967651 0.83564931154251099 0.53745275735855103
0.59096449613571167 0.82841235399246216 0.5358046293258667
0.67105793952941895 0.84393048286437988 0.54537725448608398
0.78103429079055786 0.87945246696472168 0.560893714427948
0.89852637052536011 0.91348898410797119 0.57494300603866577
0.13757900893688202 0.082206904888153076 0.46966272592544556
0.24765247106552124 0.091600440442562103 0.47501298785209656
0.40321296453475952 0.1044025793671608 0.48374667763710022
0.58923196792602539 0.097221121191978455 0.51062631607055664
0.76770603656768799 0.042430009692907333 0.51533132791519165
0.91642504930496216 0.092200532555580139 0.50983679294586182
0.99571716785430908 0.20099210739135742 0.50749635696411133
0.16274255514144897 0.20403489470481873 0.4748440682888031
0.26057681441307068 0.21791099011898041 0.48179289698600769
0.42007037997245789 0.23542100191116333 0.49264267086982727
0.58767080307006836 0.24181459844112396 0.5117918848991394
0.7625042200088501 0.23477676510810852 0.51913237571716309
0.90323799848556519 0.25822639465332031 0.51695472002029419
0.98856449127197266 0.30217579007148743 0.51270663738250732
0.11944536864757538 0.34575754404067993 0.47684907913208008
0.24184021353721619 0.35702833533287048 0.48499888181686401
0.40886574983596802 0.38362491130828857 0.49888548254966736
0.57836925983428955 0.4018017053604126 0.518341064453125
0.74420386552810669 0.41042605042457581 0.52321326732635498
0.86961573362350464 0.41929027438163757 0.52279055118560791
0.97643053531646729 0.42893099784851074 0.52018618583679199
0.20426702499389648 0.54046225547790527 0.50588798522949219
0.29068741202354431 0.5419042706489563 0.50990569591522217
0.4288075864315033 0.53894495964050293 0.51323634386062622
0.56486856937408447 0.54332429170608521 0.52055364847183228
0.70555400848388672 0.54744768142700195 0.51615118980407715
0.83255451917648315 0.5420261025428772 0.51310378313064575
0.94998502731323242 0.54894816875457764 0.50636804103851318
0.36969029903411865 0.66158390045166016 0.53031128644943237
0.41078951954841614 0.65806680917739868 0.53211343288421631
0.48029550909996033 0.64446794986724854 0.5298532247543335
0.53896355628967285 0.62320291996002197 0.51101040840148926
0.66082239151000977 0.64911115169525146 0.5224725604057312
0.8015134334564209 0.6641230583190918 0.51436477899551392
0.92789661884307861 0.66277778148651123 0.4844299852848053
0.4490741491317749 0.74380373954772949 0.55144774913787842
0.46476376056671143 0.73661834001541138 0.54613441228866577
0.50306028127670288 0.72951322793960571 0.54363042116165161
0.53635728359222412 0.70021355152130127 0.51218092441558838
0.61401855945587158 0.70545369386672974 0.51031845808029175
0.7702673077583313 0.76595741510391235 0.54938018321990967
0.91591423749923706 0.80689245462417603 0.55314165353775024
0.52515280246734619 0.866993248462677 0.61360067129135132
0.53467851877212524 0.86223500967025757 0.60860598087310791
0.56463402509689331 0.85692614316940308 0.60603874921798706
0.60454082489013672 0.84288877248764038 0.59618860483169556
0.66663777828216553 0.84276491403579712 0.59667497873306274
0.77846634387969971 0.88095700740814209 0.62233239412307739
0.90001511573791504 0.91726195812225342 0.63835155963897705
0.23850251734256744 0.12898588180541992 0.61757856607437134
0.3170221745967865 0.13842351734638214 0.62237548828125
0.44452106952667236 0.15652443468570709 0.62841320037841797
0.60240000486373901 0.1993609219789505 0.64150607585906982
0.7461504340171814 0.21356385946273804 0.66188079118728638
0.87738806009292603 0.22118246555328369 0.66097337007522583
0.99499303102493286 0.24996769428253174 0.66471654176712036
0.25687381625175476 0.23642843961715698 0.61837506294250488
0.33022981882095337 0.2421148419380188 0.62574100494384766
0.45698243379592896 0.26059424877166748 0.63134127855300903
0.59613275527954102 0.28859677910804749 0.64157098531723022
0.73949557542800903 0.31067204475402832 0.66378909349441528
0.87580519914627075 0.31891351938247681 0.66675561666488647
0.99128776788711548 0.34323886036872864 0.66997253894805908
0.2322419136762619 0.35644319653511047 0.61926615238189697
0.31451427936553955 0.36950883269309998 0.62482166290283203
0.44502732157707214 0.39177563786506653 0.6312299370765686
0.58822762966156006 0.41598948836326599 0.64520531892776489
0.72414094209671021 0.44086992740631104 0.65938019752502441
0.86295515298843384 0.45713955163955688 0.67059504985809326
0.98591035604476929 0.46853339672088623 0.67904037237167358
0.21097971498966217 0.50162333250045776 0.61753672361373901
0.28870534896850586 0.50226134061813354 0.62092429399490356
0.40809795260429382 0.50917285680770874 0.623291015625
0.55924111604690552 0.53565877676010132 0.64044910669326782
0.71165227890014648 0.56123316287994385 0.66144275665283203
0.84961855411529541 0.57622069120407104 0.67694342136383057
0.97374039888381958 0.57919299602508545 0.67964231967926025
0.34517714381217957 0.67055726051330566 0.65173047780990601
0.39781871438026428 0.66648381948471069 0.65147095918655396
0.4807465672492981 0.66710823774337769 0.6550828218460083
0.58443713188171387 0.66617977619171143 0.65683001279830933
0.69447916746139526 0.66949421167373657 0.66242128610610962
0.82031679153442383 0.67632853984832764 0.66130870580673218
0.94590586423873901 0.67830085754394531 0.65720337629318237
0.49121692776679993 0.79533106088638306 0.6824113130569458
0.51364290714263916 0.78979098796844482 0.68081635236740112
0.56239396333694458 0.78709429502487183 0.68484240770339966
0.61473804712295532 0.7697913646697998 0.66982561349868774
0.6607964038848877 0.73678237199783325 0.6417195200920105
0.78430306911468506 0.77385902404785156 0.66310876607894897
0.92299503087997437 0.80239129066467285 0.66022223234176636
0.55780029296875 0.89954805374145508 0.7149357795715332
0.56885445117950439 0.89542162418365479 0.71288514137268066
0.59776037931442261 0.89227932691574097 0.70970022678375244
0.63570636510848999 0.8827517032623291 0.69642937183380127
0.68473625183105469 0.86337578296661377 0.67949885129928589
0.77395051717758179 0.87731575965881348 0.68756383657455444
0.90900468826293945 0.92503756284713745 0.71833688020706177
0.37775072455406189 0.21053503453731537 0.75941962003707886
0.42697623372077942 0.21962909400463104 0.76033240556716919
0.51849937438964844 0.23274415731430054 0.76269173622131348
0.63517612218856812 0.26701802015304565 0.7702518105506897
0.75594013929367065 0.32018643617630005 0.77677458524703979
0.87679648399353027 0.34055769443511963 0.79263550043106079
0.973796546459198 0.35051718354225159 0.79738062620162964
0.38138771057128906 0.28476011753082275 0.75654250383377075
0.42954707145690918 0.29306581616401672 0.75959163904190063
0.52019679546356201 0.30629149079322815 0.76257038116455078
0.63490551710128784 0.33625194430351257 0.76901322603225708
0.75165730714797974 0.38166868686676025 0.77754753828048706
0.87102580070495605 0.40177851915359497 0.79110097885131836
0.97307741641998291 0.412091463804245 0.79817861318588257
0.36564934253692627 0.395681232213974 0.75220531225204468
0.4137130081653595 0.40146604180335999 0.75529235601425171
0.51285737752914429 0.4139973521232605 0.76012516021728516
0.6225096583366394 0.43632766604423523 0.7659415602684021
0.74397468566894531 0.46993726491928101 0.77578163146972656
0.86251580715179443 0.49380207061767578 0.78960466384887695
0.96376246213912964 0.50491738319396973 0.79932940006256104
0.26565995812416077 0.48635071516036987 0.74114882946014404
0.33292454481124878 0.49242034554481506 0.74597275257110596
0.46108639240264893 0.51434516906738281 0.74932968616485596
0.5935853123664856 0.54058003425598145 0.75896346569061279
0.72709161043167114 0.57202011346817017 0.77390962839126587
0.84356439113616943 0.59078198671340942 0.7881203293800354
0.9660530686378479 0.60575562715530396 0.80526316165924072
0.31018537282943726 0.64081203937530518 0.75375926494598389
0.35490217804908752 0.63559365272521973 0.75287771224975586
0.43496641516685486 0.63265717029571533 0.7511705756187439
0.54582887887954712 0.6357114315032959 0.75286954641342163
0.6920815110206604 0.66320526599884033 0.76934224367141724
0.83396679162979126 0.69539141654968262 0.79493838548660278
0.96549361944198608 0.71289741992950439 0.8124966025352478
0.43820062279701233 0.79550796747207642 0.78273248672485352
0.46845358610153198 0.79285508394241333 0.7834513783454895
0.52811223268508911 0.79354697465896606 0.78570038080215454
0.61530900001525879 0.7942957878112793 0.78927004337310791
0.70966804027557373 0.7937127947807312 0.79290467500686646
0.8146815299987793 0.79883164167404175 0.79547935724258423
0.94532614946365356 0.81338942050933838 0.80018424987792969
0.58815115690231323 0.92775106430053711 0.81828922033309937
0.60435813665390015 0.92840278148651123 0.82041460275650024
0.63911646604537964 0.92635637521743774 0.82141530513763428
0.68710869550704956 0.92256337404251099 0.81679701805114746
0.74326843023300171 0.91579395532608032 0.81152796745300293
0.79561662673950195 0.89622515439987183 0.78983259201049805
0.92139256000518799 0.92930883169174194 0.81402099132537842
0.54927432537078857 0.34864574670791626 0.90023744106292725
0.5773308277130127 0.35453712940216064 0.89845627546310425
0.6344035267829895 0.364003986120224 0.89867550134658813
0.71792495250701904 0.3907952606678009 0.89921712875366211
0.81061279773712158 0.42935821413993835 0.90081125497817993
0.90477943420410156 0.47780066728591919 0.90455126762390137
0.98761129379272461 0.48838135600090027 0.91432571411132812
0.54321354627609253 0.39567852020263672 0.89682477712631226
0.57196557521820068 0.39995905756950378 0.89612531661987305
0.63214445114135742 0.41169840097427368 0.89856964349746704
0.71654856204986572 0.43638622760772705 0.90006554126739502
0.80712330341339111 0.47039073705673218 0.90007579326629639
0.89777326583862305 0.50716096162796021 0.9009520411491394
0.98619943857192993 0.51954323053359985 0.91244107484817505
0.52640539407730103 0.47853288054466248 0.89590281248092651
0.55560892820358276 0.48001128435134888 0.8969225287437439
0.62089931964874268 0.49226248264312744 0.89729231595993042
0.70363938808441162 0.5058438777923584 0.89676856994628906
0.79788666963577271 0.53012621402740479 0.89833706617355347
0.89588791131973267 0.56369704008102417 0.90540128946304321
0.9823077917098999 0.57724833488464355 0.91446751356124878
0.44797998666763306 0.55195683240890503 0.89326357841491699
0.4950232207775116 0.55917161703109741 0.89422965049743652
0.57850253582000732 0.57046109437942505 0.89475160837173462
0.67639166116714478 0.58479213714599609 0.89543670415878296
0.77878344058990479 0.6039729118347168 0.89898383617401123
0.88004612922668457 0.62983286380767822 0.90413773059844971
0.97699993848800659 0.64599710702896118 0.91652542352676392
0.35239449143409729 0.64822173118591309 0.89142066240310669
0.38993063569068909 0.6451459527015686 0.89121741056442261
0.46932515501976013 0.64373284578323364 0.89246261119842529
0.59642452001571655 0.65350615978240967 0.89501142501831055
0.73518341779708862 0.68064606189727783 0.90023279190063477
0.86543017625808716 0.71140438318252563 0.91101014614105225
0.96632605791091919 0.73559713363647461 0.9168553352355957
0.41703510284423828 0.79941439628601074 0.90183460712432861
0.44315353035926819 0.79703837633132935 0.90270483493804932
0.49196967482566833 0.79470247030258179 0.90180289745330811
0.56837284564971924 0.78463256359100342 0.90245866775512695
0.66858536005020142 0.77290254831314087 0.90540260076522827
0.82289868593215942 0.79928642511367798 0.91023963689804077
0.95861232280731201 0.83782786130905151 0.92389190196990967
0.53123193979263306 0.93872267007827759 0.9149048924446106
0.5515562891960144 0.94004726409912109 0.91675102710723877
0.59087800979614258 0.93906885385513306 0.91891682147979736
0.66015815734863281 0.93746852874755859 0.92259776592254639
0.74554121494293213 0.93776696920394897 0.92462044954299927
0.84300124645233154 0.9314500093460083 0.9249107837677002
0.94545793533325195 0.94168591499328613 0.93062794208526611
