luts/negative_new/fuji_160c_-.cube
# Created by: G'MIC (https://gmic.eu)
TITLE "fuji_160c_-"
# LUT size
LUT_3D_SIZE 7
# Data domain
DOMAIN_MIN 0.0 0.0 0.0
DOMAIN_MAX 1.0 1.0 1.0
# LUT data points
0.031921640038490295 0.036734294146299362 0.029665568843483925
0.20620481669902802 0.02923603355884552 0.030399082228541374
0.42979970574378967 0.005302040372043848 0.031487978994846344
0.62623101472854614 0.0020225225016474724 0.034758534282445908
0.7805444598197937 0.0044957478530704975 0.040657538920640945
0.89869534969329834 0.082490690052509308 0.058489646762609482
0.99222713708877563 0.24064254760742188 0.10131312161684036
0.0039203567430377007 0.20063142478466034 0.023009102791547775
0.17421624064445496 0.20200689136981964 0.018407080322504044
0.42380461096763611 0.18194760382175446 0.013492973521351814
0.62030082941055298 0.15614685416221619 0.015240762382745743
0.76950347423553467 0.17352725565433502 0.023148225620388985
0.88969773054122925 0.23741236329078674 0.043179381638765335
0.99045884609222412 0.31734904646873474 0.083401605486869812
7.2524126153439283e-05 0.39191612601280212 0.018817152827978134
0.056555069983005524 0.38791754841804504 0.016030255705118179
0.36608502268791199 0.39339599013328552 0.010074016638100147
0.58501565456390381 0.38541319966316223 0.0056514963507652283
0.73849320411682129 0.36732140183448792 0.0060395183973014355
0.86596190929412842 0.39055898785591125 0.011631266213953495
0.98012638092041016 0.43569660186767578 0.035781681537628174
0.00012960995081812143 0.53824889659881592 0.043512068688869476
0.010641389526426792 0.53404879570007324 0.056971769779920578
0.2921326756477356 0.53100490570068359 0.054417286068201065
0.51398736238479614 0.53486377000808716 0.038587979972362518
0.69317835569381714 0.5381845235824585 0.010359161533415318
0.83148097991943359 0.54089438915252686 0.0093645434826612473
0.96297973394393921 0.55888712406158447 0.0067433672957122326
9.3347889560391195e-06 0.65585392713546753 0.12410016357898712
0.018838919699192047 0.65590959787368774 0.1316058486700058
0.27055144309997559 0.64721488952636719 0.13889341056346893
0.47338056564331055 0.65095359086990356 0.12962156534194946
0.63984256982803345 0.65311920642852783 0.11223835498094559
0.79587465524673462 0.67525804042816162 0.077056944370269775
0.93892979621887207 0.6949315071105957 0.036303695291280746
0.0058873044326901436 0.78508716821670532 0.20019660890102386
0.12790411710739136 0.78432369232177734 0.2069774717092514
0.30804148316383362 0.77659344673156738 0.21418598294258118
0.47183555364608765 0.77958023548126221 0.2188655287027359
0.6248399019241333 0.78300297260284424 0.21314805746078491
0.76373177766799927 0.78792166709899902 0.20451067388057709
0.91657155752182007 0.81845557689666748 0.19824518263339996
0.18942400813102722 0.94014722108840942 0.32381996512413025
0.25697362422943115 0.93538773059844971 0.32762643694877625
0.36954531073570251 0.93051820993423462 0.3321806788444519
0.49442055821418762 0.93473154306411743 0.35237148404121399
0.62855368852615356 0.93548882007598877 0.35127586126327515
0.76223957538604736 0.93764984607696533 0.35528683662414551
0.89983922243118286 0.94927859306335449 0.36414071917533875
0.053808011114597321 0.048018347471952438 0.18420428037643433
0.22898766398429871 0.033591028302907944 0.1848127692937851
0.4430030882358551 0.0095607088878750801 0.17936499416828156
0.63061189651489258 0.026287408545613289 0.19712521135807037
0.7757992148399353 0.12088612467050552 0.22294449806213379
0.89134901762008667 0.20090724527835846 0.23552559316158295
0.99130958318710327 0.28381767868995667 0.2515653669834137
0.025955919176340103 0.21427354216575623 0.19739308953285217
0.22629545629024506 0.21733544766902924 0.19856034219264984
0.44078990817070007 0.22057519853115082 0.20070210099220276
0.62092351913452148 0.22863078117370605 0.20907458662986755
0.76067334413528442 0.24495254456996918 0.21215614676475525
0.8830878734588623 0.29283463954925537 0.2263670414686203
0.9883420467376709 0.34558188915252686 0.24016405642032623
0.02932453528046608 0.41149556636810303 0.21046456694602966
0.18848302960395813 0.40484613180160522 0.2072174996137619
0.40408560633659363 0.40370050072669983 0.1993660181760788
0.59307897090911865 0.39488863945007324 0.18568851053714752
0.73783248662948608 0.38966628909111023 0.18453525006771088
0.86259227991104126 0.41742733120918274 0.19860155880451202
0.97425544261932373 0.45256546139717102 0.2173633873462677
0.0036807490978389978 0.5525091290473938 0.21744023263454437
0.13202193379402161 0.54549151659011841 0.21778242290019989
0.3480067253112793 0.53475505113601685 0.21780696511268616
0.5392688512802124 0.53913187980651855 0.20858357846736908
0.69549679756164551 0.53988230228424072 0.19227510690689087
0.83415251970291138 0.54621952772140503 0.16400855779647827
0.96232664585113525 0.56709808111190796 0.17137868702411652
0.0051124570891261101 0.66594827175140381 0.23858603835105896
0.12985678017139435 0.66147917509078979 0.24138544499874115
0.32076838612556458 0.6520007848739624 0.24815845489501953
0.48709404468536377 0.65443021059036255 0.24382741749286652
0.64759361743927002 0.6563916802406311 0.2367277592420578
0.80111801624298096 0.67740941047668457 0.21825650334358215
0.94213986396789551 0.69306188821792603 0.1918996125459671
0.041608564555644989 0.79120153188705444 0.27542039752006531
0.18152108788490295 0.78870368003845215 0.2795167863368988
0.32843521237373352 0.77891784906387329 0.28565040230751038
0.47617131471633911 0.78030246496200562 0.29040491580963135
0.62624639272689819 0.78110158443450928 0.28905060887336731
0.76823002099990845 0.79068487882614136 0.27776059508323669
0.91869062185287476 0.81832778453826904 0.27493953704833984
0.19190463423728943 0.93995314836502075 0.36780524253845215
0.2631080150604248 0.93684667348861694 0.37014511227607727
0.3717627227306366 0.93487977981567383 0.37681058049201965
0.49366644024848938 0.93239784240722656 0.38713601231575012
0.62829601764678955 0.93607622385025024 0.39586019515991211
0.76168274879455566 0.94076818227767944 0.39673048257827759
0.90109670162200928 0.94804579019546509 0.40170878171920776
0.092323958873748779 0.070584282279014587 0.37471702694892883
0.25812223553657532 0.071668706834316254 0.38105219602584839
0.45377317070960999 0.056729815900325775 0.38259685039520264
0.63883852958679199 0.020362375304102898 0.36498671770095825
0.7809983491897583 0.095765717327594757 0.36741507053375244
0.89487326145172119 0.21742251515388489 0.387215256690979
0.99154990911483765 0.31967628002166748 0.41859546303749084
0.12679392099380493 0.21452853083610535 0.37937507033348083
0.27930459380149841 0.23185543715953827 0.38595551252365112
0.46351522207260132 0.23898276686668396 0.3894384503364563
0.63250970840454102 0.23885144293308258 0.38277995586395264
0.76576477289199829 0.27325618267059326 0.39117041230201721
0.88445180654525757 0.32265365123748779 0.40201029181480408
0.98492252826690674 0.38568404316902161 0.42185515165328979
0.083792321383953094 0.41489371657371521 0.39643549919128418
0.26826125383377075 0.41914325952529907 0.39852619171142578
0.45283061265945435 0.41764912009239197 0.40107151865959167
0.60841721296310425 0.42453068494796753 0.40128946304321289
0.74227344989776611 0.43005228042602539 0.39504030346870422
0.86376094818115234 0.4509555995464325 0.39950525760650635
0.97363346815109253 0.4779793918132782 0.403912752866745
0.18832948803901672 0.57174134254455566 0.4092804491519928
0.29951488971710205 0.56755143404006958 0.40879595279693604
0.42091166973114014 0.55371874570846558 0.39843973517417908
0.56923121213912964 0.55104774236679077 0.38766604661941528
0.71075683832168579 0.55283230543136597 0.37245011329650879
0.8403581976890564 0.55796259641647339 0.36101797223091125
0.96679604053497314 0.57892858982086182 0.36970031261444092
0.22254115343093872 0.68301594257354736 0.40385383367538452
0.27986150979995728 0.67830097675323486 0.39828327298164368
0.38836070895195007 0.66684556007385254 0.39122703671455383
0.52127313613891602 0.66024893522262573 0.38774138689041138
0.67139488458633423 0.66816985607147217 0.37993642687797546
0.80860358476638794 0.67648541927337646 0.37144100666046143
0.9466102123260498 0.689220130443573 0.35635003447532654
0.15944725275039673 0.80021679401397705 0.40034115314483643
0.24971815943717957 0.79892903566360474 0.40352055430412292
0.36685732007026672 0.7912285327911377 0.40031474828720093
0.4903104305267334 0.78148013353347778 0.39713159203529358
0.6358412504196167 0.7877877950668335 0.39855086803436279
0.77153223752975464 0.79551726579666138 0.3943580687046051
0.92374289035797119 0.81982851028442383 0.3916955292224884
0.18990147113800049 0.94282293319702148 0.44643843173980713
0.262245774269104 0.94212651252746582 0.44811636209487915
0.37453153729438782 0.93900048732757568 0.45397165417671204
0.49383082985877991 0.93506157398223877 0.46018832921981812
0.62602502107620239 0.93501085042953491 0.46660807728767395
0.75978827476501465 0.94051039218902588 0.4712660014629364
0.90083140134811401 0.94934546947479248 0.47626155614852905
0.19882634282112122 0.11024237424135208 0.53151005506515503
0.31035709381103516 0.11993354558944702 0.53556114435195923
0.47963482141494751 0.14673773944377899 0.54413574934005737
0.63887244462966919 0.16106337308883667 0.55437129735946655
0.76491725444793701 0.15277659893035889 0.53111732006072998
0.89587104320526123 0.19227348268032074 0.53004539012908936
0.99120277166366577 0.28458493947982788 0.53787529468536377
0.24548807740211487 0.2465328723192215 0.53499913215637207
0.33376392722129822 0.25506901741027832 0.53598654270172119
0.49061110615730286 0.27299031615257263 0.5479123592376709
0.63570600748062134 0.28405824303627014 0.5556950569152832
0.76064932346343994 0.28158193826675415 0.53833884000778198
0.88472855091094971 0.30666813254356384 0.53686034679412842
0.9892723560333252 0.36173975467681885 0.54563730955123901
0.21568737924098969 0.38565909862518311 0.53295177221298218
0.32667163014411926 0.39845305681228638 0.53576737642288208
0.47241708636283875 0.41204845905303955 0.54711920022964478
0.61612176895141602 0.43431243300437927 0.55566096305847168
0.75141459703445435 0.43673262000083923 0.54875260591506958
0.86730992794036865 0.45049417018890381 0.55015081167221069
0.98159873485565186 0.48066163063049316 0.55928701162338257
0.22435110807418823 0.56198549270629883 0.54918640851974487
0.32199981808662415 0.56832641363143921 0.55179131031036377
0.45900893211364746 0.56649434566497803 0.55247437953948975
0.5971912145614624 0.57409811019897461 0.55425691604614258
0.72409451007843018 0.57418394088745117 0.5541081428527832
0.84749358892440796 0.57973617315292358 0.54846692085266113
0.96909838914871216 0.59639632701873779 0.55123984813690186
0.28004518151283264 0.69825798273086548 0.55811721086502075
0.35091486573219299 0.70182794332504272 0.55786901712417603
0.460222989320755 0.69432085752487183 0.5548102855682373
0.56210952997207642 0.68322086334228516 0.54412341117858887
0.6830209493637085 0.67856746912002563 0.53034746646881104
0.82049703598022461 0.6801764965057373 0.52170616388320923
0.95764797925949097 0.68966960906982422 0.51218318939208984
0.31502321362495422 0.81525003910064697 0.5643240213394165
0.35575112700462341 0.81401908397674561 0.55767321586608887
0.42028588056564331 0.8089221715927124 0.54272717237472534
0.51715695858001709 0.79966574907302856 0.53151929378509521
0.64237505197525024 0.79621654748916626 0.52594190835952759
0.78504842519760132 0.80410391092300415 0.53122538328170776
0.93403184413909912 0.82039207220077515 0.51919829845428467
0.23684497177600861 0.95243793725967407 0.56442344188690186
0.27725675702095032 0.94981396198272705 0.55697154998779297
0.37494426965713501 0.94591504335403442 0.55242788791656494
0.49676847457885742 0.94020575284957886 0.55487769842147827
0.621562659740448 0.93880951404571533 0.56079685688018799
0.75934576988220215 0.94320869445800781 0.56627738475799561
0.90576016902923584 0.95081257820129395 0.57376646995544434
0.33136016130447388 0.16877882182598114 0.66662657260894775
0.4036223292350769 0.1778043657541275 0.66893744468688965
0.52660572528839111 0.20337678492069244 0.67482000589370728
0.65842580795288086 0.24157361686229706 0.68093568086624146
0.77566176652908325 0.26190531253814697 0.68788117170333862
0.87167191505432129 0.26447358727455139 0.67137396335601807
0.98908650875091553 0.28139486908912659 0.66833388805389404
0.35576048493385315 0.27955710887908936 0.66678309440612793
0.41570743918418884 0.28686109185218811 0.67020589113235474
0.52976542711257935 0.30186280608177185 0.6730504035949707
0.65635770559310913 0.32990285754203796 0.68361812829971313
0.77160429954528809 0.34755697846412659 0.69230788946151733
0.86861962080001831 0.34371340274810791 0.67333352565765381
0.98817735910415649 0.35357728600502014 0.67385554313659668
0.32571595907211304 0.39211893081665039 0.66128045320510864
0.40094354748725891 0.40829139947891235 0.66402512788772583
0.51121264696121216 0.4241739809513092 0.66914373636245728
0.63629883527755737 0.44705575704574585 0.68411308526992798
0.75805270671844482 0.46283149719238281 0.68887263536453247
0.86825817823410034 0.46021026372909546 0.68065249919891357
0.98584669828414917 0.46439355611801147 0.67846071720123291
0.28647950291633606 0.52828472852706909 0.65582698583602905
0.35308218002319336 0.53206801414489746 0.65517503023147583
0.46605002880096436 0.53733420372009277 0.66026312112808228
0.60209846496582031 0.56244248151779175 0.67403119802474976
0.73789727687835693 0.58123010396957397 0.68767189979553223
0.8531380295753479 0.58649927377700806 0.68511092662811279
0.97673755884170532 0.59439355134963989 0.69046229124069214
0.29155147075653076 0.69028455018997192 0.67901796102523804
0.35919666290283203 0.6942330002784729 0.6789059042930603
0.46164622902870178 0.69349139928817749 0.6807481050491333
0.58509355783462524 0.69419640302658081 0.68265312910079956
0.71532171964645386 0.70328247547149658 0.69049841165542603
0.83854377269744873 0.70306593179702759 0.68207681179046631
0.96609872579574585 0.71238583326339722 0.68848651647567749
0.30773445963859558 0.8335985541343689 0.69493275880813599
0.36538490653038025 0.83530294895172119 0.69700151681900024
0.45748475193977356 0.82778334617614746 0.69064861536026001
0.56975185871124268 0.82423216104507446 0.68873775005340576
0.66709339618682861 0.81002432107925415 0.67141008377075195
0.8000788688659668 0.8105660080909729 0.66634154319763184
0.9471207857131958 0.81721818447113037 0.65817254781723022
0.34229177236557007 0.95995986461639404 0.70539969205856323
0.38538071513175964 0.95722216367721558 0.70709019899368286
0.46032392978668213 0.95603615045547485 0.70453685522079468
0.53325027227401733 0.95215165615081787 0.68720817565917969
0.63324296474456787 0.94796842336654663 0.67613917589187622
0.76656901836395264 0.94589203596115112 0.68010896444320679
0.92068159580230713 0.95646786689758301 0.6908077597618103
0.47934326529502869 0.25367328524589539 0.7997850775718689
0.52142500877380371 0.25998362898826599 0.80298101902008057
0.59956401586532593 0.27489274740219116 0.80556142330169678
0.69906163215637207 0.30795806646347046 0.80936938524246216
0.80257409811019897 0.35775089263916016 0.81255590915679932
0.90092200040817261 0.36839941143989563 0.81877386569976807
0.98120945692062378 0.36297607421875 0.80490076541900635
0.47708752751350403 0.32581907510757446 0.79870229959487915
0.52101761102676392 0.33300569653511047 0.80097657442092896
0.59562444686889648 0.34689170122146606 0.80383425951004028
0.69328033924102783 0.37449395656585693 0.80937325954437256
0.79854917526245117 0.40658795833587646 0.81575870513916016
0.89618360996246338 0.41752952337265015 0.82166510820388794
0.98121225833892822 0.41399228572845459 0.80522817373275757
0.44959345459938049 0.43152210116386414 0.79227679967880249
0.49106320738792419 0.43496674299240112 0.79445958137512207
0.57102710008621216 0.45096445083618164 0.79903155565261841
0.67126786708831787 0.47139835357666016 0.80709165334701538
0.78186881542205811 0.50300240516662598 0.81500810384750366
0.88281422853469849 0.51326990127563477 0.82020694017410278
0.97699850797653198 0.50256693363189697 0.80957919359207153
0.34536442160606384 0.51695847511291504 0.77866989374160767
0.40067815780639648 0.52301156520843506 0.7832341194152832
0.50819438695907593 0.53918260335922241 0.78913229703903198
0.63495957851409912 0.56417077779769897 0.79854691028594971
0.75608325004577637 0.597572922706604 0.81418901681900024
0.86919230222702026 0.61180567741394043 0.82179087400436401
0.97604691982269287 0.60626327991485596 0.81363767385482788
0.30800452828407288 0.66396534442901611 0.78688269853591919
0.35693779587745667 0.66170245409011841 0.78768265247344971
0.44730693101882935 0.65778625011444092 0.78645843267440796
0.56576049327850342 0.65699261426925659 0.78721290826797485
0.71542215347290039 0.6918569803237915 0.80474936962127686
0.8531041145324707 0.72293555736541748 0.82476210594177246
0.97659611701965332 0.71916037797927856 0.82059192657470703
0.29722806811332703 0.82187223434448242 0.81378734111785889
0.35266625881195068 0.82004499435424805 0.81116014719009399
0.44692555069923401 0.818431556224823 0.81333976984024048
0.56505084037780762 0.81912612915039062 0.81772607564926147
0.69353950023651123 0.82509857416152954 0.81858170032501221
0.83219617605209351 0.83460646867752075 0.82464855909347534
0.96234321594238281 0.84028118848800659 0.82582050561904907
0.31932386755943298 0.96563923358917236 0.82845038175582886
0.36761325597763062 0.96585357189178467 0.83067947626113892
0.46008375287055969 0.96435916423797607 0.83038914203643799
0.57352727651596069 0.9634852409362793 0.83061879873275757
0.69463092088699341 0.96142852306365967 0.83299553394317627
0.79874664545059204 0.95433813333511353 0.81885433197021484
0.93663942813873291 0.95546478033065796 0.82160115242004395
0.60952234268188477 0.39070695638656616 0.94245237112045288
0.63297903537750244 0.39390257000923157 0.94315063953399658
0.68234014511108398 0.4078163206577301 0.94318592548370361
0.75312012434005737 0.42864614725112915 0.94445943832397461
0.8346632719039917 0.46339792013168335 0.94382721185684204
0.92210811376571655 0.50609749555587769 0.94378983974456787
0.99711447954177856 0.5063207745552063 0.95090985298156738
0.60163122415542603 0.43741148710250854 0.94259756803512573
0.62414681911468506 0.43950200080871582 0.94133949279785156
0.67495834827423096 0.44993692636489868 0.9430079460144043
0.74460721015930176 0.46707400679588318 0.94256597757339478
0.82844525575637817 0.49774914979934692 0.94221347570419312
0.91970336437225342 0.53413677215576172 0.94543987512588501
0.99123483896255493 0.535777747631073 0.94950783252716064
0.57395285367965698 0.50917273759841919 0.93853098154067993
0.6000635027885437 0.51658660173416138 0.93818223476409912
0.65562599897384644 0.5233885645866394 0.94220173358917236
0.72727048397064209 0.53875869512557983 0.9387022852897644
0.81635028123855591 0.56188362836837769 0.94096046686172485
0.90967839956283569 0.59501206874847412 0.94457906484603882
0.99395006895065308 0.59725052118301392 0.94867485761642456
0.49543103575706482 0.57927829027175903 0.93789136409759521
0.53362172842025757 0.58864521980285645 0.93934464454650879
0.60842043161392212 0.60048937797546387 0.9393310546875
0.69667667150497437 0.61431711912155151 0.93899261951446533
0.79209476709365845 0.63340413570404053 0.94013774394989014
0.89376318454742432 0.66149860620498657 0.94290637969970703
0.98811256885528564 0.67141944169998169 0.94968557357788086
0.3821847140789032 0.67388284206390381 0.93510109186172485
0.42313238978385925 0.67341607809066772 0.93397855758666992
0.49839773774147034 0.67141509056091309 0.93481439352035522
0.6158144474029541 0.68204194307327271 0.9396967887878418
0.75173681974411011 0.71357303857803345 0.94175517559051514
0.87894189357757568 0.74673497676849365 0.94849467277526855
0.9802669882774353 0.76623106002807617 0.95050781965255737
0.34298950433731079 0.81025999784469604 0.94294458627700806
0.37904518842697144 0.80949532985687256 0.94198042154312134
0.45926335453987122 0.80540478229522705 0.94275510311126709
0.55816370248794556 0.80247235298156738 0.94401776790618896
0.67912620306015015 0.80118972063064575 0.94431531429290771
0.83998304605484009 0.83334904909133911 0.94879871606826782
0.9730302095413208 0.86419117450714111 0.95674604177474976
0.32296890020370483 0.95826929807662964 0.95811313390731812
0.36670574545860291 0.95859462022781372 0.95731890201568604
0.44939419627189636 0.95832741260528564 0.95734971761703491
0.56585228443145752 0.95815491676330566 0.96003484725952148
0.69695150852203369 0.95813393592834473 0.96045553684234619
0.8326830267906189 0.96139317750930786 0.96273362636566162
0.96480274200439453 0.9659658670425415 0.96382969617843628
