luts/negative_new/fuji_160c_+.cube
# Created by: G'MIC (https://gmic.eu)
TITLE "fuji_160c_+"
# LUT size
LUT_3D_SIZE 13
# Data domain
DOMAIN_MIN 0.0 0.0 0.0
DOMAIN_MAX 1.0 1.0 1.0
# LUT data points
0.034334909170866013 0.046647045761346817 0.026341263204813004
0.086275272071361542 0.047586359083652496 0.025540610775351524
0.17227990925312042 0.040227912366390228 0.027257239446043968
0.26958295702934265 0.025607733055949211 0.028067944571375847
0.3809535801410675 0.0072480593807995319 0.025508657097816467
0.49802723526954651 0.0016736947000026703 0.022039001807570457
0.61061352491378784 0.0033483467996120453 0.018278757110238075
0.70777106285095215 0.0040018865838646889 0.016223398968577385
0.7935062050819397 0.0021319221705198288 0.010766168124973774
0.86575025320053101 0.022882558405399323 0.0077264523133635521
0.92560100555419922 0.11618689447641373 0.0096721723675727844
0.9770810604095459 0.20259320735931396 0.018323397263884544
0.99797219038009644 0.26904568076133728 0.040340647101402283
0.01864541694521904 0.1013711541891098 0.027409706264734268
0.074978910386562347 0.10189734399318695 0.024496341124176979
0.1685100644826889 0.099999010562896729 0.023987773805856705
0.27146536111831665 0.092222549021244049 0.024086328223347664
0.38215994834899902 0.071839384734630585 0.018793337047100067
0.49999329447746277 0.049332950264215469 0.01467024814337492
0.61122280359268188 0.03007577545940876 0.0078511405736207962
0.70970970392227173 0.028200769796967506 0.0074822069145739079
0.79173243045806885 0.047638703137636185 0.0044056912884116173
0.85921895503997803 0.10301711410284042 0.0071420110762119293
0.92156749963760376 0.18074898421764374 0.0094105144962668419
0.97577387094497681 0.24479527771472931 0.01386495865881443
0.99904102087020874 0.29773628711700439 0.033505726605653763
0.0026544309221208096 0.18111728131771088 0.019277729094028473
0.035694420337677002 0.17948539555072784 0.016719548031687737
0.14276207983493805 0.18155115842819214 0.014412255026400089
0.26346814632415771 0.18223430216312408 0.01169795636087656
0.38281646370887756 0.17660364508628845 0.0070590749382972717
0.49966630339622498 0.16414420306682587 0.0064578335732221603
0.60926187038421631 0.15846243500709534 0.0046216030605137348
0.70409667491912842 0.15980106592178345 0.0055293962359428406
0.78433489799499512 0.17754843831062317 0.0039855958893895149
0.85185712575912476 0.2127707451581955 0.0072875679470598698
0.91515541076660156 0.2561696469783783 0.0067359772510826588
0.96773594617843628 0.30174943804740906 0.010314537212252617
0.99706250429153442 0.34369751811027527 0.023522157222032547
0.00031913307611830533 0.27991199493408203 0.0084839165210723877
0.0059547722339630127 0.27309313416481018 0.0069350446574389935
0.092317782342433929 0.27336043119430542 0.004892297089099884
0.23927894234657288 0.28049999475479126 0.0052318945527076721
0.36975273489952087 0.28232449293136597 0.0047935936599969864
0.4928537905216217 0.27813079953193665 0.0066081928089261055
0.60111153125762939 0.2730383574962616 0.0052179074846208096
0.69540071487426758 0.27541857957839966 0.0092864092439413071
0.77461892366409302 0.285940021276474 0.0039370367303490639
0.84309029579162598 0.30905786156654358 0.0047177784144878387
0.90461337566375732 0.33843362331390381 0.0068134982138872147
0.95987844467163086 0.37054264545440674 0.0073132533580064774
0.99615901708602905 0.4003218412399292 0.013344857841730118
0 0.37756842374801636 0.0076143154874444008
8.9383589511271566e-05 0.3716493546962738 0.0044386172667145729
0.037969086319208145 0.36850264668464661 0.00099840352777391672
0.19701820611953735 0.3737642765045166 0.0014284619828686118
0.34020426869392395 0.37759554386138916 0.0020558226387947798
0.47192975878715515 0.38099995255470276 0.0032077564392238855
0.58556002378463745 0.38146457076072693 0.0037381788715720177
0.67929965257644653 0.37682399153709412 0.0039665820077061653
0.76178216934204102 0.37965101003646851 0.0031512691639363766
0.83057862520217896 0.39629900455474854 0.0048569324426352978
0.89343029260635376 0.41864588856697083 0.0078431377187371254
0.95179808139801025 0.44116479158401489 0.0062575098127126694
0.99397927522659302 0.46157753467559814 0.0062242094427347183
0 0.47068008780479431 0.0089864842593669891
0.0004857979656662792 0.46641048789024353 0.0058153490535914898
0.011735101230442524 0.46189558506011963 0.002123918617144227
0.14941927790641785 0.46180763840675354 0.00047303742030635476
0.3103487491607666 0.46452361345291138 0.00039850870962254703
0.44697445631027222 0.46944102644920349 0.002500137547031045
0.56559145450592041 0.4769538938999176 0.0032720228191465139
0.6611400842666626 0.4744563102722168 0.0034017376601696014
0.74541616439819336 0.47221401333808899 0.0040669310837984085
0.81656807661056519 0.47961282730102539 0.006388436071574688
0.8813289999961853 0.49526974558830261 0.0068402457982301712
0.94123125076293945 0.51034379005432129 0.004424629732966423
0.98736125230789185 0.52412271499633789 0.0043262704275548458
0 0.55384236574172974 0.0081092687323689461
0 0.55154180526733398 0.0052040549926459789
0.0042253979481756687 0.54591012001037598 0.002644961467012763
0.11463364213705063 0.54169076681137085 0.001949310302734375
0.29721525311470032 0.543892502784729 0.004161834716796875
0.42948326468467712 0.54597365856170654 0.0044653499498963356
0.5443604588508606 0.55140501260757446 0.0045041101984679699
0.64339905977249146 0.56009149551391602 0.004450435284525156
0.72816765308380127 0.56223803758621216 0.006159673910588026
0.80051654577255249 0.5663764476776123 0.0062611899338662624
0.86490029096603394 0.57243186235427856 0.004081306979060173
0.92772006988525391 0.57659351825714111 0.0039215688593685627
0.98021417856216431 0.5846865177154541 0.0042113359086215496
0 0.62437605857849121 0.0085405539721250534
0 0.62242531776428223 0.0060848160646855831
0.005498040933161974 0.61907923221588135 0.0049868565984070301
0.12842947244644165 0.61468470096588135 0.007941272109746933
0.29299631714820862 0.61389815807342529 0.012162750586867332
0.41756144165992737 0.61603415012359619 0.0095937689766287804
0.52416270971298218 0.61841017007827759 0.01050980482250452
0.61882936954498291 0.62323349714279175 0.0091197891160845757
0.70610642433166504 0.63111716508865356 0.010392745956778526
0.78463125228881836 0.64199280738830566 0.0052411099895834923
0.85032820701599121 0.64587825536727905 0.0047631957568228245
0.91234970092773438 0.64625453948974609 0.0046590319834649563
0.9718635082244873 0.64853191375732422 0.004972510039806366
5.6846467487048358e-05 0.69040596485137939 0.030660845339298248
0.0014298532623797655 0.68948262929916382 0.035844314843416214
0.041699726134538651 0.68759483098983765 0.042487289756536484
0.18269793689250946 0.68219226598739624 0.051844146102666855
0.30705207586288452 0.67944371700286865 0.058196078985929489
0.41658774018287659 0.6788981556892395 0.057946193963289261
0.51475298404693604 0.68150115013122559 0.055982239544391632
0.60398232936859131 0.68512243032455444 0.051629878580570221
0.68371152877807617 0.68966847658157349 0.054112900048494339
0.76078838109970093 0.69811487197875977 0.050131075084209442
0.83285188674926758 0.70904314517974854 0.048107702285051346
0.89834874868392944 0.71340477466583252 0.049684159457683563
0.96125984191894531 0.71628665924072266 0.063093714416027069
0.01180134154856205 0.75387120246887207 0.11316655576229095
0.04810681939125061 0.75374549627304077 0.1185082346200943
0.14628651738166809 0.75046038627624512 0.12385322898626328
0.24824702739715576 0.7446100115776062 0.13209627568721771
0.33918175101280212 0.74084049463272095 0.13705731928348541
0.42199167609214783 0.73969006538391113 0.13937525451183319
0.51242029666900635 0.74183714389801025 0.13557735085487366
0.59688049554824829 0.7450290322303772 0.13594375550746918
0.67134755849838257 0.74854820966720581 0.14195634424686432
0.74258166551589966 0.75295048952102661 0.14666438102722168
0.81054353713989258 0.75867766141891479 0.15102432668209076
0.88311290740966797 0.77328002452850342 0.16177895665168762
0.9489586353302002 0.77954500913619995 0.1825859546661377
0.14531813561916351 0.81520849466323853 0.20170979201793671
0.18774953484535217 0.81440740823745728 0.20303387939929962
0.24256666004657745 0.8117331862449646 0.20585376024246216
0.30924114584922791 0.80758726596832275 0.21095532178878784
0.37673908472061157 0.80427092313766479 0.21748752892017365
0.44272515177726746 0.80253565311431885 0.2208859920501709
0.51867926120758057 0.80339217185974121 0.22006882727146149
0.59391599893569946 0.80564039945602417 0.22338147461414337
0.66381090879440308 0.80765408277511597 0.23252259194850922
0.72932296991348267 0.81076633930206299 0.23918852210044861
0.79280507564544678 0.8143312931060791 0.24537380039691925
0.86075335741043091 0.82331305742263794 0.25294715166091919
0.93290942907333374 0.83575397729873657 0.27329489588737488
0.26807066798210144 0.87796670198440552 0.2931675910949707
0.29067724943161011 0.87659919261932373 0.29448139667510986
0.32551053166389465 0.87578320503234863 0.29758778214454651
0.36942002177238464 0.87381291389465332 0.30168983340263367
0.42011934518814087 0.87167841196060181 0.30815300345420837
0.47281426191329956 0.86982274055480957 0.31331726908683777
0.53229427337646484 0.8690456748008728 0.3177802562713623
0.59775209426879883 0.86920702457427979 0.32478058338165283
0.66192269325256348 0.87157398462295532 0.32855373620986938
0.72175699472427368 0.87404251098632812 0.33814495801925659
0.78346377611160278 0.87642145156860352 0.34588414430618286
0.84698605537414551 0.88030338287353516 0.35181790590286255
0.91196161508560181 0.88793665170669556 0.36438447237014771
0.36543723940849304 0.93866938352584839 0.40489447116851807
0.38017183542251587 0.93982303142547607 0.40769472718238831
0.40302428603172302 0.93953442573547363 0.41108471155166626
0.43352881073951721 0.93806672096252441 0.41420251131057739
0.47155365347862244 0.93625116348266602 0.42297148704528809
0.51267677545547485 0.93444621562957764 0.42826259136199951
0.55845892429351807 0.93347364664077759 0.43423807621002197
0.6147618293762207 0.93529427051544189 0.4440477192401886
0.66978877782821655 0.93413567543029785 0.44611662626266479
0.72547835111618042 0.93686068058013916 0.45814764499664307
0.78358131647109985 0.93960541486740112 0.46821117401123047
0.84298938512802124 0.94042843580245972 0.47810804843902588
0.90000271797180176 0.9445335865020752 0.49381527304649353
0.046190913766622543 0.048652440309524536 0.068491078913211823
0.097066976130008698 0.050749070942401886 0.068800680339336395
0.17866232991218567 0.043200235813856125 0.068428844213485718
0.27925264835357666 0.027885975316166878 0.068329453468322754
0.39104214310646057 0.011655740439891815 0.071203790605068207
0.50572961568832397 0.0055611105635762215 0.072931982576847076
0.61452943086624146 0.0051778755150735378 0.078536555171012878
0.71308493614196777 0.0048273573629558086 0.082036592066287994
0.79626679420471191 0.01590646430850029 0.080405548214912415
0.8651270866394043 0.064208671450614929 0.081530489027500153
0.92390555143356323 0.15408861637115479 0.088865123689174652
0.97436279058456421 0.22661784291267395 0.10116495192050934
0.99687755107879639 0.28526222705841064 0.12659840285778046
0.033607378602027893 0.10596922039985657 0.070921562612056732
0.097425006330013275 0.10800103843212128 0.073562666773796082
0.18119670450687408 0.1084371954202652 0.074368387460708618
0.2817816436290741 0.10209865123033524 0.075163714587688446
0.39345061779022217 0.086214907467365265 0.07130122184753418
0.5082741379737854 0.072712644934654236 0.070983648300170898
0.61760443449020386 0.061049859970808029 0.06946621835231781
0.71348577737808228 0.063244841992855072 0.069208674132823944
0.79233288764953613 0.091894514858722687 0.070228159427642822
0.85845732688903809 0.14075316488742828 0.073117949068546295
0.92141968011856079 0.20896428823471069 0.077690199017524719
0.9725416898727417 0.26391133666038513 0.092556744813919067
0.99665719270706177 0.31288865208625793 0.12108760327100754
0.0098049240186810493 0.18876804411411285 0.068444482982158661
0.070840023458003998 0.18951015174388885 0.069834254682064056
0.16890214383602142 0.1922338604927063 0.070916555821895599
0.27963876724243164 0.19322565197944641 0.067815221846103668
0.39550349116325378 0.18724524974822998 0.060997247695922852
0.5078892707824707 0.18060022592544556 0.05504067987203598
0.61488813161849976 0.17887911200523376 0.051362521946430206
0.70849967002868652 0.18446917831897736 0.051917191594839096
0.78582757711410522 0.20173898339271545 0.053520619869232178
0.85152995586395264 0.23080886900424957 0.057271365076303482
0.91414856910705566 0.27432736754417419 0.06160881370306015
0.96754390001296997 0.31435847282409668 0.079614646732807159
0.9962044358253479 0.35487452149391174 0.10832861810922623
0.0039398041553795338 0.28565841913223267 0.056212466210126877
0.025409175083041191 0.28150078654289246 0.058025240898132324
0.12231458723545074 0.28330191969871521 0.056258615106344223
0.26060634851455688 0.29106152057647705 0.04900626465678215
0.38791877031326294 0.29100325703620911 0.039573267102241516
0.50292420387268066 0.28476780652999878 0.032880522310733795
0.60818523168563843 0.28067708015441895 0.027400387451052666
0.69992929697036743 0.28420069813728333 0.031120868399739265
0.77707761526107788 0.29817503690719604 0.031802039593458176
0.84614968299865723 0.31821870803833008 0.033837832510471344
0.90632420778274536 0.34589964151382446 0.042344816029071808
0.96064496040344238 0.37855362892150879 0.059864342212677002
0.99521243572235107 0.40941724181175232 0.09475833922624588
0.0017451416933909059 0.38378226757049561 0.038833018392324448
0.0046277665533125401 0.37894663214683533 0.041659921407699585
0.075842328369617462 0.37641212344169617 0.046924978494644165
0.2246825248003006 0.38153350353240967 0.041433088481426239
0.36423909664154053 0.3857569694519043 0.034813661128282547
0.48746630549430847 0.39034357666969299 0.023482408374547958
0.59453338384628296 0.38716784119606018 0.016193494200706482
0.6856732964515686 0.38299894332885742 0.014183851890265942
0.76513582468032837 0.38782826066017151 0.014781623147428036
0.83300596475601196 0.40064635872840881 0.019932929426431656
0.89544773101806641 0.42095276713371277 0.028144776821136475
0.95189809799194336 0.44461926817893982 0.040848720818758011
0.99125820398330688 0.46727234125137329 0.075167335569858551
0.00050077249761670828 0.47602435946464539 0.031174648553133011
0.00028073179419152439 0.47240576148033142 0.031601324677467346
0.032354690134525299 0.46757736802101135 0.037454850971698761
0.18611955642700195 0.46780318021774292 0.036258459091186523
0.33127433061599731 0.47014659643173218 0.031440645456314087
0.45724859833717346 0.47525909543037415 0.024944350123405457
0.57294648885726929 0.48110777139663696 0.018484750762581825
0.66714107990264893 0.4804026186466217 0.013460556045174599
0.74834805727005005 0.47958099842071533 0.011058119125664234
0.81903529167175293 0.48314279317855835 0.012197606265544891
0.88292074203491211 0.49519464373588562 0.013295386917889118
0.94216269254684448 0.50957715511322021 0.022389834746718407
0.98780804872512817 0.52681928873062134 0.051284670829772949
0.00028139003552496433 0.55726450681686401 0.035918634384870529
0.00033976236591115594 0.55484229326248169 0.035227697342634201
0.014799813739955425 0.55035907030105591 0.039994783699512482
0.15701854228973389 0.54625058174133301 0.045042224228382111
0.31026086211204529 0.54693365097045898 0.042322661727666855
0.43586352467536926 0.54879724979400635 0.04169870913028717
0.54803180694580078 0.55511420965194702 0.03752836212515831
0.64668041467666626 0.5623469352722168 0.02641613595187664
0.73118084669113159 0.56733644008636475 0.018396295607089996
0.80242866277694702 0.56946194171905518 0.015134460292756557
0.86720556020736694 0.57194530963897705 0.012294529937207699
0.9291192889213562 0.57565206289291382 0.01270771399140358
0.98235583305358887 0.58443135023117065 0.031884916126728058
0.00051532819634303451 0.62836480140686035 0.059026844799518585
0.0010009167017415166 0.62586009502410889 0.058689311146736145
0.027353487908840179 0.62259525060653687 0.066458366811275482
0.17277123034000397 0.61701852083206177 0.075420394539833069
0.30968204140663147 0.61615782976150513 0.0743408203125
0.42476657032966614 0.61721324920654297 0.071567535400390625
0.52767044305801392 0.62017184495925903 0.075317755341529846
0.62044030427932739 0.6244666576385498 0.068809375166893005
0.709400475025177 0.63490778207778931 0.059332530945539474
0.78497993946075439 0.64278113842010498 0.049032621085643768
0.85190838575363159 0.64626818895339966 0.038414809852838516
0.91422712802886963 0.64658856391906738 0.034450545907020569
0.9720579981803894 0.64798051118850708 0.040473833680152893
0.0020160749554634094 0.69413381814956665 0.1030879020690918
0.0071533652953803539 0.69249457120895386 0.11018331348896027
0.079772099852561951 0.68956583738327026 0.11669234931468964
0.2151867151260376 0.68398171663284302 0.12556150555610657
0.3270476758480072 0.68107980489730835 0.13065959513187408
0.42693051695823669 0.68101942539215088 0.13015569746494293
0.52071475982666016 0.68213760852813721 0.13412144780158997
0.60642516613006592 0.68462634086608887 0.12667502462863922
0.68764996528625488 0.68962424993515015 0.12438170611858368
0.76179349422454834 0.69699513912200928 0.12495063245296478
0.83373367786407471 0.70774257183074951 0.12214258313179016
0.89936262369155884 0.71074134111404419 0.11863686144351959
0.96229010820388794 0.71381247043609619 0.12992827594280243
0.031271450221538544 0.75589275360107422 0.16574558615684509
0.087371364235877991 0.75485897064208984 0.17218899726867676
0.17482879757881165 0.75115746259689331 0.17550744116306305
0.26419773697853088 0.74479007720947266 0.18160085380077362
0.35516342520713806 0.741111159324646 0.18661731481552124
0.43473511934280396 0.74079817533493042 0.18994380533695221
0.52085047960281372 0.74247628450393677 0.19369633495807648
0.60123366117477417 0.74501025676727295 0.19024384021759033
0.67563498020172119 0.74862319231033325 0.19367393851280212
0.74515718221664429 0.7530064582824707 0.19860862195491791
0.81319218873977661 0.76035904884338379 0.2019428163766861
0.8849295973777771 0.77171921730041504 0.20662210881710052
0.94993311166763306 0.77791804075241089 0.22134146094322205
0.17068107426166534 0.81610411405563354 0.23830698430538177
0.20832529664039612 0.81563347578048706 0.23851343989372253
0.26005655527114868 0.81183576583862305 0.24066449701786041
0.31888315081596375 0.80699867010116577 0.24376168847084045
0.3874799907207489 0.80439358949661255 0.24882771074771881
0.45301559567451477 0.8034859299659729 0.252023845911026
0.52607065439224243 0.80428594350814819 0.25339731574058533
0.59700149297714233 0.805503249168396 0.25644758343696594
0.66670554876327515 0.80817937850952148 0.26136630773544312
0.73168671131134033 0.81057167053222656 0.26951861381530762
0.79549175500869751 0.81459230184555054 0.27561274170875549
0.86209088563919067 0.8216392993927002 0.27945241332054138
0.93356090784072876 0.83568602800369263 0.30061602592468262
0.27738484740257263 0.87816137075424194 0.3195587694644928
0.30116456747055054 0.8779219388961792 0.31894600391387939
0.33306622505187988 0.87669360637664795 0.32014074921607971
0.37599524855613708 0.87402826547622681 0.32433432340621948
0.42569407820701599 0.8720695972442627 0.33063408732414246
0.47849082946777344 0.87053602933883667 0.33673667907714844
0.53745341300964355 0.86956453323364258 0.33973205089569092
0.59970265626907349 0.8691825270652771 0.34524106979370117
0.6632646918296814 0.86969012022018433 0.35076963901519775
0.72367584705352783 0.87267297506332397 0.35645204782485962
0.78435319662094116 0.87585598230361938 0.36386588215827942
0.84773677587509155 0.88072067499160767 0.37168315052986145
0.91349595785140991 0.88925546407699585 0.38498032093048096
0.36961251497268677 0.93775254487991333 0.41974887251853943
0.38426730036735535 0.93920713663101196 0.4214853048324585
0.40381157398223877 0.93729561567306519 0.42081555724143982
0.43684732913970947 0.93669992685317993 0.42704498767852783
0.47318419814109802 0.93495219945907593 0.43384501338005066
0.51708012819290161 0.93570291996002197 0.44455048441886902
0.56405282020568848 0.93427509069442749 0.44941997528076172
0.61620551347732544 0.93511718511581421 0.45766106247901917
0.67128896713256836 0.93386936187744141 0.46298092603683472
0.72709929943084717 0.93635660409927368 0.47176668047904968
0.7842448353767395 0.9391600489616394 0.48175063729286194
0.84403544664382935 0.94123607873916626 0.49040934443473816
0.90105247497558594 0.94416582584381104 0.50405263900756836
0.058967411518096924 0.057389680296182632 0.13474741578102112
0.11183992028236389 0.057310920208692551 0.13640037178993225
0.18808093667030334 0.049974061548709869 0.13471333682537079
0.2874639630317688 0.029442222788929939 0.1322811096906662
0.40188327431678772 0.01167004182934761 0.13532741367816925
0.5185248851776123 0.0066134436056017876 0.14411883056163788
0.62630927562713623 0.0062033561989665031 0.15475986897945404
0.72269779443740845 0.015236604027450085 0.16487650573253632
0.80068254470825195 0.068180620670318604 0.17624843120574951
0.86533784866333008 0.1351914256811142 0.18616476655006409
0.92395079135894775 0.20259253680706024 0.19605664908885956
0.97484701871871948 0.25660842657089233 0.20402613282203674
0.99785298109054565 0.30770066380500793 0.21944437921047211
0.051485653966665268 0.10787622630596161 0.13932621479034424
0.11540614068508148 0.11246053874492645 0.14280837774276733
0.195286825299263 0.11648213863372803 0.14346128702163696
0.29554936289787292 0.10757751762866974 0.14247269928455353
0.40722617506980896 0.091019287705421448 0.14348943531513214
0.52020025253295898 0.086524277925491333 0.15235030651092529
0.62612497806549072 0.095219582319259644 0.16002419590950012
0.71953833103179932 0.11440414935350418 0.16691923141479492
0.79660546779632568 0.14821058511734009 0.17419762909412384
0.86051613092422485 0.19193530082702637 0.17919224500656128
0.92041879892349243 0.24373400211334229 0.18803463876247406
0.97218132019042969 0.28766480088233948 0.19850866496562958
0.99671852588653564 0.33325532078742981 0.21543622016906738
0.026551699265837669 0.19296418130397797 0.14615683257579803
0.1034497395157814 0.19601435959339142 0.15062324702739716
0.19782355427742004 0.2005736380815506 0.15110693871974945
0.30015790462493896 0.19986315071582794 0.14954873919487
0.41208088397979736 0.19701318442821503 0.14884443581104279
0.52202057838439941 0.19935214519500732 0.1546151340007782
0.62246197462081909 0.20642399787902832 0.15457327663898468
0.71370631456375122 0.21648338437080383 0.15833897888660431
0.78859573602676392 0.23577983677387238 0.16449111700057983
0.85403025150299072 0.2623361349105835 0.16819554567337036
0.91117697954177856 0.30037385225296021 0.17655995488166809
0.96797770261764526 0.33433595299720764 0.19064299762248993
0.99664759635925293 0.37063604593276978 0.21143099665641785
0.0071511361747980118 0.29684197902679443 0.14897382259368896
0.074692040681838989 0.29448521137237549 0.15192647278308868
0.174364373087883 0.29503890872001648 0.15157140791416168
0.2908073365688324 0.29735338687896729 0.14917723834514618
0.40965244174003601 0.29564538598060608 0.14681826531887054
0.51853185892105103 0.29489675164222717 0.14049734175205231
0.6170470118522644 0.29971930384635925 0.13648709654808044
0.70522487163543701 0.30395340919494629 0.14170742034912109
0.77856749296188354 0.31875276565551758 0.14541229605674744
0.84652829170227051 0.33634307980537415 0.15272964537143707
0.90470141172409058 0.36436682939529419 0.16371555626392365
0.96107083559036255 0.39387202262878418 0.18092435598373413
0.99540477991104126 0.42154833674430847 0.20408369600772858
0.0059347115457057953 0.39724117517471313 0.15035358071327209
0.042066432535648346 0.39328935742378235 0.14823158085346222
0.14472609758377075 0.3893754780292511 0.15000276267528534
0.26655393838882446 0.38936987519264221 0.14770877361297607
