luts/negative_new/fuji_160c_++.cube
# Created by: G'MIC (https://gmic.eu)
TITLE "fuji_160c_++"
# LUT size
LUT_3D_SIZE 5
# Data domain
DOMAIN_MIN 0.0 0.0 0.0
DOMAIN_MAX 1.0 1.0 1.0
# LUT data points
0.070051617920398712 0.089225977659225464 0.056576717644929886
0.24986612796783447 0.086846187710762024 0.054927721619606018
0.53974807262420654 0.033274959772825241 0.05452403798699379
0.80239957571029663 0.046522971242666245 0.048286125063896179
0.97490608692169189 0.23944324254989624 0.075622916221618652
0.0068299537524580956 0.26124253869056702 0.047622308135032654
0.21505726873874664 0.26748144626617432 0.04061310738325119
0.52953922748565674 0.26487439870834351 0.015788523480296135
0.78625190258026123 0.28785461187362671 0.01445115078240633
0.96493113040924072 0.36794254183769226 0.030940396711230278
0 0.50533604621887207 0.0081004723906517029
0.066697709262371063 0.49965506792068481 0.010473228991031647
0.47207480669021606 0.51345032453536987 0.0050464854575693607
0.75166046619415283 0.52563208341598511 0.0047830617986619473
0.93384754657745361 0.5514371395111084 0.0043211993761360645
0.0022932463325560093 0.71060460805892944 0.081861354410648346
0.10863266140222549 0.70639526844024658 0.094230011105537415
0.45507267117500305 0.69937336444854736 0.099779821932315826
0.69402122497558594 0.70759493112564087 0.1012856736779213
0.90503114461898804 0.74042367935180664 0.1172633171081543
0.29267635941505432 0.90474057197570801 0.3510621190071106
0.38071569800376892 0.90264666080474854 0.36013978719711304
0.52334094047546387 0.89906740188598633 0.38221240043640137
0.70075219869613647 0.90567964315414429 0.40139639377593994
0.88168507814407349 0.91986691951751709 0.43856325745582581
0.099930800497531891 0.1062670573592186 0.20843566954135895
0.27004438638687134 0.10469344258308411 0.21157367527484894
0.56392252445220947 0.042329899966716766 0.21986261010169983
0.81369388103485107 0.12506291270256042 0.24925234913825989
0.97325855493545532 0.29356816411018372 0.29308357834815979
0.034742496907711029 0.2764790952205658 0.22921958565711975
0.27884969115257263 0.29033070802688599 0.23162221908569336
0.56016689538955688 0.29223087430000305 0.23870840668678284
0.79775941371917725 0.32624608278274536 0.24558435380458832
0.96213763952255249 0.39713624119758606 0.2810937762260437
0.012056238949298859 0.53519481420516968 0.24836990237236023
0.21520863473415375 0.52832609415054321 0.23905481398105621
0.51691776514053345 0.52530592679977417 0.23101139068603516
0.75657564401626587 0.53521555662155151 0.21909599006175995
0.93626582622528076 0.55736076831817627 0.23534552752971649
0.012596983462572098 0.72113442420959473 0.27365729212760925
0.23325476050376892 0.71445083618164062 0.27757963538169861
0.48054146766662598 0.70329171419143677 0.2848605215549469
0.7039305567741394 0.71431392431259155 0.28390654921531677
0.90201306343078613 0.73697328567504883 0.29130285978317261
0.31529808044433594 0.90423464775085449 0.42678186297416687
0.39363887906074524 0.9027826189994812 0.43520760536193848
0.5312686562538147 0.90018266439437866 0.45545092225074768
0.69990307092666626 0.90192574262619019 0.46764352917671204
0.87937426567077637 0.91766136884689331 0.49927243590354919
0.15958668291568756 0.13277697563171387 0.4611365795135498
0.33063498139381409 0.1352468729019165 0.47375872731208801
0.59067612886428833 0.12233085185289383 0.49848181009292603
0.81759446859359741 0.082788921892642975 0.48380985856056213
0.97565525770187378 0.26869598031044006 0.50419723987579346
0.13457430899143219 0.2715645432472229 0.47129705548286438
0.33428290486335754 0.29947662353515625 0.4815039336681366
0.58870244026184082 0.32626509666442871 0.50556498765945435
0.80671602487564087 0.32918024063110352 0.50420773029327393
0.9630429744720459 0.41882658004760742 0.52762633562088013
0.045951545238494873 0.54464411735534668 0.51256495714187622
0.32178792357444763 0.54724198579788208 0.51697468757629395
0.57756370306015015 0.55600863695144653 0.52771800756454468
0.77152806520462036 0.56622529029846191 0.5263134241104126
0.93456679582595825 0.59224313497543335 0.54202336072921753
0.3049149215221405 0.74282723665237427 0.54692453145980835
0.40775573253631592 0.73718583583831787 0.54468441009521484
0.54177272319793701 0.724293053150177 0.52590954303741455
0.71864122152328491 0.71984326839447021 0.51951569318771362
0.91101241111755371 0.73296284675598145 0.51927942037582397
0.38696512579917908 0.91394299268722534 0.58820849657058716
0.42524629831314087 0.91109424829483032 0.57999086380004883
0.54757809638977051 0.90792334079742432 0.58532446622848511
0.70272326469421387 0.9099419116973877 0.59705632925033569
0.88578838109970093 0.92069625854492188 0.61548078060150146
0.33079448342323303 0.17733688652515411 0.70099443197250366
0.45087867975234985 0.18563766777515411 0.7069661021232605
0.6423301100730896 0.22326956689357758 0.72194868326187134
0.81755238771438599 0.282510906457901 0.73696839809417725
0.95815324783325195 0.31618443131446838 0.71777588129043579
0.32882025837898254 0.321155846118927 0.69969302415847778
0.44368243217468262 0.33166235685348511 0.70769608020782471
0.6338234543800354 0.36852118372917175 0.72069782018661499
0.80602246522903442 0.41581630706787109 0.73823851346969604
0.95333069562911987 0.43242806196212769 0.72042155265808105
0.21980917453765869 0.49812933802604675 0.69228041172027588
0.3752189576625824 0.51259511709213257 0.69993656873703003
0.59726256132125854 0.55292177200317383 0.71793258190155029
0.78099411725997925 0.59551101922988892 0.73714214563369751
0.93960541486740112 0.59657460451126099 0.73325735330581665
0.3237859308719635 0.73648631572723389 0.73388749361038208
0.41970503330230713 0.73803061246871948 0.73504817485809326
0.58305919170379639 0.74185985326766968 0.73940646648406982
0.75723755359649658 0.75177657604217529 0.74741941690444946
0.92475056648254395 0.75842809677124023 0.75077158212661743
0.43752071261405945 0.92524832487106323 0.77193230390548706
0.48987635970115662 0.92456281185150146 0.77212691307067871
0.60127592086791992 0.92377519607543945 0.77052134275436401
0.71984994411468506 0.91620612144470215 0.75265884399414062
0.9033997654914856 0.92684930562973022 0.76621031761169434
0.57252711057662964 0.35838249325752258 0.91334497928619385
0.62243717908859253 0.36753109097480774 0.91507089138031006
0.72461229562759399 0.40443789958953857 0.91402804851531982
0.84505850076675415 0.47637844085693359 0.91711413860321045
0.97458308935165405 0.51409196853637695 0.92169797420501709
0.55971145629882812 0.44773739576339722 0.91204541921615601
0.60910463333129883 0.45677259564399719 0.90947961807250977
0.71379345655441284 0.48608013987541199 0.91007989645004272
0.83724111318588257 0.54269099235534668 0.91434675455093384
0.96866476535797119 0.5699002742767334 0.92114025354385376
0.48221734166145325 0.56837141513824463 0.90850210189819336
0.55458086729049683 0.58319240808486938 0.90936118364334106
0.67991536855697632 0.60526597499847412 0.90920776128768921
0.81641507148742676 0.6428406834602356 0.91459065675735474
0.9565356969833374 0.66397339105606079 0.92157238721847534
0.38782018423080444 0.72268968820571899 0.9092566967010498
0.45303571224212646 0.71912389993667603 0.90785187482833862
0.57975834608078003 0.71638947725296021 0.9084782600402832
0.77422022819519043 0.75178772211074829 0.91936486959457397
0.95003193616867065 0.79105764627456665 0.93168050050735474
0.43316546082496643 0.92715358734130859 0.93505626916885376
0.48178532719612122 0.92842626571655273 0.93733125925064087
0.59035462141036987 0.93003618717193604 0.93872714042663574
0.74671971797943115 0.92902117967605591 0.93867260217666626
0.93914663791656494 0.94102329015731812 0.94397097826004028
