luts/negative_new/fuji_400h_+.cube
# Created by: G'MIC (https://gmic.eu)
TITLE "fuji_400h_+"
# LUT size
LUT_3D_SIZE 5
# Data domain
DOMAIN_MIN 0.0 0.0 0.0
DOMAIN_MAX 1.0 1.0 1.0
# LUT data points
0.10233275592327118 0.094878174364566803 0.044219836592674255
0.2875155508518219 0.089497573673725128 0.041437994688749313
0.60022431612014771 0.014443610794842243 0.024885708466172218
0.85668987035751343 0.045743260532617569 0.0077407089993357658
0.99805587530136108 0.22636622190475464 0.0048040803521871567
0.043238695710897446 0.26071351766586304 0.038130111992359161
0.26120293140411377 0.26827722787857056 0.018158512189984322
0.58299177885055542 0.28059479594230652 0.0064806919544935226
0.84152096509933472 0.30786174535751343 0.0037038614973425865
0.99614232778549194 0.36866843700408936 0.0017723831115290523
0.0013698652619495988 0.51252418756484985 0.019729001447558403
0.1863371878862381 0.50794690847396851 0.035066448152065277
0.51937627792358398 0.528453528881073 0.0040365480817854404
0.7894899845123291 0.54878979921340942 0.00069071451434865594
0.97559988498687744 0.55917108058929443 0.0038763608317822218
0.0069780386984348297 0.726215660572052 0.1517106294631958
0.22314862906932831 0.71760720014572144 0.17147088050842285
0.49257171154022217 0.71963506937026978 0.15645374357700348
0.71988815069198608 0.73418468236923218 0.066468663513660431
0.94762188196182251 0.76319873332977295 0.009550042450428009
0.35316926240921021 0.92360776662826538 0.44632890820503235
0.42301562428474426 0.92054158449172974 0.45743101835250854
0.55430322885513306 0.91745519638061523 0.48428758978843689
0.71272420883178711 0.92447495460510254 0.46732285618782043
0.90608721971511841 0.9408678412437439 0.44536808133125305
0.14674557745456696 0.10945916175842285 0.23724780976772308
0.31675994396209717 0.099259801208972931 0.23847019672393799
0.62454748153686523 0.0061377133242785931 0.25179404020309448
0.86881023645401001 0.063083678483963013 0.26750469207763672
0.99499249458312988 0.26904416084289551 0.30301794409751892
0.073311224579811096 0.28978312015533447 0.2558026909828186
0.31505361199378967 0.29050096869468689 0.26027417182922363
0.61691242456436157 0.29470920562744141 0.26061716675758362
0.84784424304962158 0.32849228382110596 0.26003512740135193
0.99244087934494019 0.39387944340705872 0.28062865138053894
0.061356130987405777 0.55682843923568726 0.28561276197433472
0.28849944472312927 0.54531657695770264 0.28395384550094604
0.56102579832077026 0.54412579536437988 0.25958946347236633
0.80162966251373291 0.55302441120147705 0.20293313264846802
0.97875297069549561 0.5650067925453186 0.18973013758659363
0.10646504163742065 0.74451291561126709 0.32962268590927124
0.30790901184082031 0.73376744985580444 0.34162500500679016
0.50843364000320435 0.7245718240737915 0.33848223090171814
0.73379099369049072 0.74152112007141113 0.30332708358764648
0.94870853424072266 0.76343953609466553 0.26111426949501038
0.37568464875221252 0.92563909292221069 0.51180756092071533
0.43910369277000427 0.92050611972808838 0.51508831977844238
0.56457531452178955 0.91717123985290527 0.53856265544891357
0.72011053562164307 0.92175287008285522 0.53509259223937988
0.90548348426818848 0.93752592802047729 0.51295316219329834
0.20796433091163635 0.12054845690727234 0.53226053714752197
0.3847719132900238 0.11569022387266159 0.54267841577529907
0.64771896600723267 0.071634493768215179 0.57008391618728638
0.86138975620269775 0.015558998100459576 0.55637460947036743
0.99502557516098022 0.2436520904302597 0.55712282657623291
0.15996332466602325 0.28117313981056213 0.54419732093811035
0.37776511907577515 0.30427980422973633 0.55642235279083252
0.63583159446716309 0.32885035872459412 0.57210224866867065
0.85013437271118164 0.32949212193489075 0.56685352325439453
0.99136686325073242 0.41271692514419556 0.57241189479827881
0.037484291940927505 0.57199287414550781 0.57131087779998779
0.34596437215805054 0.5747484564781189 0.57103455066680908
0.60975402593612671 0.58128511905670166 0.58028429746627808
0.8062969446182251 0.58697450160980225 0.57442814111709595
0.97322452068328857 0.60441857576370239 0.57369226217269897
0.31897217035293579 0.77332919836044312 0.59062296152114868
0.4302925169467926 0.76730448007583618 0.59156715869903564
0.56877809762954712 0.75264990329742432 0.58185571432113647
0.74423819780349731 0.75570559501647949 0.56512868404388428
0.95189470052719116 0.75637364387512207 0.53575402498245239
0.44023123383522034 0.93456876277923584 0.63699746131896973
0.47561308741569519 0.93070453405380249 0.63270777463912964
0.5863116979598999 0.92519509792327881 0.64168399572372437
0.73204129934310913 0.92700177431106567 0.65170121192932129
0.9130474328994751 0.93904048204421997 0.6372724175453186
0.40312942862510681 0.16168104112148285 0.75900059938430786
0.51126325130462646 0.17624677717685699 0.76098370552062988
0.69234991073608398 0.21088920533657074 0.77043795585632324
0.8563462495803833 0.27595025300979614 0.77428251504898071
0.99318063259124756 0.29352927207946777 0.75682133436203003
0.38119858503341675 0.32657846808433533 0.75227576494216919
0.49378314614295959 0.34092283248901367 0.75544297695159912
0.67716741561889648 0.37900444865226746 0.76700824499130249
0.84488904476165771 0.42182138562202454 0.77518731355667114
0.98311513662338257 0.43695709109306335 0.75822705030441284
0.25044086575508118 0.51531481742858887 0.73960918188095093
0.40025228261947632 0.52375262975692749 0.74531877040863037
0.62899839878082275 0.57349205017089844 0.75533467531204224
0.81370526552200317 0.61842435598373413 0.76831269264221191
0.97689616680145264 0.61456441879272461 0.76458925008773804
0.32052862644195557 0.76814985275268555 0.76432925462722778
0.42775171995162964 0.76640814542770386 0.76311194896697998
0.60036563873291016 0.77000546455383301 0.76673275232315063
0.78517186641693115 0.78510677814483643 0.77287709712982178
0.95763623714447021 0.7887197732925415 0.76728367805480957
0.45880138874053955 0.9510807991027832 0.78334134817123413
0.51923561096191406 0.94915592670440674 0.78722721338272095
0.64543372392654419 0.94357240200042725 0.79092544317245483
0.76191449165344238 0.93310713768005371 0.78013771772384644
0.93101537227630615 0.94088417291641235 0.78210699558258057
0.60890483856201172 0.3749237060546875 0.93156367540359497
0.65026271343231201 0.38396060466766357 0.92715317010879517
0.75235003232955933 0.428000807762146 0.92788445949554443
0.87637484073638916 0.50527393817901611 0.92893838882446289
0.98407644033432007 0.53787493705749512 0.92878121137619019
0.59530150890350342 0.47381514310836792 0.92759490013122559
0.64209920167922974 0.48504674434661865 0.9268878698348999
0.74003833532333374 0.51290524005889893 0.92617607116699219
0.86548364162445068 0.56693941354751587 0.92516696453094482
0.99235326051712036 0.59847557544708252 0.93133777379989624
0.52845567464828491 0.59722745418548584 0.92320936918258667
0.59382742643356323 0.61359411478042603 0.92174410820007324
0.71016418933868408 0.63565903902053833 0.92141711711883545
0.84918785095214844 0.6756054162979126 0.92492610216140747
0.97929102182388306 0.70002800226211548 0.92782801389694214
0.43398228287696838 0.74717444181442261 0.91951262950897217
0.49118134379386902 0.74684089422225952 0.92111855745315552
0.61696219444274902 0.74760335683822632 0.91851001977920532
0.80755585432052612 0.78553229570388794 0.92018699645996094
0.97597116231918335 0.824066162109375 0.9328920841217041
0.45228210091590881 0.94892734289169312 0.93688535690307617
0.50827956199645996 0.94734162092208862 0.93629759550094604
0.62735551595687866 0.95067459344863892 0.93791300058364868
0.78673356771469116 0.9474518895149231 0.93983340263366699
0.96968215703964233 0.95681965351104736 0.94385802745819092
