luts/negative_new/fuji_800z.cube
# Created by: G'MIC (https://gmic.eu)
TITLE "fuji_800z"
# LUT size
LUT_3D_SIZE 5
# Data domain
DOMAIN_MIN 0.0 0.0 0.0
DOMAIN_MAX 1.0 1.0 1.0
# LUT data points
0.063456036150455475 0.063654772937297821 0.052603807300329208
0.26133447885513306 0.046486798673868179 0.049454484134912491
0.58339065313339233 0.003820142475888133 0.031921491026878357
0.86179542541503906 0.0054920422844588757 0.0068773007951676846
1 0.077841736376285553 0.0011917114024981856
0.066004730761051178 0.22563375532627106 0.081633515655994415
0.23331773281097412 0.25582671165466309 0.049729336053133011
0.57034265995025635 0.28142222762107849 0.0094993440434336662
0.84256488084793091 0.28909128904342651 0.0039215688593685627
0.99729496240615845 0.32902112603187561 0.0020017137285321951
0.07333807647228241 0.44022995233535767 0.13088807463645935
0.21254585683345795 0.43130025267601013 0.12905856966972351
0.50700175762176514 0.52848535776138306 0.044269457459449768
0.80433946847915649 0.57451522350311279 0.0039803748950362206
0.97610479593276978 0.55941230058670044 5.4931639169808477e-05
0.21926489472389221 0.64432930946350098 0.22800430655479431
0.29153764247894287 0.62987583875656128 0.22772349417209625
0.46892562508583069 0.65885376930236816 0.22314634919166565
0.72829371690750122 0.73574590682983398 0.21749767661094666
0.95965093374252319 0.78787350654602051 0.19675125181674957
0.53852230310440063 0.87031513452529907 0.5263981819152832
0.56333142518997192 0.86664193868637085 0.52558451890945435
0.63026797771453857 0.86236715316772461 0.53318655490875244
0.76031500101089478 0.89861363172531128 0.55610543489456177
0.91387790441513062 0.93174225091934204 0.57248383760452271
0.095953740179538727 0.077720791101455688 0.22249813377857208
0.28781217336654663 0.067986927926540375 0.23276399075984955
0.64205604791641235 0.0014919206732884049 0.25236615538597107
0.8874891996383667 0.0033912358339875937 0.25094538927078247
0.99963486194610596 0.10018140077590942 0.25194025039672852
0.072234824299812317 0.27710214257240295 0.24215947091579437
0.29660752415657043 0.27990216016769409 0.25498053431510925
0.61337894201278687 0.27689909934997559 0.25097578763961792
0.85532635450363159 0.28755539655685425 0.23762862384319305
0.99774718284606934 0.33608740568161011 0.2409539520740509
0.20155182480812073 0.51504534482955933 0.29155710339546204
0.3081575334072113 0.48867198824882507 0.28411921858787537
0.53920835256576538 0.54419100284576416 0.27504593133926392
0.80700373649597168 0.567524254322052 0.23163734376430511
0.98223459720611572 0.56444042921066284 0.21362954378128052
0.308481365442276 0.67917931079864502 0.34667053818702698
0.36560225486755371 0.66482722759246826 0.34110978245735168
0.49321505427360535 0.66286861896514893 0.33039981126785278
0.73984599113464355 0.74158543348312378 0.36270835995674133
0.95517045259475708 0.78505629301071167 0.35813519358634949
0.55240869522094727 0.87613290548324585 0.56665217876434326
0.57932734489440918 0.87475669384002686 0.5715833306312561
0.63501846790313721 0.8643757700920105 0.56838536262512207
0.76315712928771973 0.89464819431304932 0.59373080730438232
0.91415053606033325 0.93397039175033569 0.62114477157592773
0.17024190723896027 0.10091220587491989 0.49708610773086548
0.35482287406921387 0.1045718640089035 0.51018929481506348
0.63773864507675171 0.064377866685390472 0.55124473571777344
0.91404128074645996 0.0057881372049450874 0.55944550037384033
1 0.20012985169887543 0.53805446624755859
0.12685438990592957 0.27384781837463379 0.51146525144577026
0.34958520531654358 0.2999301552772522 0.52893245220184326
0.63547307252883911 0.32422930002212524 0.56057876348495483
0.89146322011947632 0.33840441703796387 0.55964338779449463
0.99867802858352661 0.39703559875488281 0.55421596765518188
0.16982880234718323 0.57918798923492432 0.55030220746994019
0.37226840853691101 0.58146941661834717 0.55549699068069458
0.61351978778839111 0.58371651172637939 0.56625223159790039
0.82167905569076538 0.58731085062026978 0.55080306529998779
0.98587995767593384 0.58784610033035278 0.55170047283172607
0.46019703149795532 0.75119704008102417 0.58736991882324219
0.51274579763412476 0.74087584018707275 0.58470743894577026
0.5801318883895874 0.70641165971755981 0.55036658048629761
0.76358604431152344 0.75642102956771851 0.57843446731567383
0.9536166787147522 0.77525728940963745 0.56640321016311646
0.59378325939178467 0.89796906709671021 0.67000287771224976
0.61316108703613281 0.89395773410797119 0.66701394319534302
0.66063672304153442 0.87971967458724976 0.65747135877609253
0.76348328590393066 0.89192312955856323 0.66708636283874512
0.91559028625488281 0.93459218740463257 0.70038235187530518
0.34822660684585571 0.15662330389022827 0.74570339918136597
0.46587049961090088 0.16420195996761322 0.74874895811080933
0.66560631990432739 0.20924919843673706 0.76086980104446411
0.86810028553009033 0.27408674359321594 0.78245353698730469
0.99371039867401123 0.33520299196243286 0.7762792706489563
0.33616894483566284 0.32390785217285156 0.74405950307846069
0.45787447690963745 0.33471333980560303 0.74770075082778931
0.65739983320236206 0.37334790825843811 0.75854402780532837
0.85115903615951538 0.43284502625465393 0.78119045495986938
0.99606776237487793 0.47768920660018921 0.78127825260162354
0.21878451108932495 0.51698791980743408 0.72922241687774658
0.37349468469619751 0.52475816011428833 0.73632508516311646
0.62352091073989868 0.57312530279159546 0.75483548641204834
0.82902663946151733 0.62324780225753784 0.77715134620666504
0.99129974842071533 0.65107607841491699 0.78981149196624756
0.46135607361793518 0.77453184127807617 0.76666468381881714
0.52310335636138916 0.77549219131469727 0.77080351114273071
0.65873491764068604 0.77343225479125977 0.77447891235351562
0.80057781934738159 0.78266578912734985 0.78046011924743652
0.96016526222229004 0.79093164205551147 0.77468609809875488
0.65451925992965698 0.93588840961456299 0.80870568752288818
0.67723983526229858 0.93323397636413574 0.80780184268951416
0.72657865285873413 0.92532682418823242 0.80425077676773071
0.78458380699157715 0.90699648857116699 0.78240311145782471
0.92938661575317383 0.94230860471725464 0.81016111373901367
0.58319079875946045 0.36715370416641235 0.92835038900375366
0.63649386167526245 0.37693601846694946 0.92729741334915161
0.7517816424369812 0.42143940925598145 0.92603427171707153
0.88159859180450439 0.49877804517745972 0.9262465238571167
0.99416697025299072 0.54276174306869507 0.93185150623321533
0.57789355516433716 0.46651819348335266 0.92670208215713501
0.63137495517730713 0.47271040081977844 0.92324495315551758
0.74337756633758545 0.51084154844284058 0.92329102754592896
0.87465935945510864 0.56817853450775146 0.92555588483810425
0.99095875024795532 0.60582661628723145 0.93090152740478516
0.511851966381073 0.59289050102233887 0.91799086332321167
0.59110218286514282 0.60927468538284302 0.92019057273864746
0.71779799461364746 0.63219338655471802 0.91996246576309204
0.85860908031463623 0.67502796649932861 0.92200726270675659
0.98497891426086426 0.70748579502105713 0.9310944676399231
0.47952857613563538 0.76141989231109619 0.91816776990890503
0.52380192279815674 0.75738966464996338 0.91783392429351807
0.63029187917709351 0.74751454591751099 0.91712290048599243
0.81657916307449341 0.78752017021179199 0.92347586154937744
0.97099554538726807 0.83178836107254028 0.93365669250488281
0.63978660106658936 0.95034468173980713 0.93090736865997314
0.6706281304359436 0.94897359609603882 0.93113124370574951
0.73692560195922852 0.94880306720733643 0.93411248922348022
0.83578169345855713 0.94463211297988892 0.93675482273101807
0.95663446187973022 0.95433956384658813 0.94034671783447266
