luts/negative_new/fuji_160c_-.cube
# Created by: G'MIC (https://gmic.eu)
TITLE "fuji_160c_-"
# LUT size
LUT_3D_SIZE 5
# Data domain
DOMAIN_MIN 0.0 0.0 0.0
DOMAIN_MAX 1.0 1.0 1.0
# LUT data points
0.031921640038490295 0.036734294146299362 0.029665568843483925
0.32013207674026489 0.012736435979604721 0.029538756236433983
0.62623101472854614 0.0020225225016474724 0.034758534282445908
0.84282827377319336 0.015394218266010284 0.044917251914739609
0.99222713708877563 0.24064254760742188 0.10131312161684036
0.001808600383810699 0.30061107873916626 0.017587460577487946
0.2697775661945343 0.30045938491821289 0.0090545658022165298
0.61041891574859619 0.27578452229499817 0.0078500183299183846
0.816974937915802 0.28983372449874878 0.019049610942602158
0.985556960105896 0.37272810935974121 0.06011485680937767
0.00012960995081812143 0.53824889659881592 0.043512068688869476
0.14230060577392578 0.53142017126083374 0.060955826193094254
0.51398736238479614 0.53486377000808716 0.038587979972362518
0.76497042179107666 0.53883808851242065 0.0082382354885339737
0.96297973394393921 0.55888712406158447 0.0067433672957122326
0.00044067981070838869 0.7183416485786438 0.16059136390686035
0.18265092372894287 0.71285027265548706 0.17039361596107483
0.46792247891426086 0.71274006366729736 0.17464591562747955
0.70083260536193848 0.72000384330749512 0.15636575222015381
0.9284089207649231 0.75855231285095215 0.12613534927368164
0.18942400813102722 0.94014722108840942 0.32381996512413025
0.31258240342140198 0.93133533000946045 0.32819673418998718
0.49442055821418762 0.93473154306411743 0.35237148404121399
0.69506996870040894 0.93656182289123535 0.35413867235183716
0.89983922243118286 0.94927859306335449 0.36414071917533875
0.061866190284490585 0.057600416243076324 0.28154417872428894
0.34625589847564697 0.036159995943307877 0.28952619433403015
0.63617449998855591 0.013473570346832275 0.27290794253349304
0.83616453409194946 0.18358446657657623 0.30895093083381653
0.98920834064483643 0.30898138880729675 0.34124037623405457
0.035780183970928192 0.31704628467559814 0.29939311742782593
0.35066819190979004 0.32526910305023193 0.30542749166488647
0.61254823207855225 0.33354881405830383 0.30127966403961182
0.81421667337417603 0.36069434881210327 0.31250548362731934
0.97893869876861572 0.41172197461128235 0.32418611645698547
0.12748745083808899 0.56204551458358765 0.31651186943054199
0.30215829610824585 0.54816573858261108 0.30893340706825256
0.55333948135375977 0.54371696710586548 0.29686769843101501
0.77175015211105347 0.54736512899398804 0.27468007802963257
0.96317833662033081 0.57330489158630371 0.27414232492446899
0.079903863370418549 0.73200798034667969 0.31951829791069031
0.27586200833320618 0.72260791063308716 0.326284259557724
0.489095538854599 0.71633589267730713 0.32503464818000793
0.71351808309555054 0.72481608390808105 0.31842362880706787
0.93101197481155396 0.75518512725830078 0.30229201912879944
0.19511054456233978 0.94121521711349487 0.40315401554107666
0.31718093156814575 0.93731224536895752 0.40996435284614563
0.49507734179496765 0.93537795543670654 0.42459100484848022
0.69540125131607056 0.9375150203704834 0.42881864309310913
0.90021234750747681 0.94825136661529541 0.43603280186653137
0.19882634282112122 0.11024237424135208 0.53151005506515503
0.39052540063858032 0.13087469339370728 0.53856503963470459
0.63887244462966919 0.16106337308883667 0.55437129735946655
0.83325457572937012 0.16160434484481812 0.52811253070831299
0.99120277166366577 0.28458493947982788 0.53787529468536377
0.23407216370105743 0.31003081798553467 0.5333251953125
0.40695661306381226 0.33367747068405151 0.54108506441116333
0.628773033618927 0.36420834064483643 0.55740749835968018
0.82085102796554565 0.36355769634246826 0.54125601053237915
0.98468571901321411 0.41668614745140076 0.55089050531387329
0.22435110807418823 0.56198549270629883 0.54918640851974487
0.38699209690093994 0.56596845388412476 0.5520818829536438
0.5971912145614624 0.57409811019897461 0.55425691604614258
0.78769338130950928 0.5752866268157959 0.55327075719833374
0.96909838914871216 0.59639632701873779 0.55123984813690186
0.30801281332969666 0.75577837228775024 0.56044846773147583
0.3999980092048645 0.75333273410797119 0.55290275812149048
0.53742235898971558 0.73815798759460449 0.53463929891586304
0.73401927947998047 0.73851919174194336 0.52637743949890137
0.94667911529541016 0.75137513875961304 0.50992530584335327
0.23684497177600861 0.95243793725967407 0.56442344188690186
0.31954944133758545 0.94820374250411987 0.5539974570274353
0.49676847457885742 0.94020575284957886 0.55487769842147827
0.69001716375350952 0.94203108549118042 0.56452780961990356
0.90576016902923584 0.95081257820129395 0.57376646995544434
0.40576860308647156 0.20869986712932587 0.73228269815444946
0.5061907172203064 0.22398597002029419 0.73784148693084717
0.67636317014694214 0.27122911810874939 0.74371862411499023
0.8397223949432373 0.3135736882686615 0.75430065393447876
0.98043632507324219 0.32364004850387573 0.73737168312072754
0.40947499871253967 0.35492327809333801 0.7288859486579895
0.50432437658309937 0.37093475461006165 0.73409265279769897
0.66636532545089722 0.40326195955276489 0.74742311239242554
0.82913219928741455 0.43074196577072144 0.75550901889801025
0.98004430532455444 0.42979258298873901 0.74177300930023193
0.30736082792282104 0.51687049865722656 0.71069252490997314
0.41967293620109558 0.52486270666122437 0.71721345186233521
0.61436063051223755 0.55932033061981201 0.73465836048126221
0.80015456676483154 0.59749001264572144 0.7545011043548584
0.97982287406921387 0.58995997905731201 0.74709391593933105
0.30022522807121277 0.75776815414428711 0.74630451202392578
0.40362507104873657 0.75579369068145752 0.74543088674545288
0.57371759414672852 0.7562788724899292 0.74811291694641113
0.77202945947647095 0.76822179555892944 0.75599151849746704
0.96472382545471191 0.7751624584197998 0.75537627935409546
0.33291652798652649 0.96307581663131714 0.76452380418777466
0.41690436005592346 0.96273136138916016 0.76830476522445679
0.56896513700485229 0.95865947008132935 0.76596719026565552
0.71279370784759521 0.94959288835525513 0.74455618858337402
0.92825335264205933 0.95618993043899536 0.75362551212310791
0.60952234268188477 0.39070695638656616 0.94245237112045288
0.65449672937393188 0.39936494827270508 0.94254118204116821
0.75312012434005737 0.42864614725112915 0.94445943832397461
0.87827169895172119 0.48624643683433533 0.94307249784469604
0.99711447954177856 0.5063207745552063 0.95090985298156738
0.59212023019790649 0.47041872143745422 0.93985378742218018
0.63807767629623413 0.47911766171455383 0.94180953502655029
0.73809486627578735 0.50114560127258301 0.94288235902786255
0.8688431978225708 0.54744648933410645 0.94444435834884644
0.9897996187210083 0.56074851751327515 0.94913291931152344
0.49543103575706482 0.57927829027175903 0.93789136409759521
0.56839078664779663 0.59644091129302979 0.93881702423095703
0.69667667150497437 0.61431711912155151 0.93899261951446533
0.84284716844558716 0.64776939153671265 0.94274497032165527
0.98811256885528564 0.67141944169998169 0.94968557357788086
0.35917800664901733 0.73991680145263672 0.93747895956039429
0.43022546172142029 0.73495900630950928 0.93647605180740356
0.57113182544708252 0.73014801740646362 0.93881458044052124
0.79148060083389282 0.77002137899398804 0.94598937034606934
0.97947710752487183 0.81629133224487305 0.95496267080307007
0.32296890020370483 0.95826929807662964 0.95811313390731812
0.40498673915863037 0.95920807123184204 0.95664000511169434
0.56585228443145752 0.95815491676330566 0.96003484725952148
0.76430583000183105 0.95790356397628784 0.96038526296615601
0.96480274200439453 0.9659658670425415 0.96382969617843628
