luts/negative_new/fuji_800z_-.cube
# Created by: G'MIC (https://gmic.eu)
TITLE "fuji_800z_-"
# LUT size
LUT_3D_SIZE 13
# Data domain
DOMAIN_MIN 0.0 0.0 0.0
DOMAIN_MAX 1.0 1.0 1.0
# LUT data points
0.027696901932358742 0.030494032427668571 0.025378791615366936
0.080100178718566895 0.03288351371884346 0.027063138782978058
0.16044370830059052 0.031003629788756371 0.027745354920625687
0.25304967164993286 0.018607135862112045 0.024483161047101021
0.35431835055351257 0.0089995292946696281 0.021866802126169205
0.45626094937324524 0.0079129533842206001 0.016675867140293121
0.55851596593856812 0.0080456901341676712 0.011734995990991592
0.65473121404647827 0.0051866271533071995 0.010865992866456509
0.73690307140350342 0.0040151108987629414 0.010017963126301765
0.80881744623184204 0.0034783605951815844 0.010813275352120399
0.87504792213439941 0.0014254850102588534 0.0095138251781463623
0.93422162532806396 0.0017362557118758559 0.0055603627115488052
0.98410511016845703 0.010039550252258778 0.0013716304674744606
0.030405351892113686 0.075939252972602844 0.032939132302999496
0.075749114155769348 0.081025265157222748 0.031184447929263115
0.15680992603302002 0.089010573923587799 0.028015151619911194
0.25037401914596558 0.086220040917396545 0.020301684737205505
0.35157284140586853 0.066834606230258942 0.018136611208319664
0.4557357132434845 0.042253218591213226 0.013271795585751534
0.55753171443939209 0.021722486242651939 0.0076219295151531696
0.65121269226074219 0.013784371316432953 0.0058947247453033924
0.73342263698577881 0.011342351324856281 0.0056345174089074135
0.80569058656692505 0.01100585050880909 0.00552342738956213
0.87086993455886841 0.015479293651878834 0.0036571428645402193
0.93213433027267456 0.031603675335645676 0.00096790090901777148
0.98120224475860596 0.085499949753284454 0.00064487830968573689
0.025288809090852737 0.13862331211566925 0.041638318449258804
0.066982030868530273 0.14053083956241608 0.039040554314851761
0.13863664865493774 0.15630359947681427 0.028984503820538521
0.24246117472648621 0.1759999543428421 0.01375446654856205
0.34544941782951355 0.17361575365066528 0.012845282442867756
0.44975447654724121 0.1547677218914032 0.0095047447830438614
0.55033332109451294 0.13864332437515259 0.0082481680437922478
0.64199507236480713 0.1266789585351944 0.0059755961410701275
0.7256009578704834 0.12070874869823456 0.0036860296968370676
0.79693436622619629 0.12399210035800934 0.0037840150762349367
0.86179107427597046 0.13420809805393219 0.0020425533875823021
0.92391741275787354 0.15661497414112091 0.0034921981859952211
0.97481399774551392 0.19823084771633148 0.00237274169921875
0.014269286766648293 0.21149261295795441 0.049891900271177292
0.05912201851606369 0.20798563957214355 0.05134500190615654
0.12632353603839874 0.22202292084693909 0.043273057788610458
0.21984085440635681 0.25082489848136902 0.024405220523476601
0.33964803814888 0.27501720190048218 0.0074719744734466076
0.44564950466156006 0.27218663692474365 0.0065391990356147289
0.53954410552978516 0.26398804783821106 0.0085167232900857925
0.62712138891220093 0.2534310519695282 0.0082947378978133202
0.71034103631973267 0.24457730352878571 0.0062112249433994293
0.78525060415267944 0.24721743166446686 0.0043935440480709076
0.84869712591171265 0.25210291147232056 0.0045871809124946594
0.91144484281539917 0.26680260896682739 0.0056780050508677959
0.96882838010787964 0.29241907596588135 0.0031811434309929609
0.010797358117997646 0.28728771209716797 0.067750982940196991
0.054456301033496857 0.28310427069664001 0.070662431418895721
0.12386942654848099 0.28680881857872009 0.068638220429420471
0.20020563900470734 0.31022128462791443 0.048857908695936203
0.30759701132774353 0.34369507431983948 0.019281156361103058
0.4326263964176178 0.37205415964126587 0.0051933587528765202
0.53264760971069336 0.37221893668174744 0.006337394006550312
0.61691486835479736 0.36024230718612671 0.0067739896476268768
0.69741612672805786 0.34906831383705139 0.0066382912918925285
0.77217990159988403 0.35066914558410645 0.0045658932067453861
0.83552825450897217 0.35352051258087158 0.0072735357098281384
0.89804381132125854 0.36001384258270264 0.00772120151668787
0.95859205722808838 0.37912669777870178 0.004536094143986702
0.015746830031275749 0.35912266373634338 0.093916811048984528
0.064492814242839813 0.35450065135955811 0.097700662910938263
0.12451418489217758 0.35096031427383423 0.097530856728553772
0.18937918543815613 0.3646567165851593 0.086491860449314117
0.27760481834411621 0.39226368069648743 0.064439572393894196
0.38949877023696899 0.42578297853469849 0.031179016456007957
0.51482820510864258 0.45673474669456482 0.0077724233269691467
0.61145848035812378 0.45665785670280457 0.0037645825650542974
0.68903541564941406 0.44574454426765442 0.0053323931060731411
0.75923961400985718 0.44195982813835144 0.0076069403439760208
0.82362872362136841 0.440206378698349 0.0078431377187371254
0.88542717695236206 0.44342464208602905 0.0080984821543097496
0.94675999879837036 0.45396339893341064 0.0061006434261798859
0.048398423939943314 0.42318236827850342 0.12455987185239792
0.092753902077674866 0.4194776713848114 0.12799294292926788
0.14161756634712219 0.41352191567420959 0.12753701210021973
0.19467401504516602 0.41565197706222534 0.12345703691244125
0.26831117272377014 0.43773233890533447 0.11329417675733566
0.35727083683013916 0.46618470549583435 0.094465173780918121
0.46682044863700867 0.49875518679618835 0.060710068792104721
0.58713608980178833 0.53151166439056396 0.022021858021616936
0.68057167530059814 0.53923428058624268 0.0064702052623033524
0.74909162521362305 0.53260087966918945 0.0066331452690064907
0.81140220165252686 0.52447229623794556 0.0065047917887568474
0.87340229749679565 0.52283239364624023 0.0075413272716104984
0.93555581569671631 0.52780747413635254 0.0049680224619805813
0.10151886194944382 0.48163947463035583 0.15751609206199646
0.13097187876701355 0.47958195209503174 0.15908686816692352
0.16755187511444092 0.4734661877155304 0.15913817286491394
0.20802657306194305 0.46711224317550659 0.15676945447921753
0.26636326313018799 0.47865152359008789 0.15172550082206726
0.34130170941352844 0.50412893295288086 0.14409641921520233
0.43295416235923767 0.53246772289276123 0.12987552583217621
0.54062491655349731 0.56462115049362183 0.10562331229448318
0.65276652574539185 0.59834504127502441 0.066801704466342926
0.73904234170913696 0.61066567897796631 0.04337533563375473
0.80263900756835938 0.60469460487365723 0.023842485621571541
0.86609941720962524 0.59992092847824097 0.011164047755300999
0.92663305997848511 0.60174822807312012 0.0057966643944382668
0.15569481253623962 0.53980547189712524 0.19419007003307343
0.17882430553436279 0.53751742839813232 0.19515368342399597
0.20157743990421295 0.53219056129455566 0.19276013970375061
0.23441138863563538 0.52486282587051392 0.1911458820104599
0.27636095881462097 0.52524161338806152 0.19005416333675385
0.34035313129425049 0.54486685991287231 0.18754576146602631
0.42217642068862915 0.57046687602996826 0.18355296552181244
0.51575994491577148 0.59772366285324097 0.1728784590959549
0.61217665672302246 0.62636476755142212 0.16089899837970734
0.71302896738052368 0.65909206867218018 0.14855688810348511
0.7958720326423645 0.67506152391433716 0.12683403491973877
0.86226958036422729 0.67529129981994629 0.093223839998245239
0.92279344797134399 0.67699438333511353 0.063614621758460999
0.21241335570812225 0.59950453042984009 0.23371338844299316
0.23042334616184235 0.59712404012680054 0.2348131388425827
0.24883937835693359 0.59432333707809448 0.23299069702625275
0.27328240871429443 0.58779919147491455 0.23043112456798553
0.30392628908157349 0.57968699932098389 0.22896049916744232
0.35751959681510925 0.59154003858566284 0.23005847632884979
0.42756107449531555 0.61320638656616211 0.22992688417434692
0.50748574733734131 0.63633060455322266 0.22860485315322876
0.59110832214355469 0.66139119863510132 0.22836507856845856
0.6778024435043335 0.6873849630355835 0.22511999309062958
0.76901096105575562 0.71664887666702271 0.22178827226161957
0.85573852062225342 0.74184572696685791 0.21044276654720306
0.91934174299240112 0.74831670522689819 0.19213232398033142
0.28388804197311401 0.66326206922531128 0.28886586427688599
0.29435384273529053 0.66016077995300293 0.28627851605415344
0.30768916010856628 0.65814661979675293 0.28352880477905273
0.32744753360748291 0.6530110239982605 0.2808285653591156
0.35251340270042419 0.64582353830337524 0.27836781740188599
0.38909012079238892 0.64499938488006592 0.27898931503295898
0.44928067922592163 0.66130280494689941 0.28224080801010132
0.51609629392623901 0.68149971961975098 0.2844691276550293
0.58971279859542847 0.70474570989608765 0.28993022441864014
0.66601437330245972 0.72883224487304688 0.29392355680465698
0.74649506807327271 0.75299167633056641 0.29456052184104919
0.82915550470352173 0.78117752075195312 0.29297450184822083
0.91034930944442749 0.8094903826713562 0.29346939921379089
0.37090465426445007 0.73670190572738647 0.36154031753540039
0.37887442111968994 0.73466163873672485 0.36102229356765747
0.38946259021759033 0.73271244764328003 0.35866245627403259
0.40774339437484741 0.72930479049682617 0.35900086164474487
0.42793625593185425 0.72390085458755493 0.35750806331634521
0.45437604188919067 0.71915364265441895 0.35651838779449463
0.49689635634422302 0.72652196884155273 0.35905712842941284
0.55198842287063599 0.74374532699584961 0.3644987940788269
0.61491638422012329 0.76506495475769043 0.37262800335884094
0.68083113431930542 0.78713709115982056 0.37961241602897644
0.74976629018783569 0.8076050877571106 0.38201677799224854
0.81902772188186646 0.82823598384857178 0.38154762983322144
0.89073294401168823 0.85343945026397705 0.38458305597305298
0.48346802592277527 0.82973778247833252 0.47387304902076721
0.49080356955528259 0.82816469669342041 0.47453546524047852
0.49950367212295532 0.82699763774871826 0.47471648454666138
0.51364302635192871 0.82455682754516602 0.47629007697105408
0.53218287229537964 0.82200843095779419 0.47751829028129578
0.55161780118942261 0.81674659252166748 0.47542685270309448
0.58161097764968872 0.81928879022598267 0.4782225489616394
0.62410145998001099 0.83324635028839111 0.48777785897254944
0.67343157529830933 0.84966933727264404 0.4934210479259491
0.72411572933197021 0.86447066068649292 0.49764657020568848
0.78119754791259766 0.88221490383148193 0.50327646732330322
0.8385157585144043 0.89631718397140503 0.50259143114089966
0.89747363328933716 0.91528046131134033 0.50915944576263428
0.040370538830757141 0.039896465837955475 0.070934280753135681
0.09091891348361969 0.036741085350513458 0.071895703673362732
0.16723418235778809 0.027398413047194481 0.072044208645820618
0.26551848649978638 0.013300727121531963 0.070792973041534424
0.36621463298797607 0.007603080477565527 0.071155175566673279
0.46777996420860291 0.0076150032691657543 0.070244267582893372
0.56919175386428833 0.0068111792206764221 0.068348750472068787
0.66058474779129028 0.0039215688593685627 0.067590229213237762
0.73746132850646973 0.0039544347673654556 0.062567241489887238
0.80888974666595459 0.0029195449315011501 0.060987524688243866
0.87453353404998779 0.0021904441528022289 0.054356995970010757
0.93428730964660645 0.0037788092158734798 0.051247302442789078
0.98450380563735962 0.023500330746173859 0.046407602727413177
0.037090063095092773 0.086082324385643005 0.073303312063217163
0.087892062962055206 0.087839119136333466 0.077596031129360199
0.16802707314491272 0.092604890465736389 0.077378064393997192
0.26244398951530457 0.08373153954744339 0.070533022284507751
0.36282634735107422 0.064195089042186737 0.068279445171356201
0.46536692976951599 0.044118709862232208 0.065712571144104004
0.56498187780380249 0.027657408267259598 0.062314216047525406
0.65685665607452393 0.018718240782618523 0.061890590935945511
0.73578560352325439 0.013135244138538837 0.05473429337143898
0.80668896436691284 0.014332789927721024 0.051408343017101288
0.87102937698364258 0.025087319314479828 0.047981530427932739
0.93106365203857422 0.051572088152170181 0.045790128409862518
0.97916078567504883 0.10382304340600967 0.045685518532991409
0.03391990065574646 0.15601463615894318 0.082987420260906219
0.085604541003704071 0.1555822342634201 0.08698706328868866
0.15925996005535126 0.16630437970161438 0.080341190099716187
0.25446560978889465 0.17859597504138947 0.067289493978023529
0.35620129108428955 0.171614870429039 0.063100285828113556
0.45924365520477295 0.16033963859081268 0.054650742560625076
0.55755096673965454 0.14932121336460114 0.050893880426883698
0.64748716354370117 0.13712397217750549 0.048812013119459152
0.72818899154663086 0.13117341697216034 0.042500752955675125
0.79870569705963135 0.13588298857212067 0.040886372327804565
0.86366230249404907 0.14953877031803131 0.040976356714963913
0.92424643039703369 0.17201048135757446 0.036485336720943451
0.97512459754943848 0.20416925847530365 0.038964875042438507
0.045412354171276093 0.23276045918464661 0.095253854990005493
0.090674594044685364 0.22982239723205566 0.096903227269649506
0.15053808689117432 0.23363935947418213 0.094440490007400513
0.23905859887599945 0.25743523240089417 0.0796622633934021
0.34850969910621643 0.27544286847114563 0.057180754840373993
0.45253157615661621 0.27295452356338501 0.041962761431932449
0.54519110918045044 0.26352885365486145 0.034052621573209763
0.63133478164672852 0.25429180264472961 0.031096844002604485
0.71312010288238525 0.25065258145332336 0.026795031502842903
0.78596532344818115 0.25159814953804016 0.026128731667995453
0.85006773471832275 0.25840657949447632 0.0303383469581604
0.91241979598999023 0.27120092511177063 0.031462110579013824
0.97246354818344116 0.29386797547340393 0.031255729496479034
0.050026435405015945 0.30709412693977356 0.11314716935157776
0.097344987094402313 0.30197814106941223 0.11513045430183411
0.15133273601531982 0.30129784345626831 0.11514546722173691
0.2202000617980957 0.3178497850894928 0.10456325858831406
0.32062375545501709 0.34875732660293579 0.08038908988237381
0.43807888031005859 0.37138193845748901 0.048293948173522949
0.53587758541107178 0.37092188000679016 0.029888736084103584
0.61815398931503296 0.35923993587493896 0.021360509097576141
0.69817095994949341 0.35153791308403015 0.014732629992067814
0.77180314064025879 0.35017025470733643 0.015626795589923859
0.83679032325744629 0.35404592752456665 0.017411639913916588
0.89965593814849854 0.3623022735118866 0.020521560683846474
0.96186584234237671 0.37856698036193848 0.019876323640346527
0.065484799444675446 0.37490156292915344 0.1366245299577713
0.11038874834775925 0.37038764357566833 0.13913583755493164
0.15585951507091522 0.3638712465763092 0.13683739304542542
0.21139062941074371 0.37138378620147705 0.13058534264564514
0.29152917861938477 0.39639145135879517 0.11769185960292816
0.39868777990341187 0.42926487326622009 0.091332003474235535
0.51903003454208374 0.4595552384853363 0.055759459733963013
0.61048942804336548 0.45844444632530212 0.034649375826120377
0.68688857555389404 0.44530746340751648 0.022020183503627777
0.75623756647109985 0.43961426615715027 0.012036926113069057
0.82263511419296265 0.43904760479927063 0.0117759108543396
0.88607358932495117 0.44363415241241455 0.012267244048416615
0.94936507940292358 0.45440009236335754 0.013875206001102924
0.097814671695232391 0.43640905618667603 0.15994986891746521
0.13121157884597778 0.43191283941268921 0.16250737011432648
0.17048083245754242 0.42464348673820496 0.16129849851131439
0.21454185247421265 0.42123281955718994 0.15755584836006165
0.28049740195274353 0.43952521681785583 0.15085434913635254
0.36566933989524841 0.46872439980506897 0.1398872584104538
0.47241532802581787 0.50064194202423096 0.11877704411745071
0.58734041452407837 0.53044050931930542 0.086351208388805389
0.67886078357696533 0.5379449725151062 0.058568678796291351
0.74638593196868896 0.53048419952392578 0.031256582587957382
0.81025779247283936 0.52368390560150146 0.017941508442163467
0.87211161851882935 0.51971554756164551 0.010139944031834602
0.93630552291870117 0.52612078189849854 0.0092002423480153084
0.13531872630119324 0.49159398674964905 0.18600545823574066
0.16138191521167755 0.48971819877624512 0.1883232444524765
0.19065180420875549 0.48360598087310791 0.18680392205715179
0.22698493301868439 0.47441893815994263 0.18431687355041504
0.2766062319278717 0.48058938980102539 0.18086344003677368
0.35185921192169189 0.50615835189819336 0.1760881096124649
0.44130942225456238 0.53509056568145752 0.16727709770202637
0.54547631740570068 0.56672286987304688 0.15302559733390808
0.65478962659835815 0.59845137596130371 0.13270626962184906
0.73829430341720581 0.60828202962875366 0.10612897574901581
0.80252683162689209 0.60327392816543579 0.077732518315315247
0.86491531133651733 0.59853881597518921 0.048032063990831375
0.92795407772064209 0.59794116020202637 0.022979153320193291
0.18198990821838379 0.54811620712280273 0.21929736435413361
0.20269574224948883 0.54718786478042603 0.22049319744110107
0.22324757277965546 0.5413888692855835 0.21677002310752869
0.24942499399185181 0.53258919715881348 0.2134515643119812
0.28753003478050232 0.52780783176422119 0.21220001578330994
0.35190245509147644 0.54731452465057373 0.21207579970359802
0.42800232768058777 0.57171499729156494 0.20909638702869415
0.52114152908325195 0.59927433729171753 0.20232157409191132
0.61457186937332153 0.62809288501739502 0.1966787576675415
0.71623843908309937 0.6602787971496582 0.19010981917381287
0.79615390300750732 0.67430037260055542 0.17351958155632019
0.86141139268875122 0.67326563596725464 0.14516481757164001
0.92259591817855835 0.67290198802947998 0.11551050096750259
0.23372149467468262 0.60605758428573608 0.25724005699157715
0.2471562922000885 0.60433739423751831 0.25537914037704468
0.26336869597434998 0.60029572248458862 0.25229251384735107
0.28805157542228699 0.59372013807296753 0.25138884782791138
0.31711545586585999 0.58546590805053711 0.24945974349975586
0.3645223081111908 0.59261584281921387 0.24868619441986084
0.43583044409751892 0.61410200595855713 0.25110432505607605
0.51132810115814209 0.63728433847427368 0.24966740608215332
0.59315949678421021 0.66205418109893799 0.25084736943244934
0.68254691362380981 0.68885958194732666 0.25267574191093445
0.77165126800537109 0.7176969051361084 0.24928601086139679
0.8559335470199585 0.74189978837966919 0.2418542355298996
0.91764205694198608 0.74777936935424805 0.2256806492805481
0.29501283168792725 0.66696858406066895 0.30444994568824768
0.3070007860660553 0.66623342037200928 0.30449673533439636
0.31979915499687195 0.6629185676574707 0.30164054036140442
0.33760195970535278 0.65764737129211426 0.29746979475021362
0.36193162202835083 0.65049880743026733 0.29412800073623657
0.39561772346496582 0.64663195610046387 0.29181316494941711
0.45343539118766785 0.66133373975753784 0.29575690627098083
0.5187268853187561 0.68169480562210083 0.29948881268501282
0.59184259176254272 0.70435613393783569 0.30665084719657898
0.66963118314743042 0.72866111993789673 0.31149113178253174
0.74618560075759888 0.75219112634658813 0.31353190541267395
0.82987481355667114 0.78140997886657715 0.31749141216278076
0.90914654731750488 0.80917650461196899 0.31781753897666931
0.37633606791496277 0.73933213949203491 0.37204423546791077
0.38487130403518677 0.73837786912918091 0.37240618467330933
0.39609038829803467 0.73546040058135986 0.37114456295967102
0.41338866949081421 0.73238110542297363 0.37026116251945496
0.43289664387702942 0.72594338655471802 0.36770182847976685
0.45775899291038513 0.72073113918304443 0.36568397283554077
0.50014442205429077 0.72729003429412842 0.36920449137687683
0.55522423982620239 0.74487340450286865 0.37602677941322327
0.61677533388137817 0.76547408103942871 0.38489803671836853
0.68250691890716553 0.78733962774276733 0.39073607325553894
0.74983328580856323 0.80802720785140991 0.39585757255554199
0.81866335868835449 0.82917845249176025 0.39904564619064331
0.89119243621826172 0.85477918386459351 0.40141475200653076
0.48513266444206238 0.83005237579345703 0.4790685772895813
0.49060943722724915 0.82856559753417969 0.47845247387886047
0.50152403116226196 0.82737237215042114 0.48041173815727234
0.51475363969802856 0.82470381259918213 0.48043525218963623
0.53322291374206543 0.82197839021682739 0.48179444670677185
0.55354976654052734 0.81872868537902832 0.48279109597206116
0.58231043815612793 0.81964325904846191 0.48575034737586975
0.62645691633224487 0.83469963073730469 0.49521312117576599
0.67441415786743164 0.8499724268913269 0.50074523687362671
0.72726970911026001 0.86659812927246094 0.50703293085098267
0.78183066844940186 0.88165295124053955 0.51043283939361572
0.83833473920822144 0.89551645517349243 0.51105153560638428
0.89609146118164062 0.91332966089248657 0.51409351825714111
0.052006110548973083 0.047735624015331268 0.13851244747638702
0.10509492456912994 0.043980855494737625 0.14100851118564606
0.17549796402454376 0.033037733286619186 0.1387544721364975
0.27213743329048157 0.014728845097124577 0.13978876173496246
0.3860112726688385 0.0059129302389919758 0.14090070128440857
0.48928132653236389 0.0049591665156185627 0.14464901387691498
0.5834851861000061 0.0058778650127351284 0.14747637510299683
0.67132186889648438 0.0043460619635879993 0.1475466787815094
0.74446302652359009 0.0034090976696461439 0.15148116648197174
0.81331032514572144 0.0018263274105265737 0.15474992990493774
0.87538903951644897 0.0042116651311516762 0.15257512032985687
0.93433636426925659 0.012337718158960342 0.14878477156162262
0.9821588397026062 0.063628405332565308 0.14938466250896454
0.041748404502868652 0.091415718197822571 0.1387876570224762
0.10211414843797684 0.095253422856330872 0.1435759961605072
0.17904278635978699 0.096883274614810944 0.14460131525993347
0.27138358354568481 0.085215531289577484 0.14413176476955414
0.37994658946990967 0.059779852628707886 0.14434704184532166
0.48404747247695923 0.043030668050050735 0.14607149362564087
0.57896310091018677 0.035868745297193527 0.14810635149478912
0.66593128442764282 0.027841798961162567 0.14912638068199158
0.74057859182357788 0.030349461361765862 0.14904893934726715
0.80928909778594971 0.031967852264642715 0.14805544912815094
0.8726622462272644 0.055723004043102264 0.1464134156703949
0.93023300170898438 0.088929362595081329 0.14660203456878662
0.97731202840805054 0.13830533623695374 0.14787387847900391
0.033069700002670288 0.16992029547691345 0.14518450200557709
0.09903823584318161 0.17235380411148071 0.14992326498031616
0.18042758107185364 0.17873255908489227 0.15238586068153381
0.26898124814033508 0.18117655813694 0.15028683841228485
0.37141016125679016 0.17045331001281738 0.15019777417182922
0.47444391250610352 0.16596212983131409 0.14838589727878571
0.56861704587936401 0.16074135899543762 0.14640696346759796
0.65564370155334473 0.1516469419002533 0.14567103981971741
0.73193812370300293 0.15075209736824036 0.14258243143558502
0.79964345693588257 0.15616635978221893 0.14214658737182617
0.86479216814041138 0.16907620429992676 0.14019328355789185
0.92279893159866333 0.19054701924324036 0.13986514508724213
0.97311818599700928 0.22236788272857666 0.14187484979629517
0.057598233222961426 0.25671881437301636 0.15862001478672028
0.11925277858972549 0.25692591071128845 0.16205804049968719
0.18022547662258148 0.2554800808429718 0.16387894749641418
0.26339411735534668 0.26772856712341309 0.15786907076835632
0.36453858017921448 0.27895209193229675 0.15319560468196869
0.46285715699195862 0.27725961804389954 0.14721991121768951
0.55412095785140991 0.26917359232902527 0.13709826767444611
0.63919270038604736 0.26377731561660767 0.12824492156505585
0.71788555383682251 0.26206088066101074 0.12367046624422073
0.78730213642120361 0.2640986442565918 0.12649370729923248
0.85268348455429077 0.26958248019218445 0.13031153380870819
0.91434782743453979 0.28459620475769043 0.13203397393226624
0.9722098708152771 0.30625885725021362 0.13670715689659119
0.10266687721014023 0.33609393239021301 0.17779724299907684
0.14291884005069733 0.3341541588306427 0.18076212704181671
0.18911272287368774 0.32769984006881714 0.17989876866340637
