luts/negative_new/fuji_400h_+.cube
# Created by: G'MIC (https://gmic.eu)
TITLE "fuji_400h_+"
# LUT size
LUT_3D_SIZE 7
# Data domain
DOMAIN_MIN 0.0 0.0 0.0
DOMAIN_MAX 1.0 1.0 1.0
# LUT data points
0.10233275592327118 0.094878174364566803 0.044219836592674255
0.20569287240505219 0.095685280859470367 0.043693393468856812
0.38470891118049622 0.071751251816749573 0.036434967070817947
0.60022431612014771 0.014443610794842243 0.024885708466172218
0.78646743297576904 0.013390170410275459 0.009526900015771389
0.91795063018798828 0.11557873338460922 0.0047647515311837196
0.99805587530136108 0.22636622190475464 0.0048040803521871567
0.084328442811965942 0.19404636323451996 0.045915134251117706
0.18925653398036957 0.19174773991107941 0.037559479475021362
0.38341718912124634 0.19103424251079559 0.01606464758515358
0.5927276611328125 0.18366289138793945 0.0089653609320521355
0.77621996402740479 0.1995653361082077 0.0039348974823951721
0.90891885757446289 0.25425773859024048 0.0067818285897374153
0.99659270048141479 0.31335839629173279 0.0039787893183529377
0.01035893801599741 0.34140834212303162 0.030455930158495903
0.13984085619449615 0.34235408902168274 0.029504409059882164
0.35277912020683289 0.35655540227890015 0.0086625190451741219
0.56801110506057739 0.37326934933662415 0.0045013576745986938
0.75436663627624512 0.37903201580047607 0.00076509366044774652
0.89021658897399902 0.40503084659576416 0.0038276372943073511
0.99000638723373413 0.43181046843528748 0.0042860144749283791
0.0013698652619495988 0.51252418756484985 0.019729001447558403
0.049265693873167038 0.5100892186164856 0.030042266473174095
0.30134278535842896 0.50941282510757446 0.024094659835100174
0.51937627792358398 0.528453528881073 0.0040365480817854404
0.71097797155380249 0.54519784450531006 0.00085372925968840718
0.85823714733123779 0.55440068244934082 0.00048271627747453749
0.97559988498687744 0.55917108058929443 0.0038763608317822218
0.0039013433270156384 0.65802818536758423 0.082663305103778839
0.049510102719068527 0.65773701667785645 0.10229888558387756
0.29893940687179565 0.64842844009399414 0.11143013089895248
0.4904472827911377 0.65639209747314453 0.062215648591518402
0.66111993789672852 0.67044705152511597 0.016480449587106705
0.82362937927246094 0.6916583776473999 0.0015580271137878299
0.95840543508529663 0.69706648588180542 0.0023917702492326498
0.086991071701049805 0.79401493072509766 0.23115451633930206
0.20657859742641449 0.7903907299041748 0.24469906091690063
0.34892141819000244 0.78084129095077515 0.25296047329902649
0.49652421474456787 0.7831304669380188 0.25341504812240601
0.63798677921295166 0.78965389728546143 0.21947169303894043
0.77952444553375244 0.80017304420471191 0.16364195942878723
0.93214279413223267 0.82293963432312012 0.11864697188138962
0.35316926240921021 0.92360776662826538 0.44632890820503235
0.39094334840774536 0.9211660623550415 0.4516623318195343
0.46253517270088196 0.91771900653839111 0.46627029776573181
0.55430322885513306 0.91745519638061523 0.48428758978843689
0.65449035167694092 0.92130452394485474 0.4756721556186676
0.77352476119995117 0.92804247140884399 0.46114256978034973
0.90608721971511841 0.9408678412437439 0.44536808133125305
0.12771421670913696 0.10149239748716354 0.1481233537197113
0.21894901990890503 0.09914804995059967 0.14861039817333221
0.40072789788246155 0.064449325203895569 0.15594896674156189
0.61731594800949097 0.011803107336163521 0.15886008739471436
0.79549109935760498 0.03381551057100296 0.17065669596195221
0.91948783397674561 0.14971959590911865 0.174921914935112
0.99680566787719727 0.24817010760307312 0.18744306266307831
0.10822886973619461 0.20339590311050415 0.15670570731163025
0.22178229689598083 0.20285362005233765 0.15872940421104431
0.403026282787323 0.20014859735965729 0.15456987917423248
0.61181533336639404 0.19408339262008667 0.15056425333023071
0.78633815050125122 0.21206754446029663 0.1539805680513382
0.91201484203338623 0.26723757386207581 0.14862316846847534
0.99632352590560913 0.32363325357437134 0.16693386435508728
0.060054555535316467 0.37467333674430847 0.16956508159637451
0.1983305811882019 0.36677291989326477 0.17198599874973297
0.38164964318275452 0.36809027194976807 0.15824228525161743
0.59502452611923218 0.37821963429450989 0.11279468983411789
0.76411181688308716 0.38282182812690735 0.092775993049144745
0.89499211311340332 0.40820008516311646 0.098624497652053833
0.99235659837722778 0.43903657793998718 0.11606617271900177
0.0034322401043027639 0.53762578964233398 0.17523764073848724
0.13163177669048309 0.53121542930603027 0.18257312476634979
0.3442019522190094 0.52502578496932983 0.19052273035049438
0.54161471128463745 0.53588485717773438 0.14406378567218781
0.72089749574661255 0.55220073461532593 0.074909403920173645
0.86441707611083984 0.55325448513031006 0.032266296446323395
0.98228418827056885 0.56107091903686523 0.03616059198975563
0.0038213094230741262 0.6726340651512146 0.21525748074054718
0.13584139943122864 0.6698988676071167 0.22374144196510315
0.33161237835884094 0.65855348110198975 0.23581665754318237
0.50519692897796631 0.66135293245315552 0.21462099254131317
0.66990900039672852 0.67339789867401123 0.17025046050548553
0.82425802946090698 0.69152271747589111 0.10491245985031128
0.96131879091262817 0.69707930088043213 0.054187115281820297
0.1451447606086731 0.79812389612197876 0.30973109602928162
0.24356670677661896 0.79509270191192627 0.31834813952445984
0.37497517466545105 0.7872433066368103 0.32753050327301025
0.50237232446670532 0.78403222560882568 0.32353237271308899
0.64226794242858887 0.79140865802764893 0.30459168553352356
0.78242367506027222 0.80073362588882446 0.27513241767883301
0.93342822790145874 0.82292681932449341 0.24618156254291534
0.36703357100486755 0.9241064190864563 0.48305621743202209
0.40212750434875488 0.9213486909866333 0.48424744606018066
0.46907943487167358 0.91899126768112183 0.49748659133911133
0.55916565656661987 0.91653764247894287 0.5135759711265564
0.6608540415763855 0.92047333717346191 0.51240706443786621
0.77668708562850952 0.92729467153549194 0.49964845180511475
0.90489250421524048 0.93764829635620117 0.47935706377029419
0.15511138737201691 0.11402245610952377 0.33666720986366272
0.26294195652008057 0.10984721779823303 0.33938592672348022
0.41953155398368835 0.081484667956829071 0.34436044096946716
0.62373119592666626 0.0095529891550540924 0.35474866628646851
0.79984086751937866 0.0046749338507652283 0.35936090350151062
0.92862969636917114 0.10299453884363174 0.36683666706085205
0.99792754650115967 0.28205481171607971 0.40475243330001831
0.13394616544246674 0.20525527000427246 0.34430968761444092
0.25153827667236328 0.21142108738422394 0.3469068706035614
0.43206489086151123 0.21169032156467438 0.35876142978668213
0.63203036785125732 0.18265505135059357 0.36463102698326111
0.79608768224716187 0.19611379504203796 0.37099805474281311
0.91681700944900513 0.27964296936988831 0.38795188069343567
0.99609482288360596 0.36729899048805237 0.41140255331993103
0.02394561842083931 0.38970097899436951 0.37015300989151001
0.21719913184642792 0.39372697472572327 0.37249821424484253
0.42836412787437439 0.39249306917190552 0.37617498636245728
0.6206289529800415 0.39563429355621338 0.3721599280834198
0.77110493183135986 0.40988504886627197 0.37196528911590576
0.89245176315307617 0.43417364358901978 0.37524643540382385
0.9904325008392334 0.4634309709072113 0.38749054074287415
0.071976572275161743 0.57554656267166138 0.39364713430404663
0.24885642528533936 0.57021045684814453 0.39678710699081421
0.41167956590652466 0.55636334419250488 0.38901177048683167
0.57642579078674316 0.55335915088653564 0.37026685476303101
0.7340015172958374 0.55425781011581421 0.34503352642059326
0.8679879903793335 0.56079930067062378 0.32726103067398071
0.97698551416397095 0.57361716032028198 0.33779078722000122
0.19311302900314331 0.69717246294021606 0.41112533211708069
0.27096652984619141 0.6932181715965271 0.4062252938747406
0.39833205938339233 0.68161427974700928 0.4047599732875824
0.53534287214279175 0.67486357688903809 0.39738097786903381
0.68564033508300781 0.68405473232269287 0.37869024276733398
0.83228772878646851 0.69683992862701416 0.35099905729293823
0.96224129199981689 0.69377100467681885 0.32276350259780884
0.23839738965034485 0.80740731954574585 0.43930113315582275
0.3088439404964447 0.80360543727874756 0.44365176558494568
0.41252145171165466 0.79855179786682129 0.44923239946365356
0.52358168363571167 0.78911072015762329 0.4494367241859436
0.65159541368484497 0.79560393095016479 0.44402015209197998
0.78847408294677734 0.80804532766342163 0.42063173651695251
0.93199080228805542 0.82227343320846558 0.40483450889587402
0.38982939720153809 0.92826026678085327 0.54712378978729248
0.41990074515342712 0.92510700225830078 0.54921478033065796
0.48503416776657104 0.92264747619628906 0.55467599630355835
0.57142597436904907 0.92016518115997314 0.57304251194000244
0.66515862941741943 0.91805565357208252 0.57511788606643677
0.78190940618515015 0.92909079790115356 0.56885248422622681
0.90450739860534668 0.93916106224060059 0.55157792568206787
0.20796433091163635 0.12054845690727234 0.53226053714752197
0.311928391456604 0.11954528093338013 0.53692495822906494
0.470948725938797 0.11148614436388016 0.55320340394973755
0.64771896600723267 0.071634493768215179 0.57008391618728638
0.78637468814849854 0.021152900531888008 0.55996739864349365
0.92413580417633057 0.056067716330289841 0.55234158039093018
0.99502557516098022 0.2436520904302597 0.55712282657623291
0.20550893247127533 0.22055009007453918 0.54044568538665771
0.29774758219718933 0.22517478466033936 0.54524415731430054
0.47199270129203796 0.23597125709056854 0.55548346042633057
0.64209985733032227 0.23502816259860992 0.57367080450057983
0.78743463754653931 0.21384190022945404 0.56399595737457275
0.91358917951583862 0.25236445665359497 0.56105643510818481
0.99371993541717529 0.3438071608543396 0.56296753883361816
0.10778364539146423 0.36810138821601868 0.54791361093521118
0.26165515184402466 0.37530922889709473 0.5519721508026123
0.45695570111274719 0.39787885546684265 0.56137633323669434
0.6303257942199707 0.42010986804962158 0.57552248239517212
0.77844029664993286 0.41449922323226929 0.57188481092453003
0.89268559217453003 0.4406837522983551 0.57519900798797607
0.98301881551742554 0.49119684100151062 0.58814960718154907
0.037484291940927505 0.57199287414550781 0.57131087779998779
0.24357998371124268 0.57322651147842407 0.56975102424621582
0.43938153982162476 0.57738465070724487 0.57549536228179932
0.60975402593612671 0.58128511905670166 0.58028429746627808
0.74693536758422852 0.58289486169815063 0.57778382301330566
0.86504441499710083 0.59469866752624512 0.57438141107559204
0.97322452068328857 0.60441857576370239 0.57369226217269897
0.22798623144626617 0.72242635488510132 0.58206069469451904
0.33120068907737732 0.72107470035552979 0.58577424287796021
0.46700072288513184 0.71321612596511841 0.58585602045059204
0.57771152257919312 0.6983150839805603 0.5770256519317627
0.70102185010910034 0.69785904884338379 0.57004410028457642
0.83777344226837158 0.69903230667114258 0.54513001441955566
0.96463024616241455 0.69558566808700562 0.52565473318099976
0.37791550159454346 0.82496112585067749 0.60293698310852051
0.41588139533996582 0.82217758893966675 0.60063505172729492
0.47212669253349304 0.81604939699172974 0.5890737771987915
0.55894291400909424 0.80447578430175781 0.58499705791473389
0.66292405128479004 0.80131053924560547 0.587657630443573
0.79221469163894653 0.81133770942687988 0.57029265165328979
0.93860357999801636 0.82380932569503784 0.55638974905014038
0.44023123383522034 0.93456876277923584 0.63699746131896973
0.45760709047317505 0.93351590633392334 0.63462728261947632
0.50516635179519653 0.92811697721481323 0.63445734977722168
0.5863116979598999 0.92519509792327881 0.64168399572372437
0.67948716878890991 0.92507541179656982 0.65176248550415039
0.78646492958068848 0.92872589826583862 0.64633065462112427
0.9130474328994751 0.93904048204421997 0.6372724175453186
0.32811501622200012 0.13836146891117096 0.69242364168167114
0.40368089079856873 0.13844715058803558 0.69605571031570435
0.53025740385055542 0.14673814177513123 0.70029950141906738
0.67729741334915161 0.17508894205093384 0.71072709560394287
0.80028194189071655 0.19058790802955627 0.7201770544052124
0.90117865800857544 0.1914600133895874 0.70318931341171265
0.99603617191314697 0.2434854656457901 0.69548839330673218
0.32457524538040161 0.23939065635204315 0.6917036771774292
0.39784276485443115 0.24730199575424194 0.69463986158370972
0.52727574110031128 0.25812384486198425 0.700236976146698
0.67047083377838135 0.28967058658599854 0.71335071325302124
0.79300194978713989 0.30124545097351074 0.71898287534713745
0.89504408836364746 0.30778628587722778 0.70681029558181763
0.99513775110244751 0.34115093946456909 0.69573408365249634
0.260530024766922 0.36562320590019226 0.68814748525619507
0.35914167761802673 0.38084721565246582 0.69298040866851807
0.50791084766387939 0.40384164452552795 0.7009284496307373
0.65376943349838257 0.43573889136314392 0.70954960584640503
0.77901959419250488 0.46424829959869385 0.71353840827941895
0.8877946138381958 0.46293094754219055 0.70666694641113281
0.98044294118881226 0.48076948523521423 0.70177549123764038
0.19619056582450867 0.52899110317230225 0.68485933542251587
0.30264729261398315 0.53380179405212402 0.68875962495803833
0.45137345790863037 0.53839653730392456 0.69018226861953735
0.61793529987335205 0.57357907295227051 0.701568603515625
0.7514195442199707 0.59968554973602295 0.71357589960098267
0.86767566204071045 0.60504746437072754 0.70825088024139404
0.97529447078704834 0.61608833074569702 0.71295428276062012
0.25564712285995483 0.70552855730056763 0.70550686120986938
0.33933940529823303 0.71033483743667603 0.70447850227355957
0.46513491868972778 0.70472997426986694 0.70582681894302368
0.60100793838500977 0.7177162766456604 0.71261107921600342
0.72945374250411987 0.72557461261749268 0.71941018104553223
0.84768176078796387 0.7286497950553894 0.71285009384155273
0.96285676956176758 0.72754770517349243 0.70778053998947144
0.36085796356201172 0.84572833776473999 0.72076332569122314
0.41359090805053711 0.83920919895172119 0.72166866064071655
0.50351119041442871 0.83673596382141113 0.72040748596191406
0.60934531688690186 0.83230549097061157 0.72133123874664307
0.69583159685134888 0.81967562437057495 0.71041160821914673
0.81199324131011963 0.82059675455093384 0.7000192403793335
0.94607365131378174 0.82133090496063232 0.68834620714187622
0.47387474775314331 0.94512271881103516 0.74224019050598145
0.50307279825210571 0.94253665208816528 0.74045455455780029
0.56088465452194214 0.93989574909210205 0.7412915825843811
0.6264997124671936 0.93654686212539673 0.73583507537841797
0.70069938898086548 0.93035495281219482 0.73093986511230469
0.80198413133621216 0.93154221773147583 0.73206353187561035
0.92682468891143799 0.94088327884674072 0.73013848066329956
0.47506779432296753 0.20821347832679749 0.81822395324707031
0.52289706468582153 0.21720978617668152 0.82156693935394287
0.60583341121673584 0.22910630702972412 0.82173639535903931
0.70987224578857422 0.26494762301445007 0.82392853498458862
0.81362098455429077 0.33267906308174133 0.825111985206604
0.91363441944122314 0.35179793834686279 0.83035141229629517
0.99366408586502075 0.35851925611495972 0.82003706693649292
0.4695686399936676 0.29480400681495667 0.8140404224395752
0.51360911130905151 0.30188053846359253 0.81769996881484985
0.60108751058578491 0.31417927145957947 0.81759566068649292
0.70498108863830566 0.35583779215812683 0.82025915384292603
0.80553549528121948 0.39666455984115601 0.82404536008834839
0.90669161081314087 0.42162907123565674 0.83043879270553589
0.99024933576583862 0.42266002297401428 0.82158166170120239
0.43553978204727173 0.4159863293170929 0.80783414840698242
0.48521125316619873 0.42443856596946716 0.81090629100799561
0.57608020305633545 0.4360930323600769 0.81360304355621338
0.68357259035110474 0.46362102031707764 0.81846469640731812
0.78858041763305664 0.50888466835021973 0.82377094030380249
0.89186656475067139 0.52850186824798584 0.8295280933380127
0.97949683666229248 0.52413785457611084 0.81965237855911255
0.32066172361373901 0.51656228303909302 0.79785197973251343
0.39518699049949646 0.52475899457931519 0.80168271064758301
0.518463134765625 0.54717880487442017 0.80491775274276733
0.64727663993835449 0.5802873969078064 0.81039369106292725
0.76381415128707886 0.61997246742248535 0.81868135929107666
0.87303507328033447 0.6409602165222168 0.82262164354324341
0.97259026765823364 0.63280010223388672 0.81868654489517212
0.30776587128639221 0.67029809951782227 0.80307483673095703
0.36551651358604431 0.67127335071563721 0.80173367261886597
0.46663343906402588 0.66892629861831665 0.80235189199447632
0.59177374839782715 0.67818289995193481 0.80266797542572021
0.72949451208114624 0.71498286724090576 0.81292259693145752
0.85835528373718262 0.74591326713562012 0.82356607913970947
0.96754235029220581 0.74479299783706665 0.82652044296264648
0.36589869856834412 0.82958948612213135 0.81908053159713745
0.40969297289848328 0.82991933822631836 0.81961727142333984
0.49970918893814087 0.82530504465103149 0.82003343105316162
0.60669529438018799 0.82763576507568359 0.82039952278137207
0.72115194797515869 0.83081048727035522 0.82221919298171997
0.84482318162918091 0.8416067361831665 0.82887405157089233
0.96065044403076172 0.84528452157974243 0.8261415958404541
0.44493445754051208 0.9551767110824585 0.83029156923294067
0.48221224546432495 0.9527122974395752 0.83131527900695801
0.5477260947227478 0.95263671875 0.83499753475189209
0.64072459936141968 0.94926238059997559 0.83621466159820557
0.73054486513137817 0.94341045618057251 0.83478802442550659
0.8286902904510498 0.93893897533416748 0.8305661678314209
0.94068723917007446 0.94364076852798462 0.83209550380706787
0.60890483856201172 0.3749237060546875 0.93156367540359497
0.63068729639053345 0.38167557120323181 0.92840123176574707
0.68010044097900391 0.39841055870056152 0.92916429042816162
0.75235003232955933 0.428000807762146 0.92788445949554443
0.83275830745697021 0.47744655609130859 0.92794108390808105
0.9210936427116394 0.52680099010467529 0.92861354351043701
0.98407644033432007 0.53787493705749512 0.92878121137619019
0.5985381007194519 0.42552477121353149 0.92620205879211426
0.62753760814666748 0.43895485997200012 0.93008148670196533
0.6773187518119812 0.45327070355415344 0.93052119016647339
0.74749386310577393 0.47843000292778015 0.92806637287139893
0.82461285591125488 0.50986772775650024 0.92222738265991211
0.91620165109634399 0.56036776304244995 0.92735815048217773
0.99064266681671143 0.57217282056808472 0.93060219287872314
0.58380270004272461 0.52097892761230469 0.9254336953163147
0.60681349039077759 0.52203404903411865 0.92296314239501953
0.66349071264266968 0.53632235527038574 0.9261290431022644
0.73406308889389038 0.55644923448562622 0.92370873689651489
0.81695699691772461 0.58776909112930298 0.9256548285484314
0.90565162897109985 0.61818587779998779 0.92441439628601074
0.9870295524597168 0.62634104490280151 0.93021285533905029
0.52845567464828491 0.59722745418548584 0.92320936918258667
0.56614625453948975 0.60707229375839233 0.92492997646331787
0.62744325399398804 0.62006527185440063 0.91964751482009888
0.71016418933868408 0.63565903902053833 0.92141711711883545
0.80104672908782959 0.66153877973556519 0.92359715700149536
0.89749348163604736 0.69160550832748413 0.92612868547439575
0.97929102182388306 0.70002800226211548 0.92782801389694214
0.44257527589797974 0.68465977907180786 0.91821449995040894
0.47389551997184753 0.68424522876739502 0.91788512468338013
0.54543793201446533 0.6892777681350708 0.91865521669387817
0.6516726016998291 0.70608979463577271 0.92056494951248169
0.77182823419570923 0.73698949813842773 0.9239237904548645
0.88699162006378174 0.76496875286102295 0.92643630504608154
0.97864913940429688 0.78092557191848755 0.93244153261184692
0.43443101644515991 0.81429779529571533 0.92290514707565308
0.46652066707611084 0.81387925148010254 0.92624551057815552
0.52950441837310791 0.81218743324279785 0.92336660623550415
0.61212080717086792 0.81320583820343018 0.92094647884368896
0.72328871488571167 0.81817346811294556 0.92090380191802979
0.85482871532440186 0.83998972177505493 0.92894494533538818
0.97479426860809326 0.86501437425613403 0.93606460094451904
0.45228210091590881 0.94892734289169312 0.93688535690307617
0.48451042175292969 0.94571954011917114 0.93405550718307495
0.53996366262435913 0.9475129246711731 0.93754321336746216
0.62735551595687866 0.95067459344863892 0.93791300058364868
0.73118501901626587 0.94960898160934448 0.94040411710739136
0.84579730033874512 0.94962167739868164 0.94021373987197876
0.96968215703964233 0.95681965351104736 0.94385802745819092
