luts/negative_new/fuji_160c.cube
# Created by: G'MIC (https://gmic.eu)
TITLE "fuji_160c"
# LUT size
LUT_3D_SIZE 13
# Data domain
DOMAIN_MIN 0.0 0.0 0.0
DOMAIN_MAX 1.0 1.0 1.0
# LUT data points
0.037757229059934616 0.035615313798189163 0.0279349684715271
0.089309319853782654 0.03808281198143959 0.028103576973080635
0.16554801166057587 0.032251186668872833 0.027969583868980408
0.26402914524078369 0.019809722900390625 0.028456684201955795
0.37633979320526123 0.010457940399646759 0.027109632268548012
0.48856651782989502 0.0069410586729645729 0.02202160470187664
0.59806734323501587 0.003979911096394062 0.018345657736063004
0.70083713531494141 0.002302955137565732 0.011262437328696251
0.78572458028793335 0.0023385439999401569 0.0088983122259378433
0.85897886753082275 0.0026425081305205822 0.0063505885191261768
0.92427784204483032 0.027388988062739372 0.0027499329298734665
0.97729498147964478 0.12744688987731934 0.0060092853382229805
0.99863302707672119 0.20874027907848358 0.010420855134725571
0.028672073036432266 0.087074577808380127 0.029653705656528473
0.079956308007240295 0.089687153697013855 0.025726407766342163
0.16465470194816589 0.087656356394290924 0.026198921725153923
0.26661974191665649 0.082274839282035828 0.023543788120150566
0.37710279226303101 0.06211477518081665 0.019444454461336136
0.48727482557296753 0.029040496796369553 0.014202626422047615
0.59754538536071777 0.014759078621864319 0.010657605715095997
0.69862055778503418 0.014306176453828812 0.0070440103299915791
0.784290611743927 0.019341591745615005 0.0042174695990979671
0.85591644048690796 0.039423249661922455 0.0031878752633929253
0.91897362470626831 0.10918445885181427 0.0046198228374123573
0.97497355937957764 0.18887339532375336 0.0077976151369512081
0.99799638986587524 0.24363021552562714 0.01030598022043705
0.0094035575166344643 0.16827580332756042 0.028420452028512955
0.042380746454000473 0.16501183807849884 0.021017441526055336
0.13916489481925964 0.16600444912910461 0.018854537978768349
0.25548473000526428 0.16691835224628448 0.013307534158229828
0.3720671534538269 0.15918555855751038 0.010101722553372383
0.48580193519592285 0.14336660504341125 0.0058947396464645863
0.59267890453338623 0.12593287229537964 0.0040381485596299171
0.69250202178955078 0.1268264502286911 0.0041730394586920738
0.77722597122192383 0.13922619819641113 0.0018762326799333096
0.8477746844291687 0.16699618101119995 0.0029358209576457739
0.91120713949203491 0.21362839639186859 0.0049569373950362206
0.96972119808197021 0.26013371348381042 0.0044164620339870453
0.99384027719497681 0.30176904797554016 0.0042319651693105698
0.0040495926514267921 0.26383930444717407 0.021103832870721817
0.0092792436480522156 0.25609585642814636 0.010144461877644062
0.085476011037826538 0.25486353039741516 0.0095819663256406784
0.22721104323863983 0.26092684268951416 0.0072624357417225838
0.36025816202163696 0.26446586847305298 0.0082963081076741219
0.47853562235832214 0.25587356090545654 0.00710322055965662
0.58504408597946167 0.25077179074287415 0.0040971795096993446
0.68500149250030518 0.25163725018501282 0.0044442270882427692
0.76565051078796387 0.25601524114608765 0.0040800059214234352
0.83673560619354248 0.27685052156448364 0.0065300436690449715
0.90462380647659302 0.30795419216156006 0.0077068256214261055
0.96430873870849609 0.33724138140678406 0.0077340370044112206
0.99414509534835815 0.36783739924430847 0.0066928188316524029
0.0004856034938711673 0.36390379071235657 0.0092030242085456848
0.0028666476719081402 0.35631957650184631 0.0067568761296570301
0.030716272071003914 0.34927576780319214 0.0028286054730415344
0.1784273236989975 0.35050204396247864 0.0027594771236181259
0.3255922794342041 0.35816735029220581 0.0062726340256631374
0.45884692668914795 0.36271864175796509 0.0048644719645380974
0.57134509086608887 0.36169654130935669 0.0035438986960798502
0.66963225603103638 0.35902053117752075 0.0059793810360133648
0.75148063898086548 0.36110025644302368 0.0071805617772042751
0.82346916198730469 0.37484648823738098 0.0085930470377206802
0.89130491018295288 0.39659744501113892 0.0076280334033071995
0.95317035913467407 0.41530114412307739 0.0046972385607659817
0.99278020858764648 0.43431815505027771 0.0037306542508304119
0 0.45804640650749207 0.0073524774052202702
0.00050967349670827389 0.44986933469772339 0.0080416956916451454
0.0039074169471859932 0.44266164302825928 0.003559366799890995
0.11131967604160309 0.44038164615631104 0.00073308008722960949
0.28204387426376343 0.44509074091911316 0.0030457889661192894
0.42443296313285828 0.45187380909919739 0.0042820349335670471
0.54707604646682739 0.45966079831123352 0.0040416643023490906
0.64567780494689941 0.46043723821640015 0.0039725806564092636
0.7320331335067749 0.46087461709976196 0.0047222957946360111
0.80834949016571045 0.46690398454666138 0.0046732882037758827
0.8761976957321167 0.48010730743408203 0.0062981098890304565
0.93810248374938965 0.49251535534858704 0.0050922767259180546
0.98732566833496094 0.49991557002067566 0.0016800524899736047
0 0.54041594266891479 0.010342421941459179
0 0.5365748405456543 0.010887938551604748
0.0021474650129675865 0.5292847752571106 0.0041330372914671898
0.056758072227239609 0.52304935455322266 6.3144456362351775e-05
0.24501140415668488 0.5251765251159668 0.0028507157694548368
0.39130991697311401 0.52832579612731934 0.0076807509176433086
0.51383429765701294 0.53524726629257202 0.0077824611216783524
0.61920458078384399 0.54480957984924316 0.0060026878491044044
0.71164262294769287 0.54793596267700195 0.0039811674505472183
0.79091882705688477 0.55539888143539429 0.0063288668170571327
0.8612026572227478 0.56091850996017456 0.0077833589166402817
0.92350369691848755 0.56341171264648438 0.0061762789264321327
0.97844082117080688 0.56585776805877686 0.0031479480676352978
0 0.61156958341598511 0.009470800869166851
0 0.60859280824661255 0.0084622399881482124
0.0013100119540467858 0.60277223587036133 0.004008827731013298
0.032639835029840469 0.59795385599136353 0.00045815261546522379
0.218128502368927 0.59711408615112305 0.0023930419702082872
0.37187895178794861 0.59872734546661377 0.0069751814007759094
0.49048665165901184 0.60338407754898071 0.0091677047312259674
0.59615814685821533 0.60847407579421997 0.010974585078656673
0.69024825096130371 0.61806154251098633 0.0080181499943137169
0.77200722694396973 0.62736594676971436 0.0061555448919534683
0.84428590536117554 0.63129889965057373 0.0055288276635110378
0.91034781932830811 0.63153654336929321 0.0054950341582298279
0.97229295969009399 0.63214856386184692 0.0026240330189466476
0 0.67832696437835693 0.0073721790686249733
0 0.67684614658355713 0.0081020426005125046
0.00087588443420827389 0.67430657148361206 0.0068222195841372013
0.037753835320472717 0.67024660110473633 0.0020612678490579128
0.2190939337015152 0.66514170169830322 0.004037011880427599
0.36715710163116455 0.66455543041229248 0.0076112635433673859
0.48094609379768372 0.66680711507797241 0.0082822162657976151
0.5785902738571167 0.67080003023147583 0.012142764404416084
0.66857081651687622 0.67825329303741455 0.0093535929918289185
0.75346773862838745 0.6876753568649292 0.0037609923165291548
0.82560533285140991 0.69370138645172119 0.0036566790658980608
0.89349722862243652 0.69796448945999146 0.0043367571197450161
0.96024137735366821 0.69958645105361938 0.0036606432404369116
0 0.74494761228561401 0.010397653095424175
0 0.74360942840576172 0.012565074488520622
0.0030970554798841476 0.74145060777664185 0.014121904969215393
0.075663745403289795 0.73775511980056763 0.013892783783376217
0.24021729826927185 0.73261040449142456 0.019251100718975067
0.36533156037330627 0.7314879298210144 0.019693173468112946
0.47129470109939575 0.73184800148010254 0.018540326505899429
0.56348621845245361 0.73341715335845947 0.016961146146059036
0.64904451370239258 0.73695212602615356 0.012282742187380791
0.72812557220458984 0.7433772087097168 0.010026699863374233
0.80051338672637939 0.74927186965942383 0.010119464248418808
0.8768850564956665 0.75876611471176147 0.0083825951442122459
0.94860744476318359 0.76652365922927856 0.0080026667565107346
0.0014270857209339738 0.81059402227401733 0.074088230729103088
0.0015783720882609487 0.80865991115570068 0.077330373227596283
0.026303503662347794 0.80576032400131226 0.082712642848491669
0.15606079995632172 0.80392640829086304 0.089287102222442627
0.27511560916900635 0.7986302375793457 0.098551534116268158
0.37927690148353577 0.79706627130508423 0.098560452461242676
0.47429031133651733 0.79670178890228271 0.096569985151290894
0.55923843383789062 0.79877138137817383 0.096793606877326965
0.6393660306930542 0.80129408836364746 0.092239111661911011
0.71210068464279175 0.80396699905395508 0.085012815892696381
0.78264164924621582 0.80676329135894775 0.082756906747817993
0.85722309350967407 0.81391119956970215 0.078368410468101501
0.93594372272491455 0.82775837182998657 0.090377926826477051
0.019137738272547722 0.87648099660873413 0.18413476645946503
0.04720904678106308 0.87458217144012451 0.18759739398956299
0.14172405004501343 0.87271136045455933 0.19360388815402985
0.23527953028678894 0.87135154008865356 0.20017847418785095
0.31882113218307495 0.86745184659957886 0.2061382383108139
0.40141752362251282 0.86520671844482422 0.20968858897686005
0.48152297735214233 0.86503970623016357 0.21265187859535217
0.55960327386856079 0.86644291877746582 0.21465958654880524
0.63468050956726074 0.86882954835891724 0.21705204248428345
0.70564174652099609 0.8698199987411499 0.21853044629096985
0.77382558584213257 0.87154656648635864 0.21682778000831604
0.84145915508270264 0.87493330240249634 0.21504640579223633
0.91392576694488525 0.88303613662719727 0.22223387658596039
0.17801180481910706 0.94143021106719971 0.3085874617099762
0.21175080537796021 0.94098269939422607 0.31169044971466064
0.25837522745132446 0.93854361772537231 0.31601902842521667
0.31303307414054871 0.93764632940292358 0.3216913640499115
0.37533903121948242 0.93481403589248657 0.32887911796569824
0.43706244230270386 0.93313217163085938 0.33645859360694885
0.50038987398147583 0.93331068754196167 0.34203717112541199
0.56646126508712769 0.93236768245697021 0.34425389766693115
0.63507324457168579 0.93472594022750854 0.35162317752838135
0.70194071531295776 0.93555432558059692 0.35588306188583374
0.76827216148376465 0.93703627586364746 0.35774385929107666
0.83215463161468506 0.93897140026092529 0.36172732710838318
0.89709454774856567 0.94022524356842041 0.36988866329193115
0.050296708941459656 0.039154920727014542 0.072939671576023102
0.096613474190235138 0.040393725037574768 0.073331870138645172
0.17653672397136688 0.033060066401958466 0.072629742324352264
0.27386164665222168 0.020844686776399612 0.072271250188350677
0.38332641124725342 0.012364990077912807 0.076681427657604218
0.49382719397544861 0.010067285038530827 0.07536672055721283
0.60622310638427734 0.0051074307411909103 0.077310390770435333
0.70554369688034058 0.0038902582600712776 0.080020412802696228
0.78765207529067993 0.0035225513856858015 0.074436172842979431
0.86066019535064697 0.0070962943136692047 0.069560013711452484
0.92386317253112793 0.065842345356941223 0.068768911063671112
0.97607457637786865 0.15649884939193726 0.071867294609546661
0.99822854995727539 0.22338949143886566 0.084648534655570984
0.04165152832865715 0.091284729540348053 0.077056482434272766
0.097308546304702759 0.093100540339946747 0.077205076813697815
0.18024834990501404 0.091981939971446991 0.076764769852161407
0.27945968508720398 0.086280360817909241 0.072314046323299408
0.38536280393600464 0.070861577987670898 0.072492636740207672
0.49484655261039734 0.047339197248220444 0.070099428296089172
0.60440933704376221 0.028930963948369026 0.06941668689250946
0.70167571306228638 0.025415008887648582 0.066814661026000977
0.78401458263397217 0.039158090949058533 0.061200730502605438
0.85548657178878784 0.07365061342716217 0.058173775672912598
0.91923123598098755 0.14054934680461884 0.058984450995922089
0.97470366954803467 0.20499102771282196 0.06312764436006546
0.99873346090316772 0.2551940381526947 0.074054837226867676
0.016921937465667725 0.17276631295681 0.075305834412574768
0.074864394962787628 0.17293813824653625 0.073382943868637085
0.16204501688480377 0.17187550663948059 0.072305478155612946
0.2711329460144043 0.17097054421901703 0.066738411784172058
0.38280743360519409 0.16763471066951752 0.057748518884181976
0.49462884664535522 0.15691150724887848 0.051050014793872833
0.59983336925506592 0.14501103758811951 0.049730636179447174
0.69613194465637207 0.14466392993927002 0.045727524906396866
0.77703350782394409 0.16193200647830963 0.044460177421569824
0.84851270914077759 0.19025035202503204 0.039270006120204926
0.91222292184829712 0.22870205342769623 0.043023411184549332
0.97019428014755249 0.26912346482276917 0.048228200525045395
0.99487948417663574 0.30947205424308777 0.060448471456766129
0.0033437840174883604 0.26796644926071167 0.06106891855597496
0.024534337222576141 0.2637779712677002 0.061454292386770248
0.11794336140155792 0.26201263070106506 0.063726849853992462
0.24539957940578461 0.2665422260761261 0.056875117123126984
0.3698175847530365 0.27019256353378296 0.040020108222961426
0.48638957738876343 0.26296201348304749 0.030607620254158974
0.5919564962387085 0.2592102587223053 0.024064322933554649
0.68694972991943359 0.25809735059738159 0.022380320355296135
0.7657436728477478 0.26612153649330139 0.027102915570139885
0.83839637041091919 0.28652346134185791 0.023808019235730171
0.90569281578063965 0.31353220343589783 0.023500360548496246
0.9656604528427124 0.34226715564727783 0.027103709056973457
0.9969785213470459 0.37181258201599121 0.03744037076830864
0.0015356923686340451 0.36459189653396606 0.039770688861608505
0.0027256985194981098 0.35951212048530579 0.042225886136293411
0.05657978355884552 0.35554099082946777 0.048606932163238525
0.20296201109886169 0.3564249575138092 0.041702568531036377
0.33756557106971741 0.36264133453369141 0.029075158759951591
0.46662932634353638 0.36863791942596436 0.019432591274380684
0.57756465673446655 0.36664280295372009 0.014107139781117439
0.67330718040466309 0.36049994826316833 0.010998774319887161
0.75351470708847046 0.36338046193122864 0.010777133516967297
0.82547187805175781 0.37619718909263611 0.011799666099250317
0.89300477504730225 0.39634865522384644 0.014691057614982128
0.95458447933197021 0.41839444637298584 0.012529484927654266
0.99460726976394653 0.43679755926132202 0.017053760588169098
4.2784446122823283e-05 0.45762819051742554 0.022431841120123863
0.00020298677554819733 0.45277863740921021 0.025065897032618523
0.01258372887969017 0.44680818915367126 0.027637721970677376
0.14221048355102539 0.44489580392837524 0.026306526735424995
0.29853618144989014 0.44803142547607422 0.024180572479963303
0.43425700068473816 0.45511096715927124 0.021990668028593063
0.55413693189620972 0.46393522620201111 0.011379152536392212
0.65153276920318604 0.46264368295669556 0.0078467875719070435
0.73482900857925415 0.46051359176635742 0.0076306359842419624
0.81047838926315308 0.46552202105522156 0.0062450035475194454
0.8795897364616394 0.47741657495498657 0.0068090548738837242
0.94015002250671387 0.49094262719154358 0.0083237439393997192
0.98508751392364502 0.50415980815887451 0.0069703194312751293
0 0.54113352298736572 0.020568592473864555
0 0.53720963001251221 0.020425938069820404
0.00072612386429682374 0.53090471029281616 0.019552044570446014
0.082984566688537598 0.52737390995025635 0.019442465156316757
0.26431712508201599 0.52855187654495239 0.020075690001249313
0.40059053897857666 0.53116971254348755 0.019754910841584206
0.51907283067703247 0.5379977822303772 0.013338320888578892
0.62555265426635742 0.54584264755249023 0.0068664401769638062
0.71615612506866455 0.54999399185180664 0.0047343983314931393
0.79386484622955322 0.55473697185516357 0.0055340337567031384
0.86385416984558105 0.55720454454421997 0.0078313788399100304
0.9254944920539856 0.55953294038772583 0.0072684343904256821
0.97889715433120728 0.5667000412940979 0.0050559248775243759
0 0.61423015594482422 0.022556738927960396
0.00022725123562850058 0.61032533645629883 0.023184623569250107
0.00037297268863767385 0.60642445087432861 0.022409925237298012
0.059226959943771362 0.60192197561264038 0.024370843544602394
0.23673628270626068 0.60027718544006348 0.024925755336880684
0.37863028049468994 0.60113179683685303 0.022430824115872383
0.49378678202629089 0.60326528549194336 0.019484052434563637
0.59767335653305054 0.60874748229980469 0.014863571152091026
0.69369125366210938 0.62048459053039551 0.010327717289328575
0.77477401494979858 0.62893176078796387 0.0077176559716463089
0.844992995262146 0.63161265850067139 0.0075285965576767921
0.91118878126144409 0.63093441724777222 0.0081296283751726151
0.96971946954727173 0.63227152824401855 0.0042262808419764042
0 0.68198376893997192 0.031513754278421402
0.0005351346917450428 0.67977756261825562 0.035882268100976944
0.00065707036992534995 0.6776425838470459 0.036424089223146439
0.062730260193347931 0.67364102602005005 0.0439731664955616
0.23898912966251373 0.66909170150756836 0.049194846302270889
0.37277436256408691 0.6679224967956543 0.049813363701105118
0.48222842812538147 0.66842639446258545 0.041554633527994156
0.57882446050643921 0.67124992609024048 0.034389153122901917
0.66924589872360229 0.67909437417984009 0.029920840635895729
0.75385880470275879 0.68908262252807617 0.018924204632639885
0.82718247175216675 0.69511020183563232 0.013130786828696728
0.89584934711456299 0.70069205760955811 0.011230139993131161
0.96079337596893311 0.70248138904571533 0.0052072112448513508
0.00018105600611306727 0.74533295631408691 0.065195076167583466
0.0012047112686559558 0.74496257305145264 0.070151202380657196
0.0078815389424562454 0.74356037378311157 0.075884796679019928
0.1069096103310585 0.73919320106506348 0.087825194001197815
0.25557562708854675 0.73460757732391357 0.09286847710609436
0.37293329834938049 0.73320889472961426 0.092897184193134308
0.47530463337898254 0.73358112573623657 0.092698432505130768
0.56616020202636719 0.73452931642532349 0.078817971050739288
0.64987343549728394 0.73758125305175781 0.075960569083690643
0.72882956266403198 0.74254214763641357 0.066177025437355042
0.80295318365097046 0.74946945905685425 0.05487905815243721
0.88038891553878784 0.76327437162399292 0.04490908607840538
0.94930458068847656 0.76884579658508301 0.039313536137342453
0.0028117459733039141 0.81077796220779419 0.13502137362957001
0.00310667441226542 0.80972146987915039 0.13762429356575012
0.042017005383968353 0.80733323097229004 0.14311140775680542
0.17187759280204773 0.80445057153701782 0.14910261332988739
0.27896463871002197 0.7996639609336853 0.1532820463180542
0.38723701238632202 0.79790914058685303 0.15478505194187164
0.47718355059623718 0.79891276359558105 0.16048875451087952
0.5602424144744873 0.79973214864730835 0.15339714288711548
0.63880181312561035 0.80115777254104614 0.15299065411090851
0.71217620372772217 0.8032950758934021 0.14694420993328094
0.78394103050231934 0.80666875839233398 0.14370498061180115
0.85771924257278442 0.81504261493682861 0.14202964305877686
0.93559253215789795 0.82891422510147095 0.15425066649913788
0.021212125197052956 0.87663286924362183 0.21927653253078461
0.059951320290565491 0.87630349397659302 0.22299917042255402
0.15177804231643677 0.87358969449996948 0.22736945748329163
0.24184770882129669 0.87037670612335205 0.23545873165130615
0.32308188080787659 0.86861157417297363 0.24106656014919281
0.4063800573348999 0.86704915761947632 0.24500338733196259
0.48317369818687439 0.86603671312332153 0.24853473901748657
0.55944937467575073 0.86713534593582153 0.24779576063156128
0.63299381732940674 0.86848628520965576 0.24924661219120026
0.7038809061050415 0.86972838640213013 0.24892053008079529
0.77171194553375244 0.87155413627624512 0.24994055926799774
0.84086889028549194 0.87511128187179565 0.24990327656269073
0.91403162479400635 0.88353866338729858 0.25645262002944946
0.18737933039665222 0.94144272804260254 0.32807514071464539
0.21896445751190186 0.940967857837677 0.33047586679458618
0.26410073041915894 0.93916749954223633 0.33692669868469238
0.32067403197288513 0.9357609748840332 0.34217223525047302
0.37821841239929199 0.93343812227249146 0.34752783179283142
0.43744859099388123 0.93233382701873779 0.35680672526359558
0.5022239089012146 0.93369179964065552 0.3640693724155426
0.56743925809860229 0.93213140964508057 0.3610135018825531
0.63341939449310303 0.93154758214950562 0.36353769898414612
0.70056629180908203 0.93539273738861084 0.37413263320922852
0.76631075143814087 0.93693393468856812 0.37845334410667419
0.83200865983963013 0.93792319297790527 0.37999838590621948
0.89676004648208618 0.93935316801071167 0.38551780581474304
0.058180462568998337 0.046266593039035797 0.14293164014816284
0.10968907922506332 0.046398643404245377 0.14473135769367218
0.1913810670375824 0.036721128970384598 0.14205443859100342
0.28267332911491394 0.017640804871916771 0.13873344659805298
0.39405912160873413 0.0080404393374919891 0.14229057729244232
0.50835108757019043 0.00614191684871912 0.14656347036361694
0.6173396110534668 0.0031857211142778397 0.15190929174423218
0.7115098237991333 0.0036979825235903263 0.16434699296951294
0.79195952415466309 0.0091412561014294624 0.16976307332515717
0.86259442567825317 0.047737404704093933 0.17409074306488037
0.92247939109802246 0.11819937080144882 0.18015246093273163
0.9754217267036438 0.19079765677452087 0.18468877673149109
0.99882107973098755 0.25174003839492798 0.19594092667102814
0.050317816436290741 0.094839639961719513 0.14562936127185822
0.11180149018764496 0.09853547066450119 0.14908388257026672
0.19626341760158539 0.095802634954452515 0.14893203973770142
0.29279345273971558 0.084527663886547089 0.14746049046516418
0.39829006791114807 0.067657411098480225 0.14828163385391235
0.5088767409324646 0.053083069622516632 0.15174844861030579
0.61591595411300659 0.044633004814386368 0.15545973181724548
0.70923149585723877 0.056522220373153687 0.16172641515731812
0.78839415311813354 0.085610665380954742 0.16559150815010071
0.85657185316085815 0.12570150196552277 0.16739195585250854
0.9171215295791626 0.17685404419898987 0.17277331650257111
0.97184079885482788 0.23086631298065186 0.17825077474117279
0.99824666976928711 0.27917972207069397 0.18917602300643921
0.027350751683115959 0.17577014863491058 0.14945900440216064
0.097259730100631714 0.17763793468475342 0.15164999663829803
0.18884807825088501 0.17951071262359619 0.15425452589988708
0.29142275452613831 0.17911593616008759 0.15478628873825073
0.39892092347145081 0.17890293896198273 0.15237084031105042
0.50934302806854248 0.17201051115989685 0.14918938279151917
0.61126041412353516 0.17050744593143463 0.1480480283498764
0.70236635208129883 0.17803619801998138 0.14835534989833832
0.78112196922302246 0.1946897953748703 0.15184980630874634
0.84939396381378174 0.22134016454219818 0.15059548616409302
0.91104918718338013 0.25457614660263062 0.15652795135974884
0.9691697359085083 0.28752368688583374 0.16705648601055145
0.99663549661636353 0.32547029852867126 0.17946955561637878
0.0062993220053613186 0.27702412009239197 0.15053045749664307
0.063675671815872192 0.27607253193855286 0.15163218975067139
0.16571378707885742 0.27418962121009827 0.15426626801490784
0.26960527896881104 0.27473405003547668 0.15112587809562683
0.38830411434173584 0.27839109301567078 0.1437707245349884
0.50251716375350952 0.27763098478317261 0.13416045904159546
0.60217738151550293 0.27720838785171509 0.12343128025531769
0.69090110063552856 0.27940881252288818 0.12076528370380402
0.7688976526260376 0.28955623507499695 0.12609352171421051
0.84014785289764404 0.30538579821586609 0.12835903465747833
0.90552937984466553 0.32955154776573181 0.13670599460601807
0.96428245306015015 0.35547581315040588 0.14344359934329987
0.99540549516677856 0.38258010149002075 0.16234035789966583
0.0041427011601626873 0.37662327289581299 0.1457928866147995
0.025076653808355331 0.37348100543022156 0.14562205970287323
0.11785287410020828 0.36809498071670532 0.14631116390228271
