luts/negative_new/fuji_800z.cube
# Created by: G'MIC (https://gmic.eu)
TITLE "fuji_800z"
# LUT size
LUT_3D_SIZE 7
# Data domain
DOMAIN_MIN 0.0 0.0 0.0
DOMAIN_MAX 1.0 1.0 1.0
# LUT data points
0.063456036150455475 0.063654772937297821 0.052603807300329208
0.17612792551517487 0.058555107563734055 0.050463225692510605
0.36304375529289246 0.024943618103861809 0.044670358300209045
0.58339065313339233 0.003820142475888133 0.031921491026878357
0.78644305467605591 0.0026016684714704752 0.015783257782459259
0.93136376142501831 0.0074617573991417885 0.0038079055957496166
1 0.077841736376285553 0.0011917114024981856
0.064878366887569427 0.15949743986129761 0.067882359027862549
0.16073265671730042 0.17363549768924713 0.055087998509407043
0.35857996344566345 0.18663816154003143 0.029872579500079155
0.57765567302703857 0.17184345424175262 0.013412086293101311
0.77625375986099243 0.16606509685516357 0.0036415399517863989
0.92153084278106689 0.18707685172557831 0.0021919100545346737
0.99902784824371338 0.24214966595172882 0.00097449804889038205
0.062607966363430023 0.29471710324287415 0.093807592988014221
0.15022900700569153 0.29483136534690857 0.091022923588752747
0.32584258913993835 0.35111922025680542 0.039750013500452042
0.56969636678695679 0.3920847475528717 0.0052520302124321461
0.75061869621276855 0.38569605350494385 0.0039309035055339336
0.89602631330490112 0.39006268978118896 0.00360870361328125
0.99097228050231934 0.40832513570785522 0.0036037969402968884
0.07333807647228241 0.44022995233535767 0.13088807463645935
0.15983228385448456 0.42845657467842102 0.13409166038036346
0.28992938995361328 0.45724135637283325 0.11649162322282791
0.50700175762176514 0.52848535776138306 0.044269457459449768
0.73399651050567627 0.5804869532585144 0.0032490449957549572
0.8694654107093811 0.56543505191802979 0.00095865584444254637
0.97610479593276978 0.55941230058670044 5.4931639169808477e-05
0.15124660730361938 0.57599568367004395 0.18537637591362
0.21102839708328247 0.5689663290977478 0.18928307294845581
0.29874274134635925 0.56002211570739746 0.18555955588817596
0.46467685699462891 0.61210078001022339 0.17028252780437469
0.6647716760635376 0.67218601703643799 0.14079424738883972
0.85025578737258911 0.72011977434158325 0.089379012584686279
0.96796339750289917 0.71560215950012207 0.045437321066856384
0.30223914980888367 0.71283841133117676 0.28844162821769714
0.33284720778465271 0.70885086059570312 0.2908225953578949
0.3840503990650177 0.69407731294631958 0.2833196222782135
0.48901847004890442 0.71089279651641846 0.28821399807929993
0.63745564222335815 0.75561928749084473 0.30148997902870178
0.7919960618019104 0.80028665065765381 0.30895918607711792
0.94629520177841187 0.84864962100982666 0.326915442943573
0.53852230310440063 0.87031513452529907 0.5263981819152832
0.55014944076538086 0.86773645877838135 0.52464801073074341
0.58188861608505249 0.86360198259353638 0.52793926000595093
0.63026797771453857 0.86236715316772461 0.53318655490875244
0.71300673484802246 0.88624942302703857 0.54901707172393799
0.81306278705596924 0.91175222396850586 0.56558752059936523
0.91387790441513062 0.93174225091934204 0.57248383760452271
0.082444764673709869 0.070546902716159821 0.14745889604091644
0.19002631306648254 0.06684565544128418 0.15105125308036804
0.39457345008850098 0.016128046438097954 0.15572625398635864
0.61400836706161499 0.0030931958463042974 0.16021111607551575
0.80131268501281738 0.0043524946086108685 0.16088950634002686
0.9388313889503479 0.0051941666752099991 0.15145955979824066
1 0.081030718982219696 0.15062806010246277
0.07680714875459671 0.18509027361869812 0.15907703340053558
0.19367653131484985 0.18902462720870972 0.16686275601387024
0.38642528653144836 0.18883505463600159 0.16389742493629456
0.60309135913848877 0.16594229638576508 0.15714626014232635
0.78757274150848389 0.15599842369556427 0.14477379620075226
0.92752569913864136 0.18574187159538269 0.13634549081325531
0.99892419576644897 0.24542593955993652 0.14301702380180359
0.12325282394886017 0.34434404969215393 0.18454840779304504
0.20396146178245544 0.33533674478530884 0.18992578983306885
0.35893583297729492 0.36539122462272644 0.17500840127468109
0.58144402503967285 0.38658878207206726 0.13464832305908203
0.75522655248641968 0.3836703896522522 0.10700292885303497
0.90111833810806274 0.39270451664924622 0.096117742359638214
0.99579155445098877 0.41524472832679749 0.11048396676778793
0.15181729197502136 0.47990244626998901 0.2132132351398468
0.22028335928916931 0.46664416790008545 0.21645183861255646
0.32011657953262329 0.46801584959030151 0.20608508586883545
0.52549904584884644 0.53819924592971802 0.1858527809381485
0.73412609100341797 0.5792917013168335 0.13151627779006958
0.87032204866409302 0.56199461221694946 0.078750163316726685
0.98223930597305298 0.56134867668151855 0.075036086142063141
0.21496666967868805 0.60117477178573608 0.25491616129875183
0.26258328557014465 0.59220975637435913 0.25620925426483154
0.33109608292579651 0.57204419374465942 0.25094720721244812
0.47890534996986389 0.61619561910629272 0.24765026569366455
0.67230850458145142 0.67680031061172485 0.24772414565086365
0.85291141271591187 0.72244954109191895 0.23364636301994324
0.96694248914718628 0.71250319480895996 0.1879844069480896
0.33484071493148804 0.72551697492599487 0.34141182899475098
0.3612062931060791 0.71893393993377686 0.33857154846191406
0.40978312492370605 0.70641875267028809 0.33473405241966248
0.49884393811225891 0.71207720041275024 0.33269038796424866
0.64235413074493408 0.75515651702880859 0.3519585132598877
0.79646337032318115 0.80424541234970093 0.37438139319419861
0.94438499212265015 0.84938853979110718 0.39128810167312622
0.54273378849029541 0.87168902158737183 0.54435557126998901
0.55943787097930908 0.8722846508026123 0.54869312047958374
0.58801484107971191 0.86709129810333252 0.54975849390029907
0.632587730884552 0.86323481798171997 0.55181777477264404
0.71530830860137939 0.88432973623275757 0.56814217567443848
0.81488394737243652 0.90983933210372925 0.58675599098205566
0.91358846426010132 0.93264222145080566 0.59851479530334473
0.11445261538028717 0.085167363286018372 0.31065475940704346
0.22545403242111206 0.087533913552761078 0.31690195202827454
0.40123763680458069 0.065190933644771576 0.33293449878692627
0.65275865793228149 0.0027381598483771086 0.35237979888916016
0.84099733829498291 0.00010274250962538645 0.35652133822441101
0.95423847436904907 0.0048986994661390781 0.34995865821838379
0.999828040599823 0.13246195018291473 0.35543316602706909
0.094008699059486389 0.18735688924789429 0.32152578234672546
0.2243085503578186 0.20259194076061249 0.33023539185523987
0.41637066006660461 0.2035718560218811 0.34450989961624146
0.65561962127685547 0.16192302107810974 0.36179712414741516
0.82427293062210083 0.15528863668441772 0.35520559549331665
0.94090241193771362 0.20550708472728729 0.35376912355422974
0.99780714511871338 0.27318662405014038 0.35894423723220825
0.056066684424877167 0.3841564953327179 0.34483799338340759
0.2273576557636261 0.38706508278846741 0.35501080751419067
0.41369161009788513 0.38901695609092712 0.36045199632644653
0.61733537912368774 0.39350399374961853 0.360475093126297
0.77967792749404907 0.39682939648628235 0.34642502665519714
0.90858209133148193 0.4071161150932312 0.34260016679763794
0.9947320818901062 0.42717638611793518 0.34730261564254761
0.21662326157093048 0.55251079797744751 0.38123366236686707
0.30698800086975098 0.54379922151565552 0.37936922907829285
0.40451279282569885 0.52051538228988647 0.36922088265419006
0.56283199787139893 0.55583226680755615 0.37427440285682678
0.74162811040878296 0.57518309354782104 0.35155734419822693
0.87548983097076416 0.56348007917404175 0.3298284113407135
0.98238438367843628 0.56821852922439575 0.33049911260604858
0.33086457848548889 0.65574187040328979 0.40446287393569946
0.36694300174713135 0.64275693893432617 0.40491828322410583
0.41440820693969727 0.62125545740127563 0.38715142011642456
0.51138138771057129 0.62456363439559937 0.37882372736930847
0.68928313255310059 0.68574410676956177 0.40180560946464539
0.84962260723114014 0.71767711639404297 0.40251907706260681
0.96604615449905396 0.70389145612716675 0.36090379953384399
0.40648400783538818 0.75233834981918335 0.45345956087112427
0.42734584212303162 0.74561411142349243 0.44667455554008484
0.46525681018829346 0.73392456769943237 0.43831458687782288
0.51835161447525024 0.71539866924285889 0.41882792115211487
0.64771372079849243 0.75399219989776611 0.44345211982727051
0.80018061399459839 0.80565172433853149 0.47690472006797791
0.94161832332611084 0.85013771057128906 0.50456178188323975
0.56504303216934204 0.88288956880569458 0.5961727499961853
0.57634842395782471 0.8806796669960022 0.59767419099807739
0.60170280933380127 0.87491542100906372 0.59396845102310181
0.64244717359542847 0.86821448802947998 0.59323108196258545
0.71514654159545898 0.8810698390007019 0.60630768537521362
0.81191366910934448 0.90781468152999878 0.62348747253417969
0.91431957483291626 0.93349993228912354 0.64282238483428955
0.17024190723896027 0.10091220587491989 0.49708610773086548
0.27858653664588928 0.10321194678544998 0.50374382734298706
0.44064918160438538 0.106095090508461 0.51908457279205322
0.63773864507675171 0.064377866685390472 0.55124473571777344
0.82938235998153687 0.0080196605995297432 0.56261390447616577
0.9765741229057312 0.030308263376355171 0.54921668767929077
1 0.20012985169887543 0.53805446624755859
0.1734004020690918 0.21099154651165009 0.50739049911499023
0.28000551462173462 0.21858985722064972 0.51595085859298706
0.4493412971496582 0.22977910935878754 0.53332686424255371
0.63611316680908203 0.23343050479888916 0.55390346050262451
0.8314063549041748 0.20887771248817444 0.56436669826507568
0.96195125579833984 0.2540791928768158 0.55056536197662354
0.99907058477401733 0.32263031601905823 0.54469162225723267
0.077743098139762878 0.35798290371894836 0.51168501377105713
0.23423512279987335 0.36848890781402588 0.52134221792221069
0.42663604021072388 0.39881739020347595 0.53831601142883301
0.62720346450805664 0.41621407866477966 0.55860394239425659
0.80945122241973877 0.43146663904190063 0.56664848327636719
0.92523008584976196 0.44172945618629456 0.55591917037963867
0.99549406766891479 0.46802979707717896 0.562508225440979
0.16982880234718323 0.57918798923492432 0.55030220746994019
0.29356980323791504 0.57910847663879395 0.55235272645950317
0.45427533984184265 0.58093810081481934 0.55926036834716797
0.61351978778839111 0.58371651172637939 0.56625223159790039
0.7595142126083374 0.5888245701789856 0.55711394548416138
0.88130444288253784 0.5851859450340271 0.55269187688827515
0.98587995767593384 0.58784610033035278 0.55170047283172607
0.4033505916595459 0.71344131231307983 0.57672119140625
0.44649925827980042 0.70733284950256348 0.57971715927124023
0.52404606342315674 0.69465667009353638 0.57526415586471558
0.58511888980865479 0.66761821508407593 0.55227959156036377
0.71271771192550659 0.69950741529464722 0.56608444452285767
0.84912252426147461 0.71342176198959351 0.55671167373657227
0.9638485312461853 0.70429027080535889 0.53419548273086548
0.50062727928161621 0.79196053743362427 0.60129201412200928
0.52091598510742188 0.78771787881851196 0.59758144617080688
0.55021637678146362 0.77720052003860474 0.58734452724456787
0.58331310749053955 0.75015449523925781 0.55912351608276367
0.66625809669494629 0.75625467300415039 0.55740714073181152
0.80751895904541016 0.8111308217048645 0.60058009624481201
0.94240409135818481 0.84583401679992676 0.61522108316421509
0.59378325939178467 0.89796906709671021 0.67000287771224976
0.60599750280380249 0.89604151248931885 0.67018646001815796
0.62698280811309814 0.89058226346969604 0.66487789154052734
0.66063672304153442 0.87971967458724976 0.65747135877609253
0.71588528156280518 0.88122439384460449 0.65752625465393066
0.81378841400146484 0.9074091911315918 0.68020129203796387
0.91559028625488281 0.93459218740463257 0.70038235187530518
0.28024789690971375 0.13020582497119904 0.67137408256530762
0.35593420267105103 0.12897124886512756 0.67692774534225464
0.4957173764705658 0.14064995944499969 0.68271052837371826
0.65279996395111084 0.17246493697166443 0.69654595851898193
0.8060142993927002 0.18682290613651276 0.71754258871078491
0.93748372793197632 0.20600774884223938 0.71672791242599487
0.99952787160873413 0.28323626518249512 0.70842403173446655
0.28015878796577454 0.23719334602355957 0.67506295442581177
0.36195310950279236 0.24495783448219299 0.67804205417633057
0.49708059430122375 0.25671428442001343 0.6850283145904541
0.6555444598197937 0.28423061966896057 0.69666099548339844
0.79980820417404175 0.30889239907264709 0.71832454204559326
0.93294179439544678 0.33151295781135559 0.71659290790557861
0.99898874759674072 0.37528416514396667 0.71073067188262939
0.21542145311832428 0.36533418297767639 0.67143905162811279
0.32792305946350098 0.38210725784301758 0.67787408828735352
0.47846660017967224 0.40293323993682861 0.68486899137496948
0.63927650451660156 0.43541368842124939 0.69631499052047729
0.78445345163345337 0.4643675684928894 0.71788281202316284
0.91643834114074707 0.48918911814689636 0.72304773330688477
0.99726253747940063 0.52015894651412964 0.72095417976379395
0.19187311828136444 0.53425687551498413 0.67312330007553101
0.28914615511894226 0.53706884384155273 0.67615747451782227
0.43833485245704651 0.54359966516494751 0.68038433790206909
0.61128604412078857 0.57506412267684937 0.6956937313079834
0.76232618093490601 0.60819756984710693 0.71411865949630737
0.89726167917251587 0.62700670957565308 0.72795331478118896
0.99192875623703003 0.63212805986404419 0.72667592763900757
0.37933811545372009 0.71697497367858887 0.70609331130981445
0.43483975529670715 0.71553951501846313 0.70717495679855347
0.52360552549362183 0.71517622470855713 0.70928150415420532
0.63961869478225708 0.7163015604019165 0.714152991771698
0.74411028623580933 0.71938103437423706 0.71764814853668213
0.85898762941360474 0.72741371393203735 0.71182304620742798
0.96812981367111206 0.72758960723876953 0.70980352163314819
0.55258363485336304 0.8373032808303833 0.73077088594436646
0.57613676786422729 0.83681833744049072 0.73161643743515015
0.61738663911819458 0.8302193284034729 0.73208361864089966
0.66664594411849976 0.81364494562149048 0.72041267156600952
0.71086937189102173 0.78394532203674316 0.69459253549575806
0.8229750394821167 0.82137519121170044 0.71697527170181274
0.94477945566177368 0.84101355075836182 0.7183002233505249
0.63522011041641235 0.92333513498306274 0.76316940784454346
0.64728420972824097 0.92088538408279419 0.76210552453994751
0.66959738731384277 0.91750311851501465 0.75741755962371826
0.6999775767326355 0.91120666265487671 0.75160819292068481
0.73755383491516113 0.89463376998901367 0.7360919713973999
0.81272739171981812 0.90568089485168457 0.74320566654205322
0.92298263311386108 0.93785774707794189 0.77195727825164795
0.41900584101676941 0.19877079129219055 0.81078332662582397
0.47151297330856323 0.20534038543701172 0.8099856972694397
0.56590861082077026 0.21995867788791656 0.81362086534500122
0.68751078844070435 0.26215368509292603 0.81866967678070068
0.80699080228805542 0.32903897762298584 0.82516038417816162
0.92191022634506226 0.36204123497009277 0.83638483285903931
0.9949265718460083 0.38195258378982544 0.83788716793060303
0.41979321837425232 0.28538453578948975 0.81002593040466309
0.46818017959594727 0.29201784729957581 0.81056267023086548
0.56715929508209229 0.31283625960350037 0.81255418062210083
0.68227458000183105 0.3422795832157135 0.81795710325241089
0.79891449213027954 0.39839619398117065 0.82421779632568359
0.91302239894866943 0.43179053068161011 0.83571600914001465
0.99709230661392212 0.45325896143913269 0.83880829811096191
0.39120769500732422 0.41271904110908508 0.80314093828201294
0.44109541177749634 0.41938984394073486 0.80286902189254761
0.5497126579284668 0.43640565872192383 0.80901253223419189
0.66692584753036499 0.46369394659996033 0.81260138750076294
0.78491830825805664 0.50855642557144165 0.81997179985046387
0.89886605739593506 0.53950005769729614 0.83409309387207031
0.99054360389709473 0.55979377031326294 0.83821386098861694
0.28199020028114319 0.51710718870162964 0.79175674915313721
0.35995647311210632 0.52390426397323608 0.79647266864776611
0.49685144424438477 0.54677444696426392 0.80112296342849731
0.64261811971664429 0.57927626371383667 0.80892229080200195
0.77181482315063477 0.61746048927307129 0.81949007511138916
0.88398820161819458 0.63990318775177002 0.83172804117202759
0.98491233587265015 0.66365492343902588 0.84094595909118652
0.35692319273948669 0.68103677034378052 0.80077683925628662
0.40523561835289001 0.67650288343429565 0.80064016580581665
0.48832178115844727 0.67652517557144165 0.80483192205429077
0.60101181268692017 0.67908984422683716 0.80205285549163818
0.74020528793334961 0.71070235967636108 0.81390011310577393
0.86947369575500488 0.74512499570846558 0.83483117818832397
0.97639143466949463 0.76814514398574829 0.84695106744766235
0.51586633920669556 0.8358464241027832 0.82521712779998779
0.53978317975997925 0.83468633890151978 0.82575839757919312
0.5984070897102356 0.83250391483306885 0.82776486873626709
0.67772871255874634 0.83168238401412964 0.83043152093887329
0.76046133041381836 0.83072477579116821 0.83246785402297974
0.85029321908950806 0.84261929988861084 0.83640295267105103
0.95370674133300781 0.85340327024459839 0.83575832843780518
0.67040330171585083 0.94337236881256104 0.8508874773979187
0.68269211053848267 0.94305920600891113 0.85009711980819702
0.71197038888931274 0.9424668550491333 0.85171675682067871
0.7513386607170105 0.93858999013900757 0.8528892993927002
0.79548472166061401 0.933929443359375 0.84861981868743896
0.83326572179794312 0.91725790500640869 0.82827436923980713
0.93477612733840942 0.94300156831741333 0.84996569156646729
0.58319079875946045 0.36715370416641235 0.92835038900375366
0.60852855443954468 0.36898958683013916 0.92661625146865845
0.66868388652801514 0.3854232132434845 0.92699921131134033
0.7517816424369812 0.42143940925598145 0.92603427171707153
0.83862042427062988 0.47044742107391357 0.92636460065841675
0.92567652463912964 0.52752411365509033 0.92670148611068726
0.99416697025299072 0.54276174306869507 0.93185150623321533
0.57990378141403198 0.41938894987106323 0.92706608772277832
0.60802704095840454 0.427104651927948 0.92670881748199463
0.66510856151580811 0.43599870800971985 0.92271822690963745
0.74459719657897949 0.47134196758270264 0.9225088357925415
0.83415442705154419 0.51153767108917236 0.92550384998321533
0.92104119062423706 0.55915737152099609 0.92518699169158936
0.99313044548034668 0.57720655202865601 0.93175703287124634
0.5701291561126709 0.51578223705291748 0.9229886531829834
0.59839701652526855 0.51892656087875366 0.92176777124404907
0.65869557857513428 0.52822780609130859 0.92281031608581543
0.74019479751586914 0.55377328395843506 0.92142993211746216
0.82447391748428345 0.58217692375183105 0.92116445302963257
0.91286802291870117 0.62079107761383057 0.92323321104049683
0.99038827419281006 0.63554543256759644 0.93150264024734497
0.511851966381073 0.59289050102233887 0.91799086332321167
0.55465316772460938 0.60206425189971924 0.92014527320861816
0.62924998998641968 0.61465346813201904 0.91794329881668091
0.71779799461364746 0.63219338655471802 0.91996246576309204
0.81061303615570068 0.65850865840911865 0.91966623067855835
0.90502774715423584 0.69086050987243652 0.92378884553909302
0.98497891426086426 0.70748579502105713 0.9310944676399231
0.44385957717895508 0.68651860952377319 0.91776913404464722
0.4765264093875885 0.68567168712615967 0.91631770133972168
0.54818189144134521 0.68750381469726562 0.9166489839553833
0.65952074527740479 0.70336264371871948 0.91661298274993896
0.78327339887619019 0.73595601320266724 0.92088371515274048
0.88778525590896606 0.76437205076217651 0.92467612028121948
0.9757840633392334 0.79259085655212402 0.93194079399108887
0.52699428796768188 0.83496510982513428 0.92076283693313599
0.54391652345657349 0.82948142290115356 0.91891443729400635
0.59032386541366577 0.82572859525680542 0.9204290509223938
0.65183860063552856 0.8216131329536438 0.92159581184387207
0.73251181840896606 0.81596505641937256 0.92154300212860107
0.85661959648132324 0.84192711114883423 0.92790699005126953
0.96365010738372803 0.87302213907241821 0.93351739645004272
0.63978660106658936 0.95034468173980713 0.93090736865997314
0.65624326467514038 0.95168262720108032 0.93188786506652832
0.68895238637924194 0.94742739200592041 0.92974591255187988
0.73692560195922852 0.94880306720733643 0.93411248922348022
0.79813140630722046 0.94559675455093384 0.93520236015319824
0.8754393458366394 0.94509035348892212 0.93848186731338501
0.95663446187973022 0.95433956384658813 0.94034671783447266
