luts/negative_new/fuji_400h_-.cube
# Created by: G'MIC (https://gmic.eu)
TITLE "fuji_400h_-"
# LUT size
LUT_3D_SIZE 13
# Data domain
DOMAIN_MIN 0.0 0.0 0.0
DOMAIN_MAX 1.0 1.0 1.0
# LUT data points
0.021147619932889938 0.030723482370376587 0.030350299552083015
0.078259624540805817 0.036581002175807953 0.028542881831526756
0.16030286252498627 0.040545593947172165 0.028397010639309883
0.26395729184150696 0.037558641284704208 0.029580524191260338
0.38287660479545593 0.018089534714818001 0.029985735192894936
0.50608009099960327 0.0053179124370217323 0.027851702645421028
0.61747699975967407 0.0039426614530384541 0.029562691226601601
0.70947122573852539 0.0038021611981093884 0.028770985081791878
0.78505337238311768 0.0028839111328125 0.024151820689439774
0.84238868951797485 0.011731255799531937 0.025512067601084709
0.89328145980834961 0.068938054144382477 0.035089172422885895
0.94267499446868896 0.15290725231170654 0.044684048742055893
0.98371469974517822 0.21464797854423523 0.063547588884830475
0.0093403235077857971 0.09287591278553009 0.034376706928014755
0.062586240470409393 0.10108093917369843 0.032005444169044495
0.1548217236995697 0.10680174082517624 0.027568891644477844
0.26626172661781311 0.10706758499145508 0.025490136817097664
0.38390401005744934 0.088359713554382324 0.023707430809736252
0.50486189126968384 0.058359663933515549 0.020027713850140572
0.61597877740859985 0.040601618587970734 0.018024623394012451
0.70866692066192627 0.033798381686210632 0.017779974266886711
0.78180772066116333 0.047030579298734665 0.016712233424186707
0.83920592069625854 0.089203685522079468 0.021109053865075111
0.89135235548019409 0.14437849819660187 0.028573518618941307
0.93941479921340942 0.20088790357112885 0.039357367902994156
0.98337352275848389 0.24960020184516907 0.060871481895446777
0.0030484069138765335 0.17554500699043274 0.035681150853633881
0.022399947047233582 0.1766401082277298 0.035839349031448364
0.12497681379318237 0.18526120483875275 0.028751896694302559
0.25664055347442627 0.19061587750911713 0.017025591805577278
0.38302350044250488 0.18834793567657471 0.013731219805777073
0.50345969200134277 0.1758449375629425 0.011450808495283127
0.61190718412399292 0.16836650669574738 0.0086486963555216789
0.70126980543136597 0.16547709703445435 0.0089815175160765648
0.77348250150680542 0.1738191545009613 0.0086155906319618225
0.8306889533996582 0.19569869339466095 0.012061788700520992
0.88428992033004761 0.22599391639232635 0.015559072606265545
0.93380004167556763 0.26208555698394775 0.024470116943120956
0.97934001684188843 0.30048638582229614 0.046781249344348907
0.0016143200919032097 0.27089083194732666 0.038269355893135071
0.0042763203382492065 0.26898366212844849 0.03935941681265831
0.063768036663532257 0.27171775698661804 0.031769007444381714
0.22350487112998962 0.2831246554851532 0.018083594739437103
0.37103575468063354 0.29179388284683228 0.0089295180514454842
0.4986274242401123 0.28684088587760925 0.0062162061221897602
0.60289907455444336 0.27478069067001343 0.0080628339201211929
0.69098120927810669 0.2699127197265625 0.0087472656741738319
0.7590336799621582 0.27400761842727661 0.0062857833690941334
0.81882798671722412 0.28895190358161926 0.0087506761774420738
0.87254536151885986 0.30728176236152649 0.010436891578137875
0.92476111650466919 0.32981303334236145 0.011894869618117809
0.97466486692428589 0.35615131258964539 0.025201519951224327
5.5290671298280358e-05 0.36924827098846436 0.041663974523544312
0.0016884597716853023 0.36828738451004028 0.045285213738679886
0.024311305955052376 0.36676546931266785 0.043659210205078125
0.17734411358833313 0.37217041850090027 0.030242934823036194
0.34086146950721741 0.3808075487613678 0.015613825060427189
0.4795587956905365 0.38590782880783081 0.0082429023459553719
0.58743792772293091 0.37631741166114807 0.0091941235587000847
0.6787487268447876 0.36588588356971741 0.0058049969375133514
0.74561578035354614 0.36755216121673584 0.0039596408605575562
0.80441546440124512 0.37607130408287048 0.0075451419688761234
0.85951840877532959 0.38493168354034424 0.008866388350725174
0.91343396902084351 0.39878639578819275 0.0085358563810586929
0.96354848146438599 0.41477373242378235 0.0083816824480891228
0 0.45683339238166809 0.059381045401096344
0.0015442941803485155 0.4564545750617981 0.066584549844264984
0.006759000476449728 0.45141816139221191 0.072209842503070831
0.12692262232303619 0.45007383823394775 0.060401435941457748
0.29797759652137756 0.45507219433784485 0.036340780556201935
0.43479853868484497 0.45865687727928162 0.017444431781768799
0.55387473106384277 0.46093440055847168 0.012670973315834999
0.649810791015625 0.45615676045417786 0.0045150606893002987
0.72194182872772217 0.45689782500267029 0.0058141071349382401
0.78689604997634888 0.45403608679771423 0.0044935187324881554
0.84589499235153198 0.45637112855911255 0.007627150509506464
0.90217334032058716 0.46479636430740356 0.0089479479938745499
0.95630902051925659 0.47727841138839722 0.0082235299050807953
0 0.52508890628814697 0.094553448259830475
0.00064583570929244161 0.52316653728485107 0.10574036836624146
0.0042687510140240192 0.52045226097106934 0.1128319650888443
0.097811482846736908 0.51823216676712036 0.112010657787323
0.2689356803894043 0.5183711051940918 0.093164332211017609
0.40033817291259766 0.51999187469482422 0.066811308264732361
0.51654273271560669 0.52592331171035767 0.034697812050580978
0.62132740020751953 0.53241705894470215 0.01014232262969017
0.70055049657821655 0.53152507543563843 0.0075313043780624866
0.76829886436462402 0.527629554271698 0.0051713981665670872
0.83043104410171509 0.52617549896240234 0.0070147048681974411
0.89124113321304321 0.53010708093643188 0.0074381511658430099
0.94605058431625366 0.53733336925506592 0.0046544391661882401
0.00052379531553015113 0.5847618579864502 0.13954129815101624
0.00048859539674594998 0.58261209726333618 0.14836499094963074
0.0049442816525697708 0.58182710409164429 0.15373566746711731
0.11102302372455597 0.57850080728530884 0.15652628242969513
0.26185151934623718 0.57742375135421753 0.15025827288627625
0.38310632109642029 0.57797843217849731 0.13356810808181763
0.49149960279464722 0.58125513792037964 0.10891324281692505
0.59173685312271118 0.58649903535842896 0.068419590592384338
0.67968070507049561 0.59365063905715942 0.036741591989994049
0.74957948923110962 0.59462469816207886 0.016952589154243469
0.81360375881195068 0.59396374225616455 0.011401052586734295
0.87639898061752319 0.59491682052612305 0.0082552889361977577
0.93621635437011719 0.5997588038444519 0.0045112459920346737
0.0035188114270567894 0.64060622453689575 0.18718938529491425
0.0040869321674108505 0.64021784067153931 0.1911357045173645
0.040494371205568314 0.63991880416870117 0.19518740475177765
0.16870106756687164 0.63595324754714966 0.20222257077693939
0.28329735994338989 0.63390791416168213 0.20184773206710815
0.39175549149513245 0.63268071413040161 0.19224365055561066
0.48305502533912659 0.63383984565734863 0.17865344882011414
0.56874513626098633 0.63771802186965942 0.15796792507171631
0.65050041675567627 0.64248484373092651 0.13380518555641174
0.7242279052734375 0.64778983592987061 0.10108634829521179
0.79423987865447998 0.65407276153564453 0.074770592153072357
0.85977226495742798 0.65895438194274902 0.047334693372249603
0.92384982109069824 0.66362518072128296 0.028007162734866142
0.028384475037455559 0.69747209548950195 0.23944661021232605
0.068862587213516235 0.69741314649581909 0.24144425988197327
0.14913024008274078 0.69432514905929565 0.24549391865730286
0.23781190812587738 0.68935090303421021 0.2549348771572113
0.32051330804824829 0.68742769956588745 0.25982436537742615
0.4088955819606781 0.6863517165184021 0.25558453798294067
0.48950871825218201 0.68687033653259277 0.24577908217906952
0.56298267841339111 0.6892857551574707 0.235338494181633
0.63677704334259033 0.69503313302993774 0.22078582644462585
0.70349782705307007 0.69824045896530151 0.19951224327087402
0.772666335105896 0.70334476232528687 0.1727563887834549
0.84177464246749878 0.71340161561965942 0.15186744928359985
0.91265034675598145 0.72298681735992432 0.13799168169498444
0.18106332421302795 0.75514703989028931 0.30158644914627075
0.21020857989788055 0.75334614515304565 0.30279019474983215
0.25417762994766235 0.75095522403717041 0.30573147535324097
0.30885535478591919 0.74725359678268433 0.31233465671539307
0.36645343899726868 0.74384617805480957 0.31767851114273071
0.43076416850090027 0.7427058219909668 0.3187415599822998
0.50039660930633545 0.74281507730484009 0.31275564432144165
0.56696891784667969 0.7448350191116333 0.30567628145217896
0.63094562292098999 0.75135105848312378 0.29907685518264771
0.69413775205612183 0.75710141658782959 0.28577187657356262
0.75885891914367676 0.75939923524856567 0.26247194409370422
0.82693660259246826 0.76483500003814697 0.23967939615249634
0.90066653490066528 0.77723658084869385 0.23226641118526459
0.29172775149345398 0.81793361902236938 0.37658494710922241
0.31045436859130859 0.81580400466918945 0.37531739473342896
0.33736950159072876 0.81273180246353149 0.37533149123191833
0.37727773189544678 0.81166619062423706 0.38131949305534363
0.4199831485748291 0.80876642465591431 0.38730213046073914
0.46856331825256348 0.80762636661529541 0.39062237739562988
0.52765935659408569 0.80926454067230225 0.3910275399684906
0.58278554677963257 0.81213194131851196 0.38928744196891785
0.63729596138000488 0.81690436601638794 0.38333991169929504
0.6951141357421875 0.82113701105117798 0.37158435583114624
0.75694745779037476 0.82584685087203979 0.35864180326461792
0.82408016920089722 0.83227771520614624 0.34318721294403076
0.8916466236114502 0.83806228637695312 0.3253265917301178
0.37496215105056763 0.88669878244400024 0.45902630686759949
0.3885083794593811 0.8873475193977356 0.45850878953933716
0.4090665876865387 0.884909987449646 0.45902255177497864
0.43682000041007996 0.88471472263336182 0.46430206298828125
0.47313332557678223 0.88529610633850098 0.4722667932510376
0.50971299409866333 0.88116973638534546 0.47659716010093689
0.55491882562637329 0.88282120227813721 0.48532181978225708
0.60163772106170654 0.88548493385314941 0.48547738790512085
0.65194052457809448 0.89038801193237305 0.48179316520690918
0.70514374971389771 0.89299458265304565 0.47164264321327209
0.76507407426834106 0.90164023637771606 0.4676244854927063
0.83009165525436401 0.90819108486175537 0.45805758237838745
0.89655625820159912 0.91385185718536377 0.44772621989250183
0.028752719983458519 0.035547982901334763 0.090213567018508911
0.082275748252868652 0.04096495732665062 0.091368399560451508
0.16531985998153687 0.038894802331924438 0.09177754819393158
0.27427905797958374 0.02739899605512619 0.092748753726482391
0.39142197370529175 0.01643727533519268 0.096907719969749451
0.51038646697998047 0.0062289666384458542 0.1007343977689743
0.62055063247680664 0.0053412793204188347 0.10691803693771362
0.71156466007232666 0.0043653449974954128 0.11024601012468338
0.78294318914413452 0.0092667220160365105 0.10987916588783264
0.84126955270767212 0.040318820625543594 0.11205616593360901
0.89095640182495117 0.10445095598697662 0.12053623795509338
0.93906098604202271 0.17926424741744995 0.13391265273094177
0.98171716928482056 0.23241111636161804 0.14684724807739258
0.012470110319554806 0.099911525845527649 0.095663405954837799
0.069687999784946442 0.10889847576618195 0.09811362624168396
0.16650372743606567 0.11077417433261871 0.096196211874485016
0.27615565061569214 0.10440578311681747 0.092843972146511078
0.39190170168876648 0.096515759825706482 0.094619646668434143
0.51000630855560303 0.075877398252487183 0.095132432878017426
0.61868196725845337 0.063689030706882477 0.099869400262832642
0.70787447690963745 0.056480586528778076 0.099787481129169464
0.77982139587402344 0.076699741184711456 0.1020309180021286
0.83815008401870728 0.12287184596061707 0.1057361364364624
0.88893544673919678 0.1686219722032547 0.11646202206611633
0.93705290555953979 0.21907128393650055 0.1284647136926651
0.98146188259124756 0.26632982492446899 0.1467251181602478
0.006808307021856308 0.18697249889373779 0.1039610356092453
0.037132188677787781 0.18932172656059265 0.10236228257417679
0.14526332914829254 0.19529540836811066 0.10054145008325577
0.26923868060112 0.1957080215215683 0.092394061386585236
0.39125773310661316 0.19271285831928253 0.083764307200908661
0.50914031267166138 0.18724937736988068 0.081151388585567474
0.61551797389984131 0.18133474886417389 0.085064336657524109
0.70106709003448486 0.17983457446098328 0.086164779961109161
0.77038073539733887 0.19374194741249084 0.087853707373142242
0.82982528209686279 0.21535976231098175 0.089108079671859741
0.88319957256317139 0.24313589930534363 0.10119159519672394
0.93207871913909912 0.27839627861976624 0.11528006196022034
0.97731143236160278 0.3145579993724823 0.13587255775928497
0.0043159634806215763 0.28305861353874207 0.11190281063318253
0.0095167867839336395 0.28231573104858398 0.10964692384004593
0.09444204717874527 0.28348186612129211 0.1072961688041687
0.24215264618396759 0.28907650709152222 0.095640696585178375
0.38212129473686218 0.29515555500984192 0.076754868030548096
0.50600236654281616 0.29174605011940002 0.061302725225687027
0.6075139045715332 0.28410470485687256 0.056381210684776306
0.69173425436019897 0.2803797721862793 0.054111674427986145
0.75807255506515503 0.2861844003200531 0.06101614236831665
0.81970220804214478 0.29907616972923279 0.064277902245521545
0.87222999334335327 0.31924930214881897 0.077724114060401917
0.92356038093566895 0.34146949648857117 0.091192208230495453
0.97343599796295166 0.36812832951545715 0.11637021601200104
0.0018530602101236582 0.38006538152694702 0.11997716873884201
0.003878679359331727 0.37949991226196289 0.12338381260633469
0.046900536864995956 0.37457472085952759 0.12027744948863983
0.20190905034542084 0.37795260548591614 0.1107332855463028
0.35357683897018433 0.385821133852005 0.088535681366920471
0.48591554164886475 0.38967058062553406 0.060517687350511551
0.59160155057907104 0.38186979293823242 0.040261123329401016
0.67824113368988037 0.37312772870063782 0.0280775036662817
0.74658751487731934 0.37205561995506287 0.029547657817602158
0.80793970823287964 0.37774017453193665 0.035764686763286591
0.86018210649490356 0.3902188241481781 0.050044175237417221
0.91330796480178833 0.40474429726600647 0.057891547679901123
0.96540135145187378 0.42317569255828857 0.082560084760189056
5.7908600865630433e-05 0.46555739641189575 0.1348021924495697
0.0025707767345011234 0.46567922830581665 0.14243516325950623
0.024305021390318871 0.45799362659454346 0.14102329313755035
0.16626565158367157 0.45550486445426941 0.13617600500583649
0.31709367036819458 0.45972901582717896 0.11734841763973236
0.44955599308013916 0.46310308575630188 0.087630361318588257
0.5631524920463562 0.4662838876247406 0.056913711130619049
0.65237778425216675 0.46192309260368347 0.03981926292181015
0.72710180282592773 0.45701992511749268 0.024881834164261818
0.79070937633514404 0.45380237698554993 0.021332670003175735
0.84709805250167847 0.45877858996391296 0.026491366326808929
0.9026147723197937 0.46808180212974548 0.031554292887449265
0.95635080337524414 0.48168548941612244 0.0453326515853405
2.5670668037491851e-05 0.53309476375579834 0.15831749141216278
0.0016629387391731143 0.53149384260177612 0.16450397670269012
0.012750842608511448 0.52687162160873413 0.16533893346786499
0.14310434460639954 0.5229983925819397 0.16751588881015778
0.28678834438323975 0.52143770456314087 0.15555106103420258
0.41407725214958191 0.52229452133178711 0.13239899277687073
0.52503496408462524 0.528148353099823 0.10368616133928299
0.62325775623321533 0.53309351205825806 0.079557530581951141
0.70281744003295898 0.53252279758453369 0.056897435337305069
0.77041161060333252 0.53095376491546631 0.033892583101987839
0.83220291137695312 0.52840441465377808 0.018250947818160057
0.89082729816436768 0.5316581130027771 0.013526228256523609
0.94633287191390991 0.53988659381866455 0.017518796026706696
0.0019028158858418465 0.59063363075256348 0.18607448041439056
0.00089925131760537624 0.58927017450332642 0.19247768819332123
0.023691872134804726 0.58719044923782349 0.19492848217487335
0.16032665967941284 0.58186435699462891 0.19883017241954803
0.28109267354011536 0.57964396476745605 0.19391834735870361
0.39445686340332031 0.5798957347869873 0.18456736207008362
0.4975925087928772 0.58296263217926025 0.16696731746196747
0.59236901998519897 0.58829635381698608 0.14199453592300415
0.67825102806091309 0.59473687410354614 0.11346730589866638
0.74991393089294434 0.59477692842483521 0.085097596049308777
0.81281799077987671 0.59499233961105347 0.058747012168169022
0.87506020069122314 0.59687674045562744 0.037123885005712509
0.93505924940109253 0.60095477104187012 0.018304802477359772
0.004950549453496933 0.64618861675262451 0.22574286162853241
0.011508462950587273 0.64520382881164551 0.22731177508831024
0.08099694550037384 0.64250063896179199 0.23142915964126587
0.20168216526508331 0.63721394538879395 0.23582927882671356
0.3032609224319458 0.63418757915496826 0.2350722998380661
0.40048712491989136 0.63285559415817261 0.22926262021064758
0.48928731679916382 0.63455569744110107 0.22022421658039093
0.57126414775848389 0.63920861482620239 0.20691341161727905
0.65279370546340942 0.6452336311340332 0.19066938757896423
0.72489863634109497 0.64897876977920532 0.16886568069458008
0.79364275932312012 0.65332663059234619 0.14130249619483948
0.85989248752593994 0.65846937894821167 0.11433397233486176
0.92307168245315552 0.6637311577796936 0.087105803191661835
0.056461766362190247 0.70095604658126831 0.26856833696365356
0.10610722750425339 0.70022064447402954 0.27133837342262268
0.17758679389953613 0.69560718536376953 0.27579793334007263
0.25774544477462769 0.69099432229995728 0.27968454360961914
0.33399477601051331 0.68762946128845215 0.28187769651412964
0.41580376029014587 0.68641537427902222 0.28331759572029114
0.49380713701248169 0.68733316659927368 0.27654322981834412
0.56400948762893677 0.69075572490692139 0.26885083317756653
0.6351090669631958 0.69646447896957397 0.25784450769424438
0.70312744379043579 0.69981616735458374 0.23860831558704376
0.77292913198471069 0.70375698804855347 0.21581271290779114
0.84366899728775024 0.71332734823226929 0.1985212117433548
0.91246259212493896 0.72218161821365356 0.184625044465065
0.20109783113002777 0.75541222095489502 0.32407370209693909
0.22141760587692261 0.75504076480865479 0.32596549391746521
0.25886243581771851 0.75203102827072144 0.32947492599487305
0.3169829249382019 0.74868297576904297 0.3336365818977356
0.37012490630149841 0.74658101797103882 0.33832284808158875
0.43672215938568115 0.74441772699356079 0.34244593977928162
0.50396436452865601 0.74347966909408569 0.33772706985473633
0.56881529092788696 0.74673616886138916 0.33288457989692688
0.63159477710723877 0.75370228290557861 0.3272586464881897
0.69494599103927612 0.75761127471923828 0.31139162182807922
0.76045459508895874 0.75929296016693115 0.28986254334449768
0.82749521732330322 0.76441371440887451 0.26985836029052734
0.90080153942108154 0.77714163064956665 0.26379382610321045
0.30120018124580383 0.81864696741104126 0.39262235164642334
0.31361424922943115 0.81572002172470093 0.38915327191352844
0.34117469191551208 0.81360673904418945 0.39250287413597107
0.38111409544944763 0.81232720613479614 0.39832320809364319
0.42357918620109558 0.81090682744979858 0.40325358510017395
0.47189554572105408 0.80908668041229248 0.4050813615322113
0.5276871919631958 0.81012058258056641 0.40659478306770325
0.58152347803115845 0.81189149618148804 0.40313306450843811
0.6375921368598938 0.81681406497955322 0.39796173572540283
0.6955609917640686 0.82086771726608276 0.39036944508552551
0.75814545154571533 0.82481622695922852 0.37569427490234375
0.82571500539779663 0.8300468921661377 0.35885119438171387
0.89136183261871338 0.83637291193008423 0.34421506524085999
0.38061997294425964 0.88920283317565918 0.46998423337936401
0.39117708802223206 0.8867870569229126 0.46885424852371216
0.41227659583091736 0.88573789596557617 0.47153601050376892
0.44182726740837097 0.88562995195388794 0.47745996713638306
0.47656282782554626 0.88559192419052124 0.48330831527709961
0.51405590772628784 0.88458019495010376 0.48844173550605774
0.55770450830459595 0.88380402326583862 0.49359682202339172
0.60257637500762939 0.88517940044403076 0.49289578199386597
0.65366679430007935 0.89141559600830078 0.49158737063407898
0.70764857530593872 0.89488691091537476 0.48454838991165161
0.76716858148574829 0.90200823545455933 0.47816842794418335
0.83247631788253784 0.90763729810714722 0.46927711367607117
0.89521169662475586 0.91032916307449341 0.45473811030387878
0.027549369260668755 0.044841032475233078 0.17517974972724915
0.087342463433742523 0.049437727779150009 0.1814388632774353
0.17111138999462128 0.04518229141831398 0.18024252355098724
0.27706971764564514 0.02602996863424778 0.17585377395153046
0.40092521905899048 0.010951831005513668 0.18050618469715118
0.5205187201499939 0.0056022345088422298 0.18340642750263214
0.62590688467025757 0.0057610007934272289 0.19013683497905731
0.71543431282043457 0.016640428453683853 0.20309486985206604
0.78319251537322998 0.06032295897603035 0.21085600554943085
0.83846217393875122 0.11560546606779099 0.21721601486206055
0.88877135515213013 0.16921114921569824 0.22194166481494904
0.93734389543533325 0.2191527783870697 0.22851026058197021
0.98013263940811157 0.26463839411735535 0.2409738153219223
0.012827839702367783 0.10607452690601349 0.17851638793945312
0.072577141225337982 0.11484429985284805 0.18481932580471039
0.17508073151111603 0.12022515386343002 0.18857021629810333
0.28213828802108765 0.10895915329456329 0.1852649450302124
0.40299344062805176 0.087099380791187286 0.18711058795452118
0.520255446434021 0.075968377292156219 0.19021812081336975
0.6264234185218811 0.087618596851825714 0.19910475611686707
0.71078163385391235 0.1086912602186203 0.20539864897727966
0.77820605039596558 0.13894440233707428 0.21004615724086761
0.83538013696670532 0.17510545253753662 0.2152579128742218
0.88506114482879639 0.21309727430343628 0.22083193063735962
0.93380463123321533 0.25301849842071533 0.22722530364990234
0.97879528999328613 0.29193019866943359 0.24034267663955688
0.0063439463265240192 0.19758258759975433 0.18901351094245911
0.041606858372688293 0.2034384161233902 0.18960572779178619
0.16741575300693512 0.20659208297729492 0.1922486275434494
0.28564333915710449 0.20443829894065857 0.18915668129920959
0.40520185232162476 0.19756463170051575 0.1925642341375351
0.52021783590316772 0.20035210251808167 0.19742627441883087
0.62331050634384155 0.20370051264762878 0.1988271027803421
0.70255029201507568 0.20958392322063446 0.19884297251701355
0.76846730709075928 0.22609904408454895 0.20235221087932587
0.82751601934432983 0.24502244591712952 0.20677964389324188
0.88050901889801025 0.27225703001022339 0.21270744502544403
0.92953586578369141 0.30189299583435059 0.22164370119571686
0.97498410940170288 0.33316764235496521 0.23657447099685669
0.0038085638079792261 0.2997472882270813 0.20179224014282227
0.018691686913371086 0.30108985304832458 0.1983056515455246
0.14351747930049896 0.3004932701587677 0.20017923414707184
0.27288582921028137 0.30033785104751587 0.19731473922729492
0.40005752444267273 0.30322989821434021 0.19544839859008789
0.51757794618606567 0.30330565571784973 0.18953797221183777
0.61458945274353027 0.29951617121696472 0.18078882992267609
0.69181692600250244 0.30184116959571838 0.17602987587451935
0.75687956809997559 0.30823424458503723 0.18182545900344849
0.81844747066497803 0.31991204619407654 0.18844336271286011
0.87236469984054565 0.33562809228897095 0.19465237855911255
0.9224439263343811 0.35719522833824158 0.20520909130573273
0.97005760669708252 0.38440331816673279 0.22139708697795868
0.0029260972514748573 0.39684423804283142 0.21364256739616394
0.013872767798602581 0.39745289087295532 0.2127784937620163
0.10585286468267441 0.39268508553504944 0.21061579883098602
0.24375380575656891 0.39173036813735962 0.21072562038898468
