luts/negative_new/fuji_160c.cube
# Created by: G'MIC (https://gmic.eu)
TITLE "fuji_160c"
# LUT size
LUT_3D_SIZE 7
# Data domain
DOMAIN_MIN 0.0 0.0 0.0
DOMAIN_MAX 1.0 1.0 1.0
# LUT data points
0.037757229059934616 0.035615313798189163 0.0279349684715271
0.16554801166057587 0.032251186668872833 0.027969583868980408
0.37633979320526123 0.010457940399646759 0.027109632268548012
0.59806734323501587 0.003979911096394062 0.018345657736063004
0.78572458028793335 0.0023385439999401569 0.0088983122259378433
0.92427784204483032 0.027388988062739372 0.0027499329298734665
0.99863302707672119 0.20874027907848358 0.010420855134725571
0.0094035575166344643 0.16827580332756042 0.028420452028512955
0.13916489481925964 0.16600444912910461 0.018854537978768349
0.3720671534538269 0.15918555855751038 0.010101722553372383
0.59267890453338623 0.12593287229537964 0.0040381485596299171
0.77722597122192383 0.13922619819641113 0.0018762326799333096
0.91120713949203491 0.21362839639186859 0.0049569373950362206
0.99384027719497681 0.30176904797554016 0.0042319651693105698
0.0004856034938711673 0.36390379071235657 0.0092030242085456848
0.030716272071003914 0.34927576780319214 0.0028286054730415344
0.3255922794342041 0.35816735029220581 0.0062726340256631374
0.57134509086608887 0.36169654130935669 0.0035438986960798502
0.75148063898086548 0.36110025644302368 0.0071805617772042751
0.89130491018295288 0.39659744501113892 0.0076280334033071995
0.99278020858764648 0.43431815505027771 0.0037306542508304119
0 0.54041594266891479 0.010342421941459179
0.0021474650129675865 0.5292847752571106 0.0041330372914671898
0.24501140415668488 0.5251765251159668 0.0028507157694548368
0.51383429765701294 0.53524726629257202 0.0077824611216783524
0.71164262294769287 0.54793596267700195 0.0039811674505472183
0.8612026572227478 0.56091850996017456 0.0077833589166402817
0.97844082117080688 0.56585776805877686 0.0031479480676352978
0 0.67832696437835693 0.0073721790686249733
0.00087588443420827389 0.67430657148361206 0.0068222195841372013
0.2190939337015152 0.66514170169830322 0.004037011880427599
0.48094609379768372 0.66680711507797241 0.0082822162657976151
0.66857081651687622 0.67825329303741455 0.0093535929918289185
0.82560533285140991 0.69370138645172119 0.0036566790658980608
0.96024137735366821 0.69958645105361938 0.0036606432404369116
0.0014270857209339738 0.81059402227401733 0.074088230729103088
0.026303503662347794 0.80576032400131226 0.082712642848491669
0.27511560916900635 0.7986302375793457 0.098551534116268158
0.47429031133651733 0.79670178890228271 0.096569985151290894
0.6393660306930542 0.80129408836364746 0.092239111661911011
0.78264164924621582 0.80676329135894775 0.082756906747817993
0.93594372272491455 0.82775837182998657 0.090377926826477051
0.17801180481910706 0.94143021106719971 0.3085874617099762
0.25837522745132446 0.93854361772537231 0.31601902842521667
0.37533903121948242 0.93481403589248657 0.32887911796569824
0.50038987398147583 0.93331068754196167 0.34203717112541199
0.63507324457168579 0.93472594022750854 0.35162317752838135
0.76827216148376465 0.93703627586364746 0.35774385929107666
0.89709454774856567 0.94022524356842041 0.36988866329193115
0.058180462568998337 0.046266593039035797 0.14293164014816284
0.1913810670375824 0.036721128970384598 0.14205443859100342
0.39405912160873413 0.0080404393374919891 0.14229057729244232
0.6173396110534668 0.0031857211142778397 0.15190929174423218
0.79195952415466309 0.0091412561014294624 0.16976307332515717
0.92247939109802246 0.11819937080144882 0.18015246093273163
0.99882107973098755 0.25174003839492798 0.19594092667102814
0.027350751683115959 0.17577014863491058 0.14945900440216064
0.18884807825088501 0.17951071262359619 0.15425452589988708
0.39892092347145081 0.17890293896198273 0.15237084031105042
0.61126041412353516 0.17050744593143463 0.1480480283498764
0.78112196922302246 0.1946897953748703 0.15184980630874634
0.91104918718338013 0.25457614660263062 0.15652795135974884
0.99663549661636353 0.32547029852867126 0.17946955561637878
0.0041427011601626873 0.37662327289581299 0.1457928866147995
0.11785287410020828 0.36809498071670532 0.14631116390228271
0.3628275990486145 0.37005221843719482 0.13744048774242401
0.58689337968826294 0.37544035911560059 0.10869593918323517
0.75561022758483887 0.37645882368087769 0.092026591300964355
0.89523994922637939 0.40400964021682739 0.10918227583169937
0.99290233850479126 0.44517707824707031 0.13601827621459961
0.0041148466989398003 0.55029261112213135 0.1242787092924118
0.016703138127923012 0.54090636968612671 0.12865510582923889
0.29759564995765686 0.5340111255645752 0.12231307476758957
0.53371268510818481 0.53932744264602661 0.11032085120677948
0.72178083658218384 0.55176389217376709 0.077574051916599274
0.86621576547622681 0.55408263206481934 0.05042654275894165
0.98279213905334473 0.56639349460601807 0.057351443916559219
0.0028019475284963846 0.68744456768035889 0.14465944468975067
0.011522779241204262 0.68183606863021851 0.15119747817516327
0.26991811394691467 0.67572021484375 0.15634186565876007
0.49230185151100159 0.67089688777923584 0.15343505144119263
0.6718904972076416 0.67908233404159546 0.14016109704971313
0.82659268379211426 0.69566357135772705 0.11225765198469162
0.96351820230484009 0.70234256982803345 0.076967470347881317
0.0058903563767671585 0.81281006336212158 0.21508117020130157
0.078669272363185883 0.81004488468170166 0.21880753338336945
0.29628044366836548 0.80086439847946167 0.22373472154140472
0.48041269183158875 0.80025577545166016 0.23426572978496552
0.64153093099594116 0.79985785484313965 0.22312286496162415
0.78415805101394653 0.80708557367324829 0.22072575986385345
0.93596464395523071 0.82954627275466919 0.2301543653011322
0.20156235992908478 0.94111984968185425 0.36251696944236755
0.26946759223937988 0.93743473291397095 0.36834287643432617
0.38416793942451477 0.93634176254272461 0.37881547212600708
0.50550603866577148 0.93299275636672974 0.3926028311252594
0.63348591327667236 0.93145954608917236 0.40021371841430664
0.76578706502914429 0.9369046688079834 0.40879759192466736
0.89638572931289673 0.94063085317611694 0.42107006907463074
0.080987744033336639 0.057857751846313477 0.32669499516487122
0.22745385766029358 0.050813205540180206 0.33146357536315918
0.41548970341682434 0.017781874164938927 0.34277552366256714
0.62744766473770142 0.0031377305276691914 0.33604162931442261
0.80420833826065063 0.0043769087642431259 0.34062236547470093
0.93090075254440308 0.11523498594760895 0.36051133275032043
0.99983882904052734 0.28491544723510742 0.39735597372055054
0.069213658571243286 0.17660728096961975 0.33477824926376343
0.23163144290447235 0.1890941858291626 0.34230697154998779
0.42615875601768494 0.19682876765727997 0.34787318110466003
0.62897729873657227 0.16426366567611694 0.34766075015068054
0.79330986738204956 0.20134750008583069 0.35708743333816528
0.91925394535064697 0.28585138916969299 0.37772852182388306
0.99761945009231567 0.3715912401676178 0.40718653798103333
0.0042022853158414364 0.3828539252281189 0.35437539219856262
0.1970285028219223 0.38432055711746216 0.35653656721115112
0.41918295621871948 0.3929486870765686 0.36164999008178711
0.61156225204467773 0.39522111415863037 0.36210218071937561
0.76541805267333984 0.40972858667373657 0.36426705121994019
0.89446961879730225 0.44176965951919556 0.36904364824295044
0.9901118278503418 0.47430858016014099 0.38555753231048584
0.025059150531888008 0.57560569047927856 0.37534394860267639
0.22021804749965668 0.57094699144363403 0.37630262970924377
0.38985690474510193 0.55632984638214111 0.36490345001220703
0.56416231393814087 0.55308860540390015 0.35492509603500366
0.73043704032897949 0.55803650617599487 0.3475956916809082
0.86833822727203369 0.56228768825531006 0.33227998018264771
0.97753322124481201 0.58082884550094604 0.34760391712188721
0.10901337862014771 0.70513927936553955 0.38379672169685364
0.20193369686603546 0.70100820064544678 0.37327492237091064
0.36264687776565552 0.69146215915679932 0.36881101131439209
0.5195082426071167 0.6815914511680603 0.35721239447593689
0.68749189376831055 0.68970662355422974 0.35916078090667725
0.8324960470199585 0.70094025135040283 0.34961789846420288
0.96271699666976929 0.7003246545791626 0.32747361063957214
0.055139906704425812 0.82165265083312988 0.38309332728385925
0.20122350752353668 0.81671673059463501 0.38519036769866943
0.35459804534912109 0.81109702587127686 0.38538011908531189
0.49744945764541626 0.80303734540939331 0.38380640745162964
0.64755606651306152 0.80517995357513428 0.38675752282142639
0.78799402713775635 0.81279009580612183 0.38719075918197632
0.93397277593612671 0.83034920692443848 0.39359518885612488
0.24187789857387543 0.943858802318573 0.46696949005126953
0.30080857872962952 0.93758690357208252 0.46555805206298828
0.40131852030754089 0.9393693208694458 0.47298678755760193
0.51423352956771851 0.93549269437789917 0.48378589749336243
0.63905763626098633 0.93304586410522461 0.48907715082168579
0.76655930280685425 0.93693536520004272 0.49899411201477051
0.89912962913513184 0.94090288877487183 0.50574463605880737
0.15646018087863922 0.077618964016437531 0.52190297842025757
0.27979710698127747 0.072175852954387665 0.52744054794311523
0.46172106266021729 0.068863585591316223 0.54080194234848022
0.64465129375457764 0.046572264283895493 0.55658674240112305
0.79177355766296387 0.014184046536684036 0.54029685258865356
0.93168437480926514 0.064321316778659821 0.53408873081207275
0.99761062860488892 0.24846939742565155 0.54100984334945679
0.17491593956947327 0.20630791783332825 0.52323871850967407
0.29378965497016907 0.21514973044395447 0.5314217209815979
0.46630507707595825 0.22465804219245911 0.53900343179702759
0.63824337720870972 0.22296187281608582 0.55392962694168091
0.78890550136566162 0.21380186080932617 0.54679477214813232
0.91870385408401489 0.26280966401100159 0.54559171199798584
0.99821978807449341 0.35087382793426514 0.55454498529434204
0.085704416036605835 0.35562172532081604 0.52863484621047974
0.25043803453445435 0.36954259872436523 0.53325420618057251
0.44609901309013367 0.38892513513565063 0.53972864151000977
0.62448537349700928 0.4202694296836853 0.55611389875411987
0.77599066495895386 0.41888523101806641 0.5538443922996521
0.89834499359130859 0.44914001226425171 0.56548643112182617
0.99189281463623047 0.49083581566810608 0.57768070697784424
0.055029027163982391 0.56789833307266235 0.55581676959991455
0.24657924473285675 0.57063978910446167 0.55757397413253784
0.44074991345405579 0.57381963729858398 0.56137621402740479
0.6056554913520813 0.57879459857940674 0.56644237041473389
0.74891883134841919 0.58268505334854126 0.56800282001495361
0.87088602781295776 0.59555172920227051 0.56803202629089355
0.97689610719680786 0.61037212610244751 0.57313436269760132
0.2276693731546402 0.72442901134490967 0.57658112049102783
0.32450446486473083 0.7213749885559082 0.57426983118057251
0.45851132273674011 0.71486192941665649 0.57293128967285156
0.57361423969268799 0.70168709754943848 0.55923724174499512
0.70548349618911743 0.69698101282119751 0.55213713645935059
0.83947169780731201 0.69875001907348633 0.54201793670654297
0.96537834405899048 0.70260846614837646 0.52735668420791626
0.32490751147270203 0.83319002389907837 0.58711624145507812
0.36443543434143066 0.83056926727294922 0.57973021268844604
0.43078604340553284 0.82644450664520264 0.56097567081451416
0.53331190347671509 0.81521868705749512 0.54966640472412109
0.65810012817382812 0.81003957986831665 0.5455968976020813
0.79669278860092163 0.81368941068649292 0.54282033443450928
0.93778365850448608 0.82730913162231445 0.54604971408843994
0.33436036109924316 0.94592082500457764 0.59700930118560791
0.35876414179801941 0.94324785470962524 0.58981156349182129
0.42938590049743652 0.94068753719329834 0.58805227279663086
0.53193533420562744 0.93828761577606201 0.59313762187957764
0.64436048269271851 0.9349551796913147 0.59784871339797974
0.77353334426879883 0.93669265508651733 0.60583341121673584
0.90643703937530518 0.94304615259170532 0.61685419082641602
0.30065914988517761 0.1143420934677124 0.68755054473876953
0.38747650384902954 0.11971407383680344 0.68912595510482788
0.52065056562423706 0.12363272160291672 0.69607144594192505
0.67406606674194336 0.17058555781841278 0.70830148458480835
0.80444800853729248 0.19900749623775482 0.72233837842941284
0.91418242454528809 0.20265208184719086 0.70494121313095093
0.99851250648498535 0.24668437242507935 0.68718552589416504
0.30958408117294312 0.23137572407722473 0.68371617794036865
0.38893702626228333 0.24331672489643097 0.68340122699737549
0.52284151315689087 0.25110167264938354 0.6952977180480957
0.66634255647659302 0.28608137369155884 0.70714336633682251
0.79745841026306152 0.31071162223815918 0.72293496131896973
0.911815345287323 0.31255516409873962 0.70952045917510986
0.9963676929473877 0.34647971391677856 0.69135034084320068
0.25015595555305481 0.36436936259269714 0.68016541004180908
0.35364365577697754 0.38084650039672852 0.68431901931762695
0.49837708473205566 0.39998361468315125 0.69284600019454956
0.65480929613113403 0.44304829835891724 0.7091335654258728
0.77605819702148438 0.46101349592208862 0.71285682916641235
0.89544111490249634 0.46015283465385437 0.70747929811477661
0.99357825517654419 0.4731505811214447 0.70077323913574219
0.20253296196460724 0.52786052227020264 0.68156659603118896
0.30067971348762512 0.53115123510360718 0.6816096305847168
0.45311370491981506 0.54107385873794556 0.68647295236587524
0.6147688627243042 0.57465028762817383 0.70167303085327148
0.75615042448043823 0.60096317529678345 0.71760362386703491
0.87370240688323975 0.60195618867874146 0.71629118919372559
0.97991955280303955 0.61258828639984131 0.71715104579925537
0.24837125837802887 0.71047717332839966 0.70562559366226196
0.34167730808258057 0.71127128601074219 0.70799148082733154
0.46578308939933777 0.71349579095840454 0.71122908592224121
0.59962928295135498 0.71514564752578735 0.71808129549026489
0.73402398824691772 0.7211310863494873 0.72225850820541382
0.85198605060577393 0.72279173135757446 0.71466922760009766
0.96455508470535278 0.73428559303283691 0.72055131196975708
0.3321698009967804 0.85213518142700195 0.72561991214752197
0.38423216342926025 0.84466159343719482 0.72210907936096191
0.48664256930351257 0.84536594152450562 0.72452425956726074
0.59782665967941284 0.83731985092163086 0.72211676836013794
0.69713640213012695 0.82775419950485229 0.71214580535888672
0.8140108585357666 0.82750171422958374 0.69840037822723389
0.94532483816146851 0.82731866836547852 0.69684892892837524
0.42230746150016785 0.94757956266403198 0.74005424976348877
0.45828008651733398 0.94888770580291748 0.7403724193572998
0.52409458160400391 0.94911229610443115 0.73969662189483643
0.58957189321517944 0.94422471523284912 0.72573202848434448
0.67205649614334106 0.94204974174499512 0.71944087743759155
0.78564149141311646 0.94049268960952759 0.72317898273468018
0.91625481843948364 0.9448624849319458 0.73119312524795532
0.46700590848922729 0.19856297969818115 0.83083570003509521
0.51088953018188477 0.20152388513088226 0.82937431335449219
0.60276150703430176 0.22100445628166199 0.83278769254684448
0.71281880140304565 0.26687902212142944 0.8413081169128418
0.81710457801818848 0.33484989404678345 0.84294837713241577
0.91665822267532349 0.35740247368812561 0.84765136241912842
0.99241679906845093 0.35559818148612976 0.83017456531524658
0.45683792233467102 0.29888558387756348 0.82464480400085449
0.5075494647026062 0.29335230588912964 0.82838612794876099
0.59679716825485229 0.31048780679702759 0.83244782686233521
0.70203244686126709 0.3461584746837616 0.83816003799438477
0.8088071346282959 0.40423458814620972 0.84454149007797241
0.90742498636245728 0.42458385229110718 0.84647178649902344
0.99112200736999512 0.41803887486457825 0.83340656757354736
0.43027576804161072 0.41710743308067322 0.8223763108253479
0.4802204966545105 0.419322669506073 0.82410049438476562
0.57425343990325928 0.43528887629508972 0.82928973436355591
0.68350100517272949 0.46602979302406311 0.83396857976913452
0.79344594478607178 0.51333427429199219 0.84206521511077881
0.89943361282348633 0.52381926774978638 0.84823036193847656
0.98670214414596558 0.52237361669540405 0.83731555938720703
0.31298968195915222 0.52181446552276611 0.81223076581954956
0.38241714239120483 0.52715235948562622 0.81392526626586914
0.51178580522537231 0.54861998558044434 0.81996554136276245
0.64230549335479736 0.57979351282119751 0.82533198595046997
0.7694094181060791 0.61632329225540161 0.83732908964157104
0.87932085990905762 0.630146324634552 0.84602224826812744
0.97735500335693359 0.63073968887329102 0.83454316854476929
0.29141116142272949 0.67450809478759766 0.8164743185043335
0.35016211867332458 0.67439663410186768 0.81672424077987671
0.45388707518577576 0.67162686586380005 0.81701529026031494
0.58046263456344604 0.6764940619468689 0.81851339340209961
0.72860181331634521 0.71205192804336548 0.83295601606369019
0.85981565713882446 0.73725920915603638 0.84554153680801392
0.96919500827789307 0.74355578422546387 0.83900564908981323
0.33637544512748718 0.83231395483016968 0.83936470746994019
0.39304721355438232 0.83165460824966431 0.83866673707962036
0.48573344945907593 0.82940757274627686 0.8383105993270874
0.59937769174575806 0.82758635282516479 0.83931463956832886
0.72222715616226196 0.83957201242446899 0.84429335594177246
0.84006530046463013 0.84423339366912842 0.84265816211700439
0.95228707790374756 0.84962302446365356 0.84478366374969482
0.42025062441825867 0.95226860046386719 0.8479154109954834
0.45896196365356445 0.95459198951721191 0.84821158647537231
0.53715652227401733 0.95516914129257202 0.85032141208648682
0.63001662492752075 0.95240634679794312 0.85274696350097656
0.72887527942657471 0.94662225246429443 0.85005074739456177
0.81678551435470581 0.94602400064468384 0.84468728303909302
0.92864453792572021 0.94729340076446533 0.84617716073989868
0.60333490371704102 0.38157194852828979 0.94987750053405762
0.62858271598815918 0.38423240184783936 0.95138567686080933
0.68068474531173706 0.39797988533973694 0.9513322114944458
0.75146466493606567 0.43021923303604126 0.94876980781555176
0.83267569541931152 0.47555139660835266 0.9481462836265564
0.91768592596054077 0.52284187078475952 0.94669210910797119
0.99220705032348633 0.53146982192993164 0.95307314395904541
0.59941846132278442 0.43743905425071716 0.95136153697967529
0.62299960851669312 0.43531188368797302 0.95079326629638672
0.67610651254653931 0.45335561037063599 0.95040792226791382
0.74273711442947388 0.47291511297225952 0.94215023517608643
0.8270869255065918 0.5147939920425415 0.94910818338394165
0.91621464490890503 0.55485904216766357 0.94801658391952515
0.99333852529525757 0.56524604558944702 0.94983905553817749
0.57773804664611816 0.52001982927322388 0.94724166393280029
0.60189348459243774 0.52673161029815674 0.94550621509552002
0.65863513946533203 0.53359436988830566 0.94520717859268188
0.7293742299079895 0.54599332809448242 0.9428175687789917
0.81659317016601562 0.58164507150650024 0.94698327779769897
0.90536296367645264 0.6198732852935791 0.94697612524032593
0.98745971918106079 0.62408602237701416 0.94971483945846558
0.51557916402816772 0.59643107652664185 0.94424104690551758
0.5514218807220459 0.60261267423629761 0.94236499071121216
0.61947011947631836 0.61792778968811035 0.94263923168182373
0.70603209733963013 0.6340949535369873 0.94162607192993164
0.79643714427947998 0.66017937660217285 0.94277286529541016
0.89277750253677368 0.68989723920822144 0.94432342052459717
0.98310321569442749 0.69946730136871338 0.95004433393478394
0.41886985301971436 0.68336373567581177 0.94059789180755615
0.45429453253746033 0.6838843822479248 0.93911528587341309
0.53108042478561401 0.68585777282714844 0.94027441740036011
0.64012396335601807 0.70373570919036865 0.93772822618484497
0.76178747415542603 0.73571550846099854 0.94134026765823364
0.87556594610214233 0.7670292854309082 0.94562673568725586
0.97184967994689941 0.78472661972045898 0.94880908727645874
0.42351898550987244 0.8126523494720459 0.94648534059524536
0.45143863558769226 0.81236785650253296 0.94332128763198853
0.51552301645278931 0.81066745519638062 0.9440421462059021
0.61186689138412476 0.81193250417709351 0.94158458709716797
0.71894150972366333 0.81554490327835083 0.94096499681472778
0.8524702787399292 0.84492743015289307 0.94581472873687744
0.95861756801605225 0.87046557664871216 0.94986391067504883
0.45040461421012878 0.94546294212341309 0.95256572961807251
0.4800049364566803 0.94696712493896484 0.95076042413711548
0.54183667898178101 0.94535768032073975 0.95032137632369995
0.63723576068878174 0.94470113515853882 0.9517967700958252
0.73911768198013306 0.94382047653198242 0.95159280300140381
0.84756028652191162 0.94657891988754272 0.95361334085464478
0.9503096342086792 0.95451068878173828 0.95224559307098389
