luts/negative_new/fuji_400h_++.cube
# Created by: G'MIC (https://gmic.eu)
TITLE "fuji_400h_++"
# LUT size
LUT_3D_SIZE 7
# Data domain
DOMAIN_MIN 0.0 0.0 0.0
DOMAIN_MAX 1.0 1.0 1.0
# LUT data points
0.069949142634868622 0.10743322968482971 0.047495570033788681
0.1725441962480545 0.11085305362939835 0.043508104979991913
0.35942944884300232 0.10139637440443039 0.038890674710273743
0.59190964698791504 0.03387102484703064 0.023297837004065514
0.79083538055419922 0.021002272143959999 0.0061271218582987785
0.9188762903213501 0.12383587658405304 0.0027743170503526926
0.99904650449752808 0.2373625636100769 0.0050864573568105698
0.022477408871054649 0.19446000456809998 0.043680556118488312
0.14357350766658783 0.20077982544898987 0.034581907093524933
0.35181581974029541 0.20625199377536774 0.017207995057106018
0.58816021680831909 0.19669042527675629 0.0069318437017500401
0.77804619073867798 0.202455073595047 0.0051121283322572708
0.91041320562362671 0.252065509557724 0.0071741142310202122
0.99233585596084595 0.32021072506904602 0.0090792486444115639
0.0019230861216783524 0.34142661094665527 0.020370572805404663
0.067784346640110016 0.34081462025642395 0.025221999734640121
0.32525742053985596 0.35757458209991455 0.0086261378601193428
0.56666451692581177 0.36817511916160583 0.0077482336200773716
0.75581073760986328 0.38129183650016785 0.005231805145740509
0.88805162906646729 0.40483403205871582 0.0042323390953242779
0.99055635929107666 0.44048780202865601 0.002717380877584219
0 0.50992494821548462 0.0085769500583410263
0.0092962970957159996 0.50373685359954834 0.013841995969414711
0.28377863764762878 0.50605028867721558 0.0080266911536455154
0.52191781997680664 0.52363014221191406 0.0044644824229180813
0.71740949153900146 0.54325693845748901 0.0023735496215522289
0.85287934541702271 0.55601334571838379 0.0039215688593685627
0.97319453954696655 0.57132858037948608 0.0019140056101605296
0.00055898033315315843 0.66013723611831665 0.042318187654018402
0.027099998667836189 0.65441215038299561 0.054595109075307846
0.28956395387649536 0.64736264944076538 0.065671928226947784
0.49767854809761047 0.65268617868423462 0.023718066513538361
0.66916215419769287 0.66715103387832642 0.0064986585639417171
0.82298123836517334 0.68933326005935669 0.0015232609584927559
0.95395094156265259 0.70272284746170044 0.0023290147073566914
0.099212363362312317 0.79236280918121338 0.19121719896793365
0.2145971953868866 0.78710240125656128 0.2047467976808548
0.36369574069976807 0.78029263019561768 0.21392671763896942
0.51110589504241943 0.78034055233001709 0.21311445534229279
0.64571410417556763 0.78665721416473389 0.17476154863834381
0.78185755014419556 0.79808318614959717 0.10544048994779587
0.93312162160873413 0.82432997226715088 0.051037266850471497
0.37857863306999207 0.92263990640640259 0.42247068881988525
0.41361731290817261 0.91997092962265015 0.42976829409599304
0.47791549563407898 0.91580337285995483 0.4408901035785675
0.56601738929748535 0.91330695152282715 0.45750313997268677
0.66441953182220459 0.91967213153839111 0.45373228192329407
0.77740770578384399 0.92747849225997925 0.43813648819923401
0.90624827146530151 0.93808537721633911 0.420662522315979
0.087514139711856842 0.11571777611970901 0.14176605641841888
0.18226298689842224 0.11355234682559967 0.14116212725639343
0.37650829553604126 0.090830393135547638 0.14561055600643158
0.61009913682937622 0.017661210149526596 0.14644822478294373
0.79876607656478882 0.025875719264149666 0.15590712428092957
0.92125481367111206 0.14397178590297699 0.15932011604309082
0.996570885181427 0.24559259414672852 0.16091248393058777
0.048856053501367569 0.20809733867645264 0.14778381586074829
0.18073731660842896 0.21518804132938385 0.14914162456989288
0.38794773817062378 0.2049296498298645 0.14779393374919891
0.61154323816299438 0.19599452614784241 0.14342613518238068
0.78831100463867188 0.20657706260681152 0.13143952190876007
0.91316336393356323 0.26205959916114807 0.1286470890045166
0.99435245990753174 0.32585126161575317 0.14306531846523285
0.0068975561298429966 0.36922574043273926 0.15423959493637085
0.14681591093540192 0.36526405811309814 0.1573944091796875
0.36228901147842407 0.36922451853752136 0.13714908063411713
0.59211868047714233 0.37572300434112549 0.094334952533245087
0.76754242181777954 0.38293763995170593 0.066140465438365936
0.89603614807128906 0.4110836386680603 0.066284880042076111
0.98977506160736084 0.44454097747802734 0.083417125046253204
0.0016514497110620141 0.53133952617645264 0.15808685123920441
0.075629845261573792 0.52540451288223267 0.16018226742744446
0.32393249869346619 0.51874363422393799 0.15551626682281494
0.54218870401382446 0.5294908881187439 0.11317548900842667
0.72827166318893433 0.54455757141113281 0.046144552528858185
0.86468052864074707 0.55595928430557251 0.013336316682398319
0.97908508777618408 0.57162010669708252 0.017597991973161697
0.0029390372801572084 0.66833847761154175 0.18647901713848114
0.11126318573951721 0.66410374641418457 0.1919129490852356
0.32822176814079285 0.65289270877838135 0.20299956202507019
0.51131761074066162 0.65548539161682129 0.18716679513454437
0.67825472354888916 0.66832840442657471 0.12811695039272308
0.8281591534614563 0.69404506683349609 0.059825927019119263
0.95724141597747803 0.70137757062911987 0.018639868125319481
0.1692173182964325 0.79670673608779907 0.27582967281341553
0.25593075156211853 0.7898489236831665 0.28416812419891357
0.38484933972358704 0.78207731246948242 0.29253038763999939
0.51549577713012695 0.78052890300750732 0.29279616475105286
0.65227073431015015 0.78772199153900146 0.26944652199745178
0.7820274829864502 0.80035758018493652 0.2263709157705307
0.93447911739349365 0.82625478506088257 0.2010733038187027
0.3874378502368927 0.92169272899627686 0.4581683874130249
0.42121556401252747 0.91875332593917847 0.46247756481170654
0.48626890778541565 0.91622871160507202 0.47426304221153259
0.56886714696884155 0.91274207830429077 0.48901638388633728
0.66938108205795288 0.91893446445465088 0.49280685186386108
0.77860432863235474 0.92791867256164551 0.477791428565979
0.90784978866577148 0.93683087825775146 0.45907977223396301
0.10602955520153046 0.12709759175777435 0.31395065784454346
0.22153742611408234 0.12808167934417725 0.31625774502754211
0.39953303337097168 0.10167707502841949 0.32307666540145874
0.6194756031036377 0.010522550903260708 0.33164259791374207
0.80657815933227539 0.0057797450572252274 0.33979305624961853
0.93149459362030029 0.082071922719478607 0.34606239199638367
0.99631744623184204 0.26680088043212891 0.37919652462005615
0.068364761769771576 0.20803600549697876 0.32127362489700317
0.21210339665412903 0.22390900552272797 0.32794710993766785
0.41615718603134155 0.21691596508026123 0.33846399188041687
0.63325709104537964 0.17803528904914856 0.34252259135246277
0.80204689502716064 0.187798872590065 0.3506048321723938
0.92148953676223755 0.26512721180915833 0.36309075355529785
0.99761569499969482 0.35631585121154785 0.3879503607749939
0.0094634108245372772 0.38135388493537903 0.34574279189109802
0.18578474223613739 0.38712725043296814 0.35050526261329651
0.42603388428688049 0.38859528303146362 0.35416695475578308
0.6267085075378418 0.38937076926231384 0.35559919476509094
0.78084546327590942 0.40313699841499329 0.35392582416534424
0.89608699083328247 0.43256831169128418 0.34711411595344543
0.98702150583267212 0.46181076765060425 0.35983583331108093
0.049429547041654587 0.56926363706588745 0.36934033036231995
0.23975999653339386 0.56408035755157471 0.37229183316230774
0.4047529399394989 0.54823046922683716 0.36212050914764404
0.58416891098022461 0.54562807083129883 0.34908309578895569
0.74471133947372437 0.55442512035369873 0.31697624921798706
0.86951088905334473 0.56285101175308228 0.29654881358146667
0.97772598266601562 0.57701981067657471 0.30439645051956177
0.19032272696495056 0.69290685653686523 0.38462913036346436
0.27120068669319153 0.68783944845199585 0.37616470456123352
0.40163975954055786 0.67401766777038574 0.3729289174079895
0.54213804006576538 0.66833215951919556 0.37223649024963379
0.6927567720413208 0.68106919527053833 0.34595140814781189
0.83543270826339722 0.69826227426528931 0.31666696071624756
0.96146315336227417 0.70033508539199829 0.28360530734062195
0.25776177644729614 0.80588209629058838 0.41497266292572021
0.32748579978942871 0.80282318592071533 0.41928014159202576
0.42632254958152771 0.79526346921920776 0.42456647753715515
0.53915238380432129 0.79064208269119263 0.43258821964263916
0.65805172920227051 0.79378962516784668 0.41375038027763367
0.78324270248413086 0.80420738458633423 0.39119818806648254
0.93177646398544312 0.82399082183837891 0.37366202473640442
0.40760165452957153 0.9253239631652832 0.52979707717895508
0.43899232149124146 0.92141234874725342 0.52817946672439575
0.50028103590011597 0.92052286863327026 0.54181855916976929
0.57867026329040527 0.91531562805175781 0.55375641584396362
0.67298310995101929 0.91650164127349854 0.55741190910339355
0.77933073043823242 0.92754024267196655 0.55151760578155518
0.90465724468231201 0.93371289968490601 0.53089064359664917
0.16842053830623627 0.13797342777252197 0.51385587453842163
0.29016599059104919 0.13576377928256989 0.51890009641647339
0.46777191758155823 0.11989685893058777 0.53257763385772705
0.65099936723709106 0.071287699043750763 0.549652099609375
0.79472392797470093 0.013513676822185516 0.53852897882461548
0.92750471830368042 0.036100469529628754 0.53231465816497803
0.99583995342254639 0.2286018580198288 0.53502601385116577
0.16130656003952026 0.22561179101467133 0.517181396484375
0.28301286697387695 0.23103994131088257 0.52520304918289185
0.47812393307685852 0.23554404079914093 0.54040002822875977
0.6506272554397583 0.22376562654972076 0.55306792259216309
0.79705405235290527 0.1996481716632843 0.54481297731399536
0.91852551698684692 0.23811088502407074 0.53805941343307495
0.99634146690368652 0.33416187763214111 0.54529142379760742
0.045492194592952728 0.35857495665550232 0.52199357748031616
0.24591806530952454 0.3723699152469635 0.53315979242324829
0.4580598771572113 0.38615226745605469 0.54605257511138916
0.64032530784606934 0.40956801176071167 0.56052905321121216
0.78457939624786377 0.40093699097633362 0.55093920230865479
0.8951835036277771 0.43475455045700073 0.55734872817993164
0.98835188150405884 0.48464787006378174 0.57161301374435425
0.028346851468086243 0.56621211767196655 0.55207568407058716
0.23931935429573059 0.56714487075805664 0.5534786581993103
0.45219460129737854 0.5725102424621582 0.55980557203292847
0.61649638414382935 0.57245349884033203 0.55884206295013428
0.75409376621246338 0.57548213005065918 0.54745101928710938
0.87068802118301392 0.59063643217086792 0.55240678787231445
0.97592484951019287 0.60604554414749146 0.55931150913238525
0.25583425164222717 0.71972203254699707 0.56684088706970215
0.34877926111221313 0.7160569429397583 0.5715559720993042
0.48352086544036865 0.70842677354812622 0.56859874725341797
0.5881648063659668 0.69367903470993042 0.55697047710418701
0.70970290899276733 0.69183200597763062 0.53719580173492432
0.83827656507492065 0.70210212469100952 0.52099984884262085
0.96088331937789917 0.7021787166595459 0.50552529096603394
0.3854546844959259 0.81996065378189087 0.5871625542640686
0.43181687593460083 0.81904774904251099 0.58734804391860962
0.49570876359939575 0.81473362445831299 0.57906192541122437
0.57116794586181641 0.80005806684494019 0.56498622894287109
0.66929727792739868 0.79705345630645752 0.56184858083724976
0.79171615839004517 0.8082883358001709 0.55047404766082764
0.93453747034072876 0.81800621747970581 0.53584998846054077
0.45234787464141846 0.93094229698181152 0.62632876634597778
0.47184976935386658 0.93058949708938599 0.62640649080276489
0.51706838607788086 0.92481112480163574 0.62400311231613159
0.59556490182876587 0.92112261056900024 0.63546597957611084
0.6831163763999939 0.92047357559204102 0.64325368404388428
0.78643572330474854 0.928913414478302 0.6379888653755188
0.91548448801040649 0.93887341022491455 0.63267296552658081
0.30880215764045715 0.14696973562240601 0.68097639083862305
0.3940395712852478 0.1447155773639679 0.68431699275970459
0.53272455930709839 0.14268550276756287 0.69174069166183472
0.68155753612518311 0.16532127559185028 0.70186269283294678
0.80712103843688965 0.17454206943511963 0.71083360910415649
0.91102910041809082 0.17680057883262634 0.69780826568603516
0.9946291446685791 0.22719721496105194 0.68351095914840698
0.31133601069450378 0.24345307052135468 0.68293434381484985
0.39278936386108398 0.2435506284236908 0.68712782859802246
0.53078454732894897 0.25533360242843628 0.69407826662063599
0.68190258741378784 0.27338436245918274 0.70058196783065796
0.80236458778381348 0.28630167245864868 0.71133178472518921
0.89867085218429565 0.2945677638053894 0.6962396502494812
0.99251306056976318 0.3230128288269043 0.68827396631240845
0.24397622048854828 0.36341333389282227 0.676827073097229
0.35444581508636475 0.37769904732704163 0.68206745386123657
0.51052439212799072 0.39816460013389587 0.69178515672683716
0.66307616233825684 0.42585575580596924 0.70034676790237427
0.78278845548629761 0.4449455738067627 0.70958429574966431
0.88731980323791504 0.45027124881744385 0.70125472545623779
0.99021387100219727 0.46584579348564148 0.69389420747756958
0.18742400407791138 0.52414745092391968 0.67351430654525757
0.2982318103313446 0.52442115545272827 0.67495560646057129
0.46785005927085876 0.53597092628479004 0.68210053443908691
0.62848204374313354 0.56856697797775269 0.69811469316482544
0.75751125812530518 0.59690010547637939 0.70846748352050781
0.86667358875274658 0.60112786293029785 0.70567619800567627
0.97376680374145508 0.61171317100524902 0.71078306436538696
0.27390897274017334 0.70613545179367065 0.69651293754577637
0.3517271876335144 0.70825809240341187 0.69804942607879639
0.47724932432174683 0.70507633686065674 0.70118474960327148
0.60942423343658447 0.71146279573440552 0.70769679546356201
0.73247599601745605 0.71892702579498291 0.7074439525604248
0.84819811582565308 0.72679895162582397 0.708362877368927
0.95890307426452637 0.73454171419143677 0.71078741550445557
0.37190550565719604 0.84189432859420776 0.7139783501625061
0.42840510606765747 0.83875977993011475 0.7162010669708252
0.51549923419952393 0.83749502897262573 0.71711462736129761
0.61765491962432861 0.82761329412460327 0.71349507570266724
0.70069736242294312 0.81427919864654541 0.70267999172210693
0.80946624279022217 0.81775146722793579 0.69669890403747559
0.93932408094406128 0.82550036907196045 0.68575668334960938
0.48384967446327209 0.94222986698150635 0.73545569181442261
0.5135384202003479 0.94057685136795044 0.74103629589080811
0.5670616626739502 0.93888348340988159 0.73949283361434937
0.62940597534179688 0.93249762058258057 0.73254519701004028
0.70058399438858032 0.92700821161270142 0.72834771871566772
0.79843562841415405 0.92392498254776001 0.72804009914398193
0.92424392700195312 0.93729496002197266 0.72688722610473633
0.4751642644405365 0.20445814728736877 0.81784546375274658
0.52485263347625732 0.20671634376049042 0.81724363565444946
0.61050492525100708 0.21616895496845245 0.81875479221343994
0.71401029825210571 0.25419992208480835 0.82173788547515869
0.81298321485519409 0.31989821791648865 0.82697063684463501
0.91091459989547729 0.3431418240070343 0.83033919334411621
0.99140602350234985 0.34797209501266479 0.82166111469268799
0.4709646999835968 0.2873077392578125 0.81384760141372681
0.51408225297927856 0.29167783260345459 0.8118826150894165
0.60329878330230713 0.31021332740783691 0.81727582216262817
0.70986038446426392 0.33184525370597839 0.82267463207244873
0.80998116731643677 0.38560950756072998 0.82601606845855713
0.90665650367736816 0.40828266739845276 0.831734299659729
0.98907458782196045 0.41129195690155029 0.82134294509887695
0.43416747450828552 0.40496242046356201 0.80860060453414917
0.48577681183815002 0.41854286193847656 0.80853337049484253
0.58428466320037842 0.43409204483032227 0.81462126970291138
0.69116038084030151 0.45716357231140137 0.81809055805206299
0.79275548458099365 0.50409018993377686 0.8236890435218811
0.88731664419174194 0.52049833536148071 0.82523089647293091
0.9804309606552124 0.51444488763809204 0.81963884830474854
0.32070687413215637 0.51446878910064697 0.79440069198608398
0.39798399806022644 0.519145667552948 0.79725348949432373
0.5246465802192688 0.54168581962585449 0.80273175239562988
0.65214282274246216 0.57364487648010254 0.81314361095428467
0.76815164089202881 0.61260473728179932 0.8198133111000061
0.87209737300872803 0.63696026802062988 0.8264167308807373
0.97032898664474487 0.62725472450256348 0.81824207305908203
0.31896001100540161 0.66907358169555664 0.79734855890274048
0.37646013498306274 0.66882038116455078 0.80062365531921387
0.47537690401077271 0.66545361280441284 0.80229109525680542
0.59569078683853149 0.67207688093185425 0.80068284273147583
0.73098134994506836 0.708362877368927 0.81149578094482422
0.85830354690551758 0.74025386571884155 0.82536989450454712
0.9625440239906311 0.74129962921142578 0.82428830862045288
0.37487438321113586 0.82518094778060913 0.81921839714050293
0.42413449287414551 0.82338869571685791 0.8168753981590271
0.50593632459640503 0.82419455051422119 0.8203808069229126
0.61096686124801636 0.82511216402053833 0.82295900583267212
0.72380393743515015 0.83216619491577148 0.82736563682556152
0.84391778707504272 0.84217596054077148 0.83003610372543335
0.9586372971534729 0.84268569946289062 0.82486265897750854
0.44918844103813171 0.95162653923034668 0.83143627643585205
0.48389542102813721 0.94893962144851685 0.83503466844558716
0.54794645309448242 0.95033246278762817 0.83547556400299072
0.63742882013320923 0.94485139846801758 0.83801800012588501
0.73673558235168457 0.94393092393875122 0.83894532918930054
0.83210700750350952 0.93603324890136719 0.83514809608459473
0.94575554132461548 0.94424104690551758 0.83276110887527466
0.61841720342636108 0.36032277345657349 0.93050462007522583
0.63723546266555786 0.37170237302780151 0.92968058586120605
0.68967443704605103 0.38763612508773804 0.9314998984336853
0.7559693455696106 0.42074573040008545 0.93070155382156372
0.83251821994781494 0.4641973078250885 0.92975759506225586
0.91721153259277344 0.52333682775497437 0.92832762002944946
0.99428403377532959 0.52679699659347534 0.92797625064849854
0.60794109106063843 0.41705963015556335 0.92728763818740845
0.63497960567474365 0.42796307802200317 0.92950350046157837
0.68490904569625854 0.43651923537254333 0.92983579635620117
0.75207751989364624 0.46685317158699036 0.9286797046661377
0.82635241746902466 0.50691127777099609 0.92462730407714844
0.91430133581161499 0.55144894123077393 0.92775255441665649
0.99314159154891968 0.5664408802986145 0.92899626493453979
0.59404760599136353 0.50873905420303345 0.92579448223114014
0.61860555410385132 0.51474106311798096 0.92657375335693359
0.66980808973312378 0.52707993984222412 0.92701303958892822
0.73839807510375977 0.54788964986801147 0.92713499069213867
0.81706541776657104 0.58066844940185547 0.92779135704040527
0.90440350770950317 0.61712801456451416 0.9262201189994812
0.98881357908248901 0.62513309717178345 0.93035966157913208
0.53614789247512817 0.58779788017272949 0.92473852634429932
0.56695181131362915 0.59712082147598267 0.92334288358688354
0.63389366865158081 0.61467891931533813 0.9246450662612915
0.71147602796554565 0.63331145048141479 0.92513680458068848
0.80168497562408447 0.65988039970397949 0.92540222406387329
0.89366441965103149 0.69003403186798096 0.92652124166488647
0.98427832126617432 0.69829440116882324 0.93055534362792969
0.4516388475894928 0.68030178546905518 0.92152231931686401
0.48326894640922546 0.68093633651733398 0.91882842779159546
0.55338156223297119 0.68720519542694092 0.918113112449646
0.65502738952636719 0.70312225818634033 0.92294031381607056
0.76699495315551758 0.73683452606201172 0.92325955629348755
0.88307744264602661 0.76546430587768555 0.92502313852310181
0.97845923900604248 0.78401869535446167 0.92994207143783569
0.44463619589805603 0.8132672905921936 0.92770075798034668
0.46968388557434082 0.81209790706634521 0.92285597324371338
0.53656905889511108 0.81181973218917847 0.92426812648773193
0.61415141820907593 0.80967921018600464 0.92327988147735596
0.71685612201690674 0.81463098526000977 0.92310136556625366
0.8517487645149231 0.83944016695022583 0.92671108245849609
0.97490608692169189 0.86365294456481934 0.93485516309738159
0.45446485280990601 0.94749605655670166 0.93751364946365356
0.47951355576515198 0.94704735279083252 0.937114417552948
0.54159224033355713 0.94500458240509033 0.93759620189666748
0.62749767303466797 0.94367086887359619 0.93621456623077393
0.72943508625030518 0.94555413722991943 0.93937832117080688
0.84496098756790161 0.94820386171340942 0.93982517719268799
0.9672553539276123 0.95361411571502686 0.94309169054031372
