luts/negative_new/fuji_400h_-.cube
# Created by: G'MIC (https://gmic.eu)
TITLE "fuji_400h_-"
# LUT size
LUT_3D_SIZE 5
# Data domain
DOMAIN_MIN 0.0 0.0 0.0
DOMAIN_MAX 1.0 1.0 1.0
# LUT data points
0.021147619932889938 0.030723482370376587 0.030350299552083015
0.26395729184150696 0.037558641284704208 0.029580524191260338
0.61747699975967407 0.0039426614530384541 0.029562691226601601
0.84238868951797485 0.011731255799531937 0.025512067601084709
0.98371469974517822 0.21464797854423523 0.063547588884830475
0.0016143200919032097 0.27089083194732666 0.038269355893135071
0.22350487112998962 0.2831246554851532 0.018083594739437103
0.60289907455444336 0.27478069067001343 0.0080628339201211929
0.81882798671722412 0.28895190358161926 0.0087506761774420738
0.97466486692428589 0.35615131258964539 0.025201519951224327
0 0.52508890628814697 0.094553448259830475
0.097811482846736908 0.51823216676712036 0.112010657787323
0.51654273271560669 0.52592331171035767 0.034697812050580978
0.76829886436462402 0.527629554271698 0.0051713981665670872
0.94605058431625366 0.53733336925506592 0.0046544391661882401
0.028384475037455559 0.69747209548950195 0.23944661021232605
0.23781190812587738 0.68935090303421021 0.2549348771572113
0.48950871825218201 0.68687033653259277 0.24577908217906952
0.70349782705307007 0.69824045896530151 0.19951224327087402
0.91265034675598145 0.72298681735992432 0.13799168169498444
0.37496215105056763 0.88669878244400024 0.45902630686759949
0.43682000041007996 0.88471472263336182 0.46430206298828125
0.55491882562637329 0.88282120227813721 0.48532181978225708
0.70514374971389771 0.89299458265304565 0.47164264321327209
0.89655625820159912 0.91385185718536377 0.44772621989250183
0.024602210149168968 0.055098515003919601 0.2737499475479126
0.28846639394760132 0.037458010017871857 0.27884900569915771
0.63441705703735352 0.0041480720974504948 0.27918094396591187
0.8393440842628479 0.13999120891094208 0.30684226751327515
0.97739386558532715 0.30528739094734192 0.34182307124137878
0.0023150723427534103 0.30672469735145569 0.29910188913345337
0.30246114730834961 0.31684091687202454 0.30906179547309875
0.62068164348602295 0.3179684579372406 0.30654332041740417
0.81639879941940308 0.34439900517463684 0.30641907453536987
0.96729737520217896 0.40481245517730713 0.32534119486808777
0.059403587132692337 0.55913060903549194 0.33169299364089966
0.27769404649734497 0.54601728916168213 0.33086353540420532
0.55343621969223022 0.5346648097038269 0.30847230553627014
0.77417832612991333 0.53408980369567871 0.2684815526008606
0.94386583566665649 0.55400073528289795 0.26911100745201111
0.20182767510414124 0.7085375189781189 0.37389957904815674
0.33202067017555237 0.7020038366317749 0.38359284400939941
0.50985753536224365 0.69091522693634033 0.37887519598007202
0.71044397354125977 0.70503175258636475 0.35939091444015503
0.91039401292800903 0.72350722551345825 0.31885656714439392
0.38988804817199707 0.89011645317077637 0.50575792789459229
0.45106902718544006 0.88844317197799683 0.51517707109451294
0.55877763032913208 0.88039910793304443 0.5282585620880127
0.70851725339889526 0.89009606838226318 0.52504068613052368
0.90022653341293335 0.91447216272354126 0.50783437490463257
0.10523023456335068 0.09696650505065918 0.54829567670822144
0.35661220550537109 0.10192763060331345 0.5567631721496582
0.63916635513305664 0.099329449236392975 0.5736008882522583
0.83082550764083862 0.10493838787078857 0.54534518718719482
0.97569841146469116 0.29137530922889709 0.55498623847961426
0.097673945128917694 0.29895117878913879 0.5541083812713623
0.37365177273750305 0.32852020859718323 0.56237131357192993
0.62923532724380493 0.35644769668579102 0.56733375787734985
0.81088155508041382 0.35582220554351807 0.55953407287597656
0.95894032716751099 0.43014869093894958 0.57104957103729248
0.11733119934797287 0.56649196147918701 0.56784248352050781
0.36759468913078308 0.56849616765975952 0.56989455223083496
0.60058939456939697 0.56802380084991455 0.57408696413040161
0.7769392728805542 0.57358735799789429 0.56568902730941772
0.94047319889068604 0.58644765615463257 0.5680842399597168
0.36243855953216553 0.73447948694229126 0.58226650953292847
0.44891214370727539 0.73067396879196167 0.58257663249969482
0.56869113445281982 0.71422839164733887 0.57372808456420898
0.7269483208656311 0.71363252401351929 0.55670154094696045
0.920490562915802 0.71976733207702637 0.52956265211105347
0.42007887363433838 0.90388661623001099 0.61573553085327148
0.45946550369262695 0.89896059036254883 0.60910516977310181
0.56745415925979614 0.8940698504447937 0.61896336078643799
0.7096971869468689 0.89778679609298706 0.62601977586746216
0.90520471334457397 0.91545206308364868 0.61012351512908936
0.37131136655807495 0.17848378419876099 0.73551034927368164
0.48963227868080139 0.20021834969520569 0.73868721723556519
0.67162096500396729 0.25403058528900146 0.74425411224365234
0.82391124963760376 0.31219413876533508 0.75006955862045288
0.95966148376464844 0.33318182826042175 0.73257356882095337
0.37879249453544617 0.34804064035415649 0.72792398929595947
0.48672175407409668 0.36281570792198181 0.7320752739906311
0.65938013792037964 0.40390199422836304 0.73985928297042847
0.80919569730758667 0.4336429238319397 0.74834692478179932
0.95616120100021362 0.44245043396949768 0.73811012506484985
0.28573954105377197 0.51587051153182983 0.71269279718399048
0.41092672944068909 0.52301025390625 0.71791166067123413
0.60917091369628906 0.55641257762908936 0.73111164569854736
0.78563028573989868 0.60077685117721558 0.74434638023376465
0.94703549146652222 0.59698605537414551 0.74393022060394287
0.35083001852035522 0.73396366834640503 0.74081391096115112
0.44094711542129517 0.73412162065505981 0.74043816328048706
0.5903053879737854 0.73515838384628296 0.74154019355773926
0.76104050874710083 0.74512785673141479 0.75086873769760132
0.93997353315353394 0.74768394231796265 0.7466437816619873
0.42174431681632996 0.92436480522155762 0.76619899272918701
0.47760361433029175 0.92645740509033203 0.76445335149765015
0.59653556346893311 0.91982710361480713 0.76593470573425293
0.72339385747909546 0.91055589914321899 0.75525516271591187
0.92576271295547485 0.9240114688873291 0.74967628717422485
0.60123187303543091 0.38672181963920593 0.91115748882293701
0.64573442935943604 0.40148147940635681 0.9114837646484375
0.73986691236495972 0.44237977266311646 0.91301077604293823
0.85537612438201904 0.49359646439552307 0.91286343336105347
0.98073726892471313 0.51512151956558228 0.91843968629837036
0.59068185091018677 0.47331631183624268 0.90965229272842407
0.63025689125061035 0.48183146119117737 0.90593427419662476
0.72785431146621704 0.5081600546836853 0.90918391942977905
0.84899240732192993 0.55015242099761963 0.91459178924560547
0.97914981842041016 0.56471306085586548 0.91675007343292236
0.51195245981216431 0.57954663038253784 0.90249288082122803
0.57709008455276489 0.59118640422821045 0.90536642074584961
0.69475716352462769 0.61224919557571411 0.9110715389251709
0.82636421918869019 0.64297497272491455 0.90976071357727051
0.97241342067718506 0.6600680947303772 0.91862046718597412
0.41984379291534424 0.7241218090057373 0.90521532297134399
0.47054141759872437 0.71850031614303589 0.9058881402015686
0.59017473459243774 0.71419745683670044 0.90662741661071777
0.78476810455322266 0.74738985300064087 0.91675633192062378
0.96758204698562622 0.77913105487823486 0.92362242937088013
0.37424364686012268 0.93025082349777222 0.93167847394943237
0.43395990133285522 0.93367642164230347 0.9300958514213562
0.56605130434036255 0.93488615751266479 0.93269479274749756
0.74114644527435303 0.93472611904144287 0.93362748622894287
0.96352332830429077 0.94113844633102417 0.93888950347900391
