luts/negative_new/fuji_160c_++.cube
# Created by: G'MIC (https://gmic.eu)
TITLE "fuji_160c_++"
# LUT size
LUT_3D_SIZE 13
# Data domain
DOMAIN_MIN 0.0 0.0 0.0
DOMAIN_MAX 1.0 1.0 1.0
# LUT data points
0.070051617920398712 0.089225977659225464 0.056576717644929886
0.1106245294213295 0.092086479067802429 0.058075923472642899
0.17164419591426849 0.090186715126037598 0.056506946682929993
0.24986612796783447 0.086846187710762024 0.054927721619606018
0.33615061640739441 0.081188797950744629 0.056971307843923569
0.43844681978225708 0.061020195484161377 0.05745282769203186
0.53974807262420654 0.033274959772825241 0.05452403798699379
0.63859766721725464 0.015745393931865692 0.052417874336242676
0.72500157356262207 0.017533186823129654 0.049500111490488052
0.80239957571029663 0.046522971242666245 0.048286125063896179
0.86696434020996094 0.11274538189172745 0.053334686905145645
0.92488372325897217 0.18010476231575012 0.059319410473108292
0.97490608692169189 0.23944324254989624 0.075622916221618652
0.053192391991615295 0.13321752846240997 0.05913480743765831
0.09652816504240036 0.13737906515598297 0.060197420418262482
0.16845858097076416 0.13307520747184753 0.057011295109987259
0.24848069250583649 0.13104376196861267 0.05345650389790535
0.34127292037010193 0.13502351939678192 0.051949296146631241
0.44002807140350342 0.12327080219984055 0.048499267548322678
0.54178613424301147 0.099938578903675079 0.048016775399446487
0.63654470443725586 0.08437424898147583 0.046778015792369843
0.72058767080307007 0.093971535563468933 0.044834870845079422
0.79866605997085571 0.12380260229110718 0.041019737720489502
0.86518943309783936 0.16830578446388245 0.043469268828630447
0.92062878608703613 0.22137144207954407 0.051193177700042725
0.97196382284164429 0.27247855067253113 0.067602865397930145
0.025495221838355064 0.18665069341659546 0.056687790900468826
0.067733108997344971 0.18995596468448639 0.057978130877017975
0.15093147754669189 0.19261014461517334 0.054383985698223114
0.24007809162139893 0.19541162252426147 0.048618748784065247
0.33764690160751343 0.19666002690792084 0.043666556477546692
0.43884721398353577 0.19243231415748596 0.036785800009965897
0.537395179271698 0.18140296638011932 0.034171923995018005
0.62954801321029663 0.17552384734153748 0.033120278269052505
0.71510773897171021 0.18637105822563171 0.033339392393827438
0.79339998960494995 0.20809338986873627 0.027365650981664658
0.85865962505340576 0.23557695746421814 0.028281416743993759
0.91743373870849609 0.27354529500007629 0.033814746886491776
0.97047799825668335 0.31458950042724609 0.053015060722827911
0.0068299537524580956 0.26124253869056702 0.047622308135032654
0.024219049140810966 0.25823974609375 0.049323257058858871
0.10837133228778839 0.26341539621353149 0.047331161797046661
0.21505726873874664 0.26748144626617432 0.04061310738325119
0.32493200898170471 0.272176593542099 0.031021552160382271
0.42969438433647156 0.2698400616645813 0.02261422760784626
0.52953922748565674 0.26487439870834351 0.015788523480296135
0.62429690361022949 0.26341697573661804 0.015885505825281143
0.71120131015777588 0.27097159624099731 0.017877466976642609
0.78625190258026123 0.28785461187362671 0.01445115078240633
0.84910261631011963 0.30801460146903992 0.016673652455210686
0.90859055519104004 0.33687233924865723 0.017287803813815117
0.96493113040924072 0.36794254183769226 0.030940396711230278
0.00315831508487463 0.34356233477592468 0.032885681837797165
0.0057813758030533791 0.34120956063270569 0.038099911063909531
0.050147037953138351 0.33902844786643982 0.035865064710378647
0.17180545628070831 0.34452885389328003 0.030975865200161934
0.29543158411979675 0.35258731245994568 0.020042913034558296
0.41210594773292542 0.35873472690582275 0.012500463984906673
0.51788312196731567 0.35824936628341675 0.0087397554889321327
0.61914807558059692 0.35214513540267944 0.0076821418479084969
0.70595729351043701 0.35432329773902893 0.0080056730657815933
0.7765083909034729 0.36628669500350952 0.0068305819295346737
0.83852982521057129 0.38371267914772034 0.0086670517921447754
0.89970487356185913 0.40452820062637329 0.0071611888706684113
0.95716923475265503 0.42906534671783447 0.012555230408906937
0.00062278297264128923 0.42689013481140137 0.016809694468975067
0.0024297975469380617 0.42462009191513062 0.0224138293415308
0.01029942836612463 0.42124086618423462 0.021968107670545578
0.12002300471067429 0.42366307973861694 0.017639383673667908
0.2651294469833374 0.4310334324836731 0.01260769460350275
0.38528510928153992 0.43989148736000061 0.0095653161406517029
0.49917864799499512 0.44537711143493652 0.0061986586079001427
0.60466867685317993 0.44272610545158386 0.0056427451781928539
0.69264835119247437 0.44054678082466125 0.0063735512085258961
0.76420736312866211 0.44599750638008118 0.0073930476792156696
0.82762998342514038 0.45804360508918762 0.0054937624372541904
0.88795512914657593 0.47329023480415344 0.0049001504667103291
0.94689244031906128 0.49040520191192627 0.0047898832708597183
0 0.50533604621887207 0.0081004723906517029
7.7012009569443762e-05 0.50405079126358032 0.010239469818770885
0.003581940894946456 0.5012439489364624 0.011683998629450798
0.066697709262371063 0.49965506792068481 0.010473228991031647
0.23072050511837006 0.50338506698608398 0.010698774829506874
0.35786646604537964 0.50872504711151123 0.0081215500831604004
0.47207480669021606 0.51345032453536987 0.0050464854575693607
0.58046019077301025 0.51931285858154297 0.0044223410077393055
0.67335611581802368 0.52231806516647339 0.0052240560762584209
0.75166046619415283 0.52563208341598511 0.0047830617986619473
0.81719839572906494 0.52961438894271851 0.0046804388985037804
0.87697243690490723 0.53734010457992554 0.0073174717836081982
0.93384754657745361 0.5514371395111084 0.0043211993761360645
0 0.57973718643188477 0.0080049401149153709
0 0.57834690809249878 0.011052883230149746
0.00084397557657212019 0.57564985752105713 0.011866161599755287
0.038162771612405777 0.57304084300994873 0.014816807582974434
0.20586390793323517 0.57247555255889893 0.018656831234693527
0.34025382995605469 0.57420098781585693 0.014464778825640678
0.45383378863334656 0.57784044742584229 0.0090582603588700294
0.5572698712348938 0.58374840021133423 0.0079328650608658791
0.65196400880813599 0.59148788452148438 0.0090134264901280403
0.73357820510864258 0.59932750463485718 0.0069663850590586662
0.80185526609420776 0.60073357820510864 0.0048325182870030403
0.86418604850769043 0.6055794358253479 0.0075896168127655983
0.92370879650115967 0.61440330743789673 0.004919134546071291
5.7564528106013313e-05 0.64991283416748047 0.023443259298801422
0 0.64893674850463867 0.025846324861049652
0.00066737754968926311 0.64694118499755859 0.034065965563058853
0.048293139785528183 0.6431618332862854 0.039849240332841873
0.21375539898872375 0.6387900710105896 0.045861441642045975
0.34152981638908386 0.63797801733016968 0.04320729523897171
0.44794917106628418 0.6395685076713562 0.036782208830118179
0.54426777362823486 0.64304554462432861 0.032979179173707962
0.63089150190353394 0.64790481328964233 0.029951043426990509
0.71167904138565063 0.65814805030822754 0.027192762121558189
0.78658467531204224 0.66603165864944458 0.01747945137321949
0.85148614645004272 0.67196792364120483 0.016766281798481941
0.91226541996002197 0.67901605367660522 0.021594822406768799
0.0022932463325560093 0.71060460805892944 0.081861354410648346
0.00092403934104368091 0.71074914932250977 0.080636121332645416
0.0091068046167492867 0.70972621440887451 0.086133234202861786
0.10863266140222549 0.70639526844024658 0.094230011105537415
0.23929457366466522 0.70188778638839722 0.10520335286855698
0.35506513714790344 0.69846183061599731 0.10666963458061218
0.45507267117500305 0.69937336444854736 0.099779821932315826
0.54164505004882812 0.70144617557525635 0.09736759215593338
0.62311530113220215 0.70433443784713745 0.096355408430099487
0.69402122497558594 0.70759493112564087 0.1012856736779213
0.7655482292175293 0.7153046727180481 0.1009233370423317
0.83903908729553223 0.73041284084320068 0.10446551442146301
0.90503114461898804 0.74042367935180664 0.1172633171081543
0.0088902637362480164 0.7716941237449646 0.15158338844776154
0.022621124982833862 0.77119100093841553 0.15068264305591583
0.097349502146244049 0.77046662569046021 0.15575562417507172
0.2030903697013855 0.76719599962234497 0.16287267208099365
0.29461568593978882 0.7637406587600708 0.17220963537693024
0.38156032562255859 0.76126253604888916 0.18000662326812744
0.4696066677570343 0.76124179363250732 0.1797793060541153
0.54583853483200073 0.76361966133117676 0.18120895326137543
0.62174475193023682 0.76548057794570923 0.18222765624523163
0.68882626295089722 0.76847314834594727 0.18587116897106171
0.75561195611953735 0.77287864685058594 0.19090889394283295
0.82256120443344116 0.77984875440597534 0.1964414119720459
0.89338207244873047 0.7943192720413208 0.21478350460529327
0.14671774208545685 0.83523362874984741 0.23904721438884735
0.18532833456993103 0.83591598272323608 0.24192151427268982
0.2354682981967926 0.83379340171813965 0.24505549669265747
0.2946016788482666 0.83002626895904541 0.24814727902412415
0.356149822473526 0.82786351442337036 0.25382193922996521
0.42008846998214722 0.82526504993438721 0.25954630970954895
0.48847243189811707 0.82562476396560669 0.26504001021385193
0.55685025453567505 0.82806622982025146 0.27012908458709717
0.62512743473052979 0.82985466718673706 0.27290359139442444
0.69017153978347778 0.83396041393280029 0.28074559569358826
0.75295639038085938 0.83645045757293701 0.28790497779846191
0.81471079587936401 0.83913826942443848 0.29533514380455017
0.87832319736480713 0.84866982698440552 0.30740046501159668
0.29267635941505432 0.90474057197570801 0.3510621190071106
0.31405824422836304 0.90628898143768311 0.35423573851585388
0.3426440954208374 0.90508455038070679 0.35743439197540283
0.38071569800376892 0.90264666080474854 0.36013978719711304
0.42305725812911987 0.90001368522644043 0.36438465118408203
0.4715520441532135 0.89816421270370483 0.37356066703796387
0.52334094047546387 0.89906740188598633 0.38221240043640137
0.58023953437805176 0.90052777528762817 0.38892516493797302
0.64143127202987671 0.90435111522674561 0.39598715305328369
0.70075219869613647 0.90567964315414429 0.40139639377593994
0.76014530658721924 0.90871983766555786 0.4139094352722168
0.8202202320098877 0.91123658418655396 0.42266342043876648
0.88168507814407349 0.91986691951751709 0.43856325745582581
0.079376399517059326 0.091884031891822815 0.091034203767776489
0.11674708873033524 0.094328545033931732 0.092105954885482788
0.17729116976261139 0.094971641898155212 0.090685553848743439
0.25379621982574463 0.092884883284568787 0.088540218770503998
0.34363099932670593 0.086190231144428253 0.093860507011413574
0.44171571731567383 0.073161736130714417 0.096800997853279114
0.54315227270126343 0.057918023318052292 0.10093832761049271
0.64176136255264282 0.046736311167478561 0.10434544831514359
0.72795963287353516 0.053298711776733398 0.10549525916576385
0.80235046148300171 0.086855947971343994 0.10718968510627747
0.8677862286567688 0.14223833382129669 0.11175259202718735
0.92447668313980103 0.19832898676395416 0.12185462564229965
0.97378861904144287 0.25181153416633606 0.13579992949962616
0.071489997208118439 0.13201746344566345 0.095232106745243073
0.11537104845046997 0.13835301995277405 0.098472252488136292
0.18010212481021881 0.13914082944393158 0.098227180540561676
0.25661161541938782 0.1405826210975647 0.097561977803707123
0.34588053822517395 0.13799743354320526 0.095757491886615753
0.44308477640151978 0.1328415721654892 0.094481542706489563
0.54424625635147095 0.12407476454973221 0.098602518439292908
0.63830888271331787 0.1162448525428772 0.099003106355667114
0.72329580783843994 0.12592087686061859 0.099662542343139648
0.80193853378295898 0.14685125648975372 0.099666818976402283
0.8660348653793335 0.18631739914417267 0.10528450459241867
0.92146980762481689 0.23412610590457916 0.1165388822555542
0.97216308116912842 0.28145834803581238 0.13076683878898621
0.052582461386919022 0.1937558501958847 0.097737990319728851
0.095797955989837646 0.1964399665594101 0.099751383066177368
0.16859281063079834 0.19738689064979553 0.098523207008838654
0.2524358332157135 0.20015428960323334 0.09855949878692627
0.34543702006340027 0.20066925883293152 0.09400629997253418
0.44346874952316284 0.19929823279380798 0.089470416307449341
0.54006713628768921 0.19721764326095581 0.085364110767841339
0.63202261924743652 0.19520580768585205 0.081760242581367493
0.71932739019393921 0.20275604724884033 0.08470579981803894
0.79702925682067871 0.21930406987667084 0.086372941732406616
0.85964733362197876 0.24742875993251801 0.093209944665431976
0.91610968112945557 0.28487762808799744 0.1050642728805542
0.96830505132675171 0.32459867000579834 0.12311010807752609
0.014452601782977581 0.26671740412712097 0.092641733586788177
0.050173800438642502 0.26733654737472534 0.093956112861633301
0.13417643308639526 0.26913374662399292 0.093333221971988678
0.22899240255355835 0.2712884247303009 0.090151228010654449
0.33323171734809875 0.27413785457611084 0.082205437123775482
0.4369107186794281 0.27431574463844299 0.07376176118850708
0.53504222631454468 0.27224695682525635 0.066269710659980774
0.62831789255142212 0.27379962801933289 0.062394443899393082
0.7153744101524353 0.28030037879943848 0.062497291713953018
0.78892368078231812 0.29600515961647034 0.064757466316223145
0.85084521770477295 0.31605905294418335 0.073613874614238739
0.90934526920318604 0.34421128034591675 0.081715606153011322
0.96322464942932129 0.37443706393241882 0.10385308414697647
0.0047640930861234665 0.35260650515556335 0.086561165750026703
0.011008079163730145 0.3484044075012207 0.085525229573249817
0.07915438711643219 0.34539622068405151 0.085819408297538757
0.19264373183250427 0.34879976511001587 0.082905039191246033
0.30567741394042969 0.35409662127494812 0.073604851961135864
0.4201149046421051 0.35899624228477478 0.060196641832590103
0.52557152509689331 0.35957929491996765 0.046995170414447784
0.62157523632049561 0.35899090766906738 0.039786707609891891
0.7071039080619812 0.36032599210739136 0.034396346658468246
0.77848094701766968 0.37137958407402039 0.038299620151519775
0.84135466814041138 0.38738444447517395 0.042904093861579895
0.9006531834602356 0.408530592918396 0.054410688579082489
0.95681893825531006 0.43173307180404663 0.076756693422794342
0.0027927323244512081 0.43541273474693298 0.074870496988296509
0.0030608382076025009 0.43167001008987427 0.076777949929237366
0.023104842752218246 0.42674338817596436 0.076973766088485718
0.14696104824542999 0.42812150716781616 0.076287694275379181
0.27640452980995178 0.43515223264694214 0.068478494882583618
0.39566105604171753 0.44293680787086487 0.055618524551391602
0.50758141279220581 0.44699212908744812 0.040266208350658417
0.60681307315826416 0.44669237732887268 0.026189796626567841
0.69311040639877319 0.44562658667564392 0.018489044159650803
0.76652681827545166 0.44863155484199524 0.015434085391461849
0.8306889533996582 0.457710862159729 0.016497623175382614
0.8885607123374939 0.47304826974868774 0.030569339171051979
0.94561159610748291 0.4903540313243866 0.046201877295970917
0 0.51105761528015137 0.066523171961307526
0.0015975204296410084 0.50876057147979736 0.068790972232818604
0.0063494960777461529 0.50541019439697266 0.069448523223400116
0.094056926667690277 0.50500935316085815 0.071017518639564514
0.24587582051753998 0.50826704502105713 0.067799031734466553
0.36837047338485718 0.51226729154586792 0.057403996586799622
0.47878357768058777 0.51570075750350952 0.047659512609243393
0.58218413591384888 0.52067285776138306 0.038257315754890442
0.67358839511871338 0.52604269981384277 0.02352612093091011
0.75297081470489502 0.53026509284973145 0.012772428803145885
0.81840699911117554 0.53168702125549316 0.011889858171343803
0.87839663028717041 0.5364564061164856 0.014192618429660797
0.93578135967254639 0.54827010631561279 0.019797978922724724
0 0.58259308338165283 0.066401943564414978
0.0011942096753045917 0.58111131191253662 0.067825943231582642
0.0046155890449881554 0.57911813259124756 0.073286615312099457
0.064218200743198395 0.57669723033905029 0.077062360942363739
0.22255709767341614 0.57489514350891113 0.077624350786209106
0.35118228197097778 0.57488614320755005 0.071374960243701935
0.4611162543296814 0.57806491851806641 0.066594250500202179
0.56065118312835693 0.58324515819549561 0.062658034265041351
0.65324866771697998 0.59337395429611206 0.048544760793447495
0.73497015237808228 0.60140514373779297 0.032437656074762344
0.8030095100402832 0.60364460945129395 0.023482408374547958
0.86608946323394775 0.60709571838378906 0.020668089389801025
0.92619127035140991 0.61178642511367798 0.02189737930893898
0.00033721924410201609 0.64991605281829834 0.089338459074497223
0.00039292877772822976 0.6493077278137207 0.092014685273170471
0.0027585946954786777 0.64842706918716431 0.09623304009437561
0.079636923968791962 0.64546692371368408 0.10145607590675354
0.23191718757152557 0.63925421237945557 0.10568235814571381
0.35422274470329285 0.63699996471405029 0.10515201091766357
0.45831292867660522 0.63898277282714844 0.099336437880992889
0.55054455995559692 0.64258664846420288 0.096165210008621216
0.63448029756546021 0.64765399694442749 0.094824396073818207
0.71151715517044067 0.65529561042785645 0.086873285472393036
0.7852059006690979 0.66316109895706177 0.074184447526931763
0.85269945859909058 0.67057216167449951 0.069681175053119659
0.91516250371932983 0.67750990390777588 0.077074207365512848
0.0035231944639235735 0.71149951219558716 0.13093023002147675
0.00097545550670474768 0.71209651231765747 0.13195553421974182
0.018450090661644936 0.71092081069946289 0.13484105467796326
0.14022229611873627 0.7069467306137085 0.14131370186805725
0.26153168082237244 0.70156395435333252 0.15024186670780182
0.36643785238265991 0.69809824228286743 0.14909070730209351
0.46028411388397217 0.6981005072593689 0.14536258578300476
0.54711246490478516 0.7007756233215332 0.14445525407791138
0.62552827596664429 0.70303720235824585 0.14472939074039459
0.69662326574325562 0.70705759525299072 0.14810433983802795
0.76768237352371216 0.71561753749847412 0.14859801530838013
0.83998388051986694 0.72854375839233398 0.15570524334907532
0.90557694435119629 0.73919200897216797 0.16650137305259705
0.015804620459675789 0.77289360761642456 0.18567977845668793
0.038382541388273239 0.77149653434753418 0.18516786396503448
0.11881858855485916 0.77086704969406128 0.19111131131649017
0.21841992437839508 0.76735776662826538 0.19689933955669403
0.30632522702217102 0.76287108659744263 0.20439061522483826
0.38953205943107605 0.76022851467132568 0.20729625225067139
0.47269782423973083 0.7608150839805603 0.20944139361381531
0.55032843351364136 0.76277577877044678 0.21315619349479675
0.62274962663650513 0.76371973752975464 0.21102617681026459
0.69161027669906616 0.76712185144424438 0.21325935423374176
0.75780946016311646 0.77118992805480957 0.21782688796520233
0.82224559783935547 0.77793800830841064 0.22531761229038239
0.89351785182952881 0.79430437088012695 0.24541987478733063
0.16122069954872131 0.83618748188018799 0.26235675811767578
0.19653210043907166 0.83566296100616455 0.2655823826789856
0.24388007819652557 0.83372163772583008 0.26681369543075562
0.29989463090896606 0.83162182569503784 0.27197796106338501
0.36119401454925537 0.82758575677871704 0.27703070640563965
0.42346802353858948 0.82523047924041748 0.28085276484489441
0.49022102355957031 0.82612496614456177 0.28710633516311646
0.56022071838378906 0.82797276973724365 0.29155042767524719
0.62656235694885254 0.83020025491714478 0.29505228996276855
0.69176268577575684 0.83363914489746094 0.29979953169822693
0.75446158647537231 0.83511239290237427 0.307220458984375
0.81463158130645752 0.83882170915603638 0.31420606374740601
0.87886840105056763 0.84796607494354248 0.32841449975967407
0.29910930991172791 0.9032973051071167 0.36362969875335693
0.31841239333152771 0.90426945686340332 0.36707285046577454
0.34497711062431335 0.9040948748588562 0.37131723761558533
0.38314300775527954 0.9033132791519165 0.37614449858665466
0.42598429322242737 0.90024846792221069 0.38072755932807922
0.47307625412940979 0.89732342958450317 0.38869938254356384
0.52395099401473999 0.89787626266479492 0.39741379022598267
0.58210915327072144 0.89991021156311035 0.40290772914886475
0.64114409685134888 0.90270113945007324 0.40971872210502625
0.70221352577209473 0.90543258190155029 0.41614130139350891
0.7619163990020752 0.90926998853683472 0.42683720588684082
0.82098251581192017 0.91344618797302246 0.43472504615783691
0.88200956583023071 0.91995960474014282 0.45195770263671875
0.089512377977371216 0.098578162491321564 0.14266304671764374
0.12726375460624695 0.1009843721985817 0.14360547065734863
0.1879299134016037 0.10149034857749939 0.14239166676998138
0.25692304968833923 0.097558610141277313 0.14197975397109985
0.35150039196014404 0.085300862789154053 0.14501635730266571
0.45035308599472046 0.074014969170093536 0.14786529541015625
0.55313771963119507 0.061886567622423172 0.15614224970340729
0.65194928646087646 0.063023783266544342 0.16390888392925262
0.73696672916412354 0.088808245956897736 0.17344434559345245
0.80720382928848267 0.12960493564605713 0.17923273146152496
0.86893957853317261 0.17250904440879822 0.18514135479927063
0.92424756288528442 0.22096477448940277 0.19425854086875916
0.97503006458282471 0.27039709687232971 0.2040143609046936
0.086126647889614105 0.13683642446994781 0.14892560243606567
0.12850314378738403 0.14191064238548279 0.14912611246109009
0.18948495388031006 0.14299744367599487 0.14888016879558563
0.26377323269844055 0.14247962832450867 0.15080848336219788
0.35345852375030518 0.13854382932186127 0.15233725309371948
0.45192128419876099 0.13251647353172302 0.15406729280948639
0.55205452442169189 0.13129721581935883 0.15850357711315155
0.64699697494506836 0.13221938908100128 0.16175493597984314
0.73297691345214844 0.1458614319562912 0.16817218065261841
0.8067929744720459 0.17086894810199738 0.17448416352272034
0.86828917264938354 0.20865905284881592 0.18221667408943176
0.92176598310470581 0.25199577212333679 0.19305354356765747
0.97455823421478271 0.29569685459136963 0.20327293872833252
0.060271020978689194 0.1968761533498764 0.15247496962547302
0.11719590425491333 0.19825252890586853 0.15455831587314606
0.18650829792022705 0.20287533104419708 0.15366595983505249
0.26606038212776184 0.20434960722923279 0.1545206606388092
0.35589137673377991 0.20299607515335083 0.15263739228248596
0.45123562216758728 0.2033173143863678 0.15198794007301331
0.54810154438018799 0.2043575793504715 0.15600207448005676
0.64153671264648438 0.20402306318283081 0.15643224120140076
0.72853541374206543 0.21372252702713013 0.16161282360553741
0.80197584629058838 0.23467299342155457 0.166839599609375
0.86253100633621216 0.26318579912185669 0.17385734617710114
0.91783827543258667 0.29936087131500244 0.18623508512973785
0.97116869688034058 0.33550620079040527 0.19932566583156586
0.028672043234109879 0.27567145228385925 0.15631002187728882
0.093555822968482971 0.27670389413833618 0.15723073482513428
0.16969424486160278 0.27987179160118103 0.15595607459545135
0.24944223463535309 0.27953100204467773 0.15311290323734283
0.34513509273529053 0.2786133885383606 0.14932213723659515
0.44965457916259766 0.27722570300102234 0.14506468176841736
0.54537856578826904 0.28131076693534851 0.1475050300359726
0.63708698749542236 0.286590576171875 0.15046237409114838
0.72239005565643311 0.2944452166557312 0.14999070763587952
0.79368728399276733 0.30932426452636719 0.15161769092082977
0.85425335168838501 0.32894310355186462 0.1592371016740799
0.9113125205039978 0.35368999838829041 0.17045560479164124
0.96362984180450439 0.3829558789730072 0.18848025798797607
0.0069810007698833942 0.36117345094680786 0.15744277834892273
0.0417034812271595 0.35926231741905212 0.154203861951828
0.1288367360830307 0.35699421167373657 0.15267564356327057
0.22397699952125549 0.35837870836257935 0.1529654860496521
