luts/negative_new/fuji_400h_+.cube
# Created by: G'MIC (https://gmic.eu)
TITLE "fuji_400h_+"
# LUT size
LUT_3D_SIZE 13
# Data domain
DOMAIN_MIN 0.0 0.0 0.0
DOMAIN_MAX 1.0 1.0 1.0
# LUT data points
0.10233275592327118 0.094878174364566803 0.044219836592674255
0.14196498692035675 0.095952428877353668 0.04452146589756012
0.20569287240505219 0.095685280859470367 0.043693393468856812
0.2875155508518219 0.089497573673725128 0.041437994688749313
0.38470891118049622 0.071751251816749573 0.036434967070817947
0.49192965030670166 0.044197499752044678 0.032817002385854721
0.60022431612014771 0.014443610794842243 0.024885708466172218
0.70145869255065918 0.0063473721966147423 0.01656138151884079
0.78646743297576904 0.013390170410275459 0.009526900015771389
0.85668987035751343 0.045743260532617569 0.0077407089993357658
0.91795063018798828 0.11557873338460922 0.0047647515311837196
0.97127747535705566 0.17825177311897278 0.003342796815559268
0.99805587530136108 0.22636622190475464 0.0048040803521871567
0.096462205052375793 0.13306154310703278 0.045537341386079788
0.13601523637771606 0.1346784383058548 0.046198032796382904
0.19945599138736725 0.1381411999464035 0.042078234255313873
0.2873167097568512 0.13667410612106323 0.035664189606904984
0.38612744212150574 0.12232812494039536 0.029643340036273003
0.49268397688865662 0.10072243213653564 0.026148358359932899
0.59859603643417358 0.08164108544588089 0.016884732991456985
0.69807618856430054 0.079605698585510254 0.0099157150834798813
0.78387290239334106 0.097687140107154846 0.0058073005639016628
0.85157924890518188 0.13347204029560089 0.0056582731194794178
0.91405981779098511 0.17894464731216431 0.0075386944226920605
0.96856844425201416 0.2241968959569931 0.0079752905294299126
0.99872839450836182 0.26091879606246948 0.0052817398682236671
0.084328442811965942 0.19404636323451996 0.045915134251117706
0.12498505413532257 0.18893925845623016 0.045301415026187897
0.18925653398036957 0.19174773991107941 0.037559479475021362
0.27939942479133606 0.1961262971162796 0.026104137301445007
0.38341718912124634 0.19103424251079559 0.01606464758515358
0.48956263065338135 0.18450585007667542 0.013229549862444401
0.5927276611328125 0.18366289138793945 0.0089653609320521355
0.69265180826187134 0.18884755671024323 0.0040967455133795738
0.77621996402740479 0.1995653361082077 0.0039348974823951721
0.8476143479347229 0.22204819321632385 0.0042366627603769302
0.90891885757446289 0.25425773859024048 0.0067818285897374153
0.965007483959198 0.28687110543251038 0.0068065868690609932
0.99659270048141479 0.31335839629173279 0.0039787893183529377
0.043238695710897446 0.26071351766586304 0.038130111992359161
0.099252291023731232 0.25952976942062378 0.040908154100179672
0.17173345386981964 0.26356720924377441 0.03469269722700119
0.26120293140411377 0.26827722787857056 0.018158512189984322
0.37438479065895081 0.27690336108207703 0.0071350247599184513
0.48153585195541382 0.27770337462425232 0.0068159815855324268
0.58299177885055542 0.28059479594230652 0.0064806919544935226
0.68202024698257446 0.28669270873069763 0.0050558503717184067
0.76669353246688843 0.2934173047542572 0.0033149570226669312
0.84152096509933472 0.30786174535751343 0.0037038614973425865
0.90177369117736816 0.32799327373504639 0.0043661827221512794
0.95793992280960083 0.35119220614433289 0.0036362144164741039
0.99614232778549194 0.36866843700408936 0.0017723831115290523
0.01035893801599741 0.34140834212303162 0.030455930158495903
0.044371794909238815 0.34263432025909424 0.028771314769983292
0.13984085619449615 0.34235408902168274 0.029504409059882164
0.24232858419418335 0.34674862027168274 0.019706517457962036
0.35277912020683289 0.35655540227890015 0.0086625190451741219
0.46504577994346619 0.36828583478927612 0.0043895198032259941
0.56801110506057739 0.37326934933662415 0.0045013576745986938
0.6632695198059082 0.37647393345832825 0.0031440285965800285
0.75436663627624512 0.37903201580047607 0.00076509366044774652
0.82780051231384277 0.38936114311218262 0.0025063308421522379
0.89021658897399902 0.40503084659576416 0.0038276372943073511
0.94788658618927002 0.42100882530212402 0.003487695474177599
0.99000638723373413 0.43181046843528748 0.0042860144749283791
0.0051890355534851551 0.42707771062850952 0.025386661291122437
0.0095261372625827789 0.42758879065513611 0.023660922423005104
0.096968226134777069 0.42693892121315002 0.028408799320459366
0.21673183143138885 0.42896142601966858 0.023106519132852554
0.32480713725090027 0.43422386050224304 0.011805575340986252
0.43536701798439026 0.44383695721626282 0.0050772721879184246
0.54500305652618408 0.45540088415145874 0.0028267207089811563
0.64610034227371216 0.46325534582138062 0.0005473865894600749
0.73383867740631104 0.46516880393028259 0.0011431076563894749
0.81067562103271484 0.46934020519256592 0.00094719679327681661
0.87683999538421631 0.47939819097518921 0.0030398948583751917
0.93607664108276367 0.48875397443771362 0.0039215688593685627
0.9821544885635376 0.49573945999145508 0.005774524062871933
0.0013698652619495988 0.51252418756484985 0.019729001447558403
0.0038313025142997503 0.51011639833450317 0.026904281228780746
0.049265693873167038 0.5100892186164856 0.030042266473174095
0.1863371878862381 0.50794690847396851 0.035066448152065277
0.30134278535842896 0.50941282510757446 0.024094659835100174
0.41171318292617798 0.51714867353439331 0.0088067296892404556
0.51937627792358398 0.528453528881073 0.0040365480817854404
0.6249854564666748 0.54055541753768921 0.0017101961420848966
0.71097797155380249 0.54519784450531006 0.00085372925968840718
0.7894899845123291 0.54878979921340942 0.00069071451434865594
0.85823714733123779 0.55440068244934082 0.00048271627747453749
0.923087477684021 0.55642741918563843 0.0026457095518708229
0.97559988498687744 0.55917108058929443 0.0038763608317822218
0.00035801308695226908 0.58794295787811279 0.03621692955493927
0.0022099963389337063 0.58863496780395508 0.043137107044458389
0.034138727933168411 0.58662062883377075 0.054012104868888855
0.17187182605266571 0.58183330297470093 0.062955327332019806
0.29009807109832764 0.58176487684249878 0.052196353673934937
0.39778900146484375 0.58576887845993042 0.029501747339963913
0.49775731563568115 0.59294432401657104 0.013092639856040478
0.59516197443008423 0.60116398334503174 0.0066223442554473877
0.68712335824966431 0.6136285662651062 0.0031975090969353914
0.7707868218421936 0.62427312135696411 0.00027975943521596491
0.84010118246078491 0.62529647350311279 0.00096387678058817983
0.90849125385284424 0.62606239318847656 0.00080529006663709879
0.9687151312828064 0.62746858596801758 0.00045740464702248573
0.0039013433270156384 0.65802818536758423 0.082663305103778839
0.0068617579527199268 0.65926408767700195 0.093042977154254913
0.049510102719068527 0.65773701667785645 0.10229888558387756
0.1882908046245575 0.65263015031814575 0.11169125139713287
0.29893940687179565 0.64842844009399414 0.11143013089895248
0.39927017688751221 0.65141528844833374 0.091421492397785187
0.4904472827911377 0.65639209747314453 0.062215648591518402
0.57627546787261963 0.6610267162322998 0.035277169197797775
0.66111993789672852 0.67044705152511597 0.016480449587106705
0.74514102935791016 0.68189877271652222 0.0045591765083372593
0.82362937927246094 0.6916583776473999 0.0015580271137878299
0.89265406131744385 0.69422239065170288 0.0012714011827483773
0.95840543508529663 0.69706648588180542 0.0023917702492326498
0.0069780386984348297 0.726215660572052 0.1517106294631958
0.025436146184802055 0.72805136442184448 0.15648223459720612
0.11880441009998322 0.72553509473800659 0.16265271604061127
0.22314862906932831 0.71760720014572144 0.17147088050842285
0.31620600819587708 0.71422010660171509 0.17991669476032257
0.40511885285377502 0.71539515256881714 0.17377474904060364
0.49257171154022217 0.71963506937026978 0.15645374357700348
0.56996506452560425 0.72333735227584839 0.13418978452682495
0.64447242021560669 0.72831445932388306 0.10462335497140884
0.71988815069198608 0.73418468236923218 0.066468663513660431
0.79736888408660889 0.74456131458282471 0.028235072270035744
0.87554466724395752 0.75647848844528198 0.011582378298044205
0.94762188196182251 0.76319873332977295 0.009550042450428009
0.086991071701049805 0.79401493072509766 0.23115451633930206
0.14159587025642395 0.79390233755111694 0.23647673428058624
0.20657859742641449 0.7903907299041748 0.24469906091690063
0.27418625354766846 0.78410643339157104 0.24839319288730621
0.34892141819000244 0.78084129095077515 0.25296047329902649
0.42162123322486877 0.78026849031448364 0.25424563884735107
0.49652421474456787 0.7831304669380188 0.25341504812240601
0.56947678327560425 0.78564417362213135 0.23671106994152069
0.63798677921295166 0.78965389728546143 0.21947169303894043
0.70796489715576172 0.79435503482818604 0.19831904768943787
0.77952444553375244 0.80017304420471191 0.16364195942878723
0.85309547185897827 0.80941712856292725 0.13107529282569885
0.93214279413223267 0.82293963432312012 0.11864697188138962
0.23228444159030914 0.85885518789291382 0.32743549346923828
0.25900933146476746 0.85860705375671387 0.33139646053314209
0.29714506864547729 0.85625535249710083 0.33776178956031799
0.34269767999649048 0.85297071933746338 0.34181961417198181
0.39484649896621704 0.84972083568572998 0.34849703311920166
0.45222127437591553 0.84741508960723877 0.35487985610961914
0.51189142465591431 0.84913480281829834 0.35577082633972168
0.57287216186523438 0.8515656590461731 0.3491726815700531
0.63538771867752075 0.85402810573577881 0.33875423669815063
0.70126819610595703 0.8573259711265564 0.3255276083946228
0.77014327049255371 0.86229491233825684 0.31193053722381592
0.84166407585144043 0.86940997838973999 0.29451456665992737
0.91082054376602173 0.87597042322158813 0.27543532848358154
0.35316926240921021 0.92360776662826538 0.44632890820503235
0.36729300022125244 0.9233928918838501 0.4490838348865509
0.39094334840774536 0.9211660623550415 0.4516623318195343
0.42301562428474426 0.92054158449172974 0.45743101835250854
0.46253517270088196 0.91771900653839111 0.46627029776573181
0.50669926404953003 0.91614627838134766 0.47698506712913513
0.55430322885513306 0.91745519638061523 0.48428758978843689
0.60116672515869141 0.91764974594116211 0.48001489043235779
0.65449035167694092 0.92130452394485474 0.4756721556186676
0.71272420883178711 0.92447495460510254 0.46732285618782043
0.77352476119995117 0.92804247140884399 0.46114256978034973
0.84095180034637451 0.93477064371109009 0.45444881916046143
0.90608721971511841 0.9408678412437439 0.44536808133125305
0.11284208297729492 0.096875987946987152 0.084472611546516418
0.14945568144321442 0.097348004579544067 0.086064130067825317
0.20988729596138 0.09573720395565033 0.08621496707201004
0.29350182414054871 0.090066216886043549 0.084616675972938538
0.3914465606212616 0.07056078314781189 0.085163399577140808
0.49737453460693359 0.045459985733032227 0.087103642523288727
0.60538661479949951 0.02136312797665596 0.083858251571655273
0.70601421594619751 0.010390203446149826 0.080816902220249176
0.79008764028549194 0.021629482507705688 0.075528882443904877
0.8586995005607605 0.061241734772920609 0.070088498294353485
0.91830664873123169 0.12906956672668457 0.064749158918857574
0.97297543287277222 0.18676072359085083 0.06284458190202713
0.9987950325012207 0.23401753604412079 0.070418082177639008
0.10899128764867783 0.13840568065643311 0.089336365461349487
0.14878973364830017 0.1405617892742157 0.09408135712146759
0.20867268741130829 0.1413709968328476 0.090246595442295074
0.29573932290077209 0.13907502591609955 0.084121391177177429
0.39318746328353882 0.12473730742931366 0.083662919700145721
0.49853000044822693 0.10634548962116241 0.084018990397453308
0.60379654169082642 0.09653954952955246 0.075944922864437103
0.70357584953308105 0.093048393726348877 0.071289777755737305
0.78705674409866333 0.10785440355539322 0.066065065562725067
0.85459268093109131 0.14299646019935608 0.059872779995203018
0.9161948561668396 0.1848035603761673 0.050807550549507141
0.97069859504699707 0.22861416637897491 0.050892744213342667
0.99885958433151245 0.26580280065536499 0.061549406498670578
0.10271572321653366 0.20133166015148163 0.090911164879798889
0.1424853503704071 0.1992638111114502 0.092129893600940704
0.20366097986698151 0.20011650025844574 0.089107945561408997
0.29072371125221252 0.19995687901973724 0.079605922102928162
0.39162543416023254 0.1945779025554657 0.072802282869815826
0.49640142917633057 0.1892286092042923 0.066407099366188049
0.60016393661499023 0.18889059126377106 0.05529460683465004
0.69854772090911865 0.19271239638328552 0.051763571798801422
0.7801816463470459 0.20297601819038391 0.046921808272600174
0.85027170181274414 0.22737649083137512 0.039839562028646469
0.91092228889465332 0.25702360272407532 0.035887010395526886
0.96764135360717773 0.28629642724990845 0.035345952957868576
0.99865084886550903 0.31303927302360535 0.042306743562221527
0.073146447539329529 0.27327457070350647 0.08845086395740509
0.12617737054824829 0.27150136232376099 0.089834146201610565
0.18809226155281067 0.26929226517677307 0.08796258270740509
0.27583229541778564 0.27243587374687195 0.076500087976455688
0.38389700651168823 0.28003606200218201 0.056216578930616379
0.4896044135093689 0.28053367137908936 0.042329929769039154
0.59551465511322021 0.27950277924537659 0.028679043054580688
0.69150751829147339 0.28493610024452209 0.023482214659452438
0.77161836624145508 0.2947937548160553 0.022464064881205559
0.84354066848754883 0.30848619341850281 0.017196506261825562
0.90418654680252075 0.32853850722312927 0.017144670709967613
0.96073591709136963 0.35242518782615662 0.01943652518093586
0.99482911825180054 0.37032148241996765 0.022755177691578865
0.019745994359254837 0.35648623108863831 0.084833987057209015
0.073817066848278046 0.35601937770843506 0.086260370910167694
0.16081248223781586 0.35233357548713684 0.089112631976604462
0.26178756356239319 0.35478642582893372 0.081865601241588593
0.36285132169723511 0.36134284734725952 0.05591106042265892
0.4749111533164978 0.37017309665679932 0.030686486512422562
0.58181518316268921 0.37396261096000671 0.014675364829599857
0.67263424396514893 0.37529686093330383 0.01020202599465847
0.75835055112838745 0.37850239872932434 0.0065971375443041325
0.83013159036636353 0.38903647661209106 0.006836610846221447
0.89358091354370117 0.40389552712440491 0.0074135726317763329
0.95082765817642212 0.42095282673835754 0.008291865698993206
0.99075359106063843 0.4361329972743988 0.012255245819687843
0.0054210140369832516 0.44150099158287048 0.0864286869764328
0.022700440138578415 0.44081473350524902 0.085523582994937897
0.12279191613197327 0.43731647729873657 0.091691799461841583
0.23481309413909912 0.43739426136016846 0.08795514702796936
0.33912864327430725 0.44093382358551025 0.067368723452091217
0.44858986139297485 0.44916838407516479 0.038325589150190353
0.5566093921661377 0.45924213528633118 0.014949529431760311
0.65305405855178833 0.46611705422401428 0.0072699002921581268
0.73734420537948608 0.46813780069351196 0.005294156726449728
0.8124079704284668 0.4703487753868103 0.003411969868466258
0.8794173002243042 0.47970849275588989 0.0027160495519638062
0.93893873691558838 0.48839816451072693 0.0049842237494885921
0.9868202805519104 0.49824172258377075 0.007253564428538084
0.0029970207251608372 0.52273190021514893 0.08681749552488327
0.0063954819925129414 0.52150052785873413 0.09209035336971283
0.076285146176815033 0.51823514699935913 0.098440520465373993
0.20841319859027863 0.51561659574508667 0.10527494549751282
0.31762516498565674 0.51614415645599365 0.092785552144050598
0.42271846532821655 0.52221220731735229 0.061539445072412491
0.52598881721496582 0.52933001518249512 0.029311235994100571
0.6285131573677063 0.5424385666847229 0.0094693051651120186
0.71499913930892944 0.55033981800079346 0.004683520644903183
0.79102230072021484 0.55290931463241577 0.0042431699112057686
0.86009639501571655 0.55589288473129272 0.0018074633553624153
0.92404162883758545 0.55653166770935059 0.0035509595181792974
0.97835755348205566 0.56020820140838623 0.0025239831302314997
0.0017988765612244606 0.59399634599685669 0.10689614713191986
0.0064658368937671185 0.59383106231689453 0.11410136520862579
0.060668285936117172 0.59248340129852295 0.11912964284420013
0.19520868360996246 0.58884841203689575 0.12937153875827789
0.303802490234375 0.58492159843444824 0.12460336089134216
0.40750816464424133 0.58896321058273315 0.10058356076478958
0.50556486845016479 0.59406810998916626 0.070627696812152863
0.59938961267471313 0.60158652067184448 0.039145346730947495
0.69040209054946899 0.6165611743927002 0.017113495618104935
0.77098572254180908 0.62607789039611816 0.0051808976568281651
0.84094035625457764 0.62812262773513794 0.0042693940922617912
0.90849882364273071 0.62734484672546387 0.0030625436920672655
0.96744346618652344 0.62646394968032837 0.0016434612916782498
0.0036633061245083809 0.66339617967605591 0.14393876492977142
0.0071671130135655403 0.66393351554870605 0.14729438722133636
0.081571392714977264 0.66238772869110107 0.15283219516277313
0.20723532140254974 0.65751534700393677 0.16493904590606689
0.31065446138381958 0.652904212474823 0.16798286139965057
0.40775883197784424 0.65474295616149902 0.15222816169261932
0.49593997001647949 0.65806138515472412 0.13229148089885712
0.58228576183319092 0.66350412368774414 0.1039324477314949
0.66440367698669434 0.67112237215042114 0.063899114727973938
0.74472451210021973 0.68082666397094727 0.029729371890425682
0.82238829135894775 0.69237816333770752 0.013239528052508831
0.89289385080337524 0.69653069972991943 0.0069398768246173859
0.95601004362106323 0.69689631462097168 0.0052823084406554699
0.0084313638508319855 0.73145681619644165 0.19348439574241638
0.04795411229133606 0.73212158679962158 0.19655199348926544
0.1465638279914856 0.72910386323928833 0.20222707092761993
0.24263514578342438 0.72259438037872314 0.21225184202194214
0.32938060164451599 0.71836388111114502 0.21998998522758484
0.41339325904846191 0.7185966968536377 0.21510224044322968
0.495748370885849 0.72106409072875977 0.20242626965045929
0.5718224048614502 0.72440546751022339 0.18443550169467926
0.64813369512557983 0.72833186388015747 0.15573114156723022
0.72254884243011475 0.73513287305831909 0.12638628482818604
0.80003321170806885 0.74594515562057495 0.084211342036724091
0.87650787830352783 0.75935465097427368 0.053903110325336456
0.94775217771530151 0.76407676935195923 0.037733610719442368
0.1144588515162468 0.79606634378433228 0.26202002167701721
0.16188766062259674 0.79569917917251587 0.26795971393585205
0.22258903086185455 0.79318618774414062 0.27290761470794678
0.28860801458358765 0.78777444362640381 0.27828153967857361
0.35777971148490906 0.78446125984191895 0.28268343210220337
0.42807632684707642 0.78297716379165649 0.28346535563468933
0.49877068400382996 0.78362905979156494 0.28182816505432129
0.57065767049789429 0.78551119565963745 0.26958900690078735
0.63983398675918579 0.78952622413635254 0.25254696607589722
0.71014344692230225 0.79396015405654907 0.23309063911437988
0.77984881401062012 0.79903715848922729 0.20879103243350983
0.85535335540771484 0.81056106090545654 0.18698485195636749
0.93266820907592773 0.82387816905975342 0.17304223775863647
0.24416361749172211 0.85926008224487305 0.35023611783981323
0.26643478870391846 0.85900002717971802 0.35446986556053162
0.30550074577331543 0.85759145021438599 0.35969704389572144
0.34959870576858521 0.85521036386489868 0.36202770471572876
0.40018618106842041 0.85130614042282104 0.36712753772735596
0.45557838678359985 0.84829604625701904 0.37438932061195374
0.51280146837234497 0.84807354211807251 0.37591966986656189
0.57578259706497192 0.8513486385345459 0.37092044949531555
0.63770765066146851 0.85596054792404175 0.36127555370330811
0.70361661911010742 0.85845082998275757 0.34789431095123291
0.76902967691421509 0.86178743839263916 0.33357346057891846
0.83900731801986694 0.86776435375213623 0.31801638007164001
0.91129583120346069 0.87594622373580933 0.30247953534126282
0.35887607932090759 0.92362684011459351 0.46141651272773743
0.36982327699661255 0.92165738344192505 0.45985180139541626
0.39627465605735779 0.9223860502243042 0.46666353940963745
0.4283100962638855 0.9217415452003479 0.47060129046440125
0.46204623579978943 0.91644763946533203 0.47445839643478394
0.5070611834526062 0.91607815027236938 0.48669001460075378
0.55488336086273193 0.91598457098007202 0.49430271983146667
0.60482108592987061 0.91848480701446533 0.49525704979896545
0.65821152925491333 0.92311352491378784 0.49159514904022217
0.71573144197463989 0.9250493049621582 0.48261484503746033
0.77497810125350952 0.92867696285247803 0.47582188248634338
0.83904260396957397 0.93236249685287476 0.46612840890884399
0.90480369329452515 0.93885773420333862 0.45795941352844238
0.12771421670913696 0.10149239748716354 0.1481233537197113
0.16291455924510956 0.10175727307796478 0.14913672208786011
0.21894901990890503 0.09914804995059967 0.14861039817333221
0.30266779661178589 0.091143742203712463 0.15321087837219238
0.40072789788246155 0.064449325203895569 0.15594896674156189
0.50718849897384644 0.032472528517246246 0.15578939020633698
0.61731594800949097 0.011803107336163521 0.15886008739471436
0.71628743410110474 0.010699433274567127 0.1661946028470993
0.79549109935760498 0.03381551057100296 0.17065669596195221
0.86155086755752563 0.0895424485206604 0.17453409731388092
0.91948783397674561 0.14971959590911865 0.174921914935112
0.97322911024093628 0.20191220939159393 0.17728269100189209
0.99680566787719727 0.24817010760307312 0.18744306266307831
0.12156231701374054 0.13842955231666565 0.15131139755249023
0.16072931885719299 0.14172612130641937 0.15350142121315002
0.22151802480220795 0.14344522356987 0.15263563394546509
0.30317443609237671 0.13962772488594055 0.15411373972892761
0.4019409716129303 0.12417397648096085 0.15720981359481812
0.50811588764190674 0.10417114198207855 0.15812784433364868
0.61675065755844116 0.095221154391765594 0.16239701211452484
0.71349179744720459 0.10002577304840088 0.16654498875141144
0.79167634248733521 0.12243558466434479 0.1673954576253891
0.85846233367919922 0.15797239542007446 0.16598998010158539
0.91680562496185303 0.1984914094209671 0.16427376866340637
0.97166728973388672 0.23863938450813293 0.16989885270595551
0.99718379974365234 0.27751129865646362 0.18062661588191986
0.10822886973619461 0.20339590311050415 0.15670570731163025
0.15698552131652832 0.20144790410995483 0.15928579866886139
0.22178229689598083 0.20285362005233765 0.15872940421104431
0.3062770664691925 0.20624111592769623 0.15484452247619629
0.403026282787323 0.20014859735965729 0.15456987917423248
0.50744485855102539 0.19414034485816956 0.15320794284343719
0.61181533336639404 0.19408339262008667 0.15056425333023071
0.70587241649627686 0.20051279664039612 0.15440280735492706
0.78633815050125122 0.21206754446029663 0.1539805680513382
0.85362613201141357 0.23655827343463898 0.15023568272590637
0.91201484203338623 0.26723757386207581 0.14862316846847534
0.96705293655395508 0.29471629858016968 0.15552304685115814
0.99632352590560913 0.32363325357437134 0.16693386435508728
0.090545490384101868 0.28572392463684082 0.16497354209423065
0.15131601691246033 0.28294128179550171 0.16784948110580444
0.21051447093486786 0.27973327040672302 0.16718237102031708
0.29793354868888855 0.28126963973045349 0.15996402502059937
0.39918938279151917 0.28386625647544861 0.15214672684669495
0.50274056196212769 0.28506308794021606 0.14170990884304047
0.60554152727127075 0.28574517369270325 0.13001906871795654
0.69702255725860596 0.29276096820831299 0.13143672049045563
0.77778708934783936 0.29993224143981934 0.13018138706684113
0.84603005647659302 0.31393364071846008 0.1294848769903183
0.90544348955154419 0.33622053265571594 0.12873068451881409
0.96226280927658081 0.35732579231262207 0.13560351729393005
0.99444204568862915 0.37887495756149292 0.14511747658252716
0.060054555535316467 0.37467333674430847 0.16956508159637451
0.12242799997329712 0.37197411060333252 0.17071440815925598
