luts/negative_new/fuji_400h.cube
# Created by: G'MIC (https://gmic.eu)
TITLE "fuji_400h"
# LUT size
LUT_3D_SIZE 5
# Data domain
DOMAIN_MIN 0.0 0.0 0.0
DOMAIN_MAX 1.0 1.0 1.0
# LUT data points
0.038024287670850754 0.045300919562578201 0.032425958663225174
0.24846889078617096 0.040238264948129654 0.028494128957390785
0.60365360975265503 0.0092817572876811028 0.01519012451171875
0.87014919519424438 0.010188981890678406 0.0031871721148490906
0.99937868118286133 0.21679557859897614 0.0018988515948876739
0.0028786454349756241 0.24452629685401917 0.027467839419841766
0.21967990696430206 0.2546122670173645 0.014384924434125423
0.60124516487121582 0.27089646458625793 0.0078431377187371254
0.85131704807281494 0.30231314897537231 0.0054355096071958542
0.99509191513061523 0.37116596102714539 0.0019320917781442404
0 0.52660679817199707 0.01030883751809597
0.079072527587413788 0.51664215326309204 0.015501448884606361
0.525054931640625 0.53324753046035767 0.0077935014851391315
0.79893618822097778 0.55784273147583008 0.0054553314112126827
0.98148530721664429 0.56556814908981323 0.0036277321632951498
0.0031082602217793465 0.73328483104705811 0.154316246509552
0.20125393569469452 0.72633153200149536 0.17355827987194061
0.50348615646362305 0.72234094142913818 0.15976302325725555
0.74060237407684326 0.73395156860351562 0.069107338786125183
0.95835316181182861 0.75184732675552368 0.010869343765079975
0.38460111618041992 0.91960781812667847 0.45302873849868774
0.45081567764282227 0.91481775045394897 0.46061551570892334
0.57606405019760132 0.91175365447998047 0.4850195050239563
0.73117315769195557 0.91973567008972168 0.47391358017921448
0.92156797647476196 0.93122649192810059 0.44293442368507385
0.06651923805475235 0.05899403989315033 0.2332846075296402
0.27641832828521729 0.03769645094871521 0.23813933134078979
0.63288372755050659 0.0040222019888460636 0.2510685920715332
0.88126844167709351 0.031169906258583069 0.26946231722831726
0.99831265211105347 0.27596017718315125 0.30536133050918579
0.0061421710997819901 0.27758479118347168 0.25808066129684448
0.28824320435523987 0.28745806217193604 0.26495873928070068
0.62727200984954834 0.28967764973640442 0.26212060451507568
0.85550558567047119 0.32759237289428711 0.25997638702392578
0.99379009008407593 0.39721229672431946 0.28383806347846985
0.0078585604205727577 0.56692683696746826 0.28802397847175598
0.23739214241504669 0.55248647928237915 0.28361088037490845
0.55990588665008545 0.54760473966598511 0.25528031587600708
0.81109386682510376 0.55862897634506226 0.20068620145320892
0.98188936710357666 0.56925332546234131 0.19953788816928864
0.086839653551578522 0.74656367301940918 0.33198702335357666
0.30025586485862732 0.73744028806686401 0.34129717946052551
0.51800239086151123 0.72548866271972656 0.33785045146942139
0.74940365552902222 0.73832684755325317 0.30143368244171143
0.95677918195724487 0.75177192687988281 0.26842406392097473
0.40932825207710266 0.91959446668624878 0.51176810264587402
0.46965077519416809 0.91967982053756714 0.52257740497589111
0.58448493480682373 0.91251063346862793 0.54037123918533325
0.73300653696060181 0.91723126173019409 0.53479677438735962
0.92245471477508545 0.9322243332862854 0.51884251832962036
0.14959585666656494 0.074521787464618683 0.53770577907562256
0.37087780237197876 0.055307619273662567 0.54764413833618164
0.65741473436355591 0.020258691161870956 0.57221835851669312
0.87091952562332153 0.0061552608385682106 0.55321758985519409
0.99469709396362305 0.24298077821731567 0.54970729351043701
0.058360349386930466 0.27095887064933777 0.54618841409683228
0.36344391107559204 0.30118274688720703 0.55439209938049316
0.65186792612075806 0.3211873471736908 0.57242417335510254
0.85518139600753784 0.32619372010231018 0.56213599443435669
0.99348849058151245 0.42470687627792358 0.57174956798553467
0.0074740988202393055 0.58241432905197144 0.5687682032585144
0.33639618754386902 0.58157157897949219 0.57361024618148804
0.62086933851242065 0.58718782663345337 0.57932257652282715
0.81482034921646118 0.59302067756652832 0.57215321063995361
0.97787117958068848 0.61131078004837036 0.57156467437744141
0.34450477361679077 0.77423733472824097 0.59149092435836792
0.45444929599761963 0.76543372869491577 0.59116721153259277
0.58215385675430298 0.7457461953163147 0.5702633261680603
0.7662661075592041 0.74685806035995483 0.55631089210510254
0.95896977186203003 0.74992114305496216 0.53732675313949585
0.47417134046554565 0.92829877138137817 0.63503128290176392
0.5134468674659729 0.92700517177581787 0.63641631603240967
0.60648822784423828 0.91976475715637207 0.6436954140663147
0.74456453323364258 0.92009550333023071 0.65141099691390991
0.93026387691497803 0.93447911739349365 0.63769435882568359
0.39449408650398254 0.12790341675281525 0.75700336694717407
0.5120241641998291 0.133837029337883 0.76249533891677856
0.69723343849182129 0.19380255043506622 0.7672690749168396
0.87018877267837524 0.27164414525032043 0.77664315700531006
0.99433892965316772 0.30470490455627441 0.74886173009872437
0.37558621168136597 0.322701096534729 0.75263494253158569
0.4914034903049469 0.33781924843788147 0.75392478704452515
0.68608939647674561 0.37450426816940308 0.7646450400352478
0.85378015041351318 0.43618723750114441 0.77236706018447876
0.98534178733825684 0.44733572006225586 0.75001472234725952
0.23612019419670105 0.52251577377319336 0.73710983991622925
0.40221473574638367 0.53428846597671509 0.74026286602020264
0.63510727882385254 0.57835793495178223 0.74940073490142822
0.82478290796279907 0.63030433654785156 0.76973313093185425
0.98126024007797241 0.62239664793014526 0.76071363687515259
0.34456565976142883 0.75997740030288696 0.75981426239013672
0.45311620831489563 0.76882308721542358 0.76278966665267944
0.62094259262084961 0.76915138959884644 0.76766830682754517
0.79542511701583862 0.7804100513458252 0.77142959833145142
0.96588516235351562 0.78398942947387695 0.77360063791275024
0.49058783054351807 0.94218772649765015 0.78338062763214111
0.55094152688980103 0.94233554601669312 0.78377336263656616
0.66491419076919556 0.93677735328674316 0.78917449712753296
0.7803540825843811 0.92881149053573608 0.78586739301681519
0.94639581441879272 0.93808269500732422 0.78162592649459839
0.61122924089431763 0.3793952465057373 0.93075329065322876
0.65737771987915039 0.3933766782283783 0.92755967378616333
0.7544330358505249 0.43736422061920166 0.92650908231735229
0.87835168838500977 0.51655423641204834 0.92817968130111694
0.9952356219291687 0.54438251256942749 0.9282524585723877
0.60315990447998047 0.486226886510849 0.92770826816558838
0.64671117067337036 0.49431103467941284 0.92386817932128906
0.74428892135620117 0.51850634813308716 0.92088603973388672
0.87130022048950195 0.5779152512550354 0.92529112100601196
0.99216848611831665 0.60507726669311523 0.92661607265472412
0.54227077960968018 0.60858368873596191 0.92089593410491943
0.60365515947341919 0.6151307225227356 0.92143040895462036
0.7214585542678833 0.64523231983184814 0.92099285125732422
0.85886359214782715 0.68214350938796997 0.92395907640457153
0.98593664169311523 0.70064133405685425 0.92888396978378296
0.46254625916481018 0.74604374170303345 0.91932940483093262
0.52169835567474365 0.74700510501861572 0.91753071546554565
0.63437861204147339 0.74684053659439087 0.91841280460357666
0.82439655065536499 0.78636562824249268 0.92680388689041138
0.98055994510650635 0.82326692342758179 0.93468743562698364
0.47908154129981995 0.94294083118438721 0.93622195720672607
0.53030520677566528 0.94399702548980713 0.93719941377639771
0.64674991369247437 0.94384652376174927 0.93938881158828735
0.79963761568069458 0.9448779821395874 0.93929660320281982
0.970947265625 0.95436692237854004 0.94203418493270874
