luts/negative_new/fuji_800z_+.cube
# Created by: G'MIC (https://gmic.eu)
TITLE "fuji_800z_+"
# LUT size
LUT_3D_SIZE 13
# Data domain
DOMAIN_MIN 0.0 0.0 0.0
DOMAIN_MAX 1.0 1.0 1.0
# LUT data points
0.14218223094940186 0.10888128727674484 0.090885251760482788
0.17452038824558258 0.10859949141740799 0.09138190746307373
0.2218736857175827 0.10899695754051208 0.091067850589752197
0.2891465425491333 0.10466518253087997 0.091469436883926392
0.36226147413253784 0.098297283053398132 0.088984124362468719
0.45006966590881348 0.081955090165138245 0.087339095771312714
0.54623705148696899 0.05650266632437706 0.083101324737071991
0.64907068014144897 0.029414337128400803 0.076818309724330902
0.74907958507537842 0.018517497926950455 0.067544989287853241
0.83369731903076172 0.019706336781382561 0.05695674940943718
0.91273146867752075 0.025407783687114716 0.043805066496133804
0.97346550226211548 0.06835608184337616 0.031106403097510338
0.99706482887268066 0.1301787793636322 0.02436402253806591
0.14856645464897156 0.14216709136962891 0.10047902166843414
0.16896723210811615 0.14253479242324829 0.096476368606090546
0.21585091948509216 0.14596354961395264 0.094647713005542755
0.28168019652366638 0.14571240544319153 0.091599434614181519
0.35960191488265991 0.14561654627323151 0.089783027768135071
0.44736737012863159 0.13982516527175903 0.084362044930458069
0.54165661334991455 0.12999080121517181 0.076382279396057129
0.64335310459136963 0.10653744637966156 0.069394879043102264
0.7446054220199585 0.099941954016685486 0.058307841420173645
0.83291846513748169 0.10502865165472031 0.04613162949681282
0.90807044506072998 0.11963193118572235 0.033071793615818024
0.97158545255661011 0.14903531968593597 0.020547619089484215
0.99901324510574341 0.18829779326915741 0.011970684863626957
0.15719185769557953 0.18716812133789062 0.1073361411690712
0.17251348495483398 0.18619756400585175 0.10276684910058975
0.20770324766635895 0.18834260106086731 0.098627157509326935
0.27528899908065796 0.20005269348621368 0.092497669160366058
0.35433545708656311 0.20477348566055298 0.087436363101005554
0.44371667504310608 0.20858374238014221 0.079076983034610748
0.53877133131027222 0.20809082686901093 0.065790943801403046
0.63687652349472046 0.19994033873081207 0.053015045821666718
0.7368963360786438 0.20228949189186096 0.040518186986446381
0.82690489292144775 0.20694679021835327 0.027595296502113342
0.89969462156295776 0.21661558747291565 0.018029829487204552
0.9643206000328064 0.23361554741859436 0.012589966878294945
0.99795418977737427 0.26130291819572449 0.0072709177620708942
0.15997637808322906 0.23433117568492889 0.11392877250909805
0.17924603819847107 0.23575751483440399 0.11209750920534134
0.20482020080089569 0.24086828529834747 0.10878802835941315
0.26240095496177673 0.25905570387840271 0.099622704088687897
0.34854957461357117 0.2847442626953125 0.083748340606689453
0.44006982445716858 0.29527929425239563 0.06976751983165741
0.53347837924957275 0.29430359601974487 0.04704742506146431
0.62885957956314087 0.29066139459609985 0.029007915407419205
0.72488200664520264 0.2955164909362793 0.020735422149300575
0.81398487091064453 0.29964134097099304 0.013597540557384491
0.8896368145942688 0.30660805106163025 0.0090887481346726418
0.95566940307617188 0.3185448944568634 0.0095399441197514534
0.99579077959060669 0.33589330315589905 0.005326499231159687
0.15847580134868622 0.29002922773361206 0.12312573939561844
0.17746733129024506 0.2933448851108551 0.12517477571964264
0.20381979644298553 0.29691681265830994 0.12398003786802292
0.24895653128623962 0.31327083706855774 0.1151437982916832
0.32499036192893982 0.34501314163208008 0.097005344927310944
0.42850664258003235 0.37971270084381104 0.058734729886054993
0.52764976024627686 0.38900560140609741 0.028228685259819031
0.62086302042007446 0.38632246851921082 0.010354045778512955
0.71200835704803467 0.38762828707695007 0.008966752327978611
0.80068403482437134 0.39032909274101257 0.0071337679401040077
0.87802630662918091 0.39310026168823242 0.0053861578926444054
0.94201457500457764 0.40266832709312439 0.0067582223564386368
0.98937886953353882 0.40886804461479187 0.0038800707552582026
0.15035635232925415 0.35834372043609619 0.13472996652126312
0.16917647421360016 0.35694175958633423 0.1365029364824295
0.1960064023733139 0.35158932209014893 0.13703666627407074
0.23942896723747253 0.36528962850570679 0.1319965273141861
0.30301386117935181 0.39462754130363464 0.12197047472000122
0.39996135234832764 0.43435829877853394 0.084678679704666138
0.51718777418136597 0.4756152331829071 0.023786716163158417
0.61873322725296021 0.48616799712181091 0.0063874339684844017
0.70724970102310181 0.48395949602127075 0.0062437769956886768
0.78815048933029175 0.48002985119819641 0.0081463232636451721
0.86180555820465088 0.47517839074134827 0.0078405942767858505
0.92916285991668701 0.4819081723690033 0.0078062019310891628
0.98156124353408813 0.48544421792030334 0.005801735445857048
0.14028486609458923 0.42650282382965088 0.14584547281265259
0.16026152670383453 0.424774169921875 0.14806811511516571
0.18860167264938354 0.41588801145553589 0.14801968634128571
0.2282874584197998 0.41771712899208069 0.14559526741504669
0.28549167513847351 0.44317334890365601 0.13917215168476105
0.3641078770160675 0.47660720348358154 0.11597951501607895
0.47213199734687805 0.51855289936065674 0.069645866751670837
0.60165607929229736 0.56060636043548584 0.018957594409584999
0.70667195320129395 0.57292312383651733 0.0042396248318254948
0.78363066911697388 0.56648927927017212 0.0059601129032671452
0.85429102182388306 0.55861526727676392 0.0073829502798616886
0.91812372207641602 0.55920499563217163 0.0064464942552149296
0.97538232803344727 0.56078195571899414 0.0042069526389241219
0.12902882695198059 0.49439314007759094 0.15976588428020477
0.15199179947376251 0.49398979544639587 0.1610303521156311
0.18257045745849609 0.48469868302345276 0.1606830507516861
0.21951670944690704 0.47531062364578247 0.15931600332260132
0.27162516117095947 0.49089744687080383 0.1546633392572403
0.35060682892799377 0.52336424589157104 0.1440022736787796
0.44544196128845215 0.55905485153198242 0.11843978613615036
0.55595588684082031 0.59528487920761108 0.072091825306415558
0.68295657634735107 0.63221865892410278 0.026756435632705688
0.78278100490570068 0.64740091562271118 0.0057157031260430813
0.85083252191543579 0.64045453071594238 0.0042336108162999153
0.91153669357299805 0.63798832893371582 0.004232743289321661
0.96819484233856201 0.63603001832962036 0.0028632369358092546
0.1342625617980957 0.562877357006073 0.17644737660884857
0.15127578377723694 0.56158417463302612 0.17525361478328705
0.18530115485191345 0.55419015884399414 0.17662125825881958
0.22540034353733063 0.54563868045806885 0.17732803523540497
0.27762198448181152 0.54908448457717896 0.17752975225448608
0.34967467188835144 0.57366657257080078 0.17126969993114471
0.43559721112251282 0.60369259119033813 0.15762682259082794
0.52850997447967529 0.63383954763412476 0.13426870107650757
0.64131349325180054 0.66432100534439087 0.10771366208791733
0.75548285245895386 0.69591981172561646 0.070293650031089783
0.8440975546836853 0.71283251047134399 0.041638631373643875
0.90696322917938232 0.71299600601196289 0.025607869029045105
0.96130657196044922 0.71040767431259155 0.013536685146391392
0.16678188741207123 0.63497847318649292 0.20325583219528198
0.18266026675701141 0.6334952712059021 0.20243377983570099
0.21454437077045441 0.62646442651748657 0.20344418287277222
0.24829955399036407 0.61988389492034912 0.20246519148349762
0.29499697685241699 0.61806297302246094 0.2031610906124115
0.35029685497283936 0.62601965665817261 0.20013983547687531
0.43014705181121826 0.65025234222412109 0.19507645070552826
0.52021235227584839 0.67508566379547119 0.1885218471288681
0.62267088890075684 0.70107203722000122 0.17862527072429657
0.71945035457611084 0.72689265012741089 0.17145630717277527
0.81688070297241211 0.75754421949386597 0.16050998866558075
0.89595109224319458 0.77647656202316284 0.14702451229095459
0.95577585697174072 0.78270494937896729 0.12965990602970123
0.24952115118503571 0.70713156461715698 0.26159757375717163
0.2575269341468811 0.70419037342071533 0.25568345189094543
0.27690604329109192 0.69922012090682983 0.25242218375205994
0.3038143515586853 0.69296061992645264 0.25060334801673889
0.33867809176445007 0.68606948852539062 0.24978078901767731
0.38059309124946594 0.68567824363708496 0.24738809466362
0.45056244730949402 0.70262664556503296 0.24838966131210327
0.53236097097396851 0.72427302598953247 0.25134167075157166
0.62202620506286621 0.74662470817565918 0.25519672036170959
0.70361429452896118 0.76863187551498413 0.25652310252189636
0.78855681419372559 0.79323995113372803 0.25857347249984741
0.86926829814910889 0.81846404075622559 0.26149830222129822
0.94320392608642578 0.84396809339523315 0.27006986737251282
0.36107242107391357 0.78268486261367798 0.34661242365837097
0.36936825513839722 0.78054183721542358 0.34517338871955872
0.38274732232093811 0.77739834785461426 0.34372535347938538
0.40142840147018433 0.77248507738113403 0.34188926219940186
0.42874905467033386 0.76592665910720825 0.34133177995681763
0.45927044749259949 0.76284849643707275 0.33862191438674927
0.51165187358856201 0.77162730693817139 0.34339958429336548
0.57585358619689941 0.7888140082359314 0.35085484385490417
0.64786660671234131 0.80746221542358398 0.36198005080223083
0.71682590246200562 0.82592922449111938 0.36991468071937561
0.78538650274276733 0.84463483095169067 0.37722575664520264
0.85389077663421631 0.86435294151306152 0.38304546475410461
0.91589117050170898 0.88242334127426147 0.38969865441322327
0.5124707818031311 0.86572086811065674 0.49173927307128906
0.51853328943252563 0.86425846815109253 0.49144113063812256
0.52817255258560181 0.8632851243019104 0.49143749475479126
0.54089659452438354 0.86125576496124268 0.4908348023891449
0.56105679273605347 0.85873210430145264 0.49273526668548584
0.5852547287940979 0.8552701473236084 0.49531999230384827
0.61632102727890015 0.85749083757400513 0.49854201078414917
0.65973073244094849 0.86751252412796021 0.50884509086608887
0.7070610523223877 0.88040143251419067 0.51668393611907959
0.75808167457580566 0.89468586444854736 0.52516579627990723
0.80859160423278809 0.90820693969726562 0.53321945667266846
0.85928225517272949 0.92050343751907349 0.5377422571182251
0.90958988666534424 0.93119138479232788 0.54307252168655396
0.14901500940322876 0.11252649128437042 0.12086090445518494
0.18380394577980042 0.11133313924074173 0.12330036610364914
0.22816503047943115 0.11093929409980774 0.12551127374172211
0.29560935497283936 0.10586372762918472 0.12642684578895569
0.37020885944366455 0.097264096140861511 0.12557566165924072
0.46000564098358154 0.081294149160385132 0.12483176589012146
0.55585253238677979 0.051974084228277206 0.12146402895450592
0.65680253505706787 0.024567203596234322 0.11616379767656326
0.75668346881866455 0.013699056580662727 0.10963287204504013
0.84036099910736084 0.016250057145953178 0.10193613171577454
0.91531026363372803 0.019663566723465919 0.094915710389614105
0.97214978933334351 0.053138300776481628 0.089075349271297455
0.9929429292678833 0.11684803664684296 0.087281517684459686
0.15126314759254456 0.14451438188552856 0.12672367691993713
0.18176572024822235 0.14860573410987854 0.13111366331577301
0.22392073273658752 0.15133456885814667 0.13180240988731384
0.28840714693069458 0.14848034083843231 0.13182027637958527
0.36854416131973267 0.14343205094337463 0.12837119400501251
0.45857572555541992 0.13707810640335083 0.12298567593097687
0.55399048328399658 0.11972357332706451 0.11778673529624939
0.65336006879806519 0.098557703197002411 0.11346244066953659
0.75210332870483398 0.088410593569278717 0.1052355170249939
0.8381769061088562 0.092031188309192657 0.09591616690158844
0.91180455684661865 0.10826098918914795 0.087326154112815857
0.97068911790847778 0.13767272233963013 0.078595973551273346
0.99561572074890137 0.18014833331108093 0.072684332728385925
0.1591075211763382 0.19497986137866974 0.13494755327701569
0.18193608522415161 0.1934589296579361 0.13425487279891968
0.21760793030261993 0.1943514347076416 0.13219229876995087
0.28461179137229919 0.20169726014137268 0.12992563843727112
0.36537900567054749 0.20676630735397339 0.12554873526096344
0.45206639170646667 0.20676851272583008 0.11623340845108032
0.54796218872070312 0.19798530638217926 0.10973954945802689
0.64608722925186157 0.19094941020011902 0.10145453363656998
0.74294459819793701 0.1915740966796875 0.091174975037574768
0.83033615350723267 0.19728761911392212 0.079897664487361908
0.90122932195663452 0.20615148544311523 0.071017652750015259
0.96415126323699951 0.22606323659420013 0.060892906039953232
0.99570935964584351 0.25707104802131653 0.052524328231811523
0.16624298691749573 0.24685667455196381 0.1403384804725647
0.18787428736686707 0.24680039286613464 0.13978138566017151
0.21569637954235077 0.24942633509635925 0.13835212588310242
0.27587783336639404 0.26393082737922668 0.13418874144554138
0.35872000455856323 0.28485167026519775 0.12171071022748947
0.44473984837532043 0.29023480415344238 0.1090562716126442
0.5399773120880127 0.28977575898170471 0.094608590006828308
0.63699978590011597 0.28618595004081726 0.079273462295532227
0.73099315166473389 0.28836712241172791 0.068060480058193207
0.81829965114593506 0.29434067010879517 0.052294354885816574
0.89173042774200439 0.30324277281761169 0.043091971427202225
0.95784872770309448 0.31738510727882385 0.03660939633846283
0.99743437767028809 0.33551719784736633 0.028505347669124603
0.16759705543518066 0.30664500594139099 0.14818856120109558
0.18778911232948303 0.30755650997161865 0.15003174543380737
0.21328854560852051 0.30642470717430115 0.14962659776210785
0.26151230931282043 0.32075098156929016 0.14410507678985596
0.33693194389343262 0.34998461604118347 0.12869846820831299
0.43417596817016602 0.38026696443557739 0.10482783615589142
0.53348076343536377 0.38812270760536194 0.080967456102371216
0.62720054388046265 0.38613680005073547 0.057930652052164078
0.71536839008331299 0.38594868779182434 0.042913727462291718
0.80212008953094482 0.38928496837615967 0.027343375608325005
0.8793182373046875 0.39338937401771545 0.017994705587625504
0.94572955369949341 0.40150624513626099 0.014036200940608978
0.99260044097900391 0.41209149360656738 0.012881933711469173
0.1595364511013031 0.3738311231136322 0.15771040320396423
0.17791762948036194 0.37307038903236389 0.15852373838424683
0.20599840581417084 0.36518576741218567 0.15934564173221588
0.24647378921508789 0.37172958254814148 0.15420952439308167
0.3070923388004303 0.39870730042457581 0.14318951964378357
0.40046954154968262 0.43543839454650879 0.12038632482290268
0.51888507604598999 0.47502526640892029 0.078591875731945038
0.62409108877182007 0.48668393492698669 0.040094863623380661
0.70932990312576294 0.48261076211929321 0.024445896968245506
0.78861922025680542 0.47693115472793579 0.013745506294071674
0.86397403478622437 0.47461295127868652 0.0095506105571985245
0.93246358633041382 0.48105987906455994 0.01123631838709116
0.98394179344177246 0.48642724752426147 0.012497591786086559
0.15072551369667053 0.44028839468955994 0.16822871565818787
0.17024810612201691 0.43825069069862366 0.16880902647972107
0.19966071844100952 0.42888352274894714 0.16933761537075043
0.23628634214401245 0.42501029372215271 0.16689698398113251
0.29012623429298401 0.44767534732818604 0.15906375646591187
0.37394163012504578 0.48120802640914917 0.14407786726951599
0.48027652502059937 0.52154332399368286 0.11278995871543884
0.60752218961715698 0.56200331449508667 0.062448181211948395
0.70801550149917603 0.57137399911880493 0.028655363246798515
0.78454267978668213 0.56382429599761963 0.013668867759406567
0.85479676723480225 0.55695879459381104 0.0079842060804367065
0.9190295934677124 0.55658257007598877 0.009565659798681736
0.97509509325027466 0.55999481678009033 0.0087420595809817314
0.14367763698101044 0.5047990083694458 0.18180681765079498
0.1647484302520752 0.50315964221954346 0.18171374499797821
0.19623972475528717 0.49443209171295166 0.18200545012950897
0.23435106873512268 0.48491275310516357 0.18076324462890625
0.28330731391906738 0.49746578931808472 0.17528560757637024
0.35131663084030151 0.52487450838088989 0.16591323912143707
0.45032662153244019 0.56159371137619019 0.14645436406135559
0.56131047010421753 0.59737730026245117 0.11901301890611649
0.68818122148513794 0.63366013765335083 0.079336337745189667
0.7839585542678833 0.64587211608886719 0.042786765843629837
0.85167229175567627 0.63937044143676758 0.020293755456805229
0.91229867935180664 0.63585937023162842 0.011173413135111332
0.9686579704284668 0.63433688879013062 0.0050665312446653843
0.15331228077411652 0.57203412055969238 0.1983514130115509
0.16912361979484558 0.57046645879745483 0.19664910435676575
0.20048199594020844 0.56308150291442871 0.19791358709335327
0.23908157646656036 0.55365866422653198 0.19730076193809509
0.28051477670669556 0.55142581462860107 0.19295969605445862
0.34472766518592834 0.57259303331375122 0.18792033195495605
0.43558862805366516 0.60470443964004517 0.18000486493110657
0.54244250059127808 0.63706964254379272 0.16460153460502625
0.65332597494125366 0.66761302947998047 0.14529761672019958
0.76026976108551025 0.69780224561691284 0.12812347710132599
0.84534555673599243 0.71195834875106812 0.10010078549385071
0.90803885459899902 0.71172350645065308 0.069571733474731445
0.96205818653106689 0.70968133211135864 0.045326832681894302
0.18281137943267822 0.64170145988464355 0.22270114719867706
0.19931630790233612 0.64063245058059692 0.22343924641609192
0.22457152605056763 0.633861243724823 0.22249649465084076
0.25994542241096497 0.62566757202148438 0.22282466292381287
0.30001866817474365 0.61905449628829956 0.22107954323291779
0.35307031869888306 0.62630182504653931 0.21799711883068085
0.4345269501209259 0.65175861120223999 0.21702267229557037
0.52569913864135742 0.67765510082244873 0.21198439598083496
0.62705153226852417 0.70369821786880493 0.20996934175491333
0.72194802761077881 0.72907853126525879 0.20473282039165497
0.81647193431854248 0.75809311866760254 0.19912101328372955
0.89725196361541748 0.77878457307815552 0.1909024566411972
0.95492690801620483 0.78272002935409546 0.17612914741039276
0.25590676069259644 0.71029055118560791 0.27244359254837036
0.26886206865310669 0.70817732810974121 0.27187070250511169
0.28678399324417114 0.70307677984237671 0.26931342482566833
0.31422975659370422 0.69572359323501587 0.26801872253417969
0.34883281588554382 0.68851202726364136 0.26750051975250244
0.3857937753200531 0.68757230043411255 0.26241609454154968
0.45451557636260986 0.70382857322692871 0.26608362793922424
0.53343492746353149 0.72493517398834229 0.27034211158752441
0.61862403154373169 0.74715584516525269 0.27372023463249207
0.70508593320846558 0.76984524726867676 0.27857556939125061
0.79284971952438354 0.79511743783950806 0.28539547324180603
0.87038004398345947 0.82060521841049194 0.28916913270950317
0.94199126958847046 0.84424775838851929 0.29958128929138184
0.3695426881313324 0.78445124626159668 0.36130556464195251
0.37823945283889771 0.78361755609512329 0.36056956648826599
0.38987630605697632 0.7800980806350708 0.3573574423789978
0.40758731961250305 0.77381837368011475 0.35479190945625305
0.43434160947799683 0.76817172765731812 0.35519006848335266
0.46491986513137817 0.76506763696670532 0.35362231731414795
0.51286613941192627 0.77121543884277344 0.35751983523368835
0.57725131511688232 0.78844743967056274 0.36406615376472473
0.64526736736297607 0.80585283041000366 0.37247771024703979
0.71891182661056519 0.82498085498809814 0.38700345158576965
0.789814293384552 0.8448064923286438 0.3957793116569519
0.85362350940704346 0.86413806676864624 0.40078872442245483
0.91603571176528931 0.88346606492996216 0.40926739573478699
0.51701521873474121 0.86686784029006958 0.50111848115921021
0.52281594276428223 0.86688005924224854 0.50057315826416016
0.53237777948379517 0.86534100770950317 0.50146740674972534
0.54520785808563232 0.86150294542312622 0.50078791379928589
0.5628960132598877 0.85870039463043213 0.50101178884506226
0.58762478828430176 0.85678589344024658 0.50378608703613281
0.61755567789077759 0.85733217000961304 0.50785762071609497
0.66038769483566284 0.86778825521469116 0.51563650369644165
0.70758098363876343 0.8795657753944397 0.52255815267562866
0.76055586338043213 0.89418500661849976 0.53642922639846802
0.81046891212463379 0.90724915266036987 0.54388236999511719
0.85880410671234131 0.91933786869049072 0.54634654521942139
0.90863293409347534 0.93063396215438843 0.55090808868408203
0.15957184135913849 0.11615925282239914 0.16391450166702271
0.18950015306472778 0.11821258813142776 0.16680903732776642
0.23083546757698059 0.11680871993303299 0.16935643553733826
0.29644683003425598 0.10833992809057236 0.17043161392211914
0.38574808835983276 0.090519927442073822 0.1747044175863266
0.4799426794052124 0.062914587557315826 0.17970162630081177
0.57577669620513916 0.025576513260602951 0.17508360743522644
0.6736559271812439 0.011748384684324265 0.17376773059368134
0.76862305402755737 0.013014446012675762 0.17292338609695435
0.85045027732849121 0.0099713345989584923 0.16618677973747253
0.92187273502349854 0.0088743027299642563 0.1608576774597168
0.97880458831787109 0.034469291567802429 0.15778130292892456
0.99671649932861328 0.099814638495445251 0.15750907361507416
0.16154575347900391 0.14740288257598877 0.16796573996543884
0.19153696298599243 0.15355300903320312 0.17302282154560089
0.23307998478412628 0.15398833155632019 0.17479497194290161
0.29462513327598572 0.15158075094223022 0.17411760985851288
0.37909185886383057 0.1403784304857254 0.17419324815273285
0.47451972961425781 0.12322913110256195 0.17485463619232178
0.57317990064620972 0.095626845955848694 0.17333932220935822
0.6721004843711853 0.075814403593540192 0.1712297797203064
0.76651203632354736 0.060735620558261871 0.1676904559135437
0.8471716046333313 0.062589891254901886 0.1622283011674881
0.91743212938308716 0.081723608076572418 0.15616323053836823
0.97714692354202271 0.12255896627902985 0.15144391357898712
0.99696749448776245 0.16889296472072601 0.15027058124542236
0.16328872740268707 0.20012073218822479 0.17213945090770721
0.18885539472103119 0.19842544198036194 0.17661477625370026
0.23147125542163849 0.20101523399353027 0.17692860960960388
0.29491552710533142 0.20724417269229889 0.17398571968078613
0.37299877405166626 0.20679871737957001 0.17235074937343597
0.46633875370025635 0.20163729786872864 0.17143361270427704
0.56529635190963745 0.18960610032081604 0.16997186839580536
0.66097545623779297 0.18103876709938049 0.16542263329029083
0.7554665207862854 0.18169878423213959 0.15964066982269287
0.83965790271759033 0.18752586841583252 0.1527184396982193
0.90823698043823242 0.1957031637430191 0.14698883891105652
0.96857589483261108 0.21910986304283142 0.14224575459957123
0.9932062029838562 0.25122961401939392 0.13960371911525726
0.16794659197330475 0.26302716135978699 0.18097357451915741
0.19507737457752228 0.26209071278572083 0.18504339456558228
0.23114380240440369 0.26215329766273499 0.18436089158058167
0.28930753469467163 0.26873487234115601 0.17889398336410522
0.36897322535514832 0.28597596287727356 0.17262625694274902
0.45944899320602417 0.29059097170829773 0.16813938319683075
0.55347168445587158 0.28443887829780579 0.16069206595420837
0.6482236385345459 0.281858891248703 0.15336264669895172
0.74046808481216431 0.28535434603691101 0.14489220082759857
0.82594138383865356 0.29167467355728149 0.13378232717514038
0.89817804098129272 0.30167031288146973 0.12937520444393158
0.96257251501083374 0.31506562232971191 0.12768431007862091
0.99422764778137207 0.33212989568710327 0.12484116107225418
0.17227891087532043 0.3304724395275116 0.19468578696250916
0.19849327206611633 0.33175328373908997 0.1941857635974884
0.22967316210269928 0.32652881741523743 0.19209982454776764
0.27703696489334106 0.33039218187332153 0.1875135600566864
0.35352721810340881 0.35703852772712708 0.18055061995983124
0.44729506969451904 0.38140216469764709 0.16635939478874207
