luts/negative_new/fuji_400h.cube
# Created by: G'MIC (https://gmic.eu)
TITLE "fuji_400h"
# LUT size
LUT_3D_SIZE 7
# Data domain
DOMAIN_MIN 0.0 0.0 0.0
DOMAIN_MAX 1.0 1.0 1.0
# LUT data points
0.038024287670850754 0.045300919562578201 0.032425958663225174
0.15671278536319733 0.044624552130699158 0.031375989317893982
0.3605925440788269 0.020505419000983238 0.026725020259618759
0.60365360975265503 0.0092817572876811028 0.01519012451171875
0.79576641321182251 0.0086829988285899162 0.0075347451493144035
0.93172979354858398 0.071126796305179596 0.0035917693749070168
0.99937868118286133 0.21679557859897614 0.0018988515948876739
0.0094281211495399475 0.15809054672718048 0.036224022507667542
0.13240952789783478 0.16766843199729919 0.026342578232288361
0.36281272768974304 0.17132657766342163 0.01313286554068327
0.60402989387512207 0.15505662560462952 0.0083951316773891449
0.78879272937774658 0.17480865120887756 0.004145005252212286
0.91915816068649292 0.23363578319549561 0.0037482318002730608
0.99662166833877563 0.30972909927368164 0.0021748263388872147
0.00089106842642650008 0.34148046374320984 0.013584990054368973
0.03945382684469223 0.33853256702423096 0.015741504728794098
0.3207891583442688 0.35495507717132568 0.0045153000392019749
0.58077114820480347 0.37050697207450867 0.0078804763033986092
0.76397836208343506 0.38577425479888916 0.0042757671326398849
0.90133500099182129 0.40667781233787537 0.0041173598729074001
0.99140208959579468 0.43908071517944336 0.003942572046071291
0 0.52660679817199707 0.01030883751809597
0.0034232644829899073 0.52010029554367065 0.016793882474303246
0.25989389419555664 0.52048403024673462 0.012744918465614319
0.525054931640625 0.53324753046035767 0.0077935014851391315
0.7195054292678833 0.55239242315292358 0.0067560235038399696
0.86710262298583984 0.55945593118667603 0.0039355708286166191
0.98148530721664429 0.56556814908981323 0.0036277321632951498
0.00074269913602620363 0.66987156867980957 0.073401942849159241
0.0082011502236127853 0.66833269596099854 0.094412766396999359
0.26747515797615051 0.65828436613082886 0.098918318748474121
0.49897921085357666 0.66228240728378296 0.062678501009941101
0.67808729410171509 0.67228221893310547 0.014435098506510258
0.83214306831359863 0.68576085567474365 0.0029678195714950562
0.96725839376449585 0.68992084264755249 0.00025287704193033278
0.092287532985210419 0.7940484881401062 0.23836351931095123
0.20841088891029358 0.79015052318572998 0.24483457207679749
0.35648608207702637 0.78360533714294434 0.2606188952922821
0.51130455732345581 0.78230798244476318 0.25826403498649597
0.65870851278305054 0.78698891401290894 0.22843761742115021
0.79775315523147583 0.79519718885421753 0.17255094647407532
0.94559264183044434 0.81134587526321411 0.13590072095394135
0.38460111618041992 0.91960781812667847 0.45302873849868774
0.42056334018707275 0.91755735874176025 0.45726221799850464
0.48689591884613037 0.91378617286682129 0.46941289305686951
0.57606405019760132 0.91175365447998047 0.4850195050239563
0.67518621683120728 0.91720867156982422 0.48123174905776978
0.79206079244613647 0.92341142892837524 0.46741601824760437
0.92156797647476196 0.93122649192810059 0.44293442368507385
0.059453509747982025 0.052550461143255234 0.14341667294502258
0.17134787142276764 0.051803946495056152 0.1491398811340332
0.3778516948223114 0.011592386290431023 0.15412767231464386
0.62300103902816772 0.0044885524548590183 0.16179120540618896
0.8083309531211853 0.0063967537134885788 0.16813324391841888
0.93101280927658081 0.1129809245467186 0.17551323771476746
0.99784600734710693 0.24554157257080078 0.18538981676101685
0.016541395336389542 0.17736212909221649 0.15395596623420715
0.16958940029144287 0.18328297138214111 0.16156408190727234
0.3873380720615387 0.1783725917339325 0.15373590588569641
0.62291222810745239 0.16618871688842773 0.15454941987991333
0.79747062921524048 0.19184321165084839 0.14927607774734497
0.91889041662216187 0.26155245304107666 0.14722870290279388
0.99775946140289307 0.32373163104057312 0.16764576733112335
0.0039247251115739346 0.37256497144699097 0.16387738287448883
0.10445178300142288 0.36895659565925598 0.16808091104030609
0.36134564876556396 0.3741723895072937 0.14555373787879944
0.5985414981842041 0.38012757897377014 0.10183288156986237
0.77505862712860107 0.38406369090080261 0.078690685331821442
0.90311866998672485 0.41053250432014465 0.090492039918899536
0.99509674310684204 0.44200891256332397 0.1176561713218689
0.001347081852145493 0.5510595440864563 0.17168240249156952
0.024636406451463699 0.54099047183990479 0.17687903344631195
0.30477502942085266 0.5338972806930542 0.1743694543838501
0.54481953382492065 0.54225915670394897 0.12860621511936188
0.732494056224823 0.55523407459259033 0.064897961914539337
0.87364047765731812 0.55595678091049194 0.031709767878055573
0.98631203174591064 0.56380438804626465 0.036638792604207993
0.002771908650174737 0.68133342266082764 0.21825829148292542
0.061595886945724487 0.67685467004776001 0.22149232029914856
0.31002557277679443 0.66425865888595581 0.23416590690612793
0.51175510883331299 0.66770303249359131 0.21018651127815247
0.68854260444641113 0.67559069395065308 0.16782447695732117
0.83945906162261963 0.69004529714584351 0.11810338497161865
0.96978044509887695 0.68962055444717407 0.070745326578617096
0.16705676913261414 0.79815590381622314 0.3139553964138031
0.25038579106330872 0.79343259334564209 0.31964591145515442
0.37946456670761108 0.78589355945587158 0.33219373226165771
0.5176931619644165 0.78325569629669189 0.33189815282821655
0.66569268703460693 0.78963661193847656 0.31388941407203674
0.80167543888092041 0.80078715085983276 0.27349326014518738
0.9455493688583374 0.81068128347396851 0.2579653263092041
0.39942267537117004 0.91966670751571655 0.48354512453079224
0.42999342083930969 0.91722685098648071 0.48730984330177307
0.4954659640789032 0.9151005744934082 0.50220024585723877
0.57894599437713623 0.9136359691619873 0.51782429218292236
0.67695343494415283 0.91370463371276855 0.50856959819793701
0.79190468788146973 0.92422580718994141 0.50161290168762207
0.91937255859375 0.92949020862579346 0.48093309998512268
0.074064381420612335 0.065215736627578735 0.33481210470199585
0.21490666270256042 0.057377506047487259 0.34339684247970581
0.40601652860641479 0.019173925742506981 0.35438171029090881
0.62941944599151611 0.0044092065654695034 0.35641881823539734
0.81332319974899292 0.0020010257139801979 0.35775431990623474
0.93913108110427856 0.072723433375358582 0.36722403764724731
0.99890601634979248 0.28390473127365112 0.40403717756271362
0.020269939675927162 0.17916592955589294 0.3458726704120636
0.20533992350101471 0.19386970996856689 0.35750868916511536
0.42562934756278992 0.1941664069890976 0.36799094080924988
0.64324098825454712 0.14798052608966827 0.36663782596588135
0.81007391214370728 0.1763206422328949 0.3724113404750824
0.92151051759719849 0.27825114130973816 0.38922879099845886
0.9956134557723999 0.3730006217956543 0.41376939415931702
0.0020619111601263285 0.39318662881851196 0.37551981210708618
0.13993792235851288 0.39526742696762085 0.37652274966239929
0.4171348512172699 0.40097332000732422 0.37926372885704041
0.6276705265045166 0.40084165334701538 0.3757055401802063
0.78175300359725952 0.41640698909759521 0.37486308813095093
0.89972060918807983 0.44053816795349121 0.37608617544174194
0.99395900964736938 0.47011223435401917 0.39116695523262024
0.014322423376142979 0.58575910329818726 0.39671000838279724
0.20694416761398315 0.58107060194015503 0.39779537916183472
0.40339529514312744 0.56605267524719238 0.39308425784111023
0.58343905210494995 0.55477935075759888 0.36845895648002625
0.74530011415481567 0.56134271621704102 0.34949317574501038
0.87723463773727417 0.5642242431640625 0.32666862010955811
0.97824174165725708 0.57599037885665894 0.34348160028457642
0.16746088862419128 0.70306950807571411 0.41234502196311951
0.25656247138977051 0.69843322038650513 0.40474608540534973
0.40104523301124573 0.68364822864532471 0.40755423903465271
0.5464293360710144 0.6742546558380127 0.39097654819488525
0.70386999845504761 0.68623632192611694 0.37742632627487183
0.84288781881332397 0.68942618370056152 0.35334402322769165
0.96798336505889893 0.6884346604347229 0.32834514975547791
0.27066004276275635 0.80700057744979858 0.44240346550941467
0.32663023471832275 0.80306637287139893 0.44599416851997375
0.42936974763870239 0.79292970895767212 0.44759497046470642
0.53972649574279785 0.78743022680282593 0.44696277379989624
0.66351979970932007 0.79101771116256714 0.44129693508148193
0.8031240701675415 0.80159831047058105 0.43029844760894775
0.94481974840164185 0.81182199716567993 0.41384986042976379
0.42164254188537598 0.92066866159439087 0.5447838306427002
0.45406344532966614 0.92123430967330933 0.55092024803161621
0.51113283634185791 0.91778528690338135 0.55665367841720581
0.59075617790222168 0.91416645050048828 0.57549023628234863
0.68418723344802856 0.91531604528427124 0.57861727476119995
0.79482638835906982 0.92328536510467529 0.56709486246109009
0.92398196458816528 0.93221014738082886 0.55411624908447266
0.14959585666656494 0.074521787464618683 0.53770577907562256
0.28006687760353088 0.068043693900108337 0.54113960266113281
0.46958756446838379 0.04452432319521904 0.55387306213378906
0.65741473436355591 0.020258691161870956 0.57221835851669312
0.79989290237426758 0.0056455424055457115 0.55952411890029907
0.9352489709854126 0.032731238752603531 0.54912483692169189
0.99469709396362305 0.24298077821731567 0.54970729351043701
0.13446731865406036 0.20173268020153046 0.54325979948043823
0.27419373393058777 0.20880857110023499 0.54321163892745972
0.47273567318916321 0.21897126734256744 0.55475467443466187
0.655861496925354 0.21736693382263184 0.56952077150344849
0.80186241865158081 0.1968330442905426 0.56306570768356323
0.92156600952148438 0.24808295071125031 0.55691123008728027
0.99456846714019775 0.35405257344245911 0.56229245662689209
0.010241714306175709 0.3633328378200531 0.54560810327529907
0.21408943831920624 0.37229472398757935 0.55283480882644653
0.45494347810745239 0.4010942280292511 0.56474858522415161
0.64329952001571655 0.42227980494499207 0.57619333267211914
0.78392583131790161 0.42757567763328552 0.56957769393920898
0.89862853288650513 0.45096522569656372 0.57300752401351929
0.98947626352310181 0.49919334053993225 0.58411699533462524
0.0074740988202393055 0.58241432905197144 0.5687682032585144
0.21152335405349731 0.58045321702957153 0.57211822271347046
0.44338762760162354 0.58220404386520386 0.57358014583587646
0.62086933851242065 0.58718782663345337 0.57932257652282715
0.75586307048797607 0.58838570117950439 0.57518106698989868
0.87404268980026245 0.59824627637863159 0.57201254367828369
0.97787117958068848 0.61131078004837036 0.57156467437744141
0.25346246361732483 0.72897076606750488 0.58369386196136475
0.34133291244506836 0.72010535001754761 0.58590996265411377
0.48898112773895264 0.71304142475128174 0.58781760931015015
0.59545719623565674 0.69711166620254517 0.5697130560874939
0.72238630056381226 0.69502145051956177 0.55498450994491577
0.85015928745269775 0.69468766450881958 0.53795462846755981
0.96987885236740112 0.69530957937240601 0.52919477224349976
0.40839624404907227 0.82004362344741821 0.60117477178573608
0.44507685303688049 0.81811380386352539 0.59845066070556641
0.49948859214782715 0.81109833717346191 0.58772236108779907
0.5785406231880188 0.80020707845687866 0.58132672309875488
0.68105423450469971 0.79478758573532104 0.57772225141525269
0.8069148063659668 0.80253589153289795 0.56828016042709351
0.94581913948059082 0.81205230951309204 0.55910003185272217
0.47417134046554565 0.92829877138137817 0.63503128290176392
0.49444863200187683 0.92718231678009033 0.63599544763565063
0.53528743982315063 0.92363935708999634 0.63402652740478516
0.60648822784423828 0.91976475715637207 0.6436954140663147
0.69445914030075073 0.91863524913787842 0.6507868766784668
0.80031657218933105 0.92328864336013794 0.64670157432556152
0.93026387691497803 0.93447911739349365 0.63769435882568359
0.31011766195297241 0.098035953938961029 0.69254517555236816
0.39304882287979126 0.099304214119911194 0.69461566209793091
0.53988426923751831 0.097880132496356964 0.70088404417037964
0.68502795696258545 0.14417827129364014 0.71096247434616089
0.81312936544418335 0.17605672776699066 0.72023731470108032
0.91719573736190796 0.18655292689800262 0.70498472452163696
0.99542218446731567 0.24543556571006775 0.686836838722229
0.3065083920955658 0.2268320769071579 0.69026124477386475
0.39126098155975342 0.23055669665336609 0.69511526823043823
0.53335303068161011 0.24201829731464386 0.70146059989929199
0.68067699670791626 0.27555391192436218 0.71032905578613281
0.8061177134513855 0.30829024314880371 0.71728408336639404
0.91484725475311279 0.31645965576171875 0.70427322387695312
0.99251317977905273 0.35023808479309082 0.68768829107284546
0.23111905157566071 0.36815562844276428 0.68838798999786377
0.35434570908546448 0.38686731457710266 0.69225019216537476
0.50221103429794312 0.40630075335502625 0.69441616535186768
0.66207373142242432 0.43833792209625244 0.70276772975921631
0.78720098733901978 0.47130277752876282 0.70997393131256104
0.89108967781066895 0.46898618340492249 0.70252853631973267
0.9906114935874939 0.48859670758247375 0.6952330470085144
0.16465601325035095 0.53649717569351196 0.68472534418106079
0.29170867800712585 0.53779309988021851 0.68532812595367432
0.45632448792457581 0.5505480170249939 0.68696010112762451
0.62585663795471191 0.57692074775695801 0.69856160879135132
0.76050186157226562 0.6108965277671814 0.71414494514465332
0.87742239236831665 0.61382776498794556 0.70919424295425415
0.9792061448097229 0.62381702661514282 0.70955812931060791
0.26966157555580139 0.70871460437774658 0.70429390668869019
0.35819905996322632 0.70598894357681274 0.7040327787399292
0.48970359563827515 0.71059393882751465 0.70617032051086426
0.61921119689941406 0.71800249814987183 0.7103840708732605
0.74260222911834717 0.72120052576065063 0.71272033452987671
0.85717064142227173 0.72178435325622559 0.70838785171508789
0.96691733598709106 0.72819072008132935 0.71006274223327637
0.39714565873146057 0.83203154802322388 0.71554774045944214
0.45044291019439697 0.83623051643371582 0.71863758563995361
0.53331464529037476 0.83199453353881836 0.71979629993438721
0.63305622339248657 0.82461875677108765 0.719005286693573
0.71330839395523071 0.81731885671615601 0.71322846412658691
0.82525491714477539 0.81158602237701416 0.7038460373878479
0.95312374830245972 0.81368124485015869 0.69088619947433472
0.50525075197219849 0.93584257364273071 0.74166601896286011
0.53210973739624023 0.93660455942153931 0.73745757341384888
0.58776193857192993 0.93576532602310181 0.74006718397140503
0.6475522518157959 0.92920887470245361 0.73355680704116821
0.71780991554260254 0.92469781637191772 0.73395633697509766
0.81562358140945435 0.92272651195526123 0.73315560817718506
0.94049668312072754 0.93692618608474731 0.7297092080116272
0.47420647740364075 0.18084836006164551 0.81758755445480347
0.52491015195846558 0.18735609948635101 0.81812763214111328
0.61324965953826904 0.21350391209125519 0.8184051513671875
0.71619755029678345 0.25683295726776123 0.822762131690979
0.81880348920822144 0.33266347646713257 0.82828652858734131
0.92004907131195068 0.35926327109336853 0.82552617788314819
0.99669557809829712 0.36842635273933411 0.81653678417205811
0.47105106711387634 0.28679236769676208 0.81629061698913574
0.5216870903968811 0.29193103313446045 0.81700736284255981
0.60656791925430298 0.30979740619659424 0.81948637962341309
0.7098541259765625 0.34690544009208679 0.82273805141448975
0.81467503309249878 0.41038385033607483 0.82775235176086426
0.91153353452682495 0.42942479252815247 0.82567673921585083
0.99131876230239868 0.43335461616516113 0.81580168008804321
0.43977725505828857 0.4198443591594696 0.80971145629882812
0.48854354023933411 0.42729440331459045 0.80887305736541748
0.57860010862350464 0.44505193829536438 0.81103247404098511
0.6942259669303894 0.47422310709953308 0.8148685097694397
0.79783147573471069 0.52221769094467163 0.82244235277175903
0.89716440439224243 0.53400784730911255 0.82493335008621216
0.98016458749771118 0.53886675834655762 0.8171038031578064
0.32048436999320984 0.52633345127105713 0.79500442743301392
0.3992936909198761 0.53252929449081421 0.79921936988830566
0.53025543689727783 0.55982911586761475 0.80008864402770996
0.65094190835952759 0.58951079845428467 0.80483770370483398
0.76867175102233887 0.62685632705688477 0.81687396764755249
0.88031786680221558 0.64139443635940552 0.82059288024902344
0.97667330503463745 0.63822704553604126 0.81557148694992065
0.33457112312316895 0.67108380794525146 0.79749339818954468
0.3890516459941864 0.67355161905288696 0.80038821697235107
0.48906272649765015 0.67271333932876587 0.79909509420394897
0.60280990600585938 0.68250864744186401 0.80223250389099121
0.73607045412063599 0.7145809531211853 0.81066215038299561
0.86684620380401611 0.74155920743942261 0.82354515790939331
0.97535079717636108 0.74082928895950317 0.82424712181091309
0.39817696809768677 0.81932491064071655 0.81710505485534668
0.44705578684806824 0.82383042573928833 0.81490236520767212
0.52894741296768188 0.82142156362533569 0.82098495960235596
0.62658232450485229 0.82224386930465698 0.82233667373657227
0.73706382513046265 0.8282209038734436 0.82529670000076294
0.85398572683334351 0.83609837293624878 0.82852280139923096
0.96684962511062622 0.83988338708877563 0.82989847660064697
0.47977328300476074 0.94800633192062378 0.82913559675216675
0.50865232944488525 0.95042157173156738 0.83055347204208374
0.57091444730758667 0.94826614856719971 0.83437705039978027
0.65847063064575195 0.94235146045684814 0.83611935377120972
0.75511759519577026 0.94171833992004395 0.84013640880584717
0.83842170238494873 0.93483096361160278 0.83211028575897217
0.95414090156555176 0.94000613689422607 0.83033770322799683
0.61122924089431763 0.3793952465057373 0.93075329065322876
0.63633209466934204 0.39128881692886353 0.92906647920608521
0.68630897998809814 0.4053485095500946 0.92772924900054932
0.7544330358505249 0.43736422061920166 0.92650908231735229
0.83510291576385498 0.4888211190700531 0.92870920896530151
0.92282748222351074 0.53911423683166504 0.92624497413635254
0.9952356219291687 0.54438251256942749 0.9282524585723877
0.60758358240127563 0.44191348552703857 0.92819869518280029
0.63160544633865356 0.4479140043258667 0.92960226535797119
0.68194806575775146 0.46066462993621826 0.92589300870895386
0.7480127215385437 0.47766754031181335 0.92077982425689697
0.83000057935714722 0.52498120069503784 0.92638945579528809
0.91932523250579834 0.56728744506835938 0.92522209882736206
0.9940030574798584 0.57548868656158447 0.92785316705703735
0.59083843231201172 0.52815049886703491 0.92348426580429077
0.61586195230484009 0.53353875875473022 0.92127805948257446
0.6710580587387085 0.54397732019424438 0.92461669445037842
0.73932540416717529 0.56063276529312134 0.92187875509262085
0.82222998142242432 0.59291332960128784 0.92326736450195312
0.91393035650253296 0.62630695104598999 0.92333000898361206
0.99017274379730225 0.63459146022796631 0.92917877435684204
0.54227077960968018 0.60858368873596191 0.92089593410491943
0.57457780838012695 0.61082381010055542 0.92133963108062744
0.64051550626754761 0.62595701217651367 0.9208177924156189
0.7214585542678833 0.64523231983184814 0.92099285125732422
0.81031709909439087 0.66805702447891235 0.9224584698677063
0.90414988994598389 0.69305473566055298 0.92323464155197144
0.98593664169311523 0.70064133405685425 0.92888396978378296
0.46297714114189148 0.68576341867446899 0.91819578409194946
0.49481222033500671 0.68634980916976929 0.91725724935531616
0.5647892951965332 0.6908835768699646 0.9171745777130127
0.66742616891860962 0.71152359247207642 0.91877788305282593
0.78208321332931519 0.73936742544174194 0.92341011762619019
0.89391285181045532 0.7627023458480835 0.92784130573272705
0.98237431049346924 0.77980554103851318 0.92978125810623169
0.46971344947814941 0.81083345413208008 0.92400890588760376
0.49905848503112793 0.81169724464416504 0.92636203765869141
0.55439883470535278 0.80942106246948242 0.92654907703399658
0.63077515363693237 0.80704408884048462 0.9234277606010437
0.73394763469696045 0.81033682823181152 0.92461425065994263
0.867087721824646 0.83741909265518188 0.93146753311157227
0.97841030359268188 0.86127448081970215 0.93595981597900391
0.47908154129981995 0.94294083118438721 0.93622195720672607
0.50651967525482178 0.94415885210037231 0.93636876344680786
0.56209558248519897 0.94344490766525269 0.93889886140823364
0.64674991369247437 0.94384652376174927 0.93938881158828735
0.74632686376571655 0.94401413202285767 0.93888336420059204
0.85450541973114014 0.94563645124435425 0.94109785556793213
0.970947265625 0.95436692237854004 0.94203418493270874
