luts/negative_new/fuji_800z_+.cube
# Created by: G'MIC (https://gmic.eu)
TITLE "fuji_800z_+"
# LUT size
LUT_3D_SIZE 7
# Data domain
DOMAIN_MIN 0.0 0.0 0.0
DOMAIN_MAX 1.0 1.0 1.0
# LUT data points
0.14218223094940186 0.10888128727674484 0.090885251760482788
0.2218736857175827 0.10899695754051208 0.091067850589752197
0.36226147413253784 0.098297283053398132 0.088984124362468719
0.54623705148696899 0.05650266632437706 0.083101324737071991
0.74907958507537842 0.018517497926950455 0.067544989287853241
0.91273146867752075 0.025407783687114716 0.043805066496133804
0.99706482887268066 0.1301787793636322 0.02436402253806591
0.15719185769557953 0.18716812133789062 0.1073361411690712
0.20770324766635895 0.18834260106086731 0.098627157509326935
0.35433545708656311 0.20477348566055298 0.087436363101005554
0.53877133131027222 0.20809082686901093 0.065790943801403046
0.7368963360786438 0.20228949189186096 0.040518186986446381
0.89969462156295776 0.21661558747291565 0.018029829487204552
0.99795418977737427 0.26130291819572449 0.0072709177620708942
0.15847580134868622 0.29002922773361206 0.12312573939561844
0.20381979644298553 0.29691681265830994 0.12398003786802292
0.32499036192893982 0.34501314163208008 0.097005344927310944
0.52764976024627686 0.38900560140609741 0.028228685259819031
0.71200835704803467 0.38762828707695007 0.008966752327978611
0.87802630662918091 0.39310026168823242 0.0053861578926444054
0.98937886953353882 0.40886804461479187 0.0038800707552582026
0.14028486609458923 0.42650282382965088 0.14584547281265259
0.18860167264938354 0.41588801145553589 0.14801968634128571
0.28549167513847351 0.44317334890365601 0.13917215168476105
0.47213199734687805 0.51855289936065674 0.069645866751670837
0.70667195320129395 0.57292312383651733 0.0042396248318254948
0.85429102182388306 0.55861526727676392 0.0073829502798616886
0.97538232803344727 0.56078195571899414 0.0042069526389241219
0.1342625617980957 0.562877357006073 0.17644737660884857
0.18530115485191345 0.55419015884399414 0.17662125825881958
0.27762198448181152 0.54908448457717896 0.17752975225448608
0.43559721112251282 0.60369259119033813 0.15762682259082794
0.64131349325180054 0.66432100534439087 0.10771366208791733
0.8440975546836853 0.71283251047134399 0.041638631373643875
0.96130657196044922 0.71040767431259155 0.013536685146391392
0.24952115118503571 0.70713156461715698 0.26159757375717163
0.27690604329109192 0.69922012090682983 0.25242218375205994
0.33867809176445007 0.68606948852539062 0.24978078901767731
0.45056244730949402 0.70262664556503296 0.24838966131210327
0.62202620506286621 0.74662470817565918 0.25519672036170959
0.78855681419372559 0.79323995113372803 0.25857347249984741
0.94320392608642578 0.84396809339523315 0.27006986737251282
0.5124707818031311 0.86572086811065674 0.49173927307128906
0.52817255258560181 0.8632851243019104 0.49143749475479126
0.56105679273605347 0.85873210430145264 0.49273526668548584
0.61632102727890015 0.85749083757400513 0.49854201078414917
0.7070610523223877 0.88040143251419067 0.51668393611907959
0.80859160423278809 0.90820693969726562 0.53321945667266846
0.90958988666534424 0.93119138479232788 0.54307252168655396
0.15957184135913849 0.11615925282239914 0.16391450166702271
0.23083546757698059 0.11680871993303299 0.16935643553733826
0.38574808835983276 0.090519927442073822 0.1747044175863266
0.57577669620513916 0.025576513260602951 0.17508360743522644
0.76862305402755737 0.013014446012675762 0.17292338609695435
0.92187273502349854 0.0088743027299642563 0.1608576774597168
0.99671649932861328 0.099814638495445251 0.15750907361507416
0.16328872740268707 0.20012073218822479 0.17213945090770721
0.23147125542163849 0.20101523399353027 0.17692860960960388
0.37299877405166626 0.20679871737957001 0.17235074937343597
0.56529635190963745 0.18960610032081604 0.16997186839580536
0.7554665207862854 0.18169878423213959 0.15964066982269287
0.90823698043823242 0.1957031637430191 0.14698883891105652
0.9932062029838562 0.25122961401939392 0.13960371911525726
0.17227891087532043 0.3304724395275116 0.19468578696250916
0.22967316210269928 0.32652881741523743 0.19209982454776764
0.35352721810340881 0.35703852772712708 0.18055061995983124
0.5427895188331604 0.38438236713409424 0.15254305303096771
0.72292780876159668 0.38323387503623962 0.12546001374721527
0.88407480716705322 0.39272952079772949 0.10087616741657257
0.99345260858535767 0.41038411855697632 0.1005479097366333
0.16931363940238953 0.46410563588142395 0.20886580646038055
0.22066964209079742 0.45318838953971863 0.20925770699977875
0.30800873041152954 0.45726943016052246 0.20163159072399139
0.49195051193237305 0.52744489908218384 0.1765553206205368
0.70969563722610474 0.56889170408248901 0.12100979685783386
0.85528552532196045 0.55554509162902832 0.066685713827610016
0.97713637351989746 0.55819141864776611 0.051187120378017426
0.18105556070804596 0.58970886468887329 0.2353726327419281
0.22136950492858887 0.57940220832824707 0.2308080792427063
0.29800376296043396 0.5606876015663147 0.22720088064670563
0.44341889023780823 0.60799586772918701 0.22113518416881561
0.65707129240036011 0.66987371444702148 0.20716281235218048
0.84689199924468994 0.71149647235870361 0.1841091513633728
0.96291118860244751 0.70738863945007324 0.13658061623573303
0.27921843528747559 0.718250572681427 0.30709284543991089
0.30678912997245789 0.70996320247650146 0.30049583315849304
0.36223959922790527 0.69624370336532593 0.29553020000457764
0.45881757140159607 0.70526796579360962 0.29343071579933167
0.6246458888053894 0.74776577949523926 0.30819913744926453
0.79248964786529541 0.79563921689987183 0.32658803462982178
0.9397088885307312 0.84507054090499878 0.34202161431312561
0.5229189395904541 0.86946916580200195 0.51626646518707275
0.53636854887008667 0.86592036485671997 0.51543986797332764
0.56979835033416748 0.86147618293762207 0.51696127653121948
0.61897259950637817 0.85891354084014893 0.52076250314712524
0.70756489038467407 0.8800891637802124 0.53687566518783569
0.81043857336044312 0.90782016515731812 0.5592837929725647
0.90982687473297119 0.93247175216674805 0.5705951452255249
0.19808299839496613 0.1306159645318985 0.29086166620254517
0.26283377408981323 0.1315663754940033 0.30159926414489746
0.39547082781791687 0.11944038420915604 0.31314671039581299
0.61285316944122314 0.024077786132693291 0.33429989218711853
0.81137949228286743 0.0038437787443399429 0.33888843655586243
0.94334131479263306 0.0058244592510163784 0.32773071527481079
1 0.093269363045692444 0.3296719491481781
0.17650899291038513 0.2062608003616333 0.29972007870674133
0.25588679313659668 0.21734499931335449 0.30893045663833618
0.39497891068458557 0.21789842844009399 0.32001885771751404
0.61754953861236572 0.18759496510028839 0.33694285154342651
0.79854893684387207 0.16099366545677185 0.3344634473323822
0.92925512790679932 0.18441343307495117 0.32596823573112488
0.99619036912918091 0.25227564573287964 0.3313697874546051
0.14150354266166687 0.36783340573310852 0.32366982102394104
0.24376191198825836 0.37529194355010986 0.32452589273452759
0.38718584179878235 0.37888729572296143 0.33436310291290283
0.58089298009872437 0.38600030541419983 0.32867872714996338
0.75688260793685913 0.38382574915885925 0.32352730631828308
0.89950323104858398 0.39659219980239868 0.31638646125793457
0.99288451671600342 0.41235643625259399 0.31970837712287903
0.18441715836524963 0.53951787948608398 0.34279760718345642
0.27121898531913757 0.53087252378463745 0.347980797290802
0.37149316072463989 0.50870013236999512 0.34232205152511597
0.52703636884689331 0.54423469305038452 0.33761680126190186
0.71979236602783203 0.56215471029281616 0.32149070501327515
0.86328035593032837 0.55133777856826782 0.29232072830200195
0.97708570957183838 0.5623132586479187 0.29597562551498413
0.27324485778808594 0.64358210563659668 0.36991080641746521
0.31155958771705627 0.63583803176879883 0.36302712559700012
0.37021616101264954 0.61276578903198242 0.35085856914520264
0.4718012809753418 0.61579763889312744 0.34273940324783325
0.67075598239898682 0.67660963535308838 0.36190524697303772
0.8454698920249939 0.70749092102050781 0.36269375681877136
0.96055042743682861 0.69957983493804932 0.32437500357627869
0.35428136587142944 0.74416601657867432 0.41384333372116089
0.37868234515190125 0.73866885900497437 0.41071245074272156
0.41907760500907898 0.72405815124511719 0.39695489406585693
0.47982034087181091 0.70761758089065552 0.37820559740066528
0.63201701641082764 0.7471543550491333 0.40426179766654968
0.7988438606262207 0.79963654279708862 0.44373074173927307
0.9392857551574707 0.84482210874557495 0.46627321839332581
0.5450858473777771 0.87818765640258789 0.57123124599456787
0.55601787567138672 0.87488943338394165 0.56788516044616699
0.58759212493896484 0.87109494209289551 0.56932276487350464
0.63020062446594238 0.86400693655014038 0.56736546754837036
0.70794874429702759 0.87681853771209717 0.57780015468597412
0.80894356966018677 0.90626341104507446 0.60214710235595703
0.91179686784744263 0.93351536989212036 0.62374013662338257
0.23184742033481598 0.14093925058841705 0.46205586194992065
0.29717117547988892 0.14332926273345947 0.47219184041023254
0.42807897925376892 0.14649324119091034 0.48769921064376831
0.60597527027130127 0.11843816936016083 0.51853573322296143
0.80703961849212646 0.018015753477811813 0.53287380933761597
0.9695669412612915 0.014211198315024376 0.52411162853240967
1 0.16860522329807281 0.51460886001586914
0.20343045890331268 0.22007001936435699 0.47116819024085999
0.28266644477844238 0.23045335710048676 0.48202022910118103
0.42735031247138977 0.240590900182724 0.49477037787437439
0.61122065782546997 0.2420019656419754 0.52116698026657104
0.81030797958374023 0.20664109289646149 0.53733491897583008
0.95632433891296387 0.22449153661727905 0.528309166431427
0.99972480535507202 0.29837200045585632 0.5236518383026123
0.13848870992660522 0.35695019364356995 0.48200717568397522
0.23957017064094543 0.36102518439292908 0.48719349503517151
0.40677359700202942 0.38490438461303711 0.5032351016998291
0.60663580894470215 0.40776392817497253 0.52695173025131226
0.79407989978790283 0.41419607400894165 0.54108554124832153
0.92170220613479614 0.42995959520339966 0.53077536821365356
0.99745875597000122 0.44973009824752808 0.53401392698287964
0.10100428014993668 0.56846946477890015 0.51702964305877686
0.24707014858722687 0.56788915395736694 0.52095484733581543
0.41378423571586609 0.56800705194473267 0.52492088079452515
0.57874399423599243 0.57420849800109863 0.53332871198654175
0.74660539627075195 0.57576894760131836 0.52607709169387817
0.88114684820175171 0.57680207490921021 0.51808685064315796
0.98550939559936523 0.57914108037948608 0.52101320028305054
0.34907957911491394 0.70481735467910767 0.54865217208862305
0.39706835150718689 0.69696569442749023 0.54661315679550171
0.48600324988365173 0.68468290567398071 0.54424655437469482
0.55359482765197754 0.65809565782546997 0.52000617980957031
0.70074665546417236 0.68601101636886597 0.53357183933258057
0.84593206644058228 0.70328009128570557 0.52855080366134644
0.96233528852462769 0.6969834566116333 0.49650037288665771
0.46387627720832825 0.78530710935592651 0.57358413934707642
0.48289158940315247 0.78060531616210938 0.56855815649032593
0.51900553703308105 0.76879894733428955 0.55638569593429565
0.55470263957977295 0.74188029766082764 0.5239989161491394
0.64683884382247925 0.74738764762878418 0.52559101581573486
0.80702304840087891 0.80572587251663208 0.57529008388519287
0.93494528532028198 0.84076333045959473 0.58979743719100952
0.57621294260025024 0.89218473434448242 0.64916026592254639
0.59230589866638184 0.89275753498077393 0.65004479885101318
0.61534148454666138 0.88691669702529907 0.6437644362449646
0.64821112155914307 0.87588846683502197 0.63347285985946655
0.70950108766555786 0.87716048955917358 0.63542360067367554
0.80782276391983032 0.90482527017593384 0.66160690784454346
0.91225898265838623 0.93296027183532715 0.68476611375808716
0.2912539541721344 0.16122618317604065 0.63716715574264526
0.35936713218688965 0.16625536978244781 0.65126186609268188
0.47656181454658508 0.16894091665744781 0.65993982553482056
0.62785714864730835 0.18581146001815796 0.67400640249252319
0.78986054658889771 0.1818680614233017 0.69905543327331543
0.93802410364151001 0.18017533421516418 0.70083743333816528
0.99884688854217529 0.25382441282272339 0.68539965152740479
0.27906003594398499 0.24520789086818695 0.65239894390106201
0.34514549374580383 0.24704428017139435 0.65632730722427368
0.47080928087234497 0.25846821069717407 0.66439223289489746
0.62437337636947632 0.28322741389274597 0.67857176065444946
0.78706824779510498 0.28943610191345215 0.70153707265853882
0.93154233694076538 0.31135007739067078 0.70378869771957397
0.99785041809082031 0.3625941276550293 0.6960146427154541
0.20135839283466339 0.35693609714508057 0.64871525764465332
0.29546001553535461 0.3716590404510498 0.65437853336334229
0.43726363778114319 0.39461082220077515 0.6628420352935791
0.61092901229858398 0.42939794063568115 0.67618769407272339
0.77210032939910889 0.4522097110748291 0.69827145338058472
0.90775340795516968 0.47451919317245483 0.70463848114013672
0.99646633863449097 0.50350570678710938 0.70821923017501831
0.10452843457460403 0.52510470151901245 0.65108907222747803
0.22935989499092102 0.52539050579071045 0.65258914232254028
0.39163857698440552 0.53135722875595093 0.65780210494995117
0.58098393678665161 0.56876128911972046 0.67535948753356934
0.75422966480255127 0.60417628288269043 0.69745129346847534
0.89371895790100098 0.61326360702514648 0.71151387691497803
0.98752850294113159 0.61988890171051025 0.70752602815628052
0.31344753503799438 0.70839536190032959 0.68677806854248047
0.37756466865539551 0.70887207984924316 0.68944191932678223
0.49020805954933167 0.70507144927978516 0.68997985124588013
0.61532890796661377 0.70641344785690308 0.69598013162612915
0.73477554321289062 0.7107885479927063 0.69937592744827271
0.85689747333526611 0.71816903352737427 0.69799953699111938
0.96482032537460327 0.72170323133468628 0.69499784708023071
0.52981507778167725 0.83266341686248779 0.71698659658432007
0.55150437355041504 0.82999008893966675 0.71638131141662598
0.60025262832641602 0.82377773523330688 0.7149658203125
0.65971070528030396 0.80861186981201172 0.70404398441314697
0.70401185750961304 0.77880692481994629 0.67827683687210083
0.82116901874542236 0.81562626361846924 0.70357632637023926
0.93985819816589355 0.83510690927505493 0.69917809963226318
0.62384313344955444 0.91876727342605591 0.74872255325317383
0.63896554708480835 0.91852402687072754 0.7513434886932373
0.66320061683654785 0.91482710838317871 0.74685943126678467
0.69510734081268311 0.90871691703796387 0.73853933811187744
0.73237109184265137 0.89208704233169556 0.72173941135406494
0.80546146631240845 0.90107446908950806 0.7281385064125061
0.91971969604492188 0.93783128261566162 0.75892269611358643
0.39416831731796265 0.2105620801448822 0.79468131065368652
0.44133371114730835 0.21213556826114655 0.7945975661277771
0.53810954093933105 0.22705535590648651 0.79902547597885132
0.66559714078903198 0.25462993979454041 0.80605804920196533
0.79558032751083374 0.31282269954681396 0.81180214881896973
0.91731393337249756 0.341368168592453 0.82520359754562378
0.99724984169006348 0.3569161593914032 0.82674598693847656
0.38729643821716309 0.28831499814987183 0.79520142078399658
0.43723860383033752 0.29029649496078491 0.7974318265914917
0.53382688760757446 0.30729231238365173 0.79987978935241699
0.66071587800979614 0.33692851662635803 0.80441224575042725
0.79004734754562378 0.37950167059898376 0.81196212768554688
0.9144095778465271 0.41205272078514099 0.82670891284942627
0.99576342105865479 0.43114706873893738 0.82512611150741577
0.34658557176589966 0.40152129530906677 0.79076129198074341
0.40588682889938354 0.41279873251914978 0.7908901572227478
0.51225119829177856 0.42286491394042969 0.79600644111633301
0.64807295799255371 0.45694142580032349 0.80241507291793823
0.78079879283905029 0.49360942840576172 0.81042474508285522
0.89561104774475098 0.52964693307876587 0.81931698322296143
0.98795068264007568 0.54889583587646484 0.82837080955505371
0.19609934091567993 0.50739336013793945 0.77953034639358521
0.29682934284210205 0.5142020583152771 0.78310656547546387
0.45616617798805237 0.53875273466110229 0.78927421569824219
0.61488133668899536 0.56983488798141479 0.79633384943008423
0.7671504020690918 0.60983550548553467 0.80766850709915161
0.87917858362197876 0.63393163681030273 0.81814038753509521
0.98048645257949829 0.65516883134841919 0.83109879493713379
0.28400540351867676 0.67147481441497803 0.79011857509613037
0.34238433837890625 0.67009115219116211 0.78896993398666382
0.44195252656936646 0.66865670680999756 0.78885060548782349
0.57834917306900024 0.67579191923141479 0.79047495126724243
0.73231267929077148 0.70334678888320923 0.80243265628814697
0.86862444877624512 0.73783153295516968 0.82138973474502563
0.9743613600730896 0.76069611310958862 0.83257192373275757
0.48508945107460022 0.83045876026153564 0.81252670288085938
0.52271723747253418 0.82962870597839355 0.81372106075286865
0.58274883031845093 0.8317333459854126 0.81512653827667236
0.66430610418319702 0.82835501432418823 0.81621068716049194
0.75712162256240845 0.83050048351287842 0.82062721252441406
0.8465886116027832 0.83856463432312012 0.8225587010383606
0.95021110773086548 0.84922713041305542 0.82236254215240479
0.66193997859954834 0.94198381900787354 0.83668345212936401
0.67505204677581787 0.94040864706039429 0.83791768550872803
0.70635181665420532 0.94244694709777832 0.84064137935638428
0.74414682388305664 0.94003236293792725 0.84045815467834473
0.78567373752593994 0.9297032356262207 0.83540767431259155
0.82691717147827148 0.91769635677337646 0.817707359790802
0.92981505393981934 0.94017237424850464 0.83582222461700439
0.56099385023117065 0.35698539018630981 0.91532415151596069
0.58951777219772339 0.35653254389762878 0.91649055480957031
0.6537812352180481 0.37323284149169922 0.91666370630264282
0.74223476648330688 0.40299180150032043 0.91603082418441772
0.83642822504043579 0.45396879315376282 0.91380858421325684
0.92222195863723755 0.51322561502456665 0.91354751586914062
0.99717468023300171 0.52841693162918091 0.92113149166107178
0.55381762981414795 0.40393784642219543 0.91494244337081909
0.58742785453796387 0.41379174590110779 0.91621434688568115
0.6540229320526123 0.42966809868812561 0.91603821516036987
0.73937565088272095 0.45432949066162109 0.91253954172134399
0.83632856607437134 0.49591615796089172 0.91256922483444214
0.92410182952880859 0.54879236221313477 0.91616559028625488
0.99005126953125 0.56387472152709961 0.92185419797897339
0.5408141016960144 0.49900662899017334 0.91340768337249756
0.5728994607925415 0.50425022840499878 0.91206961870193481
0.63858264684677124 0.51364505290985107 0.91010260581970215
0.73198926448822021 0.53901815414428711 0.91254079341888428
0.82596713304519653 0.56737667322158813 0.91178470849990845
0.91122794151306152 0.60969835519790649 0.91421139240264893
0.98669952154159546 0.62348085641860962 0.9198838472366333
0.4795360267162323 0.58543223142623901 0.90873003005981445
0.52311652898788452 0.59104084968566895 0.90990698337554932
0.60786348581314087 0.60553276538848877 0.90915238857269287
0.70541012287139893 0.62353181838989258 0.90863364934921265
0.80799156427383423 0.64444750547409058 0.90940403938293457
0.89980095624923706 0.67782336473464966 0.91228926181793213
0.98194444179534912 0.69448179006576538 0.92133742570877075
0.39479213953018188 0.68035328388214111 0.90464472770690918
0.43492084741592407 0.67872923612594604 0.90662658214569092
0.51704597473144531 0.67987912893295288 0.90545392036437988
0.64526981115341187 0.69329863786697388 0.90623503923416138
0.77409440279006958 0.72207742929458618 0.91005688905715942
0.88239830732345581 0.75925278663635254 0.91449606418609619
0.97264736890792847 0.78416967391967773 0.92233628034591675
0.50762522220611572 0.82568061351776123 0.91114300489425659
0.52732646465301514 0.82468050718307495 0.9110296368598938
0.57317525148391724 0.82408648729324341 0.91293936967849731
0.6425095796585083 0.81470388174057007 0.9091220498085022
0.73353737592697144 0.81019753217697144 0.91067993640899658
0.85067248344421387 0.83670318126678467 0.91871434450149536
0.95967835187911987 0.86842823028564453 0.92694145441055298
0.6292077898979187 0.94889640808105469 0.92326158285140991
0.63877946138381958 0.9467054009437561 0.92406380176544189
0.678230881690979 0.94938516616821289 0.92415362596511841
0.72950232028961182 0.94803798198699951 0.92638117074966431
0.7930988073348999 0.94498264789581299 0.92708230018615723
0.86822247505187988 0.94327515363693237 0.92949372529983521
0.95047849416732788 0.95116657018661499 0.9335131049156189
