luts/negative_new/fuji_400h_++.cube
# Created by: G'MIC (https://gmic.eu)
TITLE "fuji_400h_++"
# LUT size
LUT_3D_SIZE 5
# Data domain
DOMAIN_MIN 0.0 0.0 0.0
DOMAIN_MAX 1.0 1.0 1.0
# LUT data points
0.069949142634868622 0.10743322968482971 0.047495570033788681
0.25563731789588928 0.10932862758636475 0.041116483509540558
0.59190964698791504 0.03387102484703064 0.023297837004065514
0.86033141613006592 0.054351266473531723 0.0033610176760703325
0.99904650449752808 0.2373625636100769 0.0050864573568105698
0.0051706503145396709 0.26391482353210449 0.036332897841930389
0.2221960723400116 0.27283719182014465 0.021621285006403923
0.57851332426071167 0.28377300500869751 0.007410894613713026
0.83989852666854858 0.30547136068344116 0.0039604785852134228
0.98996800184249878 0.37701639533042908 0.0078175263479351997
0 0.50992494821548462 0.0085769500583410263
0.1345343142747879 0.50112676620483398 0.015051673166453838
0.52191781997680664 0.52363014221191406 0.0044644824229180813
0.78725552558898926 0.54995089769363403 0.0035647074691951275
0.97319453954696655 0.57132858037948608 0.0019140056101605296
0.0069240196608006954 0.72762584686279297 0.10625867545604706
0.21928732097148895 0.71610599756240845 0.1280779242515564
0.50299614667892456 0.7165791392326355 0.11032696813344955
0.72687536478042603 0.73197388648986816 0.020963437855243683
0.94208163022994995 0.76482397317886353 0.0037372515071183443
0.37857863306999207 0.92263990640640259 0.42247068881988525
0.44280552864074707 0.91838622093200684 0.43509748578071594
0.56601738929748535 0.91330695152282715 0.45750313997268677
0.71741628646850586 0.92176151275634766 0.44303324818611145
0.90624827146530151 0.93808537721633911 0.420662522315979
0.095511041581630707 0.12159160524606705 0.22162547707557678
0.28527539968490601 0.11726024746894836 0.22445429861545563
0.61773514747619629 0.012648997828364372 0.23290194571018219
0.87295496463775635 0.049220815300941467 0.24931752681732178
0.99569278955459595 0.2663084864616394 0.27978730201721191
0.018279984593391418 0.28698974847793579 0.23636607825756073
0.2896028459072113 0.29202225804328918 0.24326504766941071
0.6187928318977356 0.28695559501647949 0.23885166645050049
0.85116833448410034 0.32408800721168518 0.23900771141052246
0.9934074878692627 0.38592687249183655 0.25223237276077271
0.030570760369300842 0.55052334070205688 0.26398488879203796
0.26847121119499207 0.53478658199310303 0.25975838303565979
0.56215715408325195 0.5368887186050415 0.23529911041259766
0.80490201711654663 0.55399000644683838 0.16659931838512421
0.97803175449371338 0.57260900735855103 0.15451911091804504
0.10574185103178024 0.74157261848449707 0.29845830798149109
0.31172055006027222 0.73113638162612915 0.31276902556419373
0.52037531137466431 0.72224807739257812 0.30942383408546448
0.74015575647354126 0.74239552021026611 0.26606908440589905
0.94343382120132446 0.7650139331817627 0.21792022883892059
0.39791828393936157 0.92352956533432007 0.49236372113227844
0.45656344294548035 0.91793239116668701 0.49631223082542419
0.57226032018661499 0.91363567113876343 0.51805400848388672
0.72385132312774658 0.92311286926269531 0.51882457733154297
0.90607225894927979 0.93515050411224365 0.49194616079330444
0.16842053830623627 0.13797342777252197 0.51385587453842163
0.37251272797584534 0.12753714621067047 0.52389824390411377
0.65099936723709106 0.071287699043750763 0.549652099609375
0.86568892002105713 0.011359270662069321 0.53544586896896362
0.99583995342254639 0.2286018580198288 0.53502601385116577
0.10225871950387955 0.28092163801193237 0.52079755067825317
0.37502264976501465 0.30095934867858887 0.5348813533782959
0.64716935157775879 0.31523394584655762 0.55752170085906982
0.85493439435958862 0.31407922506332397 0.54556065797805786
0.99351859092712402 0.40783035755157471 0.55688661336898804
0.028346851468086243 0.56621211767196655 0.55207568407058716
0.35131740570068359 0.56814670562744141 0.55534166097640991
0.61649638414382935 0.57245349884033203 0.55884206295013428
0.81379169225692749 0.58406037092208862 0.55301034450531006
0.97592484951019287 0.60604554414749146 0.55931150913238525
0.33288571238517761 0.7706184983253479 0.57512468099594116
0.4451678991317749 0.76550710201263428 0.57759153842926025
0.57907289266586304 0.74646943807601929 0.55807250738143921
0.74780523777008057 0.75058150291442871 0.54275763034820557
0.9503549337387085 0.75883793830871582 0.51166635751724243
0.45234787464141846 0.93094229698181152 0.62632876634597778
0.48997616767883301 0.92921632528305054 0.62439393997192383
0.59556490182876587 0.92112261056900024 0.63546597957611084
0.73118299245834351 0.9237169623374939 0.64088326692581177
0.91548448801040649 0.93887341022491455 0.63267296552658081
0.39475667476654053 0.16548900306224823 0.75353991985321045
0.50834643840789795 0.17039556801319122 0.75319755077362061
0.69593262672424316 0.20034556090831757 0.76444858312606812
0.8600391149520874 0.25449284911155701 0.77213352918624878
0.99121922254562378 0.28186947107315063 0.75329077243804932
0.37645071744918823 0.32189804315567017 0.74713814258575439
0.48945131897926331 0.33770653605461121 0.75196212530136108
0.68856203556060791 0.36739334464073181 0.76203316450119019
0.8472481369972229 0.41525617241859436 0.7724495530128479
0.98511344194412231 0.42305713891983032 0.75483745336532593
0.24581032991409302 0.51299738883972168 0.73184406757354736
0.40807944536209106 0.51815897226333618 0.73929315805435181
0.63667851686477661 0.56672614812850952 0.75640720129013062
0.81496936082839966 0.61374008655548096 0.76797342300415039
0.97551810741424561 0.6101982593536377 0.76215571165084839
0.32994797825813293 0.7656826376914978 0.75764322280883789
0.43948036432266235 0.76380109786987305 0.76187598705291748
0.60818755626678467 0.76546603441238403 0.76492869853973389
0.78724300861358643 0.78330785036087036 0.77143639326095581
0.95416080951690674 0.78962975740432739 0.76873296499252319
0.46853631734848022 0.94745856523513794 0.78225916624069214
0.52727961540222168 0.94831001758575439 0.78629100322723389
0.6428789496421814 0.93839168548583984 0.78982144594192505
0.76175671815872192 0.93125158548355103 0.7806093692779541
0.93448120355606079 0.93945485353469849 0.78015553951263428
0.61841720342636108 0.36032277345657349 0.93050462007522583
0.65946805477142334 0.37719452381134033 0.92996710538864136
0.7559693455696106 0.42074573040008545 0.93070155382156372
0.87306469678878784 0.49402347207069397 0.92800754308700562
0.99428403377532959 0.52679699659347534 0.92797625064849854
0.60479652881622314 0.46049013733863831 0.92864054441452026
0.65142762660980225 0.47369840741157532 0.9291994571685791
0.74631023406982422 0.50495797395706177 0.92794442176818848
0.86606687307357788 0.56504935026168823 0.92869645357131958
0.99265897274017334 0.59351593255996704 0.93051505088806152
0.53614789247512817 0.58779788017272949 0.92473852634429932
0.59451043605804443 0.60351330041885376 0.92209810018539429
0.71147602796554565 0.63331145048141479 0.92513680458068848
0.84782904386520386 0.67563337087631226 0.92586731910705566
0.98427832126617432 0.69829440116882324 0.93055534362792969
0.4476262629032135 0.74698525667190552 0.92321771383285522
0.50650817155838013 0.74807173013687134 0.91874343156814575
0.62041604518890381 0.74688667058944702 0.9222254753112793
0.80577319860458374 0.78814041614532471 0.92081314325332642
0.97700119018554688 0.8230278491973877 0.93217521905899048
0.45446485280990601 0.94749605655670166 0.93751364946365356
0.50484836101531982 0.94483309984207153 0.9360920786857605
0.62749767303466797 0.94367086887359619 0.93621456623077393
0.78682923316955566 0.94766831398010254 0.94024920463562012
0.9672553539276123 0.95361411571502686 0.94309169054031372
