luts/negative_new/fuji_800z_++.cube
# Created by: G'MIC (https://gmic.eu)
TITLE "fuji_800z_++"
# LUT size
LUT_3D_SIZE 13
# Data domain
DOMAIN_MIN 0.0 0.0 0.0
DOMAIN_MAX 1.0 1.0 1.0
# LUT data points
0.10179699212312698 0.13159157335758209 0.097945027053356171
0.1374179869890213 0.13242450356483459 0.098356731235980988
0.19168081879615784 0.13587017357349396 0.096458122134208679
0.25757640600204468 0.13462983071804047 0.096270620822906494
0.33967694640159607 0.13071314990520477 0.097707204520702362
0.43953704833984375 0.11472691595554352 0.096317484974861145
0.55133908987045288 0.08375181257724762 0.092500351369380951
0.6667364239692688 0.043948616832494736 0.085828058421611786
0.77057415246963501 0.020613307133316994 0.077734313905239105
0.86329072713851929 0.010296211577951908 0.066661253571510315
0.93742859363555908 0.016828933730721474 0.056261353194713593
0.98957514762878418 0.040810290724039078 0.044378645718097687
0.99997413158416748 0.10375891625881195 0.033715881407260895
0.098782464861869812 0.15937066078186035 0.10201480239629745
0.12961308658123016 0.16231787204742432 0.10284651070833206
0.18283930420875549 0.16787749528884888 0.10064007341861725
0.2525486946105957 0.16770483553409576 0.096157252788543701
0.33632463216781616 0.16548541188240051 0.09323042631149292
0.43836343288421631 0.16034063696861267 0.092546053230762482
0.54944604635238647 0.14717750251293182 0.089957445859909058
0.66033327579498291 0.12385927140712738 0.083336323499679565
0.76484453678131104 0.10675928741693497 0.071474425494670868
0.85702639818191528 0.097101099789142609 0.059547528624534607
0.93094277381896973 0.10678452253341675 0.04854196310043335
0.98858481645584106 0.13113436102867126 0.034664139151573181
0.9995608925819397 0.16869571805000305 0.025762535631656647
0.1012808233499527 0.20055577158927917 0.11148792505264282
0.12335046380758286 0.19961389899253845 0.11038617789745331
0.16851049661636353 0.20740383863449097 0.10639630258083344
0.24283668398857117 0.21875199675559998 0.099678844213485718
0.33274355530738831 0.22395627200603485 0.09091503918170929
0.43544024229049683 0.2225983738899231 0.083647996187210083
0.54558151960372925 0.21804127097129822 0.076413817703723907
0.65237581729888916 0.20925731956958771 0.06897348165512085
0.75594747066497803 0.20309543609619141 0.055951450020074844
0.84651362895965576 0.20404280722141266 0.041732054203748703
0.92195963859558105 0.21056252717971802 0.030180508270859718
0.98657840490341187 0.21998751163482666 0.018223362043499947
0.99969696998596191 0.24117287993431091 0.014368483796715736
0.10154929012060165 0.25379955768585205 0.12339791655540466
0.12208864092826843 0.24745133519172668 0.12232984602451324
0.16114367544651031 0.25286278128623962 0.11801674216985703
0.23345598578453064 0.27324864268302917 0.10877135396003723
0.32751694321632385 0.29446172714233398 0.092373311519622803
0.4335314929485321 0.30727741122245789 0.075002752244472504
0.53949069976806641 0.30192962288856506 0.05987880751490593
0.64387357234954834 0.29289379715919495 0.043638251721858978
0.74547660350799561 0.29358232021331787 0.030187658965587616
0.83746552467346191 0.29854544997215271 0.016184639185667038
0.91478443145751953 0.30267012119293213 0.010272725485265255
0.97991132736206055 0.30835229158401489 0.0080892676487565041
0.99961775541305542 0.32148879766464233 0.0081046456471085548
0.093692734837532043 0.30686011910438538 0.13223607838153839
0.11988462507724762 0.30336135625839233 0.13330799341201782
0.15518884360790253 0.30317598581314087 0.13227753341197968
0.21624229848384857 0.3231126070022583 0.12487266212701797
0.30445477366447449 0.34996786713600159 0.1080077663064003
0.42680132389068604 0.38325956463813782 0.072204098105430603
0.5395972728729248 0.39202085137367249 0.044653140008449554
0.63796132802963257 0.38415282964706421 0.021651579067111015
0.73340737819671631 0.3829534649848938 0.013928327709436417
0.82515108585357666 0.38599121570587158 0.0080503430217504501
0.90206688642501831 0.38588973879814148 0.0042510689236223698
0.96664541959762573 0.39050531387329102 0.0073535246774554253
0.9957587718963623 0.40043148398399353 0.0056357290595769882
0.08651994913816452 0.36598330736160278 0.14297935366630554
0.11706800013780594 0.36400067806243896 0.14734470844268799
0.15380671620368958 0.36188367009162903 0.14822903275489807
0.20285570621490479 0.37293219566345215 0.13965773582458496
0.27984130382537842 0.39820533990859985 0.12510012090206146
0.39213293790817261 0.43428140878677368 0.095616407692432404
0.53181934356689453 0.47455403208732605 0.04106903076171875
0.63963371515274048 0.48180088400840759 0.013489472679793835
0.73096656799316406 0.47831696271896362 0.00856806430965662
0.81442403793334961 0.47211739420890808 0.0080573586747050285
0.8890763521194458 0.46674653887748718 0.0043806787580251694
0.95383530855178833 0.46621003746986389 0.0041129318997263908
0.99241495132446289 0.47343540191650391 0.0036815868224948645
0.077342823147773743 0.43203973770141602 0.15460866689682007
0.10846883803606033 0.42884090542793274 0.15742599964141846
0.15018507838249207 0.42224150896072388 0.15936416387557983
0.19912445545196533 0.42403289675712585 0.15630395710468292
0.26874402165412903 0.44574865698814392 0.14420449733734131
0.36692535877227783 0.47696998715400696 0.12386755645275116
0.49089023470878601 0.51743155717849731 0.084548607468605042
0.62815761566162109 0.55725264549255371 0.03051128052175045
0.7345854640007019 0.56897324323654175 0.0052832062356173992
0.8125421404838562 0.56034016609191895 0.0070139416493475437
0.88258373737335205 0.55053490400314331 0.0042349421419203281
0.94593560695648193 0.54666173458099365 0.0035398146137595177
0.99171215295791626 0.54768717288970947 0.001544892555102706
0.077606454491615295 0.49599921703338623 0.16556178033351898
0.11114662140607834 0.49257847666740417 0.16740384697914124
0.156589075922966 0.48606222867965698 0.17135365307331085
0.20065972208976746 0.47895386815071106 0.17007619142532349
0.26453331112861633 0.49278080463409424 0.16396386921405792
0.34997901320457458 0.52084016799926758 0.15027035772800446
0.45634356141090393 0.55546003580093384 0.12838788330554962
0.58129078149795532 0.59328180551528931 0.092957064509391785
0.71339243650436401 0.6306493878364563 0.042038172483444214
0.81278371810913086 0.64218658208847046 0.012319347821176052
0.88189166784286499 0.63373512029647827 0.004972375463694334
0.94114267826080322 0.62825727462768555 0.0041331872344017029
0.98714148998260498 0.62565064430236816 0.0037209903821349144
0.11266373097896576 0.56561702489852905 0.18356946110725403
0.14187435805797577 0.56158822774887085 0.18516045808792114
0.18067002296447754 0.55492806434631348 0.18782685697078705
0.22386486828327179 0.54601174592971802 0.18839198350906372
0.26985752582550049 0.54596638679504395 0.18413925170898438
0.34957796335220337 0.56988567113876343 0.17853258550167084
0.45362973213195801 0.60025042295455933 0.16765563189983368
0.56332951784133911 0.63343167304992676 0.15002629160881042
0.6749153733253479 0.66389656066894531 0.12446229159832001
0.78752446174621582 0.69264489412307739 0.088510461151599884
0.87862002849578857 0.70893955230712891 0.056521967053413391
0.93996942043304443 0.70629066228866577 0.033048413693904877
0.98622888326644897 0.70341968536376953 0.019829036667943001
0.17946036159992218 0.63542282581329346 0.21105900406837463
0.20021189749240875 0.63302534818649292 0.21155977249145508
0.23179839551448822 0.62783503532409668 0.21403740346431732
0.27173382043838501 0.61970382928848267 0.21664896607398987
0.30347463488578796 0.61117327213287354 0.21120995283126831
0.36515188217163086 0.62342393398284912 0.20962554216384888
0.45743030309677124 0.64884108304977417 0.20881973206996918
0.55988270044326782 0.67808520793914795 0.20035210251808167
0.66179049015045166 0.70297884941101074 0.19141030311584473
0.75708091259002686 0.72544741630554199 0.18166163563728333
0.85099130868911743 0.75199466943740845 0.17177218198776245
0.929862380027771 0.76949095726013184 0.15583409368991852
0.98263305425643921 0.77516865730285645 0.14165033400058746
0.27732095122337341 0.70482099056243896 0.26490595936775208
0.28731325268745422 0.70254415273666382 0.25996914505958557
0.30742043256759644 0.6987764835357666 0.25800344347953796
0.33606472611427307 0.69325029850006104 0.25771239399909973
0.36621898412704468 0.6833113431930542 0.2568938136100769
0.41031983494758606 0.68416917324066162 0.25560864806175232
0.48346850275993347 0.70310831069946289 0.25758787989616394
0.56671708822250366 0.72342723608016968 0.25789931416511536
0.65491956472396851 0.74420827627182007 0.26055285334587097
0.74454700946807861 0.76542907953262329 0.26477980613708496
0.82938480377197266 0.78760725259780884 0.26799795031547546
0.9066472053527832 0.80971050262451172 0.26671004295349121
0.97541660070419312 0.8349650502204895 0.27677738666534424
0.40521699190139771 0.77902758121490479 0.34956631064414978
0.41069132089614868 0.77616828680038452 0.34672853350639343
0.42440658807754517 0.77415215969085693 0.34630343317985535
0.44396975636482239 0.76991605758666992 0.34648451209068298
0.4684634804725647 0.76392084360122681 0.34531527757644653
0.49747338891029358 0.76059979200363159 0.34247675538063049
0.55152153968811035 0.76971668004989624 0.34694930911064148
0.61688315868377686 0.78289777040481567 0.35426720976829529
0.68494904041290283 0.79956930875778198 0.36288481950759888
0.75900459289550781 0.81786710023880005 0.37278756499290466
0.82840341329574585 0.83555001020431519 0.38145014643669128
0.89431023597717285 0.85411107540130615 0.38377439975738525
0.9537237286567688 0.8738856315612793 0.39151930809020996
0.5658988356590271 0.85912120342254639 0.49255585670471191
0.57081723213195801 0.85828161239624023 0.49332195520401001
0.57862222194671631 0.85723960399627686 0.49235421419143677
0.59345901012420654 0.85507094860076904 0.49542483687400818
0.61200511455535889 0.85114437341690063 0.49715602397918701
0.63368844985961914 0.84873348474502563 0.49904704093933105
0.663116455078125 0.8495597243309021 0.49949178099632263
0.70555424690246582 0.85841238498687744 0.50887554883956909
0.75306499004364014 0.8714643120765686 0.51739025115966797
0.80209475755691528 0.88431429862976074 0.52454656362533569
0.85137033462524414 0.89738738536834717 0.53137445449829102
0.89893138408660889 0.91065394878387451 0.53301489353179932
0.94512921571731567 0.92533320188522339 0.54365259408950806
0.10815373063087463 0.13570059835910797 0.12840712070465088
0.14298197627067566 0.13804072141647339 0.13134932518005371
0.19504153728485107 0.13535720109939575 0.12804244458675385
0.26339375972747803 0.13857203722000122 0.13094282150268555
0.34851986169815063 0.13613136112689972 0.13738930225372314
0.45133009552955627 0.10864666104316711 0.13928708434104919
0.56031745672225952 0.072679288685321808 0.13349296152591705
0.67326176166534424 0.033980891108512878 0.12542940676212311
0.77632254362106323 0.01338882464915514 0.11911028623580933
0.864205002784729 0.0084273694083094597 0.11141378432512283
0.93849533796310425 0.011460712179541588 0.10427418351173401
0.9900665283203125 0.029402369633316994 0.095855534076690674
0.99935537576675415 0.091017432510852814 0.091234393417835236
0.10406654328107834 0.16710469126701355 0.13002119958400726
0.13724085688591003 0.16903732717037201 0.13515235483646393
0.18696154654026031 0.17159397900104523 0.13343435525894165
0.26011231541633606 0.17195521295070648 0.13242954015731812
0.3472607433795929 0.16673003137111664 0.13209490478038788
0.449931800365448 0.15383511781692505 0.13098856806755066
0.55918711423873901 0.13628888130187988 0.12753139436244965
0.66851544380187988 0.11329592764377594 0.12361737340688705
0.77136749029159546 0.090341798961162567 0.11681187897920609
0.86128228902816772 0.080620512366294861 0.1078602522611618
0.93727773427963257 0.09460778534412384 0.09976978600025177
0.98985397815704346 0.11891338974237442 0.09031841903924942
0.99801582098007202 0.16047707200050354 0.082875959575176239
0.10526403039693832 0.21060827374458313 0.13795897364616394
0.13164617121219635 0.20770472288131714 0.13994862139225006
0.17668820917606354 0.21394698321819305 0.1372806578874588
0.25240975618362427 0.22138150036334991 0.13429047167301178
0.3407021164894104 0.22443479299545288 0.12698626518249512
0.44345209002494812 0.22037708759307861 0.12186305969953537
0.55154842138290405 0.21331126987934113 0.11790961772203445
0.65986382961273193 0.20074988901615143 0.1146346777677536
0.76253330707550049 0.19414894282817841 0.10612882673740387
0.85120326280593872 0.19383014738559723 0.09496009349822998
0.92872840166091919 0.20006421208381653 0.084314055740833282
0.98610889911651611 0.21235710382461548 0.074070349335670471
0.99830830097198486 0.23663929104804993 0.067392997443675995
0.11026428639888763 0.26721152663230896 0.1493198424577713
0.13429959118366241 0.26014283299446106 0.14961005747318268
0.17302876710891724 0.26037073135375977 0.14701345562934875
0.23710379004478455 0.27583450078964233 0.14039795100688934
0.33050057291984558 0.2901771068572998 0.12971198558807373
0.43842864036560059 0.30164742469787598 0.11703407764434814
0.54353088140487671 0.29673364758491516 0.10904151946306229
0.64898151159286499 0.28955239057540894 0.098309881985187531
0.7500988245010376 0.2905605137348175 0.086272329092025757
0.83950716257095337 0.29530370235443115 0.071141950786113739
0.91876548528671265 0.29969459772109985 0.060877379029989243
0.98184329271316528 0.30626466870307922 0.052310030907392502
0.99844843149185181 0.31917613744735718 0.046786602586507797
0.10782553255558014 0.32338351011276245 0.15786007046699524
0.1369922012090683 0.31928899884223938 0.16048866510391235
0.17081189155578613 0.31276297569274902 0.15844075381755829
0.22408714890480042 0.32698193192481995 0.15137365460395813
0.31462401151657104 0.35234495997428894 0.14013046026229858
0.43374538421630859 0.38211047649383545 0.11859706789255142
0.54216039180755615 0.38675776124000549 0.099055707454681396
0.64215278625488281 0.38174048066139221 0.078303635120391846
0.73830032348632812 0.38208726048469543 0.056241024285554886
0.82675445079803467 0.38474062085151672 0.038198746740818024
0.90494072437286377 0.38671335577964783 0.030253510922193527
0.97159469127655029 0.39197251200675964 0.026323266327381134
0.99877655506134033 0.40274670720100403 0.024139763787388802
0.10456007719039917 0.38311636447906494 0.16676454246044159
0.13371974229812622 0.38026148080825806 0.16999024152755737
0.16729079186916351 0.37099945545196533 0.16914881765842438
0.21566528081893921 0.37646228075027466 0.16367520391941071
0.29131272435188293 0.4025217592716217 0.15408866107463837
0.39932826161384583 0.43825307488441467 0.13393548130989075
0.5344882607460022 0.47274956107139587 0.10054865479469299
0.64465606212615967 0.48012834787368774 0.066641010344028473
0.73334759473800659 0.47633346915245056 0.036628168076276779
0.81620091199874878 0.47060781717300415 0.017337528988718987
0.89273619651794434 0.46916279196739197 0.013707539066672325
0.96005308628082275 0.46916437149047852 0.011866595596075058
0.99465101957321167 0.47770008444786072 0.0091301416978240013
0.10132952034473419 0.44756492972373962 0.17861361801624298
0.13050812482833862 0.44292464852333069 0.18023556470870972
0.16859383881092072 0.43369555473327637 0.18016473948955536
0.21381442248821259 0.43054825067520142 0.17797133326530457
0.27985057234764099 0.45079171657562256 0.16974858939647675
0.36992695927619934 0.48075604438781738 0.15434466302394867
0.49288439750671387 0.5189395546913147 0.1287008672952652
0.63146847486495972 0.55884593725204468 0.084013842046260834
0.7357792854309082 0.56890887022018433 0.044183351099491119
0.81476849317550659 0.5607295036315918 0.017943976446986198
0.88484972715377808 0.55236029624938965 0.010711295530200005
0.94925582408905029 0.54596525430679321 0.0070759491063654423
0.99219906330108643 0.54773229360580444 0.0049611856229603291
0.1037854328751564 0.50843560695648193 0.18694894015789032
0.1343747079372406 0.5034058690071106 0.18836131691932678
0.17492398619651794 0.49540194869041443 0.19000118970870972
0.21899425983428955 0.48978942632675171 0.19059865176677704
0.27823033928871155 0.49897369742393494 0.18638318777084351
0.35943183302879333 0.5241057276725769 0.17649424076080322
0.46413004398345947 0.55782938003540039 0.15981338918209076
0.58395421504974365 0.59448802471160889 0.13514062762260437
0.71724092960357666 0.63121360540390015 0.094733506441116333
0.81252378225326538 0.6403544545173645 0.056859709322452545
0.88220798969268799 0.63434439897537231 0.032288555055856705
0.94344419240951538 0.62862139940261841 0.011841627769172192
0.988991379737854 0.62532323598861694 0.0059346216730773449
0.13851770758628845 0.57438993453979492 0.20389963686466217
0.16478310525417328 0.57008868455886841 0.20508213341236115
0.20335964858531952 0.5624886155128479 0.20715621113777161
0.23858524858951569 0.55418795347213745 0.20626184344291687
0.28126734495162964 0.5504496693611145 0.2034122496843338
0.35765889286994934 0.57126188278198242 0.19841258227825165
0.45179036259651184 0.60052317380905151 0.18817007541656494
0.55935060977935791 0.6316646933555603 0.1777864545583725
0.67483198642730713 0.66312313079833984 0.16308163106441498
0.78924435377120972 0.69361436367034912 0.14094910025596619
0.87643563747406006 0.70685505867004395 0.11731072515249252
0.93954372406005859 0.70645630359649658 0.084679611027240753
0.98692029714584351 0.70360863208770752 0.058850396424531937
0.19905993342399597 0.6415475606918335 0.23017109930515289
0.21779906749725342 0.63916808366775513 0.2308688759803772
0.2449299544095993 0.63343441486358643 0.23033717274665833
0.27707597613334656 0.62495702505111694 0.22953346371650696
0.31160351634025574 0.61592423915863037 0.22739382088184357
0.37204223871231079 0.62495619058609009 0.22547321021556854
0.45669111609458923 0.64916509389877319 0.22278678417205811
0.55593705177307129 0.67559957504272461 0.22118683159351349
0.65923941135406494 0.70123851299285889 0.21834449470043182
0.75555747747421265 0.72625106573104858 0.2173285186290741
0.85418975353240967 0.75429242849349976 0.21147491037845612
0.93154162168502808 0.77134692668914795 0.20037919282913208
0.98291182518005371 0.7751467227935791 0.18769089877605438
0.28778085112571716 0.70911604166030884 0.27647224068641663
0.30037879943847656 0.70669907331466675 0.2756047248840332
0.31917276978492737 0.70270562171936035 0.27410432696342468
0.34309262037277222 0.69712817668914795 0.27173915505409241
0.37199947237968445 0.68847227096557617 0.26896646618843079
0.41342803835868835 0.68500000238418579 0.2658323347568512
0.48590818047523499 0.70259279012680054 0.27015745639801025
0.56801450252532959 0.72315788269042969 0.27405288815498352
0.65467792749404907 0.74394899606704712 0.27862375974655151
0.74151241779327393 0.76463770866394043 0.28630596399307251
0.82797408103942871 0.78778219223022461 0.28993386030197144
0.90892374515533447 0.81105875968933105 0.2944006621837616
0.97519975900650024 0.83517438173294067 0.30422741174697876
0.41335421800613403 0.78185927867889404 0.36157092452049255
0.42037436366081238 0.77917718887329102 0.35992538928985596
0.4344271719455719 0.77585941553115845 0.36136114597320557
0.45352622866630554 0.77243345975875854 0.36388126015663147
0.47329214215278625 0.76647472381591797 0.35563227534294128
0.50279289484024048 0.76149189472198486 0.35404497385025024
0.55302244424819946 0.76892656087875366 0.35778969526290894
0.61843335628509521 0.78312581777572632 0.36632600426673889
0.68507027626037598 0.79926717281341553 0.37824559211730957
0.7559313178062439 0.81773477792739868 0.3878282904624939
0.82616609334945679 0.83527427911758423 0.39535507559776306
0.89449214935302734 0.85417407751083374 0.40281355381011963
0.95394390821456909 0.87497490644454956 0.41192412376403809
0.57022660970687866 0.85988801717758179 0.50204634666442871
0.57541632652282715 0.85910016298294067 0.50211554765701294
0.58244389295578003 0.85732823610305786 0.50061047077178955
0.598155677318573 0.8563418984413147 0.50516462326049805
0.61359071731567383 0.85235953330993652 0.50276964902877808
0.63463908433914185 0.84937018156051636 0.50418633222579956
0.66564559936523438 0.85078102350234985 0.50942313671112061
0.70787692070007324 0.85931015014648438 0.51604551076889038
0.75628852844238281 0.87187570333480835 0.527995765209198
0.80201488733291626 0.88406312465667725 0.53261429071426392
0.85083448886871338 0.89639425277709961 0.53685468435287476
0.90065407752990723 0.91126328706741333 0.5465661883354187
0.9440925121307373 0.92434930801391602 0.55259555578231812
0.11374563723802567 0.13999006152153015 0.16975568234920502
0.14548450708389282 0.14258298277854919 0.17056664824485779
0.19543395936489105 0.1410040408372879 0.1726720929145813
0.26534786820411682 0.13908746838569641 0.17760586738586426
0.36555948853492737 0.12675027549266815 0.18483340740203857
0.47214755415916443 0.096200592815876007 0.18728916347026825
0.58013367652893066 0.051940303295850754 0.1852700263261795
0.68732863664627075 0.016459595412015915 0.18127961456775665
0.7856256365776062 0.0097707109525799751 0.17949981987476349
0.87142717838287354 0.0076852235943078995 0.17273001372814178
0.94273471832275391 0.0074380012229084969 0.16871753334999084
0.99107486009597778 0.013992010615766048 0.16360852122306824
0.99965697526931763 0.067002825438976288 0.16207589209079742
0.10933317244052887 0.17191699147224426 0.17365039885044098
0.14118659496307373 0.17303711175918579 0.17427830398082733
0.19590748846530914 0.17485266923904419 0.17803895473480225
0.27283558249473572 0.1746307909488678 0.18243995308876038
0.36613726615905762 0.16630212962627411 0.18455681204795837
0.46924787759780884 0.14977473020553589 0.18306733667850494
0.57830989360809326 0.12493409961462021 0.18210257589817047
0.68521910905838013 0.091625332832336426 0.17888878285884857
0.78446406126022339 0.06491890549659729 0.17533054947853088
0.87170958518981934 0.05264466255903244 0.16907869279384613
0.94416135549545288 0.066058531403541565 0.16490334272384644
0.99260169267654419 0.097700901329517365 0.16112414002418518
0.9994964599609375 0.14428585767745972 0.15896479785442352
0.1110571026802063 0.22183318436145782 0.18285608291625977
0.1379828006029129 0.21866223216056824 0.18230636417865753
0.19226045906543732 0.22320200502872467 0.18559721112251282
0.26795235276222229 0.22528025507926941 0.18627625703811646
0.35839641094207764 0.22542069852352142 0.1827799379825592
0.4621489942073822 0.21742498874664307 0.18170313537120819
0.56827586889266968 0.20667438209056854 0.17874050140380859
0.67465478181838989 0.19421842694282532 0.17489880323410034
0.77648532390594482 0.18339748680591583 0.16720755398273468
0.86102950572967529 0.17850174009799957 0.16116538643836975
0.93521463871002197 0.18649463355541229 0.15538795292377472
0.98907309770584106 0.20307637751102448 0.15284962952136993
0.9981696605682373 0.2271496057510376 0.14956976473331451
0.11309655755758286 0.28374075889587402 0.19350670278072357
0.14333511888980865 0.27788084745407104 0.19185008108615875
0.18792499601840973 0.27457073330879211 0.19034923613071442
0.25219208002090454 0.28436142206192017 0.18791279196739197
0.34808158874511719 0.29764983057975769 0.18451966345310211
0.45264220237731934 0.29905819892883301 0.17715506255626678
0.55722236633300781 0.29249602556228638 0.16928651928901672
0.66259461641311646 0.28841674327850342 0.16365712881088257
0.76387447118759155 0.28714045882225037 0.15416327118873596
0.84693264961242676 0.28916698694229126 0.1473911851644516
0.92399114370346069 0.29235294461250305 0.14400289952754974
0.98348963260650635 0.30087947845458984 0.14078454673290253
0.99692034721374512 0.31331717967987061 0.13662943243980408
0.11856602877378464 0.34579789638519287 0.19923323392868042
0.15504865348339081 0.34422364830970764 0.19972251355648041
0.1943841427564621 0.33684954047203064 0.19963371753692627
0.24909159541130066 0.34224385023117065 0.19989198446273804
0.33664876222610474 0.36399000883102417 0.19311776757240295
0.44736376404762268 0.38545882701873779 0.17690886557102203
