luts/negative_new/fuji_160c_-.cube
# Created by: G'MIC (https://gmic.eu)
TITLE "fuji_160c_-"
# LUT size
LUT_3D_SIZE 13
# Data domain
DOMAIN_MIN 0.0 0.0 0.0
DOMAIN_MAX 1.0 1.0 1.0
# LUT data points
0.031921640038490295 0.036734294146299362 0.029665568843483925
0.10212245583534241 0.038038663566112518 0.029010189697146416
0.20620481669902802 0.02923603355884552 0.030399082228541374
0.32013207674026489 0.012736435979604721 0.029538756236433983
0.42979970574378967 0.005302040372043848 0.031487978994846344
0.53271675109863281 0.0033740773797035217 0.033862229436635971
0.62623101472854614 0.0020225225016474724 0.034758534282445908
0.70847141742706299 0.0038061253726482391 0.037645675241947174
0.7805444598197937 0.0044957478530704975 0.040657538920640945
0.84282827377319336 0.015394218266010284 0.044917251914739609
0.89869534969329834 0.082490690052509308 0.058489646762609482
0.95232009887695312 0.17486955225467682 0.077870704233646393
0.99222713708877563 0.24064254760742188 0.10131312161684036
0.014585263095796108 0.10666056722402573 0.02925720252096653
0.087910011410713196 0.10877753049135208 0.029485709965229034
0.20306351780891418 0.10537164658308029 0.026297235861420631
0.31746050715446472 0.086850516498088837 0.027058396488428116
0.42873761057853699 0.058721266686916351 0.024609420448541641
0.53269696235656738 0.037727251648902893 0.024979865178465843
0.62408667802810669 0.026882709935307503 0.024599082767963409
0.70669913291931152 0.032306656241416931 0.030179640278220177
0.77804815769195557 0.048399593681097031 0.034061208367347717
0.83952063322067261 0.092013701796531677 0.041743770241737366
0.89633232355117798 0.15811249613761902 0.053418941795825958
0.94944781064987183 0.21893498301506042 0.072942741215229034
0.99273878335952759 0.27254369854927063 0.097770795226097107
0.0039203567430377007 0.20063142478466034 0.023009102791547775
0.0448635034263134 0.20102052390575409 0.023687908425927162
0.17421624064445496 0.20200689136981964 0.018407080322504044
0.30655398964881897 0.19942152500152588 0.015102341771125793
0.42380461096763611 0.18194760382175446 0.013492973521351814
0.5302773118019104 0.16432014107704163 0.014063187874853611
0.62030082941055298 0.15614685416221619 0.015240762382745743
0.69938117265701294 0.16130228340625763 0.018983833491802216
0.76950347423553467 0.17352725565433502 0.023148225620388985
0.83192646503448486 0.19951561093330383 0.032469715923070908
0.88969773054122925 0.23741236329078674 0.043179381638765335
0.94488739967346191 0.27664002776145935 0.059783291071653366
0.99045884609222412 0.31734904646873474 0.083401605486869812
0.001808600383810699 0.30061107873916626 0.017587460577487946
0.0096765104681253433 0.29805609583854675 0.018054183572530746
0.1164383664727211 0.29801303148269653 0.013948837295174599
0.2697775661945343 0.30045938491821289 0.0090545658022165298
0.40448483824729919 0.30056983232498169 0.0082964431494474411
0.51722794771194458 0.28925848007202148 0.0088955750688910484
0.61041891574859619 0.27578452229499817 0.0078500183299183846
0.688060462474823 0.2714962363243103 0.0080331694334745407
0.75548088550567627 0.27606913447380066 0.010374226607382298
0.816974937915802 0.28983372449874878 0.019049610942602158
0.87899917364120483 0.31472942233085632 0.026650955900549889
0.93687236309051514 0.34419369697570801 0.040344133973121643
0.985556960105896 0.37272810935974121 0.06011485680937767
7.2524126153439283e-05 0.39191612601280212 0.018817152827978134
0.0017678503645583987 0.39081272482872009 0.017230838537216187
0.056555069983005524 0.38791754841804504 0.016030255705118179
0.22312523424625397 0.38776740431785583 0.016157981008291245
0.36608502268791199 0.39339599013328552 0.010074016638100147
0.48887896537780762 0.39683377742767334 0.0070097083225846291
0.58501565456390381 0.38541319966316223 0.0056514963507652283
0.66793793439865112 0.37206125259399414 0.0046538705937564373
0.73849320411682129 0.36732140183448792 0.0060395183973014355
0.80300897359848022 0.3745063841342926 0.0076803918927907944
0.86596190929412842 0.39055898785591125 0.011631266213953495
0.9260716438293457 0.41297057271003723 0.018159814178943634
0.98012638092041016 0.43569660186767578 0.035781681537628174
3.8775277062086388e-05 0.470986008644104 0.021503733471035957
0.00050745945191010833 0.47095862030982971 0.025260327383875847
0.023253586143255234 0.46637538075447083 0.030395492911338806
0.17854389548301697 0.46576711535453796 0.028940597549080849
0.32260897755622864 0.46583545207977295 0.024328732863068581
0.44451245665550232 0.46836444735527039 0.015236439183354378
0.5538628101348877 0.47337591648101807 0.0085291396826505661
0.64071124792098999 0.46857419610023499 0.0069452025927603245
0.71703916788101196 0.45847827196121216 0.0048486446030437946
0.78525304794311523 0.45586410164833069 0.0075242435559630394
0.84902650117874146 0.46658021211624146 0.011038552038371563
0.9112851619720459 0.48095792531967163 0.0098867826163768768
0.97192317247390747 0.49698755145072937 0.014301404356956482
0.00012960995081812143 0.53824889659881592 0.043512068688869476
5.4931639169808477e-05 0.5377088189125061 0.050515253096818924
0.010641389526426792 0.53404879570007324 0.056971769779920578
0.14230060577392578 0.53142017126083374 0.060955826193094254
0.2921326756477356 0.53100490570068359 0.054417286068201065
0.41131138801574707 0.53086930513381958 0.044605765491724014
0.51398736238479614 0.53486377000808716 0.038587979972362518
0.6117216944694519 0.54040861129760742 0.021887356415390968
0.69317835569381714 0.5381845235824585 0.010359161533415318
0.76497042179107666 0.53883808851242065 0.0082382354885339737
0.83148097991943359 0.54089438915252686 0.0093645434826612473
0.897929847240448 0.54801416397094727 0.0081795938313007355
0.96297973394393921 0.55888712406158447 0.0067433672957122326
4.7751032980158925e-05 0.59705245494842529 0.08018118143081665
0.00021694407041650265 0.59731948375701904 0.09132048487663269
0.0083011407405138016 0.59584736824035645 0.096717894077301025
0.12959350645542145 0.592326819896698 0.10308848321437836
0.2719624936580658 0.5894695520401001 0.099394902586936951
0.39242649078369141 0.59091567993164062 0.093532264232635498
0.48863795399665833 0.59320664405822754 0.084865018725395203
0.57830458879470825 0.59295022487640381 0.068887554109096527
0.66484445333480835 0.59940659999847412 0.052671454846858978
0.74321311712265015 0.60632514953613281 0.034258585423231125
0.81406968832015991 0.61198395490646362 0.017519857734441757
0.8832937479019165 0.61749309301376343 0.010617454536259174
0.95193266868591309 0.62416738271713257 0.0042481813579797745
9.3347889560391195e-06 0.65585392713546753 0.12410016357898712
0.00038206810131669044 0.65743541717529297 0.12656517326831818
0.018838919699192047 0.65590959787368774 0.1316058486700058
0.14349110424518585 0.65047365427017212 0.13629144430160522
0.27055144309997559 0.64721488952636719 0.13889341056346893
0.37876605987548828 0.64779776334762573 0.13605526089668274
0.47338056564331055 0.65095359086990356 0.12962156534194946
0.56042110919952393 0.65102595090866089 0.1206151619553566
0.63984256982803345 0.65311920642852783 0.11223835498094559
0.71798908710479736 0.6623377799987793 0.094865910708904266
0.79587465524673462 0.67525804042816162 0.077056944370269775
0.86812227964401245 0.68556338548660278 0.057340793311595917
0.93892979621887207 0.6949315071105957 0.036303695291280746
0.00044067981070838869 0.7183416485786438 0.16059136390686035
0.0032639896962791681 0.71911811828613281 0.16215988993644714
0.052996527403593063 0.71774441003799438 0.16494661569595337
0.18265092372894287 0.71285027265548706 0.17039361596107483
0.28666141629219055 0.70889896154403687 0.17560794949531555
0.38156485557556152 0.71039557456970215 0.17741250991821289
0.46792247891426086 0.71274006366729736 0.17464591562747955
0.55444467067718506 0.71271294355392456 0.16719445586204529
0.63055336475372314 0.71553933620452881 0.16228902339935303
0.70083260536193848 0.72000384330749512 0.15636575222015381
0.7740938663482666 0.72599256038665771 0.14783173799514771
0.85444903373718262 0.74490880966186523 0.13774684071540833
0.9284089207649231 0.75855231285095215 0.12613534927368164
0.0058873044326901436 0.78508716821670532 0.20019660890102386
0.032055739313364029 0.78629535436630249 0.20216266810894012
0.12790411710739136 0.78432369232177734 0.2069774717092514
0.22131629288196564 0.78029346466064453 0.21122768521308899
0.30804148316383362 0.77659344673156738 0.21418598294258118
0.39035195112228394 0.77684479951858521 0.21810272336006165
0.47183555364608765 0.77958023548126221 0.2188655287027359
0.55167704820632935 0.77998131513595581 0.21483659744262695
0.6248399019241333 0.78300297260284424 0.21314805746078491
0.69454038143157959 0.78607356548309326 0.21047918498516083
0.76373177766799927 0.78792166709899902 0.20451067388057709
0.83494889736175537 0.7966768741607666 0.19745095074176788
0.91657155752182007 0.81845557689666748 0.19824518263339996
0.076310224831104279 0.86104404926300049 0.2529296875
0.13237838447093964 0.85856372117996216 0.25418952107429504
0.19444206357002258 0.85601425170898438 0.25846803188323975
0.26448065042495728 0.85231143236160278 0.26047015190124512
0.33614042401313782 0.84921377897262573 0.26186284422874451
0.407560795545578 0.84977102279663086 0.26772964000701904
0.48060864210128784 0.85252165794372559 0.2717069685459137
0.55313533544540405 0.85307776927947998 0.2696399986743927
0.62451076507568359 0.85604429244995117 0.26858034729957581
0.69332164525985718 0.85672789812088013 0.26872473955154419
0.76086443662643433 0.8593255877494812 0.26575753092765808
0.83052664995193481 0.86492162942886353 0.26327288150787354
0.90443569421768188 0.87804198265075684 0.2633357048034668
0.18942400813102722 0.94014722108840942 0.32381996512413025
0.21418504416942596 0.93757981061935425 0.32633447647094727
0.25697362422943115 0.93538773059844971 0.32762643694877625
0.31258240342140198 0.93133533000946045 0.32819673418998718
0.36954531073570251 0.93051820993423462 0.3321806788444519
0.43037852644920349 0.93421089649200439 0.34421947598457336
0.49442055821418762 0.93473154306411743 0.35237148404121399
0.56121677160263062 0.9341503381729126 0.3533729612827301
0.62855368852615356 0.93548882007598877 0.35127586126327515
0.69506996870040894 0.93656182289123535 0.35413867235183716
0.76223957538604736 0.93764984607696533 0.35528683662414551
0.83067744970321655 0.94477814435958862 0.35995370149612427
0.89983922243118286 0.94927859306335449 0.36414071917533875
0.04718640074133873 0.038977529853582382 0.0919203981757164
0.11532972753047943 0.039321135729551315 0.093219488859176636
0.21514606475830078 0.02701619453728199 0.091812685132026672
0.32748898863792419 0.015555602498352528 0.093554601073265076
0.43471148610115051 0.012337015010416508 0.10078621655702591
0.53383105993270874 0.0088373366743326187 0.10939441621303558
0.62598890066146851 0.0093558216467499733 0.11621961742639542
0.70806151628494263 0.018896425142884254 0.12235228717327118
0.7771836519241333 0.038434512913227081 0.127934530377388
0.83796989917755127 0.077093683183193207 0.13415174186229706
0.89317339658737183 0.13458389043807983 0.14344802498817444
0.94873404502868652 0.20629194378852844 0.15544016659259796
0.99296844005584717 0.26118838787078857 0.16863557696342468
0.029196405783295631 0.1135951355099678 0.097330920398235321
0.10785480588674545 0.11471842974424362 0.09747767448425293
0.21614904701709747 0.10828522592782974 0.097282841801643372
0.32587888836860657 0.10269972681999207 0.10080741345882416
0.43369457125663757 0.09433707594871521 0.1031298041343689
0.53303134441375732 0.08126358687877655 0.10399407893419266
0.62326395511627197 0.075109399855136871 0.11051614582538605
0.70318686962127686 0.085069559514522552 0.11764506995677948
0.77357584238052368 0.11164972931146622 0.12259285151958466
0.8353499174118042 0.14893506467342377 0.12995143234729767
0.89131486415863037 0.19580298662185669 0.14051297307014465
0.94584447145462036 0.2463691383600235 0.15309327840805054
0.99058979749679565 0.29019200801849365 0.16869866847991943
0.011515149846673012 0.21221479773521423 0.10008019953966141
0.081449441611766815 0.21051675081253052 0.10003681480884552
0.19743607938289642 0.20759640634059906 0.099508605897426605
0.3191259503364563 0.20315994322299957 0.093992613255977631
0.43149265646934509 0.19913052022457123 0.090284936130046844
0.53155279159545898 0.19406837224960327 0.089887805283069611
0.61822730302810669 0.18743342161178589 0.098920665681362152
0.69494885206222534 0.19340266287326813 0.10787244141101837
0.76236176490783691 0.20694339275360107 0.11142124980688095
0.82671439647674561 0.22843548655509949 0.12286645919084549
0.8863379955291748 0.26313567161560059 0.13451163470745087
0.9418255090713501 0.29921242594718933 0.14725016057491302
0.98920047283172607 0.33173057436943054 0.16010352969169617
0.0073744682595133781 0.3083091676235199 0.098644062876701355
0.041442271322011948 0.30601087212562561 0.099860474467277527
0.16100336611270905 0.30273821949958801 0.098846122622489929
0.29387807846069336 0.304179847240448 0.093130044639110565
0.41591024398803711 0.30778011679649353 0.081060342490673065
0.52009791135787964 0.2987002432346344 0.076904639601707458
0.60954022407531738 0.28832250833511353 0.079112976789474487
0.68614214658737183 0.28758913278579712 0.085196442902088165
0.7526170015335083 0.29554161429405212 0.093871206045150757
0.81453299522399902 0.3129521906375885 0.10320121794939041
0.87667232751846313 0.33351773023605347 0.11452616006135941
0.93461310863494873 0.36013087630271912 0.13231351971626282
0.98497301340103149 0.38552552461624146 0.14722403883934021
0.0026280421297997236 0.40012437105178833 0.10131169110536575
0.013978262431919575 0.39700424671173096 0.10304012149572372
0.11348764598369598 0.39353254437446594 0.10509411990642548
0.25695058703422546 0.39494442939758301 0.1014120951294899
0.38591259717941284 0.39937767386436462 0.087658822536468506
0.49603080749511719 0.39966925978660583 0.076067052781581879
0.58783012628555298 0.39022880792617798 0.071285337209701538
0.66995936632156372 0.37813463807106018 0.06460919976234436
0.73961830139160156 0.37564924359321594 0.066077224910259247
0.80351608991622925 0.38507235050201416 0.075961276888847351
0.86383253335952759 0.40164297819137573 0.090425886213779449
0.92231476306915283 0.42262190580368042 0.10363589972257614
0.97641658782958984 0.44423213601112366 0.12532502412796021
0.0033361099194735289 0.47733378410339355 0.11117497086524963
0.0049917483702301979 0.47569382190704346 0.11328613013029099
0.066760450601577759 0.47223576903343201 0.11616452038288116
0.21550704538822174 0.4698348343372345 0.11765801161527634
0.3458162248134613 0.46870920062065125 0.10773071646690369
0.46299806237220764 0.47229063510894775 0.095329701900482178
0.56296169757843018 0.47585108876228333 0.082475893199443817
0.64511102437973022 0.46845695376396179 0.07316899299621582
0.71901476383209229 0.4597766101360321 0.056049749255180359
0.78689461946487427 0.45839637517929077 0.050899341702461243
0.84977054595947266 0.46762931346893311 0.056599397212266922
0.91018587350845337 0.48393082618713379 0.075288631021976471
0.96822619438171387 0.50224786996841431 0.095383450388908386
0.002245480427518487 0.54255002737045288 0.13087078928947449
0.0021396263036876917 0.54087048768997192 0.13145723938941956
0.041280649602413177 0.53863918781280518 0.13325881958007812
0.18766000866889954 0.5341070294380188 0.1373390257358551
0.3160589337348938 0.53157764673233032 0.13331805169582367
0.43028664588928223 0.5314403772354126 0.12362471967935562
0.52512055635452271 0.53556567430496216 0.11667422205209732
0.61167252063751221 0.53775912523269653 0.10135913640260696
0.69252139329910278 0.53840559720993042 0.083651959896087646
0.76585525274276733 0.53954672813415527 0.067519605159759521
0.83307176828384399 0.54019564390182495 0.049465209245681763
0.89847701787948608 0.54795444011688232 0.040094923228025436
0.96331173181533813 0.56182229518890381 0.061879623681306839
0.0031359654385596514 0.6010512113571167 0.14866897463798523
0.0033077464904636145 0.60083967447280884 0.15244856476783752
0.037623416632413864 0.59874457120895386 0.15395592153072357
0.17413021624088287 0.59426665306091309 0.15802039206027985
0.29418951272964478 0.59212994575500488 0.15977157652378082
0.40492212772369385 0.59039300680160522 0.15465538203716278
0.49605214595794678 0.59321069717407227 0.15324410796165466
0.58312636613845825 0.5949554443359375 0.14396749436855316
0.66633820533752441 0.59985333681106567 0.13034458458423615
0.74558728933334351 0.60699176788330078 0.11397386342287064
0.81592607498168945 0.61315566301345825 0.089765958487987518
0.88482952117919922 0.61805570125579834 0.064974106848239899
0.95285308361053467 0.62559676170349121 0.049114812165498734
0.0016380309825763106 0.65989625453948975 0.17540837824344635
0.0033170811366289854 0.66029024124145508 0.17441262304782867
0.050515506416559219 0.65859794616699219 0.17659774422645569
0.1804119199514389 0.65361958742141724 0.18239744007587433
0.28790593147277832 0.64965808391571045 0.18528847396373749
0.38757672905921936 0.64898037910461426 0.18253014981746674
0.47716611623764038 0.65167045593261719 0.18120200932025909
0.56368774175643921 0.65250003337860107 0.17592492699623108
0.643626868724823 0.65341812372207642 0.17021358013153076
0.7210809588432312 0.662436842918396 0.15984520316123962
0.79756557941436768 0.67614686489105225 0.14306360483169556
0.87082928419113159 0.68665581941604614 0.12385198473930359
0.94070726633071899 0.69393599033355713 0.10423851758241653
0.002523085568100214 0.72118866443634033 0.20224379003047943
0.0083609484136104584 0.72161829471588135 0.19931043684482574
0.087521478533744812 0.71969473361968994 0.20215700566768646
0.20580087602138519 0.71567755937576294 0.20846705138683319
0.29745882749557495 0.71024477481842041 0.21141365170478821
0.38494768738746643 0.70992791652679443 0.21309119462966919
0.46953609585762024 0.71203446388244629 0.21269060671329498
0.55456548929214478 0.71315509080886841 0.20934219658374786
0.6310126781463623 0.71356534957885742 0.20440579950809479
0.7036479115486145 0.71874940395355225 0.19905868172645569
0.77799427509307861 0.73015087842941284 0.18993502855300903
0.85503607988357544 0.74435961246490479 0.1814272552728653
0.92873525619506836 0.75677752494812012 0.17171201109886169
0.012424304150044918 0.78786492347717285 0.2299240380525589
0.053747601807117462 0.78777194023132324 0.23078168928623199
0.15064583718776703 0.78566652536392212 0.23516227304935455
0.23545482754707336 0.78235363960266113 0.23956748843193054
0.31490808725357056 0.77717727422714233 0.24547097086906433
0.39150413870811462 0.77602225542068481 0.2499048262834549
0.47045961022377014 0.77702623605728149 0.24675394594669342
0.55101507902145386 0.77819037437438965 0.24223048985004425
0.62370836734771729 0.77923679351806641 0.24100188910961151
0.69560861587524414 0.78310638666152954 0.23913513123989105
0.76534336805343628 0.78722774982452393 0.23433522880077362
0.83650857210159302 0.79529702663421631 0.22841402888298035
0.9166569709777832 0.81654995679855347 0.23034146428108215
0.091291405260562897 0.86075055599212646 0.27796989679336548
0.14255240559577942 0.8597528338432312 0.27951756119728088
0.20381960272789001 0.85826557874679565 0.27943503856658936
0.27161106467247009 0.8552248477935791 0.28063312172889709
0.3392835259437561 0.85043609142303467 0.28550818562507629
0.40639540553092957 0.85008883476257324 0.29076918959617615
0.47845524549484253 0.85135221481323242 0.29174977540969849
0.55248570442199707 0.85050129890441895 0.28950142860412598
0.62420946359634399 0.85435235500335693 0.29028961062431335
0.69423437118530273 0.85537594556808472 0.29249924421310425
0.76170718669891357 0.85893285274505615 0.28912881016731262
0.83119767904281616 0.86460131406784058 0.28658038377761841
0.9053846001625061 0.87772750854492188 0.28707179427146912
0.18837343156337738 0.9372485876083374 0.34237143397331238
0.21616563200950623 0.93471658229827881 0.34332090616226196
0.26059922575950623 0.93624395132064819 0.34524115920066833
0.31270286440849304 0.93415570259094238 0.34528869390487671
0.3692832887172699 0.93211561441421509 0.34988677501678467
0.42948022484779358 0.93295669555664062 0.35785356163978577
0.4926697313785553 0.93235623836517334 0.36290234327316284
0.55909949541091919 0.93065530061721802 0.36365425586700439
0.62809514999389648 0.93543195724487305 0.36669975519180298
0.69508463144302368 0.93697720766067505 0.37043637037277222
0.76224005222320557 0.93854528665542603 0.3694516122341156
0.83107095956802368 0.94212090969085693 0.3723188042640686
0.90110564231872559 0.94758003950119019 0.3781532347202301
0.053808011114597321 0.048018347471952438 0.18420428037643433
0.13414061069488525 0.04854915663599968 0.18712364137172699
0.22898766398429871 0.033591028302907944 0.1848127692937851
0.33338066935539246 0.014906176365911961 0.17999555170536041
0.4430030882358551 0.0095607088878750801 0.17936499416828156
0.54147398471832275 0.010311052203178406 0.18607404828071594
0.63061189651489258 0.026287408545613289 0.19712521135807037
0.70883238315582275 0.072811529040336609 0.21312232315540314
0.7757992148399353 0.12088612467050552 0.22294449806213379
0.83432137966156006 0.15771874785423279 0.22995436191558838
0.89134901762008667 0.20090724527835846 0.23552559316158295
0.9468807578086853 0.24469734728336334 0.24217042326927185
0.99130958318710327 0.28381767868995667 0.2515653669834137
0.045742183923721313 0.11553039401769638 0.19170764088630676
0.13190911710262299 0.12294184416532516 0.19448958337306976
0.23007339239120483 0.11691233515739441 0.19302864372730255
0.33522790670394897 0.10718020051717758 0.19071806967258453
0.44313731789588928 0.10462237894535065 0.19278296828269958
0.53942644596099854 0.11045747995376587 0.19831106066703796
0.6268114447593689 0.13464082777500153 0.21054275333881378
0.70350402593612671 0.15448889136314392 0.21804676949977875
0.77173078060150146 0.1750764399766922 0.21987293660640717
0.83149820566177368 0.20537850260734558 0.22738997638225555
0.88754236698150635 0.24195379018783569 0.23296716809272766
0.94315135478973389 0.27895250916481018 0.24038049578666687
0.99005019664764404 0.3093656599521637 0.24759124219417572
0.025955919176340103 0.21427354216575623 0.19739308953285217
0.12163659185171127 0.21690306067466736 0.19834068417549133
0.22629545629024506 0.21733544766902924 0.19856034219264984
0.33405375480651855 0.21479323506355286 0.1974455863237381
0.44078990817070007 0.22057519853115082 0.20070210099220276
0.5375291109085083 0.22342780232429504 0.20334507524967194
0.62092351913452148 0.22863078117370605 0.20907458662986755
0.69510579109191895 0.23512609302997589 0.21308942139148712
0.76067334413528442 0.24495254456996918 0.21215614676475525
0.82393401861190796 0.26591157913208008 0.22083432972431183
0.8830878734588623 0.29283463954925537 0.2263670414686203
0.93969953060150146 0.32247281074523926 0.23466202616691589
0.9883420467376709 0.34558188915252686 0.24016405642032623
0.018648169934749603 0.31854775547981262 0.2032620906829834
0.11326729506254196 0.31744545698165894 0.20438794791698456
0.21765315532684326 0.31513649225234985 0.20339354872703552
0.32249036431312561 0.31149402260780334 0.2028069794178009
0.42754173278808594 0.31666088104248047 0.19941805303096771
0.52417731285095215 0.31650054454803467 0.19458943605422974
0.60914576053619385 0.31145772337913513 0.19426363706588745
0.68343883752822876 0.31394192576408386 0.19719220697879791
0.75056082010269165 0.32219675183296204 0.20185907185077667
0.81409311294555664 0.33712753653526306 0.21069194376468658
0.87524831295013428 0.35053586959838867 0.21484255790710449
0.93120217323303223 0.37380746006965637 0.22361919283866882
0.98028808832168579 0.39722508192062378 0.233567014336586
0.02932453528046608 0.41149556636810303 0.21046456694602966
0.091940678656101227 0.40953829884529114 0.20823630690574646
0.18848302960395813 0.40484613180160522 0.2072174996137619
0.29461461305618286 0.40199080109596252 0.20645573735237122
