luts/negative_new/fuji_400h_-.cube
# Created by: G'MIC (https://gmic.eu)
TITLE "fuji_400h_-"
# LUT size
LUT_3D_SIZE 7
# Data domain
DOMAIN_MIN 0.0 0.0 0.0
DOMAIN_MAX 1.0 1.0 1.0
# LUT data points
0.021147619932889938 0.030723482370376587 0.030350299552083015
0.16030286252498627 0.040545593947172165 0.028397010639309883
0.38287660479545593 0.018089534714818001 0.029985735192894936
0.61747699975967407 0.0039426614530384541 0.029562691226601601
0.78505337238311768 0.0028839111328125 0.024151820689439774
0.89328145980834961 0.068938054144382477 0.035089172422885895
0.98371469974517822 0.21464797854423523 0.063547588884830475
0.0030484069138765335 0.17554500699043274 0.035681150853633881
0.12497681379318237 0.18526120483875275 0.028751896694302559
0.38302350044250488 0.18834793567657471 0.013731219805777073
0.61190718412399292 0.16836650669574738 0.0086486963555216789
0.77348250150680542 0.1738191545009613 0.0086155906319618225
0.88428992033004761 0.22599391639232635 0.015559072606265545
0.97934001684188843 0.30048638582229614 0.046781249344348907
5.5290671298280358e-05 0.36924827098846436 0.041663974523544312
0.024311305955052376 0.36676546931266785 0.043659210205078125
0.34086146950721741 0.3808075487613678 0.015613825060427189
0.58743792772293091 0.37631741166114807 0.0091941235587000847
0.74561578035354614 0.36755216121673584 0.0039596408605575562
0.85951840877532959 0.38493168354034424 0.008866388350725174
0.96354848146438599 0.41477373242378235 0.0083816824480891228
0 0.52508890628814697 0.094553448259830475
0.0042687510140240192 0.52045226097106934 0.1128319650888443
0.2689356803894043 0.5183711051940918 0.093164332211017609
0.51654273271560669 0.52592331171035767 0.034697812050580978
0.70055049657821655 0.53152507543563843 0.0075313043780624866
0.83043104410171509 0.52617549896240234 0.0070147048681974411
0.94605058431625366 0.53733336925506592 0.0046544391661882401
0.0035188114270567894 0.64060622453689575 0.18718938529491425
0.040494371205568314 0.63991880416870117 0.19518740475177765
0.28329735994338989 0.63390791416168213 0.20184773206710815
0.48305502533912659 0.63383984565734863 0.17865344882011414
0.65050041675567627 0.64248484373092651 0.13380518555641174
0.79423987865447998 0.65407276153564453 0.074770592153072357
0.92384982109069824 0.66362518072128296 0.028007162734866142
0.18106332421302795 0.75514703989028931 0.30158644914627075
0.25417762994766235 0.75095522403717041 0.30573147535324097
0.36645343899726868 0.74384617805480957 0.31767851114273071
0.50039660930633545 0.74281507730484009 0.31275564432144165
0.63094562292098999 0.75135105848312378 0.29907685518264771
0.75885891914367676 0.75939923524856567 0.26247194409370422
0.90066653490066528 0.77723658084869385 0.23226641118526459
0.37496215105056763 0.88669878244400024 0.45902630686759949
0.4090665876865387 0.884909987449646 0.45902255177497864
0.47313332557678223 0.88529610633850098 0.4722667932510376
0.55491882562637329 0.88282120227813721 0.48532181978225708
0.65194052457809448 0.89038801193237305 0.48179316520690918
0.76507407426834106 0.90164023637771606 0.4676244854927063
0.89655625820159912 0.91385185718536377 0.44772621989250183
0.027549369260668755 0.044841032475233078 0.17517974972724915
0.17111138999462128 0.04518229141831398 0.18024252355098724
0.40092521905899048 0.010951831005513668 0.18050618469715118
0.62590688467025757 0.0057610007934272289 0.19013683497905731
0.78319251537322998 0.06032295897603035 0.21085600554943085
0.88877135515213013 0.16921114921569824 0.22194166481494904
0.98013263940811157 0.26463839411735535 0.2409738153219223
0.0063439463265240192 0.19758258759975433 0.18901351094245911
0.16741575300693512 0.20659208297729492 0.1922486275434494
0.40520185232162476 0.19756463170051575 0.1925642341375351
0.62331050634384155 0.20370051264762878 0.1988271027803421
0.76846730709075928 0.22609904408454895 0.20235221087932587
0.88050901889801025 0.27225703001022339 0.21270744502544403
0.97498410940170288 0.33316764235496521 0.23657447099685669
0.0029260972514748573 0.39684423804283142 0.21364256739616394
0.10585286468267441 0.39268508553504944 0.21061579883098602
0.37454357743263245 0.39450857043266296 0.20260477066040039
0.5976746678352356 0.38797751069068909 0.16716466844081879
0.74679815769195557 0.38377764821052551 0.1561339944601059
0.8614962100982666 0.40236616134643555 0.17244090139865875
0.96437418460845947 0.43698045611381531 0.20084682106971741
0.0018266565166413784 0.54401946067810059 0.23349232971668243
0.070245914161205292 0.53787851333618164 0.23767650127410889
0.31943091750144958 0.52855056524276733 0.24103604257106781
0.53881627321243286 0.53142428398132324 0.20884110033512115
0.70611751079559326 0.53222280740737915 0.17191170156002045
0.83300161361694336 0.53302294015884399 0.13655479252338409
0.9462016224861145 0.54605931043624878 0.14122419059276581
0.020487826317548752 0.65298259258270264 0.27961745858192444
0.15810070931911469 0.64808624982833862 0.28773990273475647
0.32848873734474182 0.6394418478012085 0.29115656018257141
0.49917787313461304 0.63619190454483032 0.27854093909263611
0.65880018472671509 0.64765912294387817 0.25797760486602783
0.79576712846755981 0.65566682815551758 0.2244836837053299
0.92314857244491577 0.66338992118835449 0.18765519559383392
0.23039698600769043 0.75771278142929077 0.35931649804115295
0.28969761729240417 0.75541430711746216 0.3680778443813324
0.38965305685997009 0.74776780605316162 0.36975714564323425
0.50572901964187622 0.7440599799156189 0.37023618817329407
0.63234454393386841 0.75499290227890015 0.36119648814201355
0.76055800914764404 0.76182770729064941 0.33794388175010681
0.90004104375839233 0.77829229831695557 0.31014525890350342
0.38639074563980103 0.89164131879806519 0.48562502861022949
0.41821876168251038 0.88714838027954102 0.487924724817276
0.47937372326850891 0.88527184724807739 0.49834674596786499
0.55748951435089111 0.87937718629837036 0.50462216138839722
0.65278869867324829 0.89015835523605347 0.50831800699234009
0.76729542016983032 0.89646190404891968 0.49061113595962524
0.89569753408432007 0.91174125671386719 0.4770207405090332
0.017669662833213806 0.066111333668231964 0.37660038471221924
0.20326079428195953 0.066244684159755707 0.38160961866378784
0.42060637474060059 0.035867400467395782 0.3889109194278717
0.63011455535888672 0.004832548089325428 0.37884718179702759
0.78471922874450684 0.022713126614689827 0.37556397914886475
0.88635486364364624 0.18975293636322021 0.39465788006782532
0.975960373878479 0.31898355484008789 0.42775136232376099
0.0096288193017244339 0.2017277330160141 0.38283500075340271
0.20732995867729187 0.21800981462001801 0.39165720343589783
0.43565481901168823 0.22510418295860291 0.40451619029045105
0.63213431835174561 0.20407278835773468 0.39740946888923645
0.77188456058502197 0.24879315495491028 0.4025624692440033
0.87128019332885742 0.324138343334198 0.41650670766830444
0.966957688331604 0.38732019066810608 0.43491533398628235
0.00058637134497985244 0.41197600960731506 0.4074103832244873
0.17257426679134369 0.41425737738609314 0.41052335500717163
0.43309420347213745 0.41645562648773193 0.41913631558418274
0.61003720760345459 0.41789412498474121 0.40890598297119141
0.74345636367797852 0.42574211955070496 0.40451446175575256
0.85352927446365356 0.44137948751449585 0.40544947981834412
0.95510351657867432 0.47242358326911926 0.41502323746681213
0.095311842858791351 0.573444664478302 0.42029634118080139
0.26761737465858459 0.56771188974380493 0.42503711581230164
0.41410413384437561 0.55192393064498901 0.41961786150932312
0.56963461637496948 0.53853881359100342 0.40431654453277588
0.7151685357093811 0.5377686619758606 0.38019567728042603
0.83336025476455688 0.54580223560333252 0.36393007636070251
0.93959206342697144 0.56281489133834839 0.37510970234870911
0.25819182395935059 0.66855961084365845 0.43643882870674133
0.30951395630836487 0.66594415903091431 0.43329259753227234
0.41371861100196838 0.65505838394165039 0.43407374620437622
0.53455430269241333 0.64458757638931274 0.42500793933868408
0.67277491092681885 0.6498267650604248 0.41247925162315369
0.80188179016113281 0.65302985906600952 0.38863766193389893
0.92210131883621216 0.66539716720581055 0.36277985572814941
0.30611094832420349 0.76774793863296509 0.46159031987190247
0.35237604379653931 0.76414251327514648 0.46120744943618774
0.43382340669631958 0.7560577392578125 0.46492919325828552
0.5251196026802063 0.74934399127960205 0.46504753828048706
0.63863503932952881 0.75449162721633911 0.45914411544799805
0.76527661085128784 0.76217710971832275 0.44190353155136108
0.90443867444992065 0.7827879786491394 0.42665046453475952
0.39406046271324158 0.89372867345809937 0.53469526767730713
0.42715126276016235 0.89286261796951294 0.5396960973739624
0.48524579405784607 0.88792538642883301 0.54422450065612793
0.5628466010093689 0.88601624965667725 0.55921852588653564
0.655597984790802 0.8888709545135498 0.56183713674545288
0.76808720827102661 0.896820068359375 0.55230426788330078
0.89754819869995117 0.90841460227966309 0.53512692451477051
0.10523023456335068 0.09696650505065918 0.54829567670822144
0.26443439722061157 0.10093539208173752 0.55293768644332886
0.45798137784004211 0.11102700233459473 0.5619957447052002
0.63916635513305664 0.099329449236392975 0.5736008882522583
0.77212512493133545 0.075597144663333893 0.55239087343215942
0.8831639289855957 0.16704331338405609 0.54615968465805054
0.97569841146469116 0.29137530922889709 0.55498623847961426
0.1451951265335083 0.2298644632101059 0.55269867181777954
0.27887648344039917 0.24278828501701355 0.55740904808044434
0.46889197826385498 0.25865095853805542 0.5653148889541626
0.63700360059738159 0.26814109086990356 0.57311302423477173
0.7654755711555481 0.26107743382453918 0.55818551778793335
0.87034744024276733 0.29428949952125549 0.55405247211456299
0.96331918239593506 0.37032014131546021 0.56305724382400513
0.054788850247859955 0.37752270698547363 0.55216407775878906
0.25489071011543274 0.3916434645652771 0.55649483203887939
0.45832961797714233 0.41126924753189087 0.56453931331634521
0.62071102857589722 0.43747809529304504 0.56888109445571899
0.74516117572784424 0.43420615792274475 0.56735467910766602
0.85072541236877441 0.45843744277954102 0.57080036401748657
0.95151180028915405 0.48972216248512268 0.5794026255607605
0.11733119934797287 0.56649196147918701 0.56784248352050781
0.27423381805419922 0.56837761402130127 0.56841319799423218
0.45134884119033813 0.57189416885375977 0.57232546806335449
0.60058939456939697 0.56802380084991455 0.57408696413040161
0.72284406423568726 0.57042062282562256 0.5715632438659668
0.83000510931015015 0.57879316806793213 0.56257337331771851
0.94047319889068604 0.58644765615463257 0.5680842399597168
0.30600813031196594 0.68895232677459717 0.57459867000579834
0.37274384498596191 0.68542659282684326 0.57739710807800293
0.47705185413360596 0.68159019947052002 0.57629126310348511
0.57433098554611206 0.66747939586639404 0.57136845588684082
0.68624591827392578 0.66281211376190186 0.55864602327346802
0.80611151456832886 0.67042684555053711 0.54369401931762695
0.92992609739303589 0.66940879821777344 0.52758944034576416
0.40132603049278259 0.78186005353927612 0.59162884950637817
0.4349648654460907 0.78080183267593384 0.58917498588562012
0.48191499710083008 0.77412748336791992 0.57753729820251465
0.56002634763717651 0.76189625263214111 0.5759575366973877
0.65407389402389526 0.75887060165405273 0.56929653882980347
0.77023196220397949 0.76790958642959595 0.55595624446868896
0.91145032644271851 0.78133976459503174 0.54661267995834351
0.42007887363433838 0.90388661623001099 0.61573553085327148
0.44103005528450012 0.90145254135131836 0.6115538477897644
0.4890037477016449 0.89769357442855835 0.61275476217269897
0.56745415925979614 0.8940698504447937 0.61896336078643799
0.6568184494972229 0.89158958196640015 0.62489551305770874
0.76738488674163818 0.90401369333267212 0.62242966890335083
0.90520471334457397 0.91545206308364868 0.61012351512908936
0.28819122910499573 0.14413391053676605 0.67875462770462036
0.36941254138946533 0.15148338675498962 0.68117988109588623
0.51075857877731323 0.17048929631710052 0.68633627891540527
0.65790021419525146 0.21897245943546295 0.69081056118011475
0.77273505926132202 0.24270130693912506 0.69623285531997681
0.86134451627731323 0.25386315584182739 0.6817048192024231
0.97156322002410889 0.29279360175132751 0.67472022771835327
0.3026115894317627 0.26242956519126892 0.67503678798675537
0.38361692428588867 0.27378600835800171 0.67955756187438965
0.51262515783309937 0.28794386982917786 0.68330240249633789
0.65496879816055298 0.32283002138137817 0.68913936614990234
0.76473897695541382 0.3411044180393219 0.69492036104202271
0.85444873571395874 0.34239184856414795 0.68455672264099121
0.96687078475952148 0.36652490496635437 0.67920964956283569
0.27407005429267883 0.38689574599266052 0.67214685678482056
0.37324810028076172 0.40380021929740906 0.67554175853729248
0.50173062086105347 0.42331457138061523 0.678355872631073
0.6355782151222229 0.44931161403656006 0.68522876501083374
0.74869614839553833 0.46925514936447144 0.69014197587966919
0.84413546323776245 0.46802523732185364 0.68727201223373413
0.95811283588409424 0.48041224479675293 0.68565583229064941
0.24453146755695343 0.52535337209701538 0.66536885499954224
0.32922077178955078 0.52874886989593506 0.66694122552871704
0.45690929889678955 0.53618431091308594 0.66862541437149048
0.60515284538269043 0.56024086475372314 0.68246221542358398
0.72832381725311279 0.58258169889450073 0.69003921747207642
0.82766366004943848 0.58961635828018188 0.68919205665588379
0.94748204946517944 0.59347736835479736 0.69108933210372925
0.3137243390083313 0.67605984210968018 0.68322926759719849
0.37550503015518188 0.67860954999923706 0.68448883295059204
0.47692325711250305 0.67895716428756714 0.68685340881347656
0.593517005443573 0.68585675954818726 0.68924534320831299
0.70936423540115356 0.687591552734375 0.69262999296188354
0.81761741638183594 0.6916317343711853 0.69005769491195679
0.9367063045501709 0.69292724132537842 0.68486994504928589
0.38076728582382202 0.79906255006790161 0.70034134387969971
0.42336368560791016 0.80674755573272705 0.70113623142242432
0.50355023145675659 0.80067527294158936 0.70063167810440063
0.59500586986541748 0.7926250696182251 0.69551980495452881
0.6791759729385376 0.77857744693756104 0.68747568130493164
0.78624087572097778 0.77975386381149292 0.67728757858276367
0.92472845315933228 0.78474932909011841 0.6649773120880127
0.44208195805549622 0.91781395673751831 0.7219957709312439
0.46659013628959656 0.91894328594207764 0.71871018409729004
0.52540469169616699 0.91789740324020386 0.71836787462234497
0.58341556787490845 0.91306608915328979 0.70766085386276245
0.66469794511795044 0.90513163805007935 0.70608758926391602
0.77424699068069458 0.90659654140472412 0.70429211854934692
0.91812050342559814 0.92061108350753784 0.70174956321716309
0.45128718018531799 0.22645126283168793 0.79082292318344116
0.50124406814575195 0.23886270821094513 0.79354941844940186
0.58822262287139893 0.25931438803672791 0.79458522796630859
0.69049620628356934 0.30224108695983887 0.79745644330978394
0.7848820686340332 0.35816848278045654 0.80029261112213135
0.87358587980270386 0.38020870089530945 0.80262130498886108
0.95652109384536743 0.37782809138298035 0.79370659589767456
0.45604750514030457 0.31368803977966309 0.78657394647598267
0.50260978937149048 0.32223650813102722 0.79052555561065674
0.58427548408508301 0.3390144407749176 0.79069113731384277
0.68134808540344238 0.37117475271224976 0.79574179649353027
0.77891761064529419 0.41569793224334717 0.80088710784912109
0.86860197782516479 0.42838996648788452 0.80312824249267578
0.95193183422088623 0.43053117394447327 0.79414933919906616
0.43787038326263428 0.4323095977306366 0.78156524896621704
0.48130497336387634 0.43672478199005127 0.78252589702606201
0.56332767009735107 0.45115950703620911 0.78328043222427368
0.66938823461532593 0.47529017925262451 0.79207199811935425
0.76450133323669434 0.505443274974823 0.79840749502182007
0.85436159372329712 0.52037054300308228 0.79859715700149536
0.94541877508163452 0.51367324590682983 0.79281675815582275
0.34337499737739563 0.51656723022460938 0.76788234710693359
0.40295296907424927 0.52163219451904297 0.77112418413162231
0.5170707106590271 0.54271453619003296 0.77750098705291748
0.62773865461349487 0.56419116258621216 0.78475606441497803
0.74157345294952393 0.59436225891113281 0.79275065660476685
0.84042549133300781 0.61247199773788452 0.7974247932434082
0.94550573825836182 0.60552632808685303 0.79654669761657715
0.34257841110229492 0.6504141092300415 0.77723199129104614
0.38710138201713562 0.64829796552658081 0.77422374486923218
0.47045472264289856 0.64608973264694214 0.77623999118804932
0.57778346538543701 0.64902055263519287 0.77510088682174683
0.70991414785385132 0.67880219221115112 0.78863990306854248
0.83463311195373535 0.70696341991424561 0.80587625503540039
0.94584012031555176 0.70212644338607788 0.80437153577804565
0.37399855256080627 0.79201203584671021 0.79469770193099976
0.41537821292877197 0.79344147443771362 0.79554963111877441
0.48487100005149841 0.78862226009368896 0.79745835065841675
0.58666437864303589 0.79266750812530518 0.80018037557601929
0.69317817687988281 0.79436731338500977 0.80116564035415649
0.81756347417831421 0.80598694086074829 0.80770415067672729
0.94589197635650635 0.80785894393920898 0.80549079179763794
0.39212632179260254 0.93414807319641113 0.81326746940612793
0.4264712929725647 0.93193662166595459 0.81537753343582153
0.49216660857200623 0.93255144357681274 0.81785434484481812
0.58654296398162842 0.927665114402771 0.81802845001220703
0.69128143787384033 0.92627561092376709 0.81599074602127075
0.79224926233291626 0.91963398456573486 0.80745548009872437
0.9331013560295105 0.92551678419113159 0.80658239126205444
0.60123187303543091 0.38672181963920593 0.91115748882293701
0.62384235858917236 0.39496925473213196 0.91176140308380127
0.67260265350341797 0.41040965914726257 0.91144192218780518
0.73986691236495972 0.44237977266311646 0.91301077604293823
0.81464016437530518 0.47352927923202515 0.91278457641601562
0.89711004495620728 0.5119592547416687 0.9121740460395813
0.98073726892471313 0.51512151956558228 0.91843968629837036
0.59807401895523071 0.43722131848335266 0.91134351491928101
0.61719954013824463 0.44227838516235352 0.90566980838775635
0.66631984710693359 0.45381930470466614 0.91154575347900391
0.73303866386413574 0.47360950708389282 0.90881639719009399
0.81129610538482666 0.50664210319519043 0.91111922264099121
0.89582067728042603 0.53885382413864136 0.9150092601776123
0.98018693923950195 0.54236960411071777 0.91618043184280396
0.57802265882492065 0.51807010173797607 0.91054517030715942
0.6009061336517334 0.51967012882232666 0.90721005201339722
0.64806437492370605 0.52269500494003296 0.90474420785903931
0.72170370817184448 0.54448753595352173 0.90933656692504883
0.79819273948669434 0.56291288137435913 0.91081959009170532
0.88777834177017212 0.59199631214141846 0.91297364234924316
0.97706997394561768 0.59333759546279907 0.91697394847869873
0.51195245981216431 0.57954663038253784 0.90249288082122803
0.54686695337295532 0.58499324321746826 0.90505242347717285
0.61250251531600952 0.59615236520767212 0.90586733818054199
0.69475716352462769 0.61224919557571411 0.9110715389251709
0.78066903352737427 0.63208305835723877 0.91042882204055786
0.87686902284622192 0.6532890796661377 0.91303282976150513
0.97241342067718506 0.6600680947303772 0.91862046718597412
0.43032041192054749 0.66142529249191284 0.90233850479125977
0.46018809080123901 0.66035372018814087 0.903556227684021
0.52321583032608032 0.66019392013549805 0.90320539474487305
0.62934714555740356 0.67399519681930542 0.90637850761413574
0.74564969539642334 0.69795364141464233 0.91160297393798828
0.86619997024536133 0.72378861904144287 0.91845834255218506
0.97043997049331665 0.73610728979110718 0.92268317937850952
0.41240608692169189 0.78853464126586914 0.91336160898208618
0.43712127208709717 0.78456795215606689 0.91375535726547241
0.49358335137367249 0.78261572122573853 0.91188597679138184
0.57943570613861084 0.78178948163986206 0.91395169496536255
0.68046265840530396 0.77878832817077637 0.91514825820922852
0.82956844568252563 0.80192041397094727 0.92077451944351196
0.96972638368606567 0.82848197221755981 0.92992478609085083
0.37424364686012268 0.93025082349777222 0.93167847394943237
0.4033304750919342 0.93244075775146484 0.93149822950363159
0.46923789381980896 0.93410557508468628 0.9320867657661438
0.56605130434036255 0.93488615751266479 0.93269479274749756
0.67805373668670654 0.9320824146270752 0.93357306718826294
0.81039953231811523 0.93440437316894531 0.93498533964157104
0.96352332830429077 0.94113844633102417 0.93888950347900391
