luts/negative_new/fuji_800z_+.cube
# Created by: G'MIC (https://gmic.eu)
TITLE "fuji_800z_+"
# LUT size
LUT_3D_SIZE 5
# Data domain
DOMAIN_MIN 0.0 0.0 0.0
DOMAIN_MAX 1.0 1.0 1.0
# LUT data points
0.14218223094940186 0.10888128727674484 0.090885251760482788
0.2891465425491333 0.10466518253087997 0.091469436883926392
0.54623705148696899 0.05650266632437706 0.083101324737071991
0.83369731903076172 0.019706336781382561 0.05695674940943718
0.99706482887268066 0.1301787793636322 0.02436402253806591
0.15997637808322906 0.23433117568492889 0.11392877250909805
0.26240095496177673 0.25905570387840271 0.099622704088687897
0.53347837924957275 0.29430359601974487 0.04704742506146431
0.81398487091064453 0.29964134097099304 0.013597540557384491
0.99579077959060669 0.33589330315589905 0.005326499231159687
0.14028486609458923 0.42650282382965088 0.14584547281265259
0.2282874584197998 0.41771712899208069 0.14559526741504669
0.47213199734687805 0.51855289936065674 0.069645866751670837
0.78363066911697388 0.56648927927017212 0.0059601129032671452
0.97538232803344727 0.56078195571899414 0.0042069526389241219
0.16678188741207123 0.63497847318649292 0.20325583219528198
0.24829955399036407 0.61988389492034912 0.20246519148349762
0.43014705181121826 0.65025234222412109 0.19507645070552826
0.71945035457611084 0.72689265012741089 0.17145630717277527
0.95577585697174072 0.78270494937896729 0.12965990602970123
0.5124707818031311 0.86572086811065674 0.49173927307128906
0.54089659452438354 0.86125576496124268 0.4908348023891449
0.61632102727890015 0.85749083757400513 0.49854201078414917
0.75808167457580566 0.89468586444854736 0.52516579627990723
0.90958988666534424 0.93119138479232788 0.54307252168655396
0.17666663229465485 0.12352800369262695 0.22284883260726929
0.30901700258255005 0.12105546891689301 0.23656518757343292
0.60447627305984497 0.01204337365925312 0.24701300263404846
0.86130380630493164 0.0080690868198871613 0.24542428553104401
0.99993753433227539 0.080104514956474304 0.23810911178588867
0.16593217849731445 0.27346262335777283 0.23873507976531982
0.29918009042739868 0.28075376152992249 0.24556280672550201
0.57586818933486938 0.28264129161834717 0.2401207834482193
0.83647972345352173 0.28799954056739807 0.22802688181400299
0.99388045072555542 0.3283916711807251 0.22589671611785889
0.18490928411483765 0.50082385540008545 0.271016925573349
0.28658553957939148 0.47784125804901123 0.26454976201057434
0.5068972110748291 0.53524339199066162 0.25063109397888184
0.78697782754898071 0.55984199047088623 0.20512649416923523
0.97608011960983276 0.55901050567626953 0.17854458093643188
0.24957464635372162 0.67087113857269287 0.31092426180839539
0.31633010506629944 0.65715634822845459 0.30756974220275879
0.45449721813201904 0.65470784902572632 0.29579856991767883
0.72779971361160278 0.73228305578231812 0.31792494654655457
0.95173734426498413 0.7803196907043457 0.3154500424861908
0.53141146898269653 0.87291991710662842 0.53879272937774658
0.56143450736999512 0.86861258745193481 0.54049545526504517
0.62193655967712402 0.85932296514511108 0.53959751129150391
0.75957101583480835 0.89314794540405273 0.56733149290084839
0.91022187471389771 0.93409895896911621 0.59631788730621338
0.23184742033481598 0.14093925058841705 0.46205586194992065
0.35511630773544312 0.14549528062343597 0.47689160704612732
0.60597527027130127 0.11843816936016083 0.51853573322296143
0.90217024087905884 0.0053630303591489792 0.53284025192260742
1 0.16860522329807281 0.51460886001586914
0.17799390852451324 0.27276265621185303 0.47607403993606567
0.33639019727706909 0.30004796385765076 0.48903703689575195
0.60943949222564697 0.31899213790893555 0.52428323030471802
0.884651780128479 0.31791788339614868 0.53774547576904297
0.99913990497589111 0.37602889537811279 0.52836042642593384
0.10100428014993668 0.56846946477890015 0.51702964305877686
0.33530721068382263 0.56675279140472412 0.52142810821533203
0.57874399423599243 0.57420849800109863 0.53332871198654175
0.82055193185806274 0.57659941911697388 0.52513653039932251
0.98550939559936523 0.57914108037948608 0.52101320028305054
0.41385781764984131 0.74334675073623657 0.55832517147064209
0.47687068581581116 0.73180180788040161 0.55285584926605225
0.54785388708114624 0.6948205828666687 0.51487421989440918
0.75247323513031006 0.74405497312545776 0.5490608811378479
0.94837933778762817 0.76869672536849976 0.53279870748519897
0.57621294260025024 0.89218473434448242 0.64916026592254639
0.60237318277359009 0.88929706811904907 0.64682042598724365
0.64821112155914307 0.87588846683502197 0.63347285985946655
0.75595664978027344 0.88988077640533447 0.64747560024261475
0.91225898265838623 0.93296027183532715 0.68476611375808716
0.33716568350791931 0.17907272279262543 0.72088330984115601
0.44339004158973694 0.1848989874124527 0.7299073338508606
0.64008647203445435 0.21168731153011322 0.7436637282371521
0.86079615354537964 0.25375658273696899 0.76814484596252441
0.99815058708190918 0.30394956469535828 0.76069194078445435
0.30566513538360596 0.32125154137611389 0.72528457641601562
0.42210590839385986 0.33119955658912659 0.72995162010192871
0.62848889827728271 0.37267935276031494 0.74279820919036865
0.84927171468734741 0.41561633348464966 0.76792997121810913
0.9982185959815979 0.45977902412414551 0.77014708518981934
0.12415880709886551 0.50815778970718384 0.7134324312210083
0.31705102324485779 0.51578474044799805 0.71980500221252441
0.59209489822387695 0.56853383779525757 0.73666667938232422
0.82176196575164795 0.6192096471786499 0.76388710737228394
0.98956000804901123 0.64353245496749878 0.77893567085266113
0.41079592704772949 0.76831907033920288 0.75371819734573364
0.49173548817634583 0.76555740833282471 0.75547987222671509
0.64042180776596069 0.7668907642364502 0.75991648435592651
0.79351794719696045 0.77465403079986572 0.7666282057762146
0.95788049697875977 0.7858043909072876 0.76278418302536011
0.64474153518676758 0.9320216178894043 0.79402858018875122
0.66909962892532349 0.93102335929870605 0.79474329948425293
0.72080665826797485 0.92451757192611694 0.79213982820510864
0.77724277973175049 0.90210455656051636 0.76819926500320435
0.92312890291213989 0.9385831356048584 0.79586327075958252
0.56099385023117065 0.35698539018630981 0.91532415151596069
0.61894840002059937 0.36523875594139099 0.91755205392837524
0.74223476648330688 0.40299180150032043 0.91603082418441772
0.88003772497177124 0.48254460096359253 0.91221731901168823
0.99717468023300171 0.52841693162918091 0.92113149166107178
0.54867929220199585 0.44728890061378479 0.91425555944442749
0.61279666423797607 0.46339723467826843 0.91378229856491089
0.73587262630462646 0.49269828200340271 0.9111328125
0.87520706653594971 0.55390560626983643 0.91295468807220459
0.98909389972686768 0.5919034481048584 0.92078417539596558
0.4795360267162323 0.58543223142623901 0.90873003005981445
0.56213462352752686 0.59668600559234619 0.90931576490402222
0.70541012287139893 0.62353181838989258 0.90863364934921265
0.85486352443695068 0.6593737006187439 0.91027718782424927
0.98194444179534912 0.69448179006576538 0.92133742570877075
0.44007647037506104 0.75358361005783081 0.90593379735946655
0.49348637461662292 0.74945551156997681 0.90615361928939819
0.61515992879867554 0.74103224277496338 0.90552216768264771
0.81005913019180298 0.77679014205932617 0.91096657514572144
0.96618193387985229 0.82712894678115845 0.92388522624969482
0.6292077898979187 0.94889640808105469 0.92326158285140991
0.65757912397384644 0.94900035858154297 0.92387676239013672
0.72950232028961182 0.94803798198699951 0.92638117074966431
0.82987052202224731 0.94516313076019287 0.92928898334503174
0.95047849416732788 0.95116657018661499 0.9335131049156189
