luts/negative_new/fuji_800z_++.cube
# Created by: G'MIC (https://gmic.eu)
TITLE "fuji_800z_++"
# LUT size
LUT_3D_SIZE 5
# Data domain
DOMAIN_MIN 0.0 0.0 0.0
DOMAIN_MAX 1.0 1.0 1.0
# LUT data points
0.10179699212312698 0.13159157335758209 0.097945027053356171
0.25757640600204468 0.13462983071804047 0.096270620822906494
0.55133908987045288 0.08375181257724762 0.092500351369380951
0.86329072713851929 0.010296211577951908 0.066661253571510315
0.99997413158416748 0.10375891625881195 0.033715881407260895
0.10154929012060165 0.25379955768585205 0.12339791655540466
0.23345598578453064 0.27324864268302917 0.10877135396003723
0.53949069976806641 0.30192962288856506 0.05987880751490593
0.83746552467346191 0.29854544997215271 0.016184639185667038
0.99961775541305542 0.32148879766464233 0.0081046456471085548
0.077342823147773743 0.43203973770141602 0.15460866689682007
0.19912445545196533 0.42403289675712585 0.15630395710468292
0.49089023470878601 0.51743155717849731 0.084548607468605042
0.8125421404838562 0.56034016609191895 0.0070139416493475437
0.99171215295791626 0.54768717288970947 0.001544892555102706
0.17946036159992218 0.63542282581329346 0.21105900406837463
0.27173382043838501 0.61970382928848267 0.21664896607398987
0.45743030309677124 0.64884108304977417 0.20881973206996918
0.75708091259002686 0.72544741630554199 0.18166163563728333
0.98263305425643921 0.77516865730285645 0.14165033400058746
0.5658988356590271 0.85912120342254639 0.49255585670471191
0.59345901012420654 0.85507094860076904 0.49542483687400818
0.663116455078125 0.8495597243309021 0.49949178099632263
0.80209475755691528 0.88431429862976074 0.52454656362533569
0.94512921571731567 0.92533320188522339 0.54365259408950806
0.12498918175697327 0.14518408477306366 0.22912140190601349
0.27775514125823975 0.14540953934192657 0.23629568517208099
0.61302816867828369 0.031467992812395096 0.25616669654846191
0.8827473521232605 0.0047205160371959209 0.24863079190254211
0.99970829486846924 0.048174299299716949 0.24285490810871124
0.096946403384208679 0.29288208484649658 0.24821339547634125
0.27297142148017883 0.29576012492179871 0.25217252969741821
0.58496922254562378 0.29123967885971069 0.25077435374259949
0.86039376258850098 0.27464768290519714 0.23372852802276611
0.99823558330535889 0.31089994311332703 0.23091283440589905
0.17242391407489777 0.50301814079284668 0.27480509877204895
0.28113433718681335 0.47839373350143433 0.27187865972518921
0.53009301424026489 0.53379404544830322 0.25801116228103638
0.81816643476486206 0.55435889959335327 0.20911142230033875
0.99322104454040527 0.54668855667114258 0.18901340663433075
0.28303930163383484 0.66953819990158081 0.31896740198135376
0.33865740895271301 0.65156203508377075 0.30863627791404724
0.4744255542755127 0.65167009830474854 0.29983124136924744
0.76144987344741821 0.72950088977813721 0.32654178142547607
0.98064786195755005 0.76981490850448608 0.31475770473480225
0.58436912298202515 0.86494100093841553 0.53751039505004883
0.61043775081634521 0.86108803749084473 0.53849631547927856
0.67124646902084351 0.85291308164596558 0.54055070877075195
0.80419766902923584 0.88329827785491943 0.56615841388702393
0.94469988346099854 0.92458271980285645 0.5941346287727356
0.18838869035243988 0.16321159899234772 0.46634864807128906
0.34289121627807617 0.1680283397436142 0.47975727915763855
0.61748194694519043 0.13140249252319336 0.51552397012710571
0.92907464504241943 0.0052126566879451275 0.53088879585266113
1 0.1420903205871582 0.51034486293792725
0.13095404207706451 0.28617778420448303 0.47746929526329041
0.33555731177330017 0.30910781025886536 0.4932951033115387
0.62382084131240845 0.31803938746452332 0.52132844924926758
0.91243994235992432 0.31468456983566284 0.53606373071670532
0.99958479404449463 0.36782371997833252 0.52732104063034058
0.11971649527549744 0.56774365901947021 0.51601803302764893
0.35080385208129883 0.56582295894622803 0.52171915769577026
0.61340075731277466 0.5700080394744873 0.53253757953643799
0.8475678563117981 0.57117539644241333 0.52016961574554443
0.99359214305877686 0.57305747270584106 0.51564639806747437
0.45821243524551392 0.74206578731536865 0.55728650093078613
0.51600056886672974 0.73233187198638916 0.55225986242294312
0.58410096168518066 0.69204455614089966 0.51389330625534058
0.78912454843521118 0.74191325902938843 0.5503731369972229
0.97775721549987793 0.76016414165496826 0.53019362688064575
0.62995225191116333 0.88519829511642456 0.64946174621582031
0.65216857194900513 0.88222551345825195 0.64556515216827393
0.7005687952041626 0.87023639678955078 0.63690102100372314
0.80342531204223633 0.87980502843856812 0.64756560325622559
0.94302034378051758 0.9264950156211853 0.68455833196640015
0.33594417572021484 0.19969893991947174 0.71828556060791016
0.45749512314796448 0.1970733255147934 0.7265545129776001
0.66162985563278198 0.21510232985019684 0.74167203903198242
0.88830578327178955 0.24218377470970154 0.76645255088806152
1 0.29489585757255554 0.76030915975570679
0.31104043126106262 0.32401800155639648 0.72533631324768066
0.4393613338470459 0.33020102977752686 0.72613275051116943
0.66228926181793213 0.36379340291023254 0.74099421501159668
0.87782508134841919 0.40767055749893188 0.76400196552276611
0.99822598695755005 0.45105952024459839 0.7696416974067688
0.1588577926158905 0.50581258535385132 0.71071863174438477
0.3456358015537262 0.51389265060424805 0.71881008148193359
0.63135218620300293 0.56045329570770264 0.735695481300354
0.85458332300186157 0.61068695783615112 0.7640036940574646
0.99341857433319092 0.63814204931259155 0.78147429227828979
0.46531680226325989 0.76680278778076172 0.75537174940109253
0.54394239187240601 0.76126736402511597 0.75876438617706299
0.68548130989074707 0.76199096441268921 0.76389789581298828
0.83055096864700317 0.76499611139297485 0.76639264822006226
0.98369693756103516 0.77357792854309082 0.76552534103393555
0.69684237241744995 0.92015713453292847 0.79972273111343384
0.71808135509490967 0.91563224792480469 0.79988163709640503
0.77286183834075928 0.91542285680770874 0.79940295219421387
0.82202702760696411 0.88918238878250122 0.77096164226531982
0.94927978515625 0.92756158113479614 0.80179554224014282
0.58428335189819336 0.3477027416229248 0.9234125018119812
0.64674496650695801 0.35715463757514954 0.92324960231781006
0.77341598272323608 0.39574804902076721 0.92307198047637939
0.9107128381729126 0.47237077355384827 0.9179912805557251
0.99702632427215576 0.52067124843597412 0.93111789226531982
0.57952171564102173 0.44601619243621826 0.92078953981399536
0.6455264687538147 0.45794683694839478 0.92263948917388916
0.77115046977996826 0.48798319697380066 0.92015993595123291
0.90895622968673706 0.54807931184768677 0.91951906681060791
0.99742323160171509 0.58761101961135864 0.92916154861450195
0.51477867364883423 0.57956588268280029 0.91728073358535767
0.59931927919387817 0.5940629243850708 0.91689151525497437
0.74350863695144653 0.61721742153167725 0.91659247875213623
0.89097315073013306 0.6568487286567688 0.91834902763366699
0.99366044998168945 0.69357103109359741 0.92630916833877563
0.48996686935424805 0.7492363452911377 0.91364693641662598
0.54173249006271362 0.74511587619781494 0.91433846950531006
0.66051203012466431 0.73713469505310059 0.91392916440963745
0.84905511140823364 0.77200812101364136 0.91853791475296021
0.9863397479057312 0.81953275203704834 0.93117326498031616
0.68371939659118652 0.94149899482727051 0.9290958046913147
0.70969873666763306 0.94051927328109741 0.92940676212310791
0.77616691589355469 0.93785494565963745 0.93050718307495117
0.86780929565429688 0.9371565580368042 0.9338681697845459
0.96991300582885742 0.94958674907684326 0.93976449966430664
