luts/negative_new/fuji_400h_++.cube
# Created by: G'MIC (https://gmic.eu)
TITLE "fuji_400h_++"
# LUT size
LUT_3D_SIZE 13
# Data domain
DOMAIN_MIN 0.0 0.0 0.0
DOMAIN_MAX 1.0 1.0 1.0
# LUT data points
0.069949142634868622 0.10743322968482971 0.047495570033788681
0.10808450728654861 0.10981842875480652 0.044562306255102158
0.1725441962480545 0.11085305362939835 0.043508104979991913
0.25563731789588928 0.10932862758636475 0.041116483509540558
0.35942944884300232 0.10139637440443039 0.038890674710273743
0.47217673063278198 0.076468177139759064 0.032637905329465866
0.59190964698791504 0.03387102484703064 0.023297837004065514
0.70114850997924805 0.014658250845968723 0.01397577952593565
0.79083538055419922 0.021002272143959999 0.0061271218582987785
0.86033141613006592 0.054351266473531723 0.0033610176760703325
0.9188762903213501 0.12383587658405304 0.0027743170503526926
0.97357338666915894 0.18526530265808105 0.0032181683927774429
0.99904650449752808 0.2373625636100769 0.0050864573568105698
0.053679537028074265 0.1415136307477951 0.043904982507228851
0.094348207116127014 0.14592234790325165 0.043261270970106125
0.16260109841823578 0.15041501820087433 0.041144546121358871
0.25226911902427673 0.151349276304245 0.036717299371957779
0.35677143931388855 0.14412100613117218 0.031029315665364265
0.46952280402183533 0.13644477725028992 0.023683225736021996
0.58971834182739258 0.11214472353458405 0.015155118890106678
0.69895511865615845 0.094195976853370667 0.0089219938963651657
0.78344565629959106 0.10072503238916397 0.0062992172315716743
0.85447710752487183 0.13644565641880035 0.0072537441737949848
0.91598063707351685 0.18302232027053833 0.0072075636126101017
0.97084391117095947 0.22996151447296143 0.0043097850866615772
0.99622589349746704 0.27099955081939697 0.004249991849064827
0.022477408871054649 0.19446000456809998 0.043680556118488312
0.067972041666507721 0.19718056917190552 0.041313394904136658
0.14357350766658783 0.20077982544898987 0.034581907093524933
0.24305634200572968 0.20359820127487183 0.027242861688137054
0.35181581974029541 0.20625199377536774 0.017207995057106018
0.46872559189796448 0.205164834856987 0.011894914321601391
0.58816021680831909 0.19669042527675629 0.0069318437017500401
0.69521301984786987 0.19570711255073547 0.0056314356625080109
0.77804619073867798 0.202455073595047 0.0051121283322572708
0.84846723079681396 0.22080273926258087 0.0055776857770979404
0.91041320562362671 0.252065509557724 0.0071741142310202122
0.96420967578887939 0.29076433181762695 0.0075584263540804386
0.99233585596084595 0.32021072506904602 0.0090792486444115639
0.0051706503145396709 0.26391482353210449 0.036332897841930389
0.026681084185838699 0.26114544272422791 0.037464756518602371
0.11169019341468811 0.26713848114013672 0.03129245713353157
0.2221960723400116 0.27283719182014465 0.021621285006403923
0.34202131628990173 0.27860340476036072 0.010278844274580479
0.46502253413200378 0.28253033757209778 0.007741980254650116
0.57851332426071167 0.28377300500869751 0.007410894613713026
0.68199563026428223 0.28640496730804443 0.0058870650827884674
0.76847940683364868 0.29282233119010925 0.0055663762614130974
0.83989852666854858 0.30547136068344116 0.0039604785852134228
0.90282601118087769 0.32942169904708862 0.0041371812112629414
0.95621061325073242 0.35363459587097168 0.0049666310660541058
0.98996800184249878 0.37701639533042908 0.0078175263479351997
0.0019230861216783524 0.34142661094665527 0.020370572805404663
0.0049679325893521309 0.3396909236907959 0.025980871170759201
0.067784346640110016 0.34081462025642395 0.025221999734640121
0.19535814225673676 0.34831318259239197 0.016506928950548172
0.32525742053985596 0.35757458209991455 0.0086261378601193428
0.45098909735679626 0.36375230550765991 0.0077120610512793064
0.56666451692581177 0.36817511916160583 0.0077482336200773716
0.668864905834198 0.3745458722114563 0.0060351202264428139
0.75581073760986328 0.38129183650016785 0.005231805145740509
0.82568919658660889 0.39185026288032532 0.0040215733461081982
0.88805162906646729 0.40483403205871582 0.0042323390953242779
0.94603961706161499 0.4217657744884491 0.0039610471576452255
0.99055635929107666 0.44048780202865601 0.002717380877584219
0 0.42711707949638367 0.013394015841186047
0.0013457353925332427 0.42652809619903564 0.014708216302096844
0.027125952765345573 0.42174729704856873 0.017673447728157043
0.16476148366928101 0.42465928196907043 0.012363105081021786
0.29937660694122314 0.43263727426528931 0.0068792304955422878
0.4246857762336731 0.4402032196521759 0.0051404763944447041
0.54355114698410034 0.45187100768089294 0.0048000859096646309
0.65232527256011963 0.46155503392219543 0.0037242365069687366
0.73845201730728149 0.46695855259895325 0.0031806197948753834
0.80540519952774048 0.47414311766624451 0.0039093168452382088
0.86842155456542969 0.48303773999214172 0.0039332369342446327
0.93007832765579224 0.49558919668197632 0.0037214541807770729
0.98367404937744141 0.50642424821853638 0.00097702629864215851
0 0.50992494821548462 0.0085769500583410263
0.00025960884522646666 0.50957536697387695 0.0098162777721881866
0.0092962970957159996 0.50373685359954834 0.013841995969414711
0.1345343142747879 0.50112676620483398 0.015051673166453838
0.28377863764762878 0.50605028867721558 0.0080266911536455154
0.40564063191413879 0.51348286867141724 0.0052602579817175865
0.52191781997680664 0.52363014221191406 0.0044644824229180813
0.63069868087768555 0.53453105688095093 0.0033361546229571104
0.71740949153900146 0.54325693845748901 0.0023735496215522289
0.78725552558898926 0.54995089769363403 0.0035647074691951275
0.85287934541702271 0.55601334571838379 0.0039215688593685627
0.91650289297103882 0.56472617387771606 0.0039215688593685627
0.97319453954696655 0.57132858037948608 0.0019140056101605296
0 0.58733212947845459 0.010315015912055969
0.0003869599022436887 0.58623886108398438 0.013126477599143982
0.0095525104552507401 0.58168041706085205 0.022623084485530853
0.12516048550605774 0.57667058706283569 0.029948649927973747
0.27737605571746826 0.57640671730041504 0.020680984482169151
0.39566272497177124 0.58284491300582886 0.010400944389402866
0.50652855634689331 0.58942675590515137 0.005824653897434473
0.60893160104751587 0.59674078226089478 0.0034267350565642118
0.69213426113128662 0.60681134462356567 0.0035356259904801846
0.76919186115264893 0.61595314741134644 0.0037651511374861002
0.83701199293136597 0.62325453758239746 0.003382260212674737
0.90316808223724365 0.63159769773483276 0.0038352217525243759
0.96647673845291138 0.63757485151290894 0.0010874879080802202
0.00055898033315315843 0.66013723611831665 0.042318187654018402
0.0021355573553591967 0.65818381309509277 0.044680949300527573
0.027099998667836189 0.65441215038299561 0.054595109075307846
0.16354826092720032 0.64914596080780029 0.065260976552963257
0.28956395387649536 0.64736264944076538 0.065671928226947784
0.39920026063919067 0.64962220191955566 0.045620426535606384
0.49767854809761047 0.65268617868423462 0.023718066513538361
0.58878147602081299 0.6578601598739624 0.0071642706170678139
0.66916215419769287 0.66715103387832642 0.0064986585639417171
0.74794232845306396 0.67635923624038696 0.0055352305062115192
0.82298123836517334 0.68933326005935669 0.0015232609584927559
0.8892408013343811 0.69706070423126221 0.0022481880150735378
0.95395094156265259 0.70272284746170044 0.0023290147073566914
0.0069240196608006954 0.72762584686279297 0.10625867545604706
0.019825715571641922 0.72652608156204224 0.1127171665430069
0.10488441586494446 0.72198027372360229 0.11927390098571777
0.21928732097148895 0.71610599756240845 0.1280779242515564
0.32090902328491211 0.71454650163650513 0.132415771484375
0.41647553443908691 0.71488714218139648 0.13142700493335724
0.50299614667892456 0.7165791392326355 0.11032696813344955
0.57976549863815308 0.72024381160736084 0.082652270793914795
0.65414106845855713 0.72527015209197998 0.047334365546703339
0.72687536478042603 0.73197388648986816 0.020963437855243683
0.80220168828964233 0.74435168504714966 0.0060916077345609665
0.87284904718399048 0.75458377599716187 0.0052495771087706089
0.94208163022994995 0.76482397317886353 0.0037372515071183443
0.099212363362312317 0.79236280918121338 0.19121719896793365
0.14843462407588959 0.78991717100143433 0.19572409987449646
0.2145971953868866 0.78710240125656128 0.2047467976808548
0.288063645362854 0.78303009271621704 0.20798163115978241
0.36369574069976807 0.78029263019561768 0.21392671763896942
0.43602606654167175 0.77746480703353882 0.21979430317878723
0.51110589504241943 0.78034055233001709 0.21311445534229279
0.5810663104057312 0.78401702642440796 0.19901703298091888
0.64571410417556763 0.78665721416473389 0.17476154863834381
0.71399146318435669 0.79188889265060425 0.13941588997840881
0.78185755014419556 0.79808318614959717 0.10544048994779587
0.85339045524597168 0.80778294801712036 0.065881334245204926
0.93312162160873413 0.82432997226715088 0.051037266850471497
0.25661513209342957 0.85707652568817139 0.29250466823577881
0.27902898192405701 0.85511618852615356 0.29812103509902954
0.31517836451530457 0.85351133346557617 0.30426037311553955
0.36244404315948486 0.85138201713562012 0.30674505233764648
0.41455760598182678 0.84859895706176758 0.31381547451019287
0.46999070048332214 0.84652364253997803 0.32315877079963684
0.52805560827255249 0.84749144315719604 0.32467645406723022
0.58785068988800049 0.85023742914199829 0.32046279311180115
0.6466066837310791 0.85287714004516602 0.30641359090805054
0.70803731679916382 0.85677367448806763 0.28802227973937988
0.77441310882568359 0.86166554689407349 0.27341800928115845
0.84077757596969604 0.86637872457504272 0.25073921680450439
0.91146999597549438 0.87677514553070068 0.23545701801776886
0.37857863306999207 0.92263990640640259 0.42247068881988525
0.39000698924064636 0.92048722505569458 0.4241337776184082
0.41361731290817261 0.91997092962265015 0.42976829409599304
0.44280552864074707 0.91838622093200684 0.43509748578071594
0.47791549563407898 0.91580337285995483 0.4408901035785675
0.52076256275177002 0.91415649652481079 0.45137685537338257
0.56601738929748535 0.91330695152282715 0.45750313997268677
0.6140100359916687 0.91581910848617554 0.45820638537406921
0.66441953182220459 0.91967213153839111 0.45373228192329407
0.71741628646850586 0.92176151275634766 0.44303324818611145
0.77740770578384399 0.92747849225997925 0.43813648819923401
0.84114933013916016 0.93134164810180664 0.42659738659858704
0.90624827146530151 0.93808537721633911 0.420662522315979
0.077467285096645355 0.11208850890398026 0.085766643285751343
0.11415025591850281 0.11194929480552673 0.084758490324020386
0.17636027932167053 0.11060690879821777 0.083460412919521332
0.26306578516960144 0.10812871903181076 0.080621577799320221
0.36843159794807434 0.09817543625831604 0.08151581883430481
0.48153418302536011 0.07470017671585083 0.081142038106918335
0.60066890716552734 0.033830471336841583 0.07591189444065094
0.70705568790435791 0.016541006043553352 0.071445092558860779
0.79316753149032593 0.023096749559044838 0.065389923751354218
0.86147791147232056 0.062906347215175629 0.055262081325054169
0.92011791467666626 0.13210098445415497 0.04780743271112442
0.97102677822113037 0.19109246134757996 0.043991673737764359
0.9982675313949585 0.24095429480075836 0.043949499726295471
0.060488112270832062 0.14803548157215118 0.084633246064186096
0.1078253835439682 0.15303358435630798 0.088763311505317688
0.17194294929504395 0.15346731245517731 0.08501105010509491
0.26611071825027466 0.15296943485736847 0.079506099224090576
0.37250766158103943 0.14603801071643829 0.0772438645362854
0.48389175534248352 0.13464830815792084 0.070926710963249207
0.60042458772659302 0.11194616556167603 0.06740182638168335
0.70676171779632568 0.099054820835590363 0.063658788800239563
0.78748637437820435 0.10999175161123276 0.055795960128307343
0.8573378324508667 0.14312541484832764 0.04232749342918396
0.91833227872848511 0.18726395070552826 0.035538915544748306
0.97133314609527588 0.23109735548496246 0.032351713627576828
0.99762701988220215 0.27170315384864807 0.036155417561531067
0.03649076446890831 0.20421731472015381 0.085335493087768555
0.092019177973270416 0.20582802593708038 0.085722513496875763
0.1609380841255188 0.20516110956668854 0.080767929553985596
0.25942078232765198 0.20697039365768433 0.073772013187408447
0.36990576982498169 0.20607589185237885 0.066217146813869476
0.48326027393341064 0.20227143168449402 0.05569082498550415
0.59782004356384277 0.19671794772148132 0.050048857927322388
0.70041871070861816 0.19569511711597443 0.041263744235038757
0.78274565935134888 0.20492000877857208 0.033781971782445908
0.85203778743743896 0.2261878103017807 0.026521600782871246
0.91181737184524536 0.25541496276855469 0.022615410387516022
0.96519660949707031 0.29029104113578796 0.020533094182610512
0.9949105978012085 0.31916418671607971 0.02988046407699585
0.0097705470398068428 0.2731107771396637 0.081192150712013245
0.048898719251155853 0.27204960584640503 0.081909701228141785
0.13592150807380676 0.27383428812026978 0.080803997814655304
0.24319535493850708 0.27826148271560669 0.069971583783626556
0.36117860674858093 0.28269952535629272 0.050817437469959259
0.47734835743904114 0.28349336981773376 0.03654702752828598
0.59080016613006592 0.28389039635658264 0.022115938365459442
0.68876004219055176 0.28798270225524902 0.019069626927375793
0.77398145198822021 0.29490676522254944 0.014358804561197758
0.8441963791847229 0.30879285931587219 0.011811454780399799
0.90478706359863281 0.33120548725128174 0.010502954013645649
0.95801270008087158 0.35445383191108704 0.0089313285425305367
0.99174046516418457 0.37801492214202881 0.012498773634433746
0.0040107876993715763 0.35407128930091858 0.073907844722270966
0.012474658899009228 0.35108116269111633 0.077278152108192444
0.097806416451931 0.34958496689796448 0.079587988555431366
0.21720585227012634 0.35469928383827209 0.066963404417037964
0.3395463228225708 0.36307287216186523 0.043874867260456085
0.46294590830802917 0.36899986863136292 0.024748049676418304
0.57928520441055298 0.37269884347915649 0.011549871414899826
0.67703688144683838 0.37546601891517639 0.0094426022842526436
0.76160323619842529 0.38116616010665894 0.0066262786276638508
0.83088105916976929 0.39249494671821594 0.0053523792885243893
0.89142650365829468 0.40652540326118469 0.0064375633373856544
0.94720816612243652 0.42422977089881897 0.0053083831444382668
0.98944878578186035 0.44190528988838196 0.00296171591617167
0.00069636927219107747 0.43866744637489319 0.068253055214881897
0.0044574062339961529 0.43579116463661194 0.071697160601615906
0.048874471336603165 0.43070691823959351 0.075616694986820221
0.18661972880363464 0.43294543027877808 0.070451594889163971
0.3124840259552002 0.43871858716011047 0.051255602389574051
0.436271071434021 0.44538602232933044 0.025955857709050179
0.55827957391738892 0.45765376091003418 0.010545873083174229
0.66052150726318359 0.46237865090370178 0.0067883511073887348
0.74450880289077759 0.46439188718795776 0.0043803197331726551
0.81243282556533813 0.47279861569404602 0.0047389459796249866
0.87481886148452759 0.48291805386543274 0.0038737875875085592
0.93267726898193359 0.4960017204284668 0.0054382621310651302
0.98056161403656006 0.50847572088241577 0.0041203368455171585
8.0692065239418298e-05 0.51789659261703491 0.062985271215438843
0.0030498879496008158 0.51646357774734497 0.065816663205623627
0.024300370365381241 0.51198500394821167 0.073639735579490662
0.16592051088809967 0.50920671224594116 0.077554322779178619
0.29928529262542725 0.51211643218994141 0.062208946794271469
0.41392725706100464 0.51603621244430542 0.039951324462890625
0.52846223115921021 0.52365684509277344 0.017593966796994209
0.63636612892150879 0.5352291464805603 0.0061726886779069901
0.72203314304351807 0.54291379451751709 0.0041855755262076855
0.79284489154815674 0.54994648694992065 0.0040545295923948288
0.85904073715209961 0.55589312314987183 0.0038468902930617332
0.91956758499145508 0.56456965208053589 0.0051761404611170292
0.97416329383850098 0.57175832986831665 0.0041578402742743492
0.001302562071941793 0.59151935577392578 0.072775430977344513
0.0052399579435586929 0.59067320823669434 0.079175017774105072
0.023257028311491013 0.58680921792984009 0.086788341403007507
0.16137219965457916 0.57981812953948975 0.096065238118171692
0.29043141007423401 0.57999199628829956 0.088606454432010651
0.4033128023147583 0.5846182107925415 0.070300444960594177
0.5094178318977356 0.58806717395782471 0.038511957973241806
0.60719770193099976 0.595298171043396 0.016367355361580849
0.69658088684082031 0.60768741369247437 0.0045943465083837509
0.774810791015625 0.61894422769546509 0.0030551985837519169
0.83979743719100952 0.62628811597824097 0.0048484201543033123
0.90420830249786377 0.63222885131835938 0.0043633254244923592
0.96685165166854858 0.6358148455619812 0.0019987965933978558
0.0034265555441379547 0.662342369556427 0.11120108515024185
0.0040109972469508648 0.66120243072509766 0.10985707491636276
0.050787083804607391 0.65782046318054199 0.11545535922050476
0.19159826636314392 0.65192282199859619 0.12527748942375183
0.30687549710273743 0.6502835750579834 0.12439211457967758
0.40814730525016785 0.65210753679275513 0.112247034907341
0.50260955095291138 0.65322798490524292 0.088225871324539185
0.59017795324325562 0.65728861093521118 0.057349648326635361
0.67185449600219727 0.66566222906112671 0.029887061566114426
0.75096720457077026 0.67716127634048462 0.010090278461575508
0.82296901941299438 0.69049191474914551 0.0056803086772561073
0.8892742395401001 0.6987537145614624 0.0046561146154999733
0.95240145921707153 0.70219993591308594 0.0029093273915350437
0.011329576373100281 0.73005080223083496 0.15783138573169708
0.038036063313484192 0.72855335474014282 0.15714487433433533
0.13407829403877258 0.72505146265029907 0.16313695907592773
0.23923249542713165 0.71967506408691406 0.17428530752658844
0.33738169074058533 0.71753036975860596 0.18020692467689514
0.42326954007148743 0.71645969152450562 0.17852424085140228
0.503803551197052 0.71774494647979736 0.16502176225185394
0.58470505475997925 0.72004407644271851 0.14064286649227142
0.65851414203643799 0.72532480955123901 0.10979960113763809
0.72845220565795898 0.73265361785888672 0.06773936003446579
0.80116593837738037 0.74480879306793213 0.033301632851362228
0.87463092803955078 0.757945716381073 0.015483257360756397
0.9430537223815918 0.7661089301109314 0.010847009718418121
0.13152958452701569 0.79397487640380859 0.22557626664638519
0.17162075638771057 0.79135394096374512 0.22995838522911072
0.22696751356124878 0.78892421722412109 0.23725429177284241
0.29739516973495483 0.78467869758605957 0.24161660671234131
0.37245196104049683 0.7819022536277771 0.24540896713733673
0.44014367461204529 0.77906137704849243 0.25024980306625366
0.51263892650604248 0.78030240535736084 0.24834491312503815
0.58516931533813477 0.78302204608917236 0.23762297630310059
0.65255820751190186 0.78746551275253296 0.21573501825332642
0.71669012308120728 0.792854905128479 0.18846148252487183
0.78132724761962891 0.7992701530456543 0.15925893187522888
0.85466915369033813 0.80970257520675659 0.12579460442066193
0.93312197923660278 0.82530683279037476 0.10734448581933975
0.26911377906799316 0.85737323760986328 0.31806042790412903
0.28989702463150024 0.85573863983154297 0.32500138878822327
0.32397717237472534 0.8532148003578186 0.32864823937416077
0.36767116189002991 0.85069113969802856 0.3284723162651062
0.41920840740203857 0.84881120920181274 0.3343082070350647
0.47148898243904114 0.84658801555633545 0.34233692288398743
0.52932232618331909 0.84701800346374512 0.3476671576499939
0.58952027559280396 0.8494834303855896 0.3410027027130127
0.64962190389633179 0.8525090217590332 0.33084562420845032
0.71010887622833252 0.8567274808883667 0.31475469470024109
0.77476507425308228 0.86207234859466553 0.2993587851524353
0.84229391813278198 0.86898404359817505 0.28466352820396423
0.9128231406211853 0.87737900018692017 0.26394164562225342
0.38250714540481567 0.92153137922286987 0.43749579787254333
0.39553844928741455 0.92037642002105713 0.44023346900939941
0.41717401146888733 0.917991042137146 0.4427495002746582
0.44398966431617737 0.91525524854660034 0.44291532039642334
0.48105043172836304 0.91566294431686401 0.45246228575706482
0.52221274375915527 0.91466844081878662 0.46355104446411133
0.56869280338287354 0.91436326503753662 0.47308102250099182
0.61548590660095215 0.91605544090270996 0.47062551975250244
0.6658095121383667 0.91948670148849487 0.46887576580047607
0.72000741958618164 0.92174679040908813 0.45910528302192688
0.77959096431732178 0.92743217945098877 0.45325568318367004
0.84226447343826294 0.93229907751083374 0.44451108574867249
0.90678340196609497 0.93722063302993774 0.43330162763595581
0.087514139711856842 0.11571777611970901 0.14176605641841888
0.12476927787065506 0.11601337790489197 0.14230962097644806
0.18226298689842224 0.11355234682559967 0.14116212725639343
0.27257457375526428 0.10986901074647903 0.145289346575737
0.37650829553604126 0.090830393135547638 0.14561055600643158
0.4940984845161438 0.048319410532712936 0.14410552382469177
0.61009913682937622 0.017661210149526596 0.14644822478294373
0.71536314487457275 0.011610652320086956 0.15252548456192017
0.79876607656478882 0.025875719264149666 0.15590712428092957
0.865040123462677 0.076842620968818665 0.15730629861354828
0.92125481367111206 0.14397178590297699 0.15932011604309082
0.97233104705810547 0.1998189240694046 0.15741971135139465
0.996570885181427 0.24559259414672852 0.16091248393058777
0.073849745094776154 0.14976802468299866 0.14324250817298889
0.12138460576534271 0.15405130386352539 0.14737997949123383
0.18367528915405273 0.15602752566337585 0.14572423696517944
0.27276444435119629 0.15165716409683228 0.14364469051361084
0.38093665242195129 0.14061412215232849 0.14515915513038635
0.49952727556228638 0.11409496515989304 0.14688554406166077
0.61296111345291138 0.097596094012260437 0.14991499483585358
0.71651095151901245 0.097667217254638672 0.15348102152347565
0.79621428251266479 0.11606746166944504 0.15174220502376556
0.86147582530975342 0.1513955146074295 0.14703245460987091
0.91815692186355591 0.1948457658290863 0.14638592302799225
0.97188395261764526 0.23834261298179626 0.14842604100704193
0.99734717607498169 0.27988216280937195 0.15535356104373932
0.048856053501367569 0.20809733867645264 0.14778381586074829
0.10854551941156387 0.21067000925540924 0.14902804791927338
0.18073731660842896 0.21518804132938385 0.14914162456989288
0.2729332447052002 0.21162709593772888 0.14628776907920837
0.38794773817062378 0.2049296498298645 0.14779393374919891
0.50146085023880005 0.19848133623600006 0.14745341241359711
0.61154323816299438 0.19599452614784241 0.14342613518238068
0.70786541700363159 0.19516409933567047 0.13701622188091278
0.78831100463867188 0.20657706260681152 0.13143952190876007
0.85496503114700317 0.23216502368450165 0.13110306859016418
0.91316336393356323 0.26205959916114807 0.1286470890045166
0.96573901176452637 0.2962859570980072 0.12957921624183655
0.99435245990753174 0.32585126161575317 0.14306531846523285
0.015596651472151279 0.28416496515274048 0.15176926553249359
0.078112177550792694 0.28566500544548035 0.15285506844520569
0.16761916875839233 0.28403815627098083 0.15289920568466187
0.265573650598526 0.2835574746131897 0.14762388169765472
0.38176238536834717 0.28562939167022705 0.14121966063976288
0.49688294529914856 0.28601342439651489 0.13449715077877045
0.60399693250656128 0.28454649448394775 0.11643797904253006
0.69628328084945679 0.28601795434951782 0.10689832270145416
0.77846932411193848 0.29583740234375 0.10519315302371979
0.84782558679580688 0.31390318274497986 0.10689173638820648
0.90782326459884644 0.33546015620231628 0.10551603883504868
0.96115016937255859 0.35898268222808838 0.1073538213968277
0.99328958988189697 0.37855508923530579 0.11420684307813644
0.0068975561298429966 0.36922574043273926 0.15423959493637085
0.048742376267910004 0.36918213963508606 0.15506796538829803
0.14681591093540192 0.36526405811309814 0.1573944091796875
