luts/negative_new/fuji_160c_++.cube
# Created by: G'MIC (https://gmic.eu)
TITLE "fuji_160c_++"
# LUT size
LUT_3D_SIZE 7
# Data domain
DOMAIN_MIN 0.0 0.0 0.0
DOMAIN_MAX 1.0 1.0 1.0
# LUT data points
0.070051617920398712 0.089225977659225464 0.056576717644929886
0.17164419591426849 0.090186715126037598 0.056506946682929993
0.33615061640739441 0.081188797950744629 0.056971307843923569
0.53974807262420654 0.033274959772825241 0.05452403798699379
0.72500157356262207 0.017533186823129654 0.049500111490488052
0.86696434020996094 0.11274538189172745 0.053334686905145645
0.97490608692169189 0.23944324254989624 0.075622916221618652
0.025495221838355064 0.18665069341659546 0.056687790900468826
0.15093147754669189 0.19261014461517334 0.054383985698223114
0.33764690160751343 0.19666002690792084 0.043666556477546692
0.537395179271698 0.18140296638011932 0.034171923995018005
0.71510773897171021 0.18637105822563171 0.033339392393827438
0.85865962505340576 0.23557695746421814 0.028281416743993759
0.97047799825668335 0.31458950042724609 0.053015060722827911
0.00315831508487463 0.34356233477592468 0.032885681837797165
0.050147037953138351 0.33902844786643982 0.035865064710378647
0.29543158411979675 0.35258731245994568 0.020042913034558296
0.51788312196731567 0.35824936628341675 0.0087397554889321327
0.70595729351043701 0.35432329773902893 0.0080056730657815933
0.83852982521057129 0.38371267914772034 0.0086670517921447754
0.95716923475265503 0.42906534671783447 0.012555230408906937
0 0.50533604621887207 0.0081004723906517029
0.003581940894946456 0.5012439489364624 0.011683998629450798
0.23072050511837006 0.50338506698608398 0.010698774829506874
0.47207480669021606 0.51345032453536987 0.0050464854575693607
0.67335611581802368 0.52231806516647339 0.0052240560762584209
0.81719839572906494 0.52961438894271851 0.0046804388985037804
0.93384754657745361 0.5514371395111084 0.0043211993761360645
5.7564528106013313e-05 0.64991283416748047 0.023443259298801422
0.00066737754968926311 0.64694118499755859 0.034065965563058853
0.21375539898872375 0.6387900710105896 0.045861441642045975
0.44794917106628418 0.6395685076713562 0.036782208830118179
0.63089150190353394 0.64790481328964233 0.029951043426990509
0.78658467531204224 0.66603165864944458 0.01747945137321949
0.91226541996002197 0.67901605367660522 0.021594822406768799
0.0088902637362480164 0.7716941237449646 0.15158338844776154
0.097349502146244049 0.77046662569046021 0.15575562417507172
0.29461568593978882 0.7637406587600708 0.17220963537693024
0.4696066677570343 0.76124179363250732 0.1797793060541153
0.62174475193023682 0.76548057794570923 0.18222765624523163
0.75561195611953735 0.77287864685058594 0.19090889394283295
0.89338207244873047 0.7943192720413208 0.21478350460529327
0.29267635941505432 0.90474057197570801 0.3510621190071106
0.3426440954208374 0.90508455038070679 0.35743439197540283
0.42305725812911987 0.90001368522644043 0.36438465118408203
0.52334094047546387 0.89906740188598633 0.38221240043640137
0.64143127202987671 0.90435111522674561 0.39598715305328369
0.76014530658721924 0.90871983766555786 0.4139094352722168
0.88168507814407349 0.91986691951751709 0.43856325745582581
0.089512377977371216 0.098578162491321564 0.14266304671764374
0.1879299134016037 0.10149034857749939 0.14239166676998138
0.35150039196014404 0.085300862789154053 0.14501635730266571
0.55313771963119507 0.061886567622423172 0.15614224970340729
0.73696672916412354 0.088808245956897736 0.17344434559345245
0.86893957853317261 0.17250904440879822 0.18514135479927063
0.97503006458282471 0.27039709687232971 0.2040143609046936
0.060271020978689194 0.1968761533498764 0.15247496962547302
0.18650829792022705 0.20287533104419708 0.15366595983505249
0.35589137673377991 0.20299607515335083 0.15263739228248596
0.54810154438018799 0.2043575793504715 0.15600207448005676
0.72853541374206543 0.21372252702713013 0.16161282360553741
0.86253100633621216 0.26318579912185669 0.17385734617710114
0.97116869688034058 0.33550620079040527 0.19932566583156586
0.0069810007698833942 0.36117345094680786 0.15744277834892273
0.1288367360830307 0.35699421167373657 0.15267564356327057
0.3240637481212616 0.35979118943214417 0.14918699860572815
0.53791135549545288 0.36451315879821777 0.13441960513591766
0.71210002899169922 0.37316310405731201 0.12931779026985168
0.84575170278549194 0.39634793996810913 0.14006903767585754
0.95514857769012451 0.43781456351280212 0.17502763867378235
0.00037755031371489167 0.52219444513320923 0.14862352609634399
0.023652888834476471 0.51651465892791748 0.1492680162191391
0.27294677495956421 0.51437836885452271 0.14850082993507385
0.49452301859855652 0.52019727230072021 0.13757959008216858
0.67689007520675659 0.52719438076019287 0.11685288697481155
0.81917089223861694 0.53476160764694214 0.098993785679340363
0.93813228607177734 0.55161207914352417 0.12510454654693604
0.0017500784015282989 0.65471655130386353 0.17710323631763458
0.016551358625292778 0.65350687503814697 0.17109023034572601
0.26167997717857361 0.642650306224823 0.17794965207576752
0.46951180696487427 0.64017552137374878 0.17762276530265808
0.63938862085342407 0.65115463733673096 0.17135320603847504
0.78695946931838989 0.66449582576751709 0.16541829705238342
0.91619360446929932 0.67588835954666138 0.16648842394351959
0.03421415388584137 0.77518105506896973 0.23819564282894135
0.16351369023323059 0.77351737022399902 0.24240915477275848
0.32348436117172241 0.76509237289428711 0.24934744834899902
0.47789052128791809 0.76160329580307007 0.25691044330596924
0.62310963869094849 0.76305937767028809 0.25713285803794861
0.75796216726303101 0.77230638265609741 0.26922616362571716
0.89364242553710938 0.7943231463432312 0.29231825470924377
0.31062197685241699 0.90466344356536865 0.3915228545665741
0.35160529613494873 0.90414237976074219 0.39813604950904846
0.42991811037063599 0.89970254898071289 0.40663975477218628
0.52733546495437622 0.89800149202346802 0.42217826843261719
0.64066064357757568 0.90094763040542603 0.43326565623283386
0.76018267869949341 0.90679526329040527 0.44476571679115295
0.88170957565307617 0.91832923889160156 0.4712645411491394
0.11214154958724976 0.11440704762935638 0.28767895698547363
0.22008159756660461 0.11835414171218872 0.29084980487823486
0.3720594048500061 0.10828503221273422 0.29812687635421753
0.56713271141052246 0.042444430291652679 0.29772081971168518
0.74968475103378296 0.032881941646337509 0.30886241793632507
0.87675422430038452 0.15718077123165131 0.32970106601715088
0.97565031051635742 0.29612612724304199 0.36890652775764465
0.10454578697681427 0.1985018253326416 0.29778078198432922
0.21538420021533966 0.21465128660202026 0.30142372846603394
0.38436600565910339 0.22186006605625153 0.3110215961933136
0.5723501443862915 0.20249839127063751 0.31202509999275208
0.74311661720275879 0.22458019852638245 0.32805523276329041
0.86851972341537476 0.29238653182983398 0.34959596395492554
0.96866333484649658 0.37217962741851807 0.38006427884101868
0.020965486764907837 0.36861339211463928 0.31858932971954346
0.18989382684230804 0.37114071846008301 0.32371777296066284
0.38276445865631104 0.38281244039535522 0.33247962594032288
0.5688098669052124 0.38795298337936401 0.33514499664306641
0.72622114419937134 0.40123474597930908 0.3351098895072937
0.84885883331298828 0.43073299527168274 0.34854090213775635
0.95471549034118652 0.46564742922782898 0.36945617198944092
0.026932047680020332 0.54905140399932861 0.34302383661270142
0.20090179145336151 0.54547971487045288 0.34293028712272644
0.36411634087562561 0.53737503290176392 0.33710572123527527
0.53629523515701294 0.53323245048522949 0.32932552695274353
0.6953120231628418 0.53699010610580444 0.32517170906066895
0.82192939519882202 0.54518091678619385 0.31806659698486328
0.93649852275848389 0.5660712718963623 0.33891865611076355
0.12400387227535248 0.6743929386138916 0.3592979907989502
0.2078915536403656 0.67068600654602051 0.3498135507106781
0.34933245182037354 0.65862369537353516 0.34636840224266052
0.49729746580123901 0.65061336755752563 0.34528663754463196
0.65711170434951782 0.65926492214202881 0.34799438714981079
0.79059654474258423 0.6630977988243103 0.34264904260635376
0.91578584909439087 0.67350304126739502 0.33764940500259399
0.17653536796569824 0.78174114227294922 0.37946102023124695
0.257977694272995 0.78019034862518311 0.37788224220275879
0.37311276793479919 0.77173173427581787 0.38391903042793274
0.49521303176879883 0.7633056640625 0.38282343745231628
0.63231438398361206 0.77018225193023682 0.38803216814994812
0.76246351003646851 0.77742886543273926 0.40141379833221436
0.89413881301879883 0.79749709367752075 0.40835475921630859
0.32836118340492249 0.90723520517349243 0.47108972072601318
0.36966803669929504 0.90313857793807983 0.47364076972007751
0.44396358728408813 0.90397435426712036 0.48065078258514404
0.53463613986968994 0.90004318952560425 0.49234709143638611
0.64289623498916626 0.90180104970932007 0.50189173221588135
0.76008599996566772 0.90671700239181519 0.51486122608184814
0.87961661815643311 0.91884607076644897 0.53182840347290039
0.15958668291568756 0.13277697563171387 0.4611365795135498
0.25570008158683777 0.13462713360786438 0.46684408187866211
0.41542366147041321 0.13785301148891449 0.48128551244735718
0.59067612886428833 0.12233085185289383 0.49848181009292603
0.7451896071434021 0.080234438180923462 0.49053922295570374
0.87727296352386475 0.13106399774551392 0.48757648468017578
0.97565525770187378 0.26869598031044006 0.50419723987579346
0.1592862606048584 0.22122669219970703 0.46729147434234619
0.26074355840682983 0.22912926971912384 0.47135749459266663
0.42720332741737366 0.24406430125236511 0.48567944765090942
0.59178584814071655 0.24021455645561218 0.50205618143081665
0.73908418416976929 0.23495317995548248 0.49783971905708313
0.867939293384552 0.27290239930152893 0.50059151649475098
0.97003829479217529 0.35644206404685974 0.51607656478881836
0.098795704543590546 0.34943246841430664 0.4786103367805481
0.23168022930622101 0.35698115825653076 0.48100271821022034
0.40335997939109802 0.38094663619995117 0.49441114068031311
0.58646601438522339 0.4082489013671875 0.51337051391601562
0.73382341861724854 0.40685808658599854 0.50947839021682739
0.84911572933197021 0.43979901075363159 0.52065491676330566
0.95126515626907349 0.48105108737945557 0.54080891609191895
0.045951545238494873 0.54464411735534668 0.51256495714187622
0.22965152561664581 0.54533427953720093 0.51330769062042236
0.40911799669265747 0.54970705509185791 0.52223867177963257
0.57756370306015015 0.55600863695144653 0.52771800756454468
0.71078622341156006 0.56267952919006348 0.52876490354537964
0.82661706209182739 0.57218724489212036 0.52752172946929932
0.93456679582595825 0.59224313497543335 0.54202336072921753
0.23512060940265656 0.69208049774169922 0.53652441501617432
0.3213522732257843 0.68735086917877197 0.53957360982894897
0.44769510626792908 0.68389683961868286 0.53767263889312744
0.55654215812683105 0.67385482788085938 0.529945969581604
0.67408072948455811 0.66835916042327881 0.51574844121932983
0.79899662733078003 0.66878902912139893 0.51357805728912354
0.92246609926223755 0.67667561769485474 0.50597131252288818
0.35524207353591919 0.79180091619491577 0.55825746059417725
0.39382034540176392 0.79180765151977539 0.555339515209198
0.44642865657806396 0.78666800260543823 0.53951609134674072
0.53454196453094482 0.77658897638320923 0.53011304140090942
0.64268052577972412 0.77236831188201904 0.52409082651138306
0.76658803224563599 0.77964693307876587 0.5315784215927124
0.90035700798034668 0.79696667194366455 0.54492545127868652
0.38696512579917908 0.91394299268722534 0.58820849657058716
0.4024585485458374 0.9134630560874939 0.58279067277908325
0.45939800143241882 0.90984928607940674 0.58027130365371704
0.54757809638977051 0.90792334079742432 0.58532446622848511
0.6440659761428833 0.90435278415679932 0.590706467628479
0.76236248016357422 0.91019612550735474 0.60092616081237793
0.88578838109970093 0.92069625854492188 0.61548078060150146
0.26012647151947021 0.15581201016902924 0.62529271841049194
0.34008729457855225 0.15989071130752563 0.62674987316131592
0.47243562340736389 0.167249396443367 0.63992470502853394
0.62457579374313354 0.19562527537345886 0.65615171194076538
0.75839513540267944 0.21907435357570648 0.66929727792739868
0.86548125743865967 0.22718924283981323 0.65494614839553833
0.97125327587127686 0.27221524715423584 0.64489454030990601
0.26788389682769775 0.24643060564994812 0.6269037127494812
0.34213802218437195 0.24751065671443939 0.63032621145248413
0.47453519701957703 0.25876656174659729 0.64112561941146851
0.6236426830291748 0.28669971227645874 0.65759468078613281
0.75352597236633301 0.30733713507652283 0.66943264007568359
0.85366994142532349 0.31796178221702576 0.65214002132415771
0.96705615520477295 0.3547937273979187 0.64980161190032959
0.21638612449169159 0.35336992144584656 0.62750154733657837
0.3220355212688446 0.36955159902572632 0.63279813528060913
0.45954957604408264 0.39032962918281555 0.64018440246582031
0.60966527462005615 0.42274236679077148 0.65638935565948486
0.74148464202880859 0.44588017463684082 0.67060697078704834
0.84992814064025879 0.45051872730255127 0.66103345155715942
0.95506471395492554 0.47459179162979126 0.65968316793441772
0.18355692923069 0.50686442852020264 0.63302105665206909
0.28015771508216858 0.51166379451751709 0.63540148735046387
0.42819094657897949 0.52511328458786011 0.6442754864692688
0.58377194404602051 0.54977506399154663 0.65779668092727661
0.72144925594329834 0.57875537872314453 0.67062437534332275
0.82956838607788086 0.58335232734680176 0.67191284894943237
0.93857455253601074 0.59598648548126221 0.68018382787704468
0.26443260908126831 0.68138140439987183 0.66522961854934692
0.34144723415374756 0.67994630336761475 0.66691482067108154
0.45517364144325256 0.68423521518707275 0.67307615280151367
0.58191651105880737 0.68370240926742554 0.67534142732620239
0.70363682508468628 0.69285666942596436 0.67987477779388428
0.81297683715820312 0.69725131988525391 0.68372619152069092
0.92088437080383301 0.70197999477386475 0.68164747953414917
0.36735436320304871 0.80940502882003784 0.69392293691635132
0.41419485211372375 0.80757778882980347 0.6890106201171875
0.49090912938117981 0.80507898330688477 0.69063317775726318
0.58862382173538208 0.79783231019973755 0.68840157985687256
0.67355972528457642 0.78729355335235596 0.67437416315078735
0.78149741888046265 0.7883913516998291 0.66926044225692749
0.91034430265426636 0.79505801200866699 0.67304039001464844
0.43969976902008057 0.9221617579460144 0.71851712465286255
0.47077116370201111 0.92232608795166016 0.72018134593963623
0.52069473266601562 0.91715896129608154 0.71423697471618652
0.57809352874755859 0.9182659387588501 0.70161330699920654
0.65709936618804932 0.91238754987716675 0.69564563035964966
0.76526063680648804 0.91658532619476318 0.70207130908966064
0.89728707075119019 0.92608487606048584 0.71647965908050537
0.41181501746177673 0.21065653860569 0.77414566278457642
0.46494948863983154 0.2158554345369339 0.77713263034820557
0.55541646480560303 0.22895063459873199 0.78057342767715454
0.6659247875213623 0.26405897736549377 0.78565722703933716
0.77501296997070312 0.32938295602798462 0.79430609941482544
0.87025046348571777 0.35209077596664429 0.79796582460403442
0.95064997673034668 0.36076191067695618 0.78501170873641968
0.41068431735038757 0.28467407822608948 0.77269828319549561
0.46198928356170654 0.29315468668937683 0.77611970901489258
0.55314832925796509 0.30930933356285095 0.77929329872131348
0.66121160984039307 0.3395484983921051 0.78435128927230835
0.77137154340744019 0.39236700534820557 0.79507052898406982
0.8640558123588562 0.41510313749313354 0.79824709892272949
0.94751042127609253 0.41925805807113647 0.78587013483047485
0.38518068194389343 0.40133282542228699 0.76936978101730347
0.43691340088844299 0.41021719574928284 0.77407187223434448
0.53352206945419312 0.42131775617599487 0.77801859378814697
0.6465219259262085 0.4503878653049469 0.78404873609542847
0.75918233394622803 0.49300023913383484 0.79657256603240967
0.85134047269821167 0.50983995199203491 0.79760301113128662
0.94314837455749512 0.51032364368438721 0.79222291707992554
0.27833294868469238 0.49996629357337952 0.75993615388870239
0.35198771953582764 0.50777840614318848 0.76436954736709595
0.48935079574584961 0.53436577320098877 0.77049458026885986
0.61552733182907104 0.56056517362594604 0.77887922525405884
0.73725461959838867 0.59466713666915894 0.79225683212280273
0.83286803960800171 0.61255043745040894 0.79522347450256348
0.92917913198471069 0.60821187496185303 0.79239755868911743
0.28885921835899353 0.64858353137969971 0.77133828401565552
0.34268495440483093 0.64824926853179932 0.77114403247833252
0.44116929173469543 0.64788258075714111 0.77225452661514282
0.56744396686553955 0.65512692928314209 0.77482062578201294
0.70053166151046753 0.68367201089859009 0.78654545545578003
0.82611376047134399 0.71330565214157104 0.8037835955619812
0.92991542816162109 0.71557164192199707 0.8093268871307373
0.36622419953346252 0.79222416877746582 0.79752403497695923
0.40903925895690918 0.79570889472961426 0.79863399267196655
0.48311436176300049 0.79513108730316162 0.79992455244064331
0.58304804563522339 0.79972267150878906 0.80517721176147461
0.69451653957366943 0.80149936676025391 0.80627059936523438
0.81183964014053345 0.80996870994567871 0.81090807914733887
0.9294629693031311 0.81656330823898315 0.81644588708877563
0.43134820461273193 0.92931097745895386 0.82444542646408081
0.45987632870674133 0.92913448810577393 0.82439672946929932
0.52081918716430664 0.92993241548538208 0.82768052816390991
0.60334306955337524 0.92874109745025635 0.82781291007995605
0.6972808837890625 0.92763203382492065 0.82394015789031982
0.78780621290206909 0.92266744375228882 0.81407803297042847
0.91135460138320923 0.92981374263763428 0.82044875621795654
0.57252711057662964 0.35838249325752258 0.91334497928619385
0.59727585315704346 0.36191055178642273 0.91318982839584351
0.65112400054931641 0.37602591514587402 0.91384857892990112
0.72461229562759399 0.40443789958953857 0.91402804851531982
0.80519300699234009 0.44974696636199951 0.91477125883102417
0.88668781518936157 0.50243830680847168 0.91595268249511719
0.97458308935165405 0.51409196853637695 0.92169797420501709
0.56482702493667603 0.40537244081497192 0.91293168067932129
0.5921093225479126 0.41499438881874084 0.91190975904464722
0.64578509330749512 0.42900028824806213 0.91232055425643921
0.72114187479019165 0.45317524671554565 0.91435682773590088
0.80118334293365479 0.49289920926094055 0.91548687219619751
0.88289064168930054 0.53315979242324829 0.9140017032623291
0.97027027606964111 0.54510629177093506 0.91999489068984985
0.54699224233627319 0.49221614003181458 0.90985339879989624
0.57474040985107422 0.49848160147666931 0.91080021858215332
0.63093346357345581 0.50975096225738525 0.90913921594619751
0.70635545253753662 0.52667361497879028 0.90876466035842896
0.79000687599182129 0.55827182531356812 0.91286659240722656
0.87475770711898804 0.59102553129196167 0.91548299789428711
0.96420192718505859 0.60018175840377808 0.92079788446426392
0.48221734166145325 0.56837141513824463 0.90850210189819336
0.51910859346389771 0.57527834177017212 0.90815079212188721
0.59234881401062012 0.58946669101715088 0.90916734933853149
0.67991536855697632 0.60526597499847412 0.90920776128768921
0.77022868394851685 0.62879830598831177 0.9120975136756897
0.86436456441879272 0.65836316347122192 0.91765975952148438
0.9565356969833374 0.66397339105606079 0.92157238721847534
0.38931921124458313 0.66001260280609131 0.90603423118591309
0.42397436499595642 0.65827745199203491 0.90468943119049072
0.50248616933822632 0.66033357381820679 0.90441411733627319
0.61403018236160278 0.67411965131759644 0.90813016891479492
0.73585253953933716 0.70242846012115479 0.91451448202133179
0.85343492031097412 0.73184561729431152 0.9238581657409668
0.95217519998550415 0.74775105714797974 0.9276239275932312
0.40548074245452881 0.79039174318313599 0.91967487335205078
0.43470865488052368 0.78936690092086792 0.91886234283447266
0.49554747343063354 0.78550559282302856 0.91742658615112305
0.57660931348800659 0.78212332725524902 0.91870796680450439
0.67979389429092407 0.78138971328735352 0.91873383522033691
0.81850093603134155 0.80807840824127197 0.92577558755874634
0.94742280244827271 0.83702516555786133 0.93523305654525757
0.43316546082496643 0.92715358734130859 0.93505626916885376
0.45536383986473083 0.92989444732666016 0.93734252452850342
0.51304531097412109 0.92822039127349854 0.93766695261001587
0.59035462141036987 0.93003618717193604 0.93872714042663574
0.6908380389213562 0.93060827255249023 0.93837565183639526
0.80508315563201904 0.93211257457733154 0.94179362058639526
0.93914663791656494 0.94102329015731812 0.94397097826004028
