luts/negative_new/fuji_800z_-.cube
# Created by: G'MIC (https://gmic.eu)
TITLE "fuji_800z_-"
# LUT size
LUT_3D_SIZE 5
# Data domain
DOMAIN_MIN 0.0 0.0 0.0
DOMAIN_MAX 1.0 1.0 1.0
# LUT data points
0.027696901932358742 0.030494032427668571 0.025378791615366936
0.25304967164993286 0.018607135862112045 0.024483161047101021
0.55851596593856812 0.0080456901341676712 0.011734995990991592
0.80881744623184204 0.0034783605951815844 0.010813275352120399
0.98410511016845703 0.010039550252258778 0.0013716304674744606
0.014269286766648293 0.21149261295795441 0.049891900271177292
0.21984085440635681 0.25082489848136902 0.024405220523476601
0.53954410552978516 0.26398804783821106 0.0085167232900857925
0.78525060415267944 0.24721743166446686 0.0043935440480709076
0.96882838010787964 0.29241907596588135 0.0031811434309929609
0.048398423939943314 0.42318236827850342 0.12455987185239792
0.19467401504516602 0.41565197706222534 0.12345703691244125
0.46682044863700867 0.49875518679618835 0.060710068792104721
0.74909162521362305 0.53260087966918945 0.0066331452690064907
0.93555581569671631 0.52780747413635254 0.0049680224619805813
0.21241335570812225 0.59950453042984009 0.23371338844299316
0.27328240871429443 0.58779919147491455 0.23043112456798553
0.42756107449531555 0.61320638656616211 0.22992688417434692
0.6778024435043335 0.6873849630355835 0.22511999309062958
0.91934174299240112 0.74831670522689819 0.19213232398033142
0.48346802592277527 0.82973778247833252 0.47387304902076721
0.51364302635192871 0.82455682754516602 0.47629007697105408
0.58161097764968872 0.81928879022598267 0.4782225489616394
0.72411572933197021 0.86447066068649292 0.49764657020568848
0.89747363328933716 0.91528046131134033 0.50915944576263428
0.062824830412864685 0.048499297350645065 0.21566197276115417
0.27966853976249695 0.029893029481172562 0.22593244910240173
0.60774821043014526 0.0034556668251752853 0.23299969732761383
0.82340192794799805 0.0037717183586210012 0.24340780079364777
0.98105454444885254 0.11488931626081467 0.24578723311424255
0.032337501645088196 0.26933020353317261 0.23427374660968781
0.28731539845466614 0.28358232975006104 0.24510857462882996
0.57120025157928467 0.27625510096549988 0.24179108440876007
0.7918514609336853 0.28255489468574524 0.23417013883590698
0.97189426422119141 0.3214171826839447 0.24075749516487122
0.20971433818340302 0.48440980911254883 0.28306204080581665
0.29182931780815125 0.46443140506744385 0.27864980697631836
0.49830007553100586 0.51174294948577881 0.27131149172782898
0.74415063858032227 0.52744078636169434 0.23200029134750366
0.9344789981842041 0.53055638074874878 0.2097146213054657
0.29350423812866211 0.63244199752807617 0.3338378369808197
0.33990591764450073 0.61896979808807373 0.32710206508636475
0.45032185316085815 0.61566817760467529 0.32003825902938843
0.68675827980041504 0.69129282236099243 0.34426522254943848
0.91536253690719604 0.74374234676361084 0.33000501990318298
0.4973958432674408 0.83890867233276367 0.5149836540222168
0.5226016640663147 0.83303868770599365 0.51106494665145874
0.58573812246322632 0.8229755163192749 0.51334154605865479
0.72380459308624268 0.8618282675743103 0.53069490194320679
0.89701360464096069 0.91506081819534302 0.55102676153182983
0.13757900893688202 0.082206904888153076 0.46966272592544556
0.32089900970458984 0.095528624951839447 0.47765371203422546
0.58923196792602539 0.097221121191978455 0.51062631607055664
0.85325664281845093 0.046675305813550949 0.51307260990142822
0.99571716785430908 0.20099210739135742 0.50749635696411133
0.13687184453010559 0.26648572087287903 0.47671043872833252
0.33470433950424194 0.29850864410400391 0.48926615715026855
0.58375614881515503 0.31943392753601074 0.51317417621612549
0.82737988233566284 0.33617639541625977 0.52205771207809448
0.98255622386932373 0.36455267667770386 0.51540535688400269
0.20426702499389648 0.54046225547790527 0.50588798522949219
0.35884386301040649 0.5433000922203064 0.51242291927337646
0.56486856937408447 0.54332429170608521 0.52055364847183228
0.76927131414413452 0.54465723037719727 0.51305985450744629
0.94998502731323242 0.54894816875457764 0.50636804103851318
0.41871607303619385 0.70146787166595459 0.54173296689987183
0.46873724460601807 0.69099622964859009 0.54030030965805054
0.53331393003463745 0.65808594226837158 0.50884413719177246
0.7117687463760376 0.70444637537002563 0.53093826770782471
0.92115557193756104 0.73345720767974854 0.51045745611190796
0.52515280246734619 0.866993248462677 0.61360067129135132
0.54785323143005371 0.861835777759552 0.60666799545288086
0.60454082489013672 0.84288877248764038 0.59618860483169556
0.720661461353302 0.86110818386077881 0.6106143593788147
0.90001511573791504 0.91726195812225342 0.63835155963897705
0.30330619215965271 0.1640811562538147 0.69028007984161377
0.4172799289226532 0.17966969311237335 0.69428533315658569
0.61430186033248901 0.23053714632987976 0.70588105916976929
0.81262725591659546 0.27658206224441528 0.72876518964767456
0.98315685987472534 0.30158913135528564 0.73274195194244385
0.31360054016113281 0.31652921438217163 0.68591850996017456
0.42349758744239807 0.333854079246521 0.69455695152282715
0.60776841640472412 0.36365517973899841 0.70400959253311157
0.80203425884246826 0.40611788630485535 0.72769874334335327
0.97829991579055786 0.43138483166694641 0.74101758003234863
0.22712206840515137 0.4880811870098114 0.6733582615852356
0.35821127891540527 0.49499037861824036 0.68050068616867065
0.57107239961624146 0.53595954179763794 0.69800162315368652
0.77760398387908936 0.57603853940963745 0.72610056400299072
0.97522526979446411 0.59501731395721436 0.74915009737014771
0.39837658405303955 0.72956180572509766 0.71728020906448364
0.47054323554039001 0.72668397426605225 0.71824729442596436
0.60041612386703491 0.72805136442184448 0.72212976217269897
0.75702470541000366 0.73341661691665649 0.72966718673706055
0.94520628452301025 0.74103045463562012 0.72805118560791016
0.57487964630126953 0.91444450616836548 0.76777404546737671
0.60104435682296753 0.91091626882553101 0.76700830459594727
0.66125059127807617 0.90290307998657227 0.75755184888839722
0.73789495229721069 0.88053625822067261 0.73269295692443848
0.91548103094100952 0.92680865526199341 0.76524823904037476
0.54927432537078857 0.34864574670791626 0.90023744106292725
0.60113084316253662 0.35565978288650513 0.89623677730560303
0.71792495250701904 0.3907952606678009 0.89921712875366211
0.8602176308631897 0.4568629264831543 0.9026799201965332
0.98761129379272461 0.48838135600090027 0.91432571411132812
0.53783679008483887 0.43526872992515564 0.8957480788230896
0.59445738792419434 0.44108766317367554 0.89685726165771484
0.71127414703369141 0.47110751271247864 0.89921402931213379
0.84969770908355713 0.51474320888519287 0.90071755647659302
0.98538148403167725 0.547169029712677 0.91310185194015503
0.44797998666763306 0.55195683240890503 0.89326357841491699
0.53249180316925049 0.56468886137008667 0.89385765790939331
0.67639166116714478 0.58479213714599609 0.89543670415878296
0.83117759227752686 0.61711800098419189 0.90290951728820801
0.97699993848800659 0.64599710702896118 0.91652542352676392
0.37906217575073242 0.72382891178131104 0.89521110057830811
0.43086260557174683 0.71718931198120117 0.89481431245803833
0.5555834174156189 0.7039949893951416 0.89192456007003784
0.77516657114028931 0.73457670211791992 0.90527188777923584
0.9655301570892334 0.7876783013343811 0.92095202207565308
0.53123193979263306 0.93872267007827759 0.9149048924446106
0.56849020719528198 0.93994736671447754 0.91758006811141968
0.66015815734863281 0.93746852874755859 0.92259776592254639
0.7936064600944519 0.93560892343521118 0.92595416307449341
0.94545793533325195 0.94168591499328613 0.93062794208526611
