luts/negative_new/fuji_160c.cube
# Created by: G'MIC (https://gmic.eu)
TITLE "fuji_160c"
# LUT size
LUT_3D_SIZE 5
# Data domain
DOMAIN_MIN 0.0 0.0 0.0
DOMAIN_MAX 1.0 1.0 1.0
# LUT data points
0.037757229059934616 0.035615313798189163 0.0279349684715271
0.26402914524078369 0.019809722900390625 0.028456684201955795
0.59806734323501587 0.003979911096394062 0.018345657736063004
0.85897886753082275 0.0026425081305205822 0.0063505885191261768
0.99863302707672119 0.20874027907848358 0.010420855134725571
0.0040495926514267921 0.26383930444717407 0.021103832870721817
0.22721104323863983 0.26092684268951416 0.0072624357417225838
0.58504408597946167 0.25077179074287415 0.0040971795096993446
0.83673560619354248 0.27685052156448364 0.0065300436690449715
0.99414509534835815 0.36783739924430847 0.0066928188316524029
0 0.54041594266891479 0.010342421941459179
0.056758072227239609 0.52304935455322266 6.3144456362351775e-05
0.51383429765701294 0.53524726629257202 0.0077824611216783524
0.79091882705688477 0.55539888143539429 0.0063288668170571327
0.97844082117080688 0.56585776805877686 0.0031479480676352978
0 0.74494761228561401 0.010397653095424175
0.075663745403289795 0.73775511980056763 0.013892783783376217
0.47129470109939575 0.73184800148010254 0.018540326505899429
0.72812557220458984 0.7433772087097168 0.010026699863374233
0.94860744476318359 0.76652365922927856 0.0080026667565107346
0.17801180481910706 0.94143021106719971 0.3085874617099762
0.31303307414054871 0.93764632940292358 0.3216913640499115
0.50038987398147583 0.93331068754196167 0.34203717112541199
0.70194071531295776 0.93555432558059692 0.35588306188583374
0.89709454774856567 0.94022524356842041 0.36988866329193115
0.069910295307636261 0.053270153701305389 0.22822587192058563
0.29374605417251587 0.026099096983671188 0.23086084425449371
0.62803703546524048 0.0028812931850552559 0.23522795736789703
0.86943227052688599 0.057662259787321091 0.26554390788078308
0.99936425685882568 0.27776545286178589 0.30584716796875
0.0099707655608654022 0.27567940950393677 0.2460862398147583
0.30141130089759827 0.28493702411651611 0.2525312602519989
0.6115344762802124 0.28890201449394226 0.24948456883430481
0.84439289569854736 0.32686939835548401 0.25833967328071594
0.99462538957595825 0.39921829104423523 0.28361436724662781
0.011567553505301476 0.56180834770202637 0.26163992285728455
0.2300727367401123 0.54730194807052612 0.24984696507453918
0.54998993873596191 0.54406195878982544 0.23842859268188477
0.79830127954483032 0.55287522077560425 0.21332964301109314
0.97991651296615601 0.57260668277740479 0.21649482846260071
0.0042257867753505707 0.7567257285118103 0.27555656433105469
0.21613721549510956 0.74847042560577393 0.27844250202178955
0.49711877107620239 0.73838502168655396 0.27346533536911011
0.73568695783615112 0.74752485752105713 0.27473759651184082
0.94888883829116821 0.76661640405654907 0.25810056924819946
0.22076320648193359 0.94240134954452515 0.41072201728820801
0.33461472392082214 0.93828999996185303 0.41580522060394287
0.5088813304901123 0.93349325656890869 0.43377834558486938
0.70209157466888428 0.93450957536697388 0.44525071978569031
0.89673125743865967 0.94062095880508423 0.45934155583381653
0.15646018087863922 0.077618964016437531 0.52190297842025757
0.36471253633499146 0.070199571549892426 0.53239685297012329
0.64465129375457764 0.046572264283895493 0.55658674240112305
0.86618411540985107 0.018541866913437843 0.53578704595565796
0.99761062860488892 0.24846939742565155 0.54100984334945679
0.14056874811649323 0.27028268575668335 0.52666699886322021
0.3673730194568634 0.29911124706268311 0.53495627641677856
0.62912708520889282 0.32360628247261047 0.55083632469177246
0.85185325145721436 0.33405756950378418 0.54921132326126099
0.99501055479049683 0.41961222887039185 0.56568700075149536
0.055029027163982391 0.56789833307266235 0.55581676959991455
0.34897804260253906 0.57303440570831299 0.55874866247177124
0.6056554913520813 0.57879459857940674 0.56644237041473389
0.81014955043792725 0.58897668123245239 0.56737416982650757
0.97689610719680786 0.61037212610244751 0.57313436269760132
0.29022344946861267 0.77952319383621216 0.5821952223777771
0.4049355685710907 0.77451002597808838 0.57587271928787231
0.55247503519058228 0.75659787654876709 0.5521201491355896
0.75083631277084351 0.75435292720794678 0.54572552442550659
0.9530906081199646 0.76182252168655396 0.52877247333526611
0.33436036109924316 0.94592082500457764 0.59700930118560791
0.38776689767837524 0.94092756509780884 0.5860479474067688
0.53193533420562744 0.93828761577606201 0.59313762187957764
0.70853996276855469 0.93464702367782593 0.60146015882492065
0.90643703937530518 0.94304615259170532 0.61685419082641602
0.3854924738407135 0.14625729620456696 0.76130437850952148
0.49891680479049683 0.15209287405014038 0.76319772005081177
0.69155001640319824 0.21278303861618042 0.77627360820770264
0.86487644910812378 0.278827965259552 0.78709858655929565
0.9925236701965332 0.29524698853492737 0.75896984338760376
0.37246611714363098 0.32631689310073853 0.75269615650177002
0.49160143733024597 0.33787265419960022 0.76140338182449341
0.67696303129196167 0.3790162205696106 0.7744026780128479
0.85043156147003174 0.42650613188743591 0.78799843788146973
0.99265182018280029 0.43306410312652588 0.76515394449234009
0.24699650704860687 0.5178188681602478 0.74375367164611816
0.39473870396614075 0.52652835845947266 0.74865454435348511
0.62888425588607788 0.57488644123077393 0.7646680474281311
0.81619644165039062 0.61011475324630737 0.78092533349990845
0.98057407140731812 0.61094427108764648 0.77115511894226074
0.30120196938514709 0.77427399158477783 0.7733309268951416
0.41834285855293274 0.76749545335769653 0.77409511804580688
0.59453481435775757 0.77421677112579346 0.78216850757598877
0.78882300853729248 0.78522342443466187 0.78731119632720947
0.95894795656204224 0.79235053062438965 0.78549373149871826
0.42037501931190491 0.94654172658920288 0.79353910684585571
0.49329033493995667 0.9528123140335083 0.79538941383361816
0.62074953317642212 0.94901853799819946 0.79621738195419312
0.74482506513595581 0.94130128622055054 0.78123742341995239
0.92088252305984497 0.94626182317733765 0.78867620229721069
0.60333490371704102 0.38157194852828979 0.94987750053405762
0.65031182765960693 0.38797259330749512 0.95014220476150513
0.75146466493606567 0.43021923303604126 0.94876980781555176
0.87587136030197144 0.49907451868057251 0.94668543338775635
0.99220705032348633 0.53146982192993164 0.95307314395904541
0.59315377473831177 0.47692388296127319 0.95124900341033936
0.63863164186477661 0.48235070705413818 0.94699877500534058
0.73747152090072632 0.50756585597991943 0.94293504953384399
0.86562210321426392 0.56704521179199219 0.94772720336914062
0.98956304788589478 0.59261173009872437 0.94933885335922241
0.51557916402816772 0.59643107652664185 0.94424104690551758
0.58287197351455688 0.61091011762619019 0.94144535064697266
0.70603209733963013 0.6340949535369873 0.94162607192993164
0.84541499614715576 0.67636018991470337 0.94397544860839844
0.98310321569442749 0.69946730136871338 0.95004433393478394
0.41323727369308472 0.74654859304428101 0.94097959995269775
0.47798648476600647 0.74481993913650513 0.94153523445129395
0.61194676160812378 0.74686306715011597 0.93812501430511475
0.80367046594619751 0.7884405255317688 0.94335240125656128
0.96517515182495117 0.82899028062820435 0.94829076528549194
0.45040461421012878 0.94546294212341309 0.95256572961807251
0.50904273986816406 0.945445716381073 0.95258009433746338
0.63723576068878174 0.94470113515853882 0.9517967700958252
0.78953748941421509 0.93997156620025635 0.95122390985488892
0.9503096342086792 0.95451068878173828 0.95224559307098389
