luts/negative_new/ilford_hp_5.cube
# Created by: G'MIC (https://gmic.eu)
TITLE "ilford_hp_5"
# LUT size
LUT_3D_SIZE 13
# Data domain
DOMAIN_MIN 0.0 0.0 0.0
DOMAIN_MAX 1.0 1.0 1.0
# LUT data points
0.033758081495761871 0.033758081495761871 0.033758081495761871
0.049565616995096207 0.049565616995096207 0.049565616995096207
0.074018053710460663 0.074018053710460663 0.074018053710460663
0.10442093759775162 0.10442093759775162 0.10442093759775162
0.13991834223270416 0.13991834223270416 0.13991834223270416
0.17913645505905151 0.17913645505905151 0.17913645505905151
0.22216677665710449 0.22216677665710449 0.22216677665710449
0.27035072445869446 0.27035072445869446 0.27035072445869446
0.32263642549514771 0.32263642549514771 0.32263642549514771
0.38118714094161987 0.38118714094161987 0.38118714094161987
0.44521912932395935 0.44521912932395935 0.44521912932395935
0.5137326717376709 0.5137326717376709 0.5137326717376709
0.58280551433563232 0.58280551433563232 0.58280551433563232
0.06191914901137352 0.06191914901137352 0.06191914901137352
0.078230902552604675 0.078230902552604675 0.078230902552604675
0.10304994881153107 0.10304994881153107 0.10304994881153107
0.13413913547992706 0.13413913547992706 0.13413913547992706
0.17037811875343323 0.17037811875343323 0.17037811875343323
0.21063676476478577 0.21063676476478577 0.21063676476478577
0.25432658195495605 0.25432658195495605 0.25432658195495605
0.30141511559486389 0.30141511559486389 0.30141511559486389
0.35198694467544556 0.35198694467544556 0.35198694467544556
0.40742522478103638 0.40742522478103638 0.40742522478103638
0.46880027651786804 0.46880027651786804 0.46880027651786804
0.5344165563583374 0.5344165563583374 0.5344165563583374
0.60081619024276733 0.60081619024276733 0.60081619024276733
0.10384452342987061 0.10384452342987061 0.10384452342987061
0.11957802623510361 0.11957802623510361 0.11957802623510361
0.1440168172121048 0.1440168172121048 0.1440168172121048
0.17535609006881714 0.17535609006881714 0.17535609006881714
0.21309398114681244 0.21309398114681244 0.21309398114681244
0.25598123669624329 0.25598123669624329 0.25598123669624329
0.30191746354103088 0.30191746354103088 0.30191746354103088
0.34882551431655884 0.34882551431655884 0.34882551431655884
0.39607375860214233 0.39607375860214233 0.39607375860214233
0.4470551609992981 0.4470551609992981 0.4470551609992981
0.50344812870025635 0.50344812870025635 0.50344812870025635
0.56415361166000366 0.56415361166000366 0.56415361166000366
0.62603962421417236 0.62603962421417236 0.62603962421417236
0.15897780656814575 0.15897780656814575 0.15897780656814575
0.17276604473590851 0.17276604473590851 0.17276604473590851
0.19508405029773712 0.19508405029773712 0.19508405029773712
0.22549904882907867 0.22549904882907867 0.22549904882907867
0.26381537318229675 0.26381537318229675 0.26381537318229675
0.30939209461212158 0.30939209461212158 0.30939209461212158
0.35891148447990417 0.35891148447990417 0.35891148447990417
0.40636074542999268 0.40636074542999268 0.40636074542999268
0.45073851943016052 0.45073851943016052 0.45073851943016052
0.49683132767677307 0.49683132767677307 0.49683132767677307
0.54789817333221436 0.54789817333221436 0.54789817333221436
0.60312342643737793 0.60312342643737793 0.60312342643737793
0.66020464897155762 0.66020464897155762 0.66020464897155762
0.22317403554916382 0.22317403554916382 0.22317403554916382
0.23410101234912872 0.23410101234912872 0.23410101234912872
0.25270089507102966 0.25270089507102966 0.25270089507102966
0.27988800406455994 0.27988800406455994 0.27988800406455994
0.31688961386680603 0.31688961386680603 0.31688961386680603
0.36298653483390808 0.36298653483390808 0.36298653483390808
0.41419464349746704 0.41419464349746704 0.41419464349746704
0.46300199627876282 0.46300199627876282 0.46300199627876282
0.50647979974746704 0.50647979974746704 0.50647979974746704
0.55033636093139648 0.55033636093139648 0.55033636093139648
0.59793937206268311 0.59793937206268311 0.59793937206268311
0.64848405122756958 0.64848405122756958 0.64848405122756958
0.7005302906036377 0.7005302906036377 0.7005302906036377
0.2932380735874176 0.2932380735874176 0.2932380735874176
0.30021181702613831 0.30021181702613831 0.30021181702613831
0.31346964836120605 0.31346964836120605 0.31346964836120605
0.33514457941055298 0.33514457941055298 0.33514457941055298
0.36763814091682434 0.36763814091682434 0.36763814091682434
0.41105479001998901 0.41105479001998901 0.41105479001998901
0.46072214841842651 0.46072214841842651 0.46072214841842651
0.51018208265304565 0.51018208265304565 0.51018208265304565
0.55598634481430054 0.55598634481430054 0.55598634481430054
0.60112118721008301 0.60112118721008301 0.60112118721008301
0.64759284257888794 0.64759284257888794 0.64759284257888794
0.69548368453979492 0.69548368453979492 0.69548368453979492
0.74372166395187378 0.74372166395187378 0.74372166395187378
0.36664679646492004 0.36664679646492004 0.36664679646492004
0.3693523108959198 0.3693523108959198 0.3693523108959198
0.37587511539459229 0.37587511539459229 0.37587511539459229
0.39035332202911377 0.39035332202911377 0.39035332202911377
0.41623309254646301 0.41623309254646301 0.41623309254646301
0.45482373237609863 0.45482373237609863 0.45482373237609863
0.50171196460723877 0.50171196460723877 0.50171196460723877
0.55077069997787476 0.55077069997787476 0.55077069997787476
0.59891659021377563 0.59891659021377563 0.59891659021377563
0.64565932750701904 0.64565932750701904 0.64565932750701904
0.69216257333755493 0.69216257333755493 0.69216257333755493
0.73883146047592163 0.73883146047592163 0.73883146047592163
0.78469103574752808 0.78469103574752808 0.78469103574752808
0.44279253482818604 0.44279253482818604 0.44279253482818604
0.44147595763206482 0.44147595763206482 0.44147595763206482
0.44159883260726929 0.44159883260726929 0.44159883260726929
0.4480140209197998 0.4480140209197998 0.4480140209197998
0.46669989824295044 0.46669989824295044 0.46669989824295044
0.50006258487701416 0.50006258487701416 0.50006258487701416
0.54324150085449219 0.54324150085449219 0.54324150085449219
0.59035974740982056 0.59035974740982056 0.59035974740982056
0.63768106698989868 0.63768106698989868 0.63768106698989868
0.68412113189697266 0.68412113189697266 0.68412113189697266
0.72990399599075317 0.72990399599075317 0.72990399599075317
0.77522134780883789 0.77522134780883789 0.77522134780883789
0.81934916973114014 0.81934916973114014 0.81934916973114014
0.52338075637817383 0.52338075637817383 0.52338075637817383
0.51868212223052979 0.51868212223052979 0.51868212223052979
0.5144621729850769 0.5144621729850769 0.5144621729850769
0.51431816816329956 0.51431816816329956 0.51431816816329956
0.52629858255386353 0.52629858255386353 0.52629858255386353
0.55423861742019653 0.55423861742019653 0.55423861742019653
0.59173202514648438 0.59173202514648438 0.59173202514648438
0.63372701406478882 0.63372701406478882 0.63372701406478882
0.67677807807922363 0.67677807807922363 0.67677807807922363
0.71973425149917603 0.71973425149917603 0.71973425149917603
0.76248472929000854 0.76248472929000854 0.76248472929000854
0.80510878562927246 0.80510878562927246 0.80510878562927246
0.84699654579162598 0.84699654579162598 0.84699654579162598
0.60740786790847778 0.60740786790847778 0.60740786790847778
0.60216903686523438 0.60216903686523438 0.60216903686523438
0.59645015001296997 0.59645015001296997 0.59645015001296997
0.59433567523956299 0.59433567523956299 0.59433567523956299
0.60189652442932129 0.60189652442932129 0.60189652442932129
0.62187451124191284 0.62187451124191284 0.62187451124191284
0.65109997987747192 0.65109997987747192 0.65109997987747192
0.68437457084655762 0.68437457084655762 0.68437457084655762
0.72035890817642212 0.72035890817642212 0.72035890817642212
0.75693213939666748 0.75693213939666748 0.75693213939666748
0.79377669095993042 0.79377669095993042 0.79377669095993042
0.83201628923416138 0.83201628923416138 0.83201628923416138
0.87086844444274902 0.87086844444274902 0.87086844444274902
0.69460135698318481 0.69460135698318481 0.69460135698318481
0.69020158052444458 0.69020158052444458 0.69020158052444458
0.685341477394104 0.685341477394104 0.685341477394104
0.68333035707473755 0.68333035707473755 0.68333035707473755
0.68810892105102539 0.68810892105102539 0.68810892105102539
0.70088285207748413 0.70088285207748413 0.70088285207748413
0.71982657909393311 0.71982657909393311 0.71982657909393311
0.74361026287078857 0.74361026287078857 0.74361026287078857
0.76989108324050903 0.76989108324050903 0.76989108324050903
0.79786026477813721 0.79786026477813721 0.79786026477813721
0.82782089710235596 0.82782089710235596 0.82782089710235596
0.86035966873168945 0.86035966873168945 0.86035966873168945
0.89443957805633545 0.89443957805633545 0.89443957805633545
0.78196418285369873 0.78196418285369873 0.78196418285369873
0.77902388572692871 0.77902388572692871 0.77902388572692871
0.77553921937942505 0.77553921937942505 0.77553921937942505
0.77438616752624512 0.77438616752624512 0.77438616752624512
0.77749150991439819 0.77749150991439819 0.77749150991439819
0.78480404615402222 0.78480404615402222 0.78480404615402222
0.79497617483139038 0.79497617483139038 0.79497617483139038
0.80843889713287354 0.80843889713287354 0.80843889713287354
0.82528483867645264 0.82528483867645264 0.82528483867645264
0.84420835971832275 0.84420835971832275 0.84420835971832275
0.86680573225021362 0.86680573225021362 0.86680573225021362
0.89210814237594604 0.89210814237594604 0.89210814237594604
0.92100644111633301 0.92100644111633301 0.92100644111633301
0.86590522527694702 0.86590522527694702 0.86590522527694702
0.86415183544158936 0.86415183544158936 0.86415183544158936
0.861683189868927 0.861683189868927 0.861683189868927
0.86127018928527832 0.86127018928527832 0.86127018928527832
0.86374437808990479 0.86374437808990479 0.86374437808990479
0.86679333448410034 0.86679333448410034 0.86679333448410034
0.86976611614227295 0.86976611614227295 0.86976611614227295
0.87450134754180908 0.87450134754180908 0.87450134754180908
0.8827136754989624 0.8827136754989624 0.8827136754989624
0.8944430947303772 0.8944430947303772 0.8944430947303772
0.90985006093978882 0.90985006093978882 0.90985006093978882
0.92939949035644531 0.92939949035644531 0.92939949035644531
0.9521898627281189 0.9521898627281189 0.9521898627281189
0.052529606968164444 0.052529606968164444 0.052529606968164444
0.068258710205554962 0.068258710205554962 0.068258710205554962
0.092477224767208099 0.092477224767208099 0.092477224767208099
0.12233219295740128 0.12233219295740128 0.12233219295740128
0.15696585178375244 0.15696585178375244 0.15696585178375244
0.19511005282402039 0.19511005282402039 0.19511005282402039
0.23551872372627258 0.23551872372627258 0.23551872372627258
0.27826195955276489 0.27826195955276489 0.27826195955276489
0.32431250810623169 0.32431250810623169 0.32431250810623169
0.37753689289093018 0.37753689289093018 0.37753689289093018
0.43869951367378235 0.43869951367378235 0.43869951367378235
0.50455564260482788 0.50455564260482788 0.50455564260482788
0.57127320766448975 0.57127320766448975 0.57127320766448975
0.077669121325016022 0.077669121325016022 0.077669121325016022
0.094439305365085602 0.094439305365085602 0.094439305365085602
0.11944832652807236 0.11944832652807236 0.11944832652807236
0.14957906305789948 0.14957906305789948 0.14957906305789948
0.18445576727390289 0.18445576727390289 0.18445576727390289
0.22229570150375366 0.22229570150375366 0.22229570150375366
0.26251903176307678 0.26251903176307678 0.26251903176307678
0.30388128757476807 0.30388128757476807 0.30388128757476807
0.34771353006362915 0.34771353006362915 0.34771353006362915
0.39903470873832703 0.39903470873832703 0.39903470873832703
0.45808392763137817 0.45808392763137817 0.45808392763137817
0.52239620685577393 0.52239620685577393 0.52239620685577393
0.58806890249252319 0.58806890249252319 0.58806890249252319
0.11888466775417328 0.11888466775417328 0.11888466775417328
0.13506916165351868 0.13506916165351868 0.13506916165351868
0.15939386188983917 0.15939386188983917 0.15939386188983917
0.18940132856369019 0.18940132856369019 0.18940132856369019
0.22506646811962128 0.22506646811962128 0.22506646811962128
0.26502281427383423 0.26502281427383423 0.26502281427383423
0.30713430047035217 0.30713430047035217 0.30713430047035217
0.34780344367027283 0.34780344367027283 0.34780344367027283
0.38960069417953491 0.38960069417953491 0.38960069417953491
0.4368741512298584 0.4368741512298584 0.4368741512298584
0.49135324358940125 0.49135324358940125 0.49135324358940125
0.55135798454284668 0.55135798454284668 0.55135798454284668
0.61359280347824097 0.61359280347824097 0.61359280347824097
0.17558549344539642 0.17558549344539642 0.17558549344539642
0.18899877369403839 0.18899877369403839 0.18899877369403839
0.21066555380821228 0.21066555380821228 0.21066555380821228
0.23947778344154358 0.23947778344154358 0.23947778344154358
0.27557080984115601 0.27557080984115601 0.27557080984115601
0.31875920295715332 0.31875920295715332 0.31875920295715332
0.36523377895355225 0.36523377895355225 0.36523377895355225
0.40797615051269531 0.40797615051269531 0.40797615051269531
0.44631052017211914 0.44631052017211914 0.44631052017211914
0.488770991563797 0.488770991563797 0.488770991563797
0.53780120611190796 0.53780120611190796 0.53780120611190796
0.59211468696594238 0.59211468696594238 0.59211468696594238
0.64963036775588989 0.64963036775588989 0.64963036775588989
0.24217073619365692 0.24217073619365692 0.24217073619365692
0.25256359577178955 0.25256359577178955 0.25256359577178955
0.26932346820831299 0.26932346820831299 0.26932346820831299
0.29482185840606689 0.29482185840606689 0.29482185840606689
0.32947471737861633 0.32947471737861633 0.32947471737861633
0.37364992499351501 0.37364992499351501 0.37364992499351501
0.42358314990997314 0.42358314990997314 0.42358314990997314
0.46905452013015747 0.46905452013015747 0.46905452013015747
0.50759071111679077 0.50759071111679077 0.50759071111679077
0.54735058546066284 0.54735058546066284 0.54735058546066284
0.59267085790634155 0.59267085790634155 0.59267085790634155
0.64206552505493164 0.64206552505493164 0.64206552505493164
0.6940314769744873 0.6940314769744873 0.6940314769744873
0.31393063068389893 0.31393063068389893 0.31393063068389893
0.32013046741485596 0.32013046741485596 0.32013046741485596
0.33155930042266846 0.33155930042266846 0.33155930042266846
0.35100647807121277 0.35100647807121277 0.35100647807121277
0.38060161471366882 0.38060161471366882 0.38060161471366882
0.4222208559513092 0.4222208559513092 0.4222208559513092
0.47060000896453857 0.47060000896453857 0.47060000896453857
0.51805192232131958 0.51805192232131958 0.51805192232131958
0.5609663724899292 0.5609663724899292 0.5609663724899292
0.60386878252029419 0.60386878252029419 0.60386878252029419
0.64831000566482544 0.64831000566482544 0.64831000566482544
0.69474774599075317 0.69474774599075317 0.69474774599075317
0.74212348461151123 0.74212348461151123 0.74212348461151123
0.38836243748664856 0.38836243748664856 0.38836243748664856
0.39004522562026978 0.39004522562026978 0.39004522562026978
0.39420363306999207 0.39420363306999207 0.39420363306999207
0.40571796894073486 0.40571796894073486 0.40571796894073486
0.42832803726196289 0.42832803726196289 0.42832803726196289
0.46451440453529358 0.46451440453529358 0.46451440453529358
0.50977087020874023 0.50977087020874023 0.50977087020874023
0.55848532915115356 0.55848532915115356 0.55848532915115356
0.60571897029876709 0.60571897029876709 0.60571897029876709
0.65166264772415161 0.65166264772415161 0.65166264772415161
0.69703894853591919 0.69703894853591919 0.69703894853591919
0.74271470308303833 0.74271470308303833 0.74271470308303833
0.78790676593780518 0.78790676593780518 0.78790676593780518
0.46398386359214783 0.46398386359214783 0.46398386359214783
0.46156230568885803 0.46156230568885803 0.46156230568885803
0.45980921387672424 0.45980921387672424 0.45980921387672424
0.46295818686485291 0.46295818686485291 0.46295818686485291
0.47768136858940125 0.47768136858940125 0.47768136858940125
0.50727242231369019 0.50727242231369019 0.50727242231369019
0.54866904020309448 0.54866904020309448 0.54866904020309448
0.59572672843933105 0.59572672843933105 0.59572672843933105
0.64349126815795898 0.64349126815795898 0.64349126815795898
0.68988966941833496 0.68988966941833496 0.68988966941833496
0.73546516895294189 0.73546516895294189 0.73546516895294189
0.78079938888549805 0.78079938888549805 0.78079938888549805
0.82531285285949707 0.82531285285949707 0.82531285285949707
0.54236292839050293 0.54236292839050293 0.54236292839050293
0.53724467754364014 0.53724467754364014 0.53724467754364014
0.53145390748977661 0.53145390748977661 0.53145390748977661
0.52848541736602783 0.52848541736602783 0.52848541736602783
0.53617662191390991 0.53617662191390991 0.53617662191390991
0.55898839235305786 0.55898839235305786 0.55898839235305786
0.59450536966323853 0.59450536966323853 0.59450536966323853
0.63652288913726807 0.63652288913726807 0.63652288913726807
0.68000060319900513 0.68000060319900513 0.68000060319900513
0.7228735089302063 0.7228735089302063 0.7228735089302063
0.76574641466140747 0.76574641466140747 0.76574641466140747
0.80917453765869141 0.80917453765869141 0.80917453765869141
0.8518989086151123 0.8518989086151123 0.8518989086151123
0.62443083524703979 0.62443083524703979 0.62443083524703979
0.61881577968597412 0.61881577968597412 0.61881577968597412
0.61156761646270752 0.61156761646270752 0.61156761646270752
0.60653889179229736 0.60653889179229736 0.60653889179229736
0.60979950428009033 0.60979950428009033 0.60979950428009033
0.62554347515106201 0.62554347515106201 0.62554347515106201
0.65250229835510254 0.65250229835510254 0.65250229835510254
0.68566656112670898 0.68566656112670898 0.68566656112670898
0.7209431529045105 0.7209431529045105 0.7209431529045105
0.75691872835159302 0.75691872835159302 0.75691872835159302
0.79432767629623413 0.79432767629623413 0.79432767629623413
0.83383786678314209 0.83383786678314209 0.83383786678314209
0.87345808744430542 0.87345808744430542 0.87345808744430542
0.70919585227966309 0.70919585227966309 0.70919585227966309
0.70427560806274414 0.70427560806274414 0.70427560806274414
0.69801414012908936 0.69801414012908936 0.69801414012908936
0.69334322214126587 0.69334322214126587 0.69334322214126587
0.69433784484863281 0.69433784484863281 0.69433784484863281
0.70384901762008667 0.70384901762008667 0.70384901762008667
0.72111570835113525 0.72111570835113525 0.72111570835113525
0.74381965398788452 0.74381965398788452 0.74381965398788452
0.76952165365219116 0.76952165365219116 0.76952165365219116
0.79699468612670898 0.79699468612670898 0.79699468612670898
0.82715857028961182 0.82715857028961182 0.82715857028961182
0.86047804355621338 0.86047804355621338 0.86047804355621338
0.89595359563827515 0.89595359563827515 0.89595359563827515
0.79381179809570312 0.79381179809570312 0.79381179809570312
0.79046231508255005 0.79046231508255005 0.79046231508255005
0.78571158647537231 0.78571158647537231 0.78571158647537231
0.78210318088531494 0.78210318088531494 0.78210318088531494
0.78214830160140991 0.78214830160140991 0.78214830160140991
0.78666198253631592 0.78666198253631592 0.78666198253631592
0.79557186365127563 0.79557186365127563 0.79557186365127563
0.80816769599914551 0.80816769599914551 0.80816769599914551
0.82419216632843018 0.82419216632843018 0.82419216632843018
0.84312200546264648 0.84312200546264648 0.84312200546264648
0.86568725109100342 0.86568725109100342 0.86568725109100342
0.89200484752655029 0.89200484752655029 0.89200484752655029
0.92201530933380127 0.92201530933380127 0.92201530933380127
0.87495130300521851 0.87495130300521851 0.87495130300521851
0.87301188707351685 0.87301188707351685 0.87301188707351685
0.86957943439483643 0.86957943439483643 0.86957943439483643
0.8669813871383667 0.8669813871383667 0.8669813871383667
0.86638575792312622 0.86638575792312622 0.86638575792312622
0.86708825826644897 0.86708825826644897 0.86708825826644897
0.8693540096282959 0.8693540096282959 0.8693540096282959
0.87410783767700195 0.87410783767700195 0.87410783767700195
0.88209831714630127 0.88209831714630127 0.88209831714630127
0.89346212148666382 0.89346212148666382 0.89346212148666382
0.90899735689163208 0.90899735689163208 0.90899735689163208
0.92926263809204102 0.92926263809204102 0.92926263809204102
0.95302385091781616 0.95302385091781616 0.95302385091781616
0.083885759115219116 0.083885759115219116 0.083885759115219116
0.099222533404827118 0.099222533404827118 0.099222533404827118
0.121687151491642 0.121687151491642 0.121687151491642
0.14976330101490021 0.14976330101490021 0.14976330101490021
0.18259407579898834 0.18259407579898834 0.18259407579898834
0.21963123977184296 0.21963123977184296 0.21963123977184296
0.2592102587223053 0.2592102587223053 0.2592102587223053
0.29808172583580017 0.29808172583580017 0.29808172583580017
0.33664834499359131 0.33664834499359131 0.33664834499359131
0.38398128747940063 0.38398128747940063 0.38398128747940063
0.44095098972320557 0.44095098972320557 0.44095098972320557
0.5016791820526123 0.5016791820526123 0.5016791820526123
0.56435513496398926 0.56435513496398926 0.56435513496398926
0.10654541850090027 0.10654541850090027 0.10654541850090027
0.12299517542123795 0.12299517542123795 0.12299517542123795
0.14605468511581421 0.14605468511581421 0.14605468511581421
0.17380411922931671 0.17380411922931671 0.17380411922931671
0.20551148056983948 0.20551148056983948 0.20551148056983948
0.24077074229717255 0.24077074229717255 0.24077074229717255
0.27793669700622559 0.27793669700622559 0.27793669700622559
0.31396809220314026 0.31396809220314026 0.31396809220314026
0.35129985213279724 0.35129985213279724 0.35129985213279724
0.39816540479660034 0.39816540479660034 0.39816540479660034
0.45431256294250488 0.45431256294250488 0.45431256294250488
0.51529157161712646 0.51529157161712646 0.51529157161712646
0.57900786399841309 0.57900786399841309 0.57900786399841309
0.14626963436603546 0.14626963436603546 0.14626963436603546
0.16182111203670502 0.16182111203670502 0.16182111203670502
0.18429179489612579 0.18429179489612579 0.18429179489612579
0.21111990511417389 0.21111990511417389 0.21111990511417389
0.2424459308385849 0.2424459308385849 0.2424459308385849
0.27753260731697083 0.27753260731697083 0.27753260731697083
0.31338566541671753 0.31338566541671753 0.31338566541671753
0.34791001677513123 0.34791001677513123 0.34791001677513123
0.38554748892784119 0.38554748892784119 0.38554748892784119
0.43065515160560608 0.43065515160560608 0.43065515160560608
0.48289301991462708 0.48289301991462708 0.48289301991462708
0.54095375537872314 0.54095375537872314 0.54095375537872314
0.60331612825393677 0.60331612825393677 0.60331612825393677
0.2022714763879776 0.2022714763879776 0.2022714763879776
0.21514622867107391 0.21514622867107391 0.21514622867107391
0.23459810018539429 0.23459810018539429 0.23459810018539429
0.25983917713165283 0.25983917713165283 0.25983917713165283
0.29129081964492798 0.29129081964492798 0.29129081964492798
0.32836943864822388 0.32836943864822388 0.32836943864822388
0.36690187454223633 0.36690187454223633 0.36690187454223633
0.4023793637752533 0.4023793637752533 0.4023793637752533
0.43826445937156677 0.43826445937156677 0.43826445937156677
0.4802723228931427 0.4802723228931427 0.4802723228931427
0.5277521014213562 0.5277521014213562 0.5277521014213562
0.58132529258728027 0.58132529258728027 0.58132529258728027
0.63906502723693848 0.63906502723693848 0.63906502723693848
0.26876160502433777 0.26876160502433777 0.26876160502433777
0.27820417284965515 0.27820417284965515 0.27820417284965515
0.29302230477333069 0.29302230477333069 0.29302230477333069
0.31473958492279053 0.31473958492279053 0.31473958492279053
0.34522968530654907 0.34522968530654907 0.34522968530654907
0.38438615202903748 0.38438615202903748 0.38438615202903748
0.4275057315826416 0.4275057315826416 0.4275057315826416
0.467049241065979 0.467049241065979 0.467049241065979
