luts/negative_new/ilford_hp_5.cube
# Created by: G'MIC (https://gmic.eu)
TITLE "ilford_hp_5"
# LUT size
LUT_3D_SIZE 7
# Data domain
DOMAIN_MIN 0.0 0.0 0.0
DOMAIN_MAX 1.0 1.0 1.0
# LUT data points
0.033758081495761871 0.033758081495761871 0.033758081495761871
0.074018053710460663 0.074018053710460663 0.074018053710460663
0.13991834223270416 0.13991834223270416 0.13991834223270416
0.22216677665710449 0.22216677665710449 0.22216677665710449
0.32263642549514771 0.32263642549514771 0.32263642549514771
0.44521912932395935 0.44521912932395935 0.44521912932395935
0.58280551433563232 0.58280551433563232 0.58280551433563232
0.10384452342987061 0.10384452342987061 0.10384452342987061
0.1440168172121048 0.1440168172121048 0.1440168172121048
0.21309398114681244 0.21309398114681244 0.21309398114681244
0.30191746354103088 0.30191746354103088 0.30191746354103088
0.39607375860214233 0.39607375860214233 0.39607375860214233
0.50344812870025635 0.50344812870025635 0.50344812870025635
0.62603962421417236 0.62603962421417236 0.62603962421417236
0.22317403554916382 0.22317403554916382 0.22317403554916382
0.25270089507102966 0.25270089507102966 0.25270089507102966
0.31688961386680603 0.31688961386680603 0.31688961386680603
0.41419464349746704 0.41419464349746704 0.41419464349746704
0.50647979974746704 0.50647979974746704 0.50647979974746704
0.59793937206268311 0.59793937206268311 0.59793937206268311
0.7005302906036377 0.7005302906036377 0.7005302906036377
0.36664679646492004 0.36664679646492004 0.36664679646492004
0.37587511539459229 0.37587511539459229 0.37587511539459229
0.41623309254646301 0.41623309254646301 0.41623309254646301
0.50171196460723877 0.50171196460723877 0.50171196460723877
0.59891659021377563 0.59891659021377563 0.59891659021377563
0.69216257333755493 0.69216257333755493 0.69216257333755493
0.78469103574752808 0.78469103574752808 0.78469103574752808
0.52338075637817383 0.52338075637817383 0.52338075637817383
0.5144621729850769 0.5144621729850769 0.5144621729850769
0.52629858255386353 0.52629858255386353 0.52629858255386353
0.59173202514648438 0.59173202514648438 0.59173202514648438
0.67677807807922363 0.67677807807922363 0.67677807807922363
0.76248472929000854 0.76248472929000854 0.76248472929000854
0.84699654579162598 0.84699654579162598 0.84699654579162598
0.69460135698318481 0.69460135698318481 0.69460135698318481
0.685341477394104 0.685341477394104 0.685341477394104
0.68810892105102539 0.68810892105102539 0.68810892105102539
0.71982657909393311 0.71982657909393311 0.71982657909393311
0.76989108324050903 0.76989108324050903 0.76989108324050903
0.82782089710235596 0.82782089710235596 0.82782089710235596
0.89443957805633545 0.89443957805633545 0.89443957805633545
0.86590522527694702 0.86590522527694702 0.86590522527694702
0.861683189868927 0.861683189868927 0.861683189868927
0.86374437808990479 0.86374437808990479 0.86374437808990479
0.86976611614227295 0.86976611614227295 0.86976611614227295
0.8827136754989624 0.8827136754989624 0.8827136754989624
0.90985006093978882 0.90985006093978882 0.90985006093978882
0.9521898627281189 0.9521898627281189 0.9521898627281189
0.083885759115219116 0.083885759115219116 0.083885759115219116
0.121687151491642 0.121687151491642 0.121687151491642
0.18259407579898834 0.18259407579898834 0.18259407579898834
0.2592102587223053 0.2592102587223053 0.2592102587223053
0.33664834499359131 0.33664834499359131 0.33664834499359131
0.44095098972320557 0.44095098972320557 0.44095098972320557
0.56435513496398926 0.56435513496398926 0.56435513496398926
0.14626963436603546 0.14626963436603546 0.14626963436603546
0.18429179489612579 0.18429179489612579 0.18429179489612579
0.2424459308385849 0.2424459308385849 0.2424459308385849
0.31338566541671753 0.31338566541671753 0.31338566541671753
0.38554748892784119 0.38554748892784119 0.38554748892784119
0.48289301991462708 0.48289301991462708 0.48289301991462708
0.60331612825393677 0.60331612825393677 0.60331612825393677
0.26876160502433777 0.26876160502433777 0.26876160502433777
0.29302230477333069 0.29302230477333069 0.29302230477333069
0.34522968530654907 0.34522968530654907 0.34522968530654907
0.4275057315826416 0.4275057315826416 0.4275057315826416
0.50242364406585693 0.50242364406585693 0.50242364406585693
0.58572816848754883 0.58572816848754883 0.58572816848754883
0.68545562028884888 0.68545562028884888 0.68545562028884888
0.41496732831001282 0.41496732831001282 0.41496732831001282
0.41826692223548889 0.41826692223548889 0.41826692223548889
0.44453325867652893 0.44453325867652893 0.44453325867652893
0.51909369230270386 0.51909369230270386 0.51909369230270386
0.61177629232406616 0.61177629232406616 0.61177629232406616
0.70104378461837769 0.70104378461837769 0.70104378461837769
0.78706103563308716 0.78706103563308716 0.78706103563308716
0.56437057256698608 0.56437057256698608 0.56437057256698608
0.55371677875518799 0.55371677875518799 0.55371677875518799
0.54967254400253296 0.54967254400253296 0.54967254400253296
0.59984767436981201 0.59984767436981201 0.59984767436981201
0.68477952480316162 0.68477952480316162 0.68477952480316162
0.76797783374786377 0.76797783374786377 0.76797783374786377
0.85397905111312866 0.85397905111312866 0.85397905111312866
0.72467464208602905 0.72467464208602905 0.72467464208602905
0.71430623531341553 0.71430623531341553 0.71430623531341553
0.70502769947052002 0.70502769947052002 0.70502769947052002
0.72579848766326904 0.72579848766326904 0.72579848766326904
0.77182799577713013 0.77182799577713013 0.77182799577713013
0.82709228992462158 0.82709228992462158 0.82709228992462158
0.8975222110748291 0.8975222110748291 0.8975222110748291
0.88295406103134155 0.88295406103134155 0.88295406103134155
0.87778240442276001 0.87778240442276001 0.87778240442276001
0.87015658617019653 0.87015658617019653 0.87015658617019653
0.87065720558166504 0.87065720558166504 0.87065720558166504
0.88311445713043213 0.88311445713043213 0.88311445713043213
0.91053849458694458 0.91053849458694458 0.91053849458694458
0.95607322454452515 0.95607322454452515 0.95607322454452515
0.18481519818305969 0.18481519818305969 0.18481519818305969
0.21282534301280975 0.21282534301280975 0.21282534301280975
0.25962212681770325 0.25962212681770325 0.25962212681770325
0.33481109142303467 0.33481109142303467 0.33481109142303467
0.41815131902694702 0.41815131902694702 0.41815131902694702
0.4981081485748291 0.4981081485748291 0.4981081485748291
0.59186458587646484 0.59186458587646484 0.59186458587646484
0.23858772218227386 0.23858772218227386 0.23858772218227386
0.2642771303653717 0.2642771303653717 0.2642771303653717
0.30032354593276978 0.30032354593276978 0.30032354593276978
0.35900336503982544 0.35900336503982544 0.35900336503982544
0.43367376923561096 0.43367376923561096 0.43367376923561096
0.50905013084411621 0.50905013084411621 0.50905013084411621
0.61664211750030518 0.61664211750030518 0.61664211750030518
0.33516806364059448 0.33516806364059448 0.33516806364059448
0.35610091686248779 0.35610091686248779 0.35610091686248779
0.39104852080345154 0.39104852080345154 0.39104852080345154
0.4484618604183197 0.4484618604183197 0.4484618604183197
0.50452530384063721 0.50452530384063721 0.50452530384063721
0.57969051599502563 0.57969051599502563 0.57969051599502563
0.67529779672622681 0.67529779672622681 0.67529779672622681
0.46240031719207764 0.46240031719207764 0.46240031719207764
0.47073608636856079 0.47073608636856079 0.47073608636856079
0.48946857452392578 0.48946857452392578 0.48946857452392578
0.54229795932769775 0.54229795932769775 0.54229795932769775
0.61607927083969116 0.61607927083969116 0.61607927083969116
0.69644629955291748 0.69644629955291748 0.69644629955291748
0.76635181903839111 0.76635181903839111 0.76635181903839111
0.60250949859619141 0.60250949859619141 0.60250949859619141
0.60581135749816895 0.60581135749816895 0.60581135749816895
0.59952926635742188 0.59952926635742188 0.59952926635742188
0.63065087795257568 0.63065087795257568 0.63065087795257568
0.69997513294219971 0.69997513294219971 0.69997513294219971
0.7719385027885437 0.7719385027885437 0.7719385027885437
0.84602898359298706 0.84602898359298706 0.84602898359298706
0.75391232967376709 0.75391232967376709 0.75391232967376709
0.75338906049728394 0.75338906049728394 0.75338906049728394
0.74431157112121582 0.74431157112121582 0.74431157112121582
0.75443726778030396 0.75443726778030396 0.75443726778030396
0.79086542129516602 0.79086542129516602 0.79086542129516602
0.83989399671554565 0.83989399671554565 0.83989399671554565
0.90516263246536255 0.90516263246536255 0.90516263246536255
0.8987048864364624 0.8987048864364624 0.8987048864364624
0.89500695466995239 0.89500695466995239 0.89500695466995239
0.88617026805877686 0.88617026805877686 0.88617026805877686
0.88436263799667358 0.88436263799667358 0.88436263799667358
0.89516067504882812 0.89516067504882812 0.89516067504882812
0.92128777503967285 0.92128777503967285 0.92128777503967285
0.9654921293258667 0.9654921293258667 0.9654921293258667
0.31997954845428467 0.31997954845428467 0.31997954845428467
0.34031924605369568 0.34031924605369568 0.34031924605369568
0.37537923455238342 0.37537923455238342 0.37537923455238342
0.41568505764007568 0.41568505764007568 0.41568505764007568
0.47681328654289246 0.47681328654289246 0.47681328654289246
0.58130818605422974 0.58130818605422974 0.58130818605422974
0.68070918321609497 0.68070918321609497 0.68070918321609497
0.36013177037239075 0.36013177037239075 0.36013177037239075
0.38046324253082275 0.38046324253082275 0.38046324253082275
0.40447723865509033 0.40447723865509033 0.40447723865509033
0.44285687804222107 0.44285687804222107 0.44285687804222107
0.49743717908859253 0.49743717908859253 0.49743717908859253
0.60343343019485474 0.60343343019485474 0.60343343019485474
0.69397813081741333 0.69397813081741333 0.69397813081741333
0.41095465421676636 0.41095465421676636 0.41095465421676636
0.43828174471855164 0.43828174471855164 0.43828174471855164
0.46585682034492493 0.46585682034492493 0.46585682034492493
0.50309973955154419 0.50309973955154419 0.50309973955154419
0.54472041130065918 0.54472041130065918 0.54472041130065918
0.61835145950317383 0.61835145950317383 0.61835145950317383
0.70732063055038452 0.70732063055038452 0.70732063055038452
0.49422362446784973 0.49422362446784973 0.49422362446784973
0.51699399948120117 0.51699399948120117 0.51699399948120117
0.54495716094970703 0.54495716094970703 0.54495716094970703
0.58076971769332886 0.58076971769332886 0.58076971769332886
0.62594115734100342 0.62594115734100342 0.62594115734100342
0.68834793567657471 0.68834793567657471 0.68834793567657471
0.75609976053237915 0.75609976053237915 0.75609976053237915
0.62295091152191162 0.62295091152191162 0.62295091152191162
0.63742142915725708 0.63742142915725708 0.63742142915725708
0.65417361259460449 0.65417361259460449 0.65417361259460449
0.67892175912857056 0.67892175912857056 0.67892175912857056
0.72362238168716431 0.72362238168716431 0.72362238168716431
0.78084057569503784 0.78084057569503784 0.78084057569503784
0.84768915176391602 0.84768915176391602 0.84768915176391602
0.76940858364105225 0.76940858364105225 0.76940858364105225
0.77530467510223389 0.77530467510223389 0.77530467510223389
0.78213584423065186 0.78213584423065186 0.78213584423065186
0.79754030704498291 0.79754030704498291 0.79754030704498291
0.82220661640167236 0.82220661640167236 0.82220661640167236
0.8627781867980957 0.8627781867980957 0.8627781867980957
0.92046594619750977 0.92046594619750977 0.92046594619750977
0.9061506986618042 0.9061506986618042 0.9061506986618042
0.90254276990890503 0.90254276990890503 0.90254276990890503
0.90049952268600464 0.90049952268600464 0.90049952268600464
0.90430909395217896 0.90430909395217896 0.90430909395217896
0.91349083185195923 0.91349083185195923 0.91349083185195923
0.93564742803573608 0.93564742803573608 0.93564742803573608
0.97488927841186523 0.97488927841186523 0.97488927841186523
0.47491568326950073 0.47491568326950073 0.47491568326950073
0.48696750402450562 0.48696750402450562 0.48696750402450562
0.51515018939971924 0.51515018939971924 0.51515018939971924
0.56498217582702637 0.56498217582702637 0.56498217582702637
0.58415454626083374 0.58415454626083374 0.58415454626083374
0.63273584842681885 0.63273584842681885 0.63273584842681885
0.74588525295257568 0.74588525295257568 0.74588525295257568
0.49926403164863586 0.49926403164863586 0.49926403164863586
0.5169142484664917 0.5169142484664917 0.5169142484664917
0.54220938682556152 0.54220938682556152 0.54220938682556152
0.58382129669189453 0.58382129669189453 0.58382129669189453
0.60141855478286743 0.60141855478286743 0.60141855478286743
0.65809214115142822 0.65809214115142822 0.65809214115142822
0.75844001770019531 0.75844001770019531 0.75844001770019531
0.51684141159057617 0.51684141159057617 0.51684141159057617
0.54546493291854858 0.54546493291854858 0.54546493291854858
0.57482093572616577 0.57482093572616577 0.57482093572616577
0.60899454355239868 0.60899454355239868 0.60899454355239868
0.63960343599319458 0.63960343599319458 0.63960343599319458
0.69446998834609985 0.69446998834609985 0.69446998834609985
0.7818601131439209 0.7818601131439209 0.7818601131439209
0.56235522031784058 0.56235522031784058 0.56235522031784058
0.58302760124206543 0.58302760124206543 0.58302760124206543
0.61664688587188721 0.61664688587188721 0.61664688587188721
0.65137010812759399 0.65137010812759399 0.65137010812759399
0.68944787979125977 0.68944787979125977 0.68944787979125977
0.73988556861877441 0.73988556861877441 0.73988556861877441
0.80454051494598389 0.80454051494598389 0.80454051494598389
0.65656685829162598 0.65656685829162598 0.65656685829162598
0.6570163369178772 0.6570163369178772 0.6570163369178772
0.68761777877807617 0.68761777877807617 0.68761777877807617
0.71999919414520264 0.71999919414520264 0.71999919414520264
0.76131522655487061 0.76131522655487061 0.76131522655487061
0.81024765968322754 0.81024765968322754 0.81024765968322754
0.86992424726486206 0.86992424726486206 0.86992424726486206
0.77826982736587524 0.77826982736587524 0.77826982736587524
0.77807915210723877 0.77807915210723877 0.77807915210723877
0.79510313272476196 0.79510313272476196 0.79510313272476196
0.82248109579086304 0.82248109579086304 0.82248109579086304
0.84612643718719482 0.84612643718719482 0.84612643718719482
0.88087385892868042 0.88087385892868042 0.88087385892868042
0.93081581592559814 0.93081581592559814 0.93081581592559814
0.89915299415588379 0.89915299415588379 0.89915299415588379
0.89676690101623535 0.89676690101623535 0.89676690101623535
0.90202921628952026 0.90202921628952026 0.90202921628952026
0.91342073678970337 0.91342073678970337 0.91342073678970337
0.92360931634902954 0.92360931634902954 0.92360931634902954
0.94194382429122925 0.94194382429122925 0.94194382429122925
0.97525304555892944 0.97525304555892944 0.97525304555892944
0.64637118577957153 0.64637118577957153 0.64637118577957153
0.64945745468139648 0.64945745468139648 0.64945745468139648
0.66345459222793579 0.66345459222793579 0.66345459222793579
0.70978927612304688 0.70978927612304688 0.70978927612304688
0.74208629131317139 0.74208629131317139 0.74208629131317139
0.74645388126373291 0.74645388126373291 0.74645388126373291
0.79849433898925781 0.79849433898925781 0.79849433898925781
0.66050118207931519 0.66050118207931519 0.66050118207931519
0.67079371213912964 0.67079371213912964 0.67079371213912964
0.69171035289764404 0.69171035289764404 0.69171035289764404
0.72870677709579468 0.72870677709579468 0.72870677709579468
0.74798047542572021 0.74798047542572021 0.74798047542572021
0.75904375314712524 0.75904375314712524 0.75904375314712524
0.80472272634506226 0.80472272634506226 0.80472272634506226
0.67263400554656982 0.67263400554656982 0.67263400554656982
0.68772536516189575 0.68772536516189575 0.68772536516189575
0.71173912286758423 0.71173912286758423 0.71173912286758423
0.74098330736160278 0.74098330736160278 0.74098330736160278
0.76322633028030396 0.76322633028030396 0.76322633028030396
0.78705853223800659 0.78705853223800659 0.78705853223800659
0.82339441776275635 0.82339441776275635 0.82339441776275635
0.69585573673248291 0.69585573673248291 0.69585573673248291
0.70606404542922974 0.70606404542922974 0.70606404542922974
0.73015272617340088 0.73015272617340088 0.73015272617340088
0.75773972272872925 0.75773972272872925 0.75773972272872925
0.78645819425582886 0.78645819425582886 0.78645819425582886
0.82019150257110596 0.82019150257110596 0.82019150257110596
0.86079645156860352 0.86079645156860352 0.86079645156860352
0.74386775493621826 0.74386775493621826 0.74386775493621826
0.74483990669250488 0.74483990669250488 0.74483990669250488
0.76438271999359131 0.76438271999359131 0.76438271999359131
0.78875261545181274 0.78875261545181274 0.78875261545181274
0.82141870260238647 0.82141870260238647 0.82141870260238647
0.85783332586288452 0.85783332586288452 0.85783332586288452
0.89975517988204956 0.89975517988204956 0.89975517988204956
0.81667667627334595 0.81667667627334595 0.81667667627334595
0.81583321094512939 0.81583321094512939 0.81583321094512939
0.82934212684631348 0.82934212684631348 0.82934212684631348
0.84839236736297607 0.84839236736297607 0.84839236736297607
0.87268733978271484 0.87268733978271484 0.87268733978271484
0.899708092212677 0.899708092212677 0.899708092212677
0.93514621257781982 0.93514621257781982 0.93514621257781982
0.90343546867370605 0.90343546867370605 0.90343546867370605
0.90248709917068481 0.90248709917068481 0.90248709917068481
0.91096848249435425 0.91096848249435425 0.91096848249435425
0.9220125675201416 0.9220125675201416 0.9220125675201416
0.93204379081726074 0.93204379081726074 0.93204379081726074
0.94483041763305664 0.94483041763305664 0.94483041763305664
0.96953433752059937 0.96953433752059937 0.96953433752059937
0.8267204761505127 0.8267204761505127 0.8267204761505127
0.82547134160995483 0.82547134160995483 0.82547134160995483
0.83475810289382935 0.83475810289382935 0.83475810289382935
0.86328995227813721 0.86328995227813721 0.86328995227813721
0.89086616039276123 0.89086616039276123 0.89086616039276123
0.89644461870193481 0.89644461870193481 0.89644461870193481
0.91195905208587646 0.91195905208587646 0.91195905208587646
0.83490407466888428 0.83490407466888428 0.83490407466888428
0.83947843313217163 0.83947843313217163 0.83947843313217163
0.85114181041717529 0.85114181041717529 0.85114181041717529
0.87377214431762695 0.87377214431762695 0.87377214431762695
0.89051389694213867 0.89051389694213867 0.89051389694213867
0.89262980222702026 0.89262980222702026 0.89262980222702026
0.90184515714645386 0.90184515714645386 0.90184515714645386
0.84479004144668579 0.84479004144668579 0.84479004144668579
0.85016226768493652 0.85016226768493652 0.85016226768493652
0.86275041103363037 0.86275041103363037 0.86275041103363037
0.88047665357589722 0.88047665357589722 0.88047665357589722
0.89496815204620361 0.89496815204620361 0.89496815204620361
0.90590792894363403 0.90590792894363403 0.90590792894363403
0.91147100925445557 0.91147100925445557 0.91147100925445557
0.85528826713562012 0.85528826713562012 0.85528826713562012
0.85744690895080566 0.85744690895080566 0.85744690895080566
0.87116146087646484 0.87116146087646484 0.87116146087646484
0.88642936944961548 0.88642936944961548 0.88642936944961548
0.9008827805519104 0.9008827805519104 0.9008827805519104
0.91843843460083008 0.91843843460083008 0.91843843460083008
0.93574053049087524 0.93574053049087524 0.93574053049087524
0.86509078741073608 0.86509078741073608 0.86509078741073608
0.86709940433502197 0.86709940433502197 0.86709940433502197
0.88125371932983398 0.88125371932983398 0.88125371932983398
0.89505118131637573 0.89505118131637573 0.89505118131637573
0.90847760438919067 0.90847760438919067 0.90847760438919067
0.92620670795440674 0.92620670795440674 0.92620670795440674
0.95023995637893677 0.95023995637893677 0.95023995637893677
0.89170140027999878 0.89170140027999878 0.89170140027999878
0.89298021793365479 0.89298021793365479 0.89298021793365479
0.90408682823181152 0.90408682823181152 0.90408682823181152
0.91595542430877686 0.91595542430877686 0.91595542430877686
0.92691385746002197 0.92691385746002197 0.92691385746002197
0.93943315744400024 0.93943315744400024 0.93943315744400024
0.9615321159362793 0.9615321159362793 0.9615321159362793
0.9396127462387085 0.9396127462387085 0.9396127462387085
0.94186979532241821 0.94186979532241821 0.94186979532241821
0.95074635744094849 0.95074635744094849 0.95074635744094849
0.95809686183929443 0.95809686183929443 0.95809686183929443
0.96260565519332886 0.96260565519332886 0.96260565519332886
0.96665406227111816 0.96665406227111816 0.96665406227111816
0.98122084140777588 0.98122084140777588 0.98122084140777588
