luts/negative_new/ilford_hp_5_+.cube
# Created by: G'MIC (https://gmic.eu)
TITLE "ilford_hp_5_+"
# LUT size
LUT_3D_SIZE 5
# Data domain
DOMAIN_MIN 0.0 0.0 0.0
DOMAIN_MAX 1.0 1.0 1.0
# LUT data points
0.14400096237659454 0.14400096237659454 0.14400096237659454
0.19455139338970184 0.19455139338970184 0.19455139338970184
0.28963187336921692 0.28963187336921692 0.28963187336921692
0.41550719738006592 0.41550719738006592 0.41550719738006592
0.60571193695068359 0.60571193695068359 0.60571193695068359
0.23224145174026489 0.23224145174026489 0.23224145174026489
0.28230264782905579 0.28230264782905579 0.28230264782905579
0.3927772045135498 0.3927772045135498 0.3927772045135498
0.52385973930358887 0.52385973930358887 0.52385973930358887
0.68637347221374512 0.68637347221374512 0.68637347221374512
0.40174770355224609 0.40174770355224609 0.40174770355224609
0.41698062419891357 0.41698062419891357 0.41698062419891357
0.51508432626724243 0.51508432626724243 0.51508432626724243
0.65239930152893066 0.65239930152893066 0.65239930152893066
0.79277884960174561 0.79277884960174561 0.79277884960174561
0.6238332986831665 0.6238332986831665 0.6238332986831665
0.61424428224563599 0.61424428224563599 0.61424428224563599
0.66617172956466675 0.66617172956466675 0.66617172956466675
0.76031577587127686 0.76031577587127686 0.76031577587127686
0.86731189489364624 0.86731189489364624 0.86731189489364624
0.86738866567611694 0.86738866567611694 0.86738866567611694
0.8636786937713623 0.8636786937713623 0.8636786937713623
0.87156760692596436 0.87156760692596436 0.87156760692596436
0.89191174507141113 0.89191174507141113 0.89191174507141113
0.94322782754898071 0.94322782754898071 0.94322782754898071
0.20583178102970123 0.20583178102970123 0.20583178102970123
0.25278732180595398 0.25278732180595398 0.25278732180595398
0.34120237827301025 0.34120237827301025 0.34120237827301025
0.45918315649032593 0.45918315649032593 0.45918315649032593
0.59243917465209961 0.59243917465209961 0.59243917465209961
0.2919553816318512 0.2919553816318512 0.2919553816318512
0.33338719606399536 0.33338719606399536 0.33338719606399536
0.41327723860740662 0.41327723860740662 0.41327723860740662
0.52355974912643433 0.52355974912643433 0.52355974912643433
0.67235136032104492 0.67235136032104492 0.67235136032104492
0.46212199330329895 0.46212199330329895 0.46212199330329895
0.47882565855979919 0.47882565855979919 0.47882565855979919
0.53975993394851685 0.53975993394851685 0.53975993394851685
0.67023736238479614 0.67023736238479614 0.67023736238479614
0.79898285865783691 0.79898285865783691 0.79898285865783691
0.67347908020019531 0.67347908020019531 0.67347908020019531
0.66088193655014038 0.66088193655014038 0.66088193655014038
0.68800300359725952 0.68800300359725952 0.68800300359725952
0.77602297067642212 0.77602297067642212 0.77602297067642212
0.88084518909454346 0.88084518909454346 0.88084518909454346
0.89200443029403687 0.89200443029403687 0.89200443029403687
0.87818396091461182 0.87818396091461182 0.87818396091461182
0.8755795955657959 0.8755795955657959 0.8755795955657959
0.89953261613845825 0.89953261613845825 0.89953261613845825
0.95395678281784058 0.95395678281784058 0.95395678281784058
0.35172829031944275 0.35172829031944275 0.35172829031944275
0.38739585876464844 0.38739585876464844 0.38739585876464844
0.45005452632904053 0.45005452632904053 0.45005452632904053
0.54755836725234985 0.54755836725234985 0.54755836725234985
0.70228928327560425 0.70228928327560425 0.70228928327560425
0.41917684674263 0.41917684674263 0.41917684674263
0.44256654381752014 0.44256654381752014 0.44256654381752014
0.4929603636264801 0.4929603636264801 0.4929603636264801
0.59384739398956299 0.59384739398956299 0.59384739398956299
0.71669298410415649 0.71669298410415649 0.71669298410415649
0.51414018869400024 0.51414018869400024 0.51414018869400024
0.54861080646514893 0.54861080646514893 0.54861080646514893
0.5960424542427063 0.5960424542427063 0.5960424542427063
0.684334397315979 0.684334397315979 0.684334397315979
0.77527576684951782 0.77527576684951782 0.77527576684951782
0.7113577127456665 0.7113577127456665 0.7113577127456665
0.71251028776168823 0.71251028776168823 0.71251028776168823
0.74866378307342529 0.74866378307342529 0.74866378307342529
0.81442046165466309 0.81442046165466309 0.81442046165466309
0.89458662271499634 0.89458662271499634 0.89458662271499634
0.90473473072052002 0.90473473072052002 0.90473473072052002
0.89251315593719482 0.89251315593719482 0.89251315593719482
0.89972496032714844 0.89972496032714844 0.89972496032714844
0.92158496379852295 0.92158496379852295 0.92158496379852295
0.96616184711456299 0.96616184711456299 0.96616184711456299
0.55551397800445557 0.55551397800445557 0.55551397800445557
0.59436297416687012 0.59436297416687012 0.59436297416687012
0.64913547039031982 0.64913547039031982 0.64913547039031982
0.6779981255531311 0.6779981255531311 0.6779981255531311
0.77825301885604858 0.77825301885604858 0.77825301885604858
0.59859031438827515 0.59859031438827515 0.59859031438827515
0.62701332569122314 0.62701332569122314 0.62701332569122314
0.68094944953918457 0.68094944953918457 0.68094944953918457
0.71532917022705078 0.71532917022705078 0.71532917022705078
0.80815190076828003 0.80815190076828003 0.80815190076828003
0.64449423551559448 0.64449423551559448 0.64449423551559448
0.67204791307449341 0.67204791307449341 0.67204791307449341
0.7193453311920166 0.7193453311920166 0.7193453311920166
0.7812039852142334 0.7812039852142334 0.7812039852142334
0.83762568235397339 0.83762568235397339 0.83762568235397339
0.74528306722640991 0.74528306722640991 0.74528306722640991
0.76181948184967041 0.76181948184967041 0.76181948184967041
0.79670828580856323 0.79670828580856323 0.79670828580856323
0.85187524557113647 0.85187524557113647 0.85187524557113647
0.90534287691116333 0.90534287691116333 0.90534287691116333
0.89059346914291382 0.89059346914291382 0.89059346914291382
0.89284604787826538 0.89284604787826538 0.89284604787826538
0.91074728965759277 0.91074728965759277 0.91074728965759277
0.92928481101989746 0.92928481101989746 0.92928481101989746
0.9603886604309082 0.9603886604309082 0.9603886604309082
0.83020693063735962 0.83020693063735962 0.83020693063735962
0.83510041236877441 0.83510041236877441 0.83510041236877441
0.85487741231918335 0.85487741231918335 0.85487741231918335
0.89281094074249268 0.89281094074249268 0.89281094074249268
0.91264081001281738 0.91264081001281738 0.91264081001281738
0.84259241819381714 0.84259241819381714 0.84259241819381714
0.8498724102973938 0.8498724102973938 0.8498724102973938
0.8722119927406311 0.8722119927406311 0.8722119927406311
0.8957257866859436 0.8957257866859436 0.8957257866859436
0.90104585886001587 0.90104585886001587 0.90104585886001587
0.85218679904937744 0.85218679904937744 0.85218679904937744
0.85399705171585083 0.85399705171585083 0.85399705171585083
0.87683135271072388 0.87683135271072388 0.87683135271072388
0.9074828028678894 0.9074828028678894 0.9074828028678894
0.92994952201843262 0.92994952201843262 0.92994952201843262
0.86488455533981323 0.86488455533981323 0.86488455533981323
0.86857998371124268 0.86857998371124268 0.86857998371124268
0.88862204551696777 0.88862204551696777 0.88862204551696777
0.91593503952026367 0.91593503952026367 0.91593503952026367
0.94516420364379883 0.94516420364379883 0.94516420364379883
0.92865049839019775 0.92865049839019775 0.92865049839019775
0.93126988410949707 0.93126988410949707 0.93126988410949707
0.94297748804092407 0.94297748804092407 0.94297748804092407
0.95171433687210083 0.95171433687210083 0.95171433687210083
0.96757733821868896 0.96757733821868896 0.96757733821868896
