luts/negative_new/ilford_hp_5_-.cube
# Created by: G'MIC (https://gmic.eu)
TITLE "ilford_hp_5_-"
# LUT size
LUT_3D_SIZE 5
# Data domain
DOMAIN_MIN 0.0 0.0 0.0
DOMAIN_MAX 1.0 1.0 1.0
# LUT data points
0.011349442414939404 0.011349442414939404 0.011349442414939404
0.080450780689716339 0.080450780689716339 0.080450780689716339
0.22332553565502167 0.22332553565502167 0.22332553565502167
0.37356385588645935 0.37356385588645935 0.37356385588645935
0.55235475301742554 0.55235475301742554 0.55235475301742554
0.15972118079662323 0.15972118079662323 0.15972118079662323
0.23736104369163513 0.23736104369163513 0.23736104369163513
0.36045297980308533 0.36045297980308533 0.36045297980308533
0.46481910347938538 0.46481910347938538 0.46481910347938538
0.61857151985168457 0.61857151985168457 0.61857151985168457
0.35582342743873596 0.35582342743873596 0.35582342743873596
0.38556548953056335 0.38556548953056335 0.38556548953056335
0.48050013184547424 0.48050013184547424 0.48050013184547424
0.59642535448074341 0.59642535448074341 0.59642535448074341
0.7473292350769043 0.7473292350769043 0.7473292350769043
0.56528156995773315 0.56528156995773315 0.56528156995773315
0.56111711263656616 0.56111711263656616 0.56111711263656616
0.61393773555755615 0.61393773555755615 0.61393773555755615
0.71652489900588989 0.71652489900588989 0.71652489900588989
0.84370362758636475 0.84370362758636475 0.84370362758636475
0.83079224824905396 0.83079224824905396 0.83079224824905396
0.82769864797592163 0.82769864797592163 0.82769864797592163
0.84713917970657349 0.84713917970657349 0.84713917970657349
0.88394910097122192 0.88394910097122192 0.88394910097122192
0.94357270002365112 0.94357270002365112 0.94357270002365112
0.11937713623046875 0.11937713623046875 0.11937713623046875
0.18989022076129913 0.18989022076129913 0.18989022076129913
0.29382956027984619 0.29382956027984619 0.29382956027984619
0.41534909605979919 0.41534909605979919 0.41534909605979919
0.54392141103744507 0.54392141103744507 0.54392141103744507
0.22625018656253815 0.22625018656253815 0.22625018656253815
0.29344230890274048 0.29344230890274048 0.29344230890274048
0.37497171759605408 0.37497171759605408 0.37497171759605408
0.46407404541969299 0.46407404541969299 0.46407404541969299
0.5961679220199585 0.5961679220199585 0.5961679220199585
0.43548411130905151 0.43548411130905151 0.43548411130905151
0.43821030855178833 0.43821030855178833 0.43821030855178833
0.50588065385818481 0.50588065385818481 0.50588065385818481
0.60212230682373047 0.60212230682373047 0.60212230682373047
0.7380484938621521 0.7380484938621521 0.7380484938621521
0.60423189401626587 0.60423189401626587 0.60423189401626587
0.60197728872299194 0.60197728872299194 0.60197728872299194
0.62704640626907349 0.62704640626907349 0.62704640626907349
0.71767747402191162 0.71767747402191162 0.71767747402191162
0.84917497634887695 0.84917497634887695 0.84917497634887695
0.84472721815109253 0.84472721815109253 0.84472721815109253
0.84054857492446899 0.84054857492446899 0.84054857492446899
0.84839308261871338 0.84839308261871338 0.84839308261871338
0.89338028430938721 0.89338028430938721 0.89338028430938721
0.94349408149719238 0.94349408149719238 0.94349408149719238
0.32301974296569824 0.32301974296569824 0.32301974296569824
0.36471620202064514 0.36471620202064514 0.36471620202064514
0.42179390788078308 0.42179390788078308 0.42179390788078308
0.49650773406028748 0.49650773406028748 0.49650773406028748
0.63491141796112061 0.63491141796112061 0.63491141796112061
0.38212323188781738 0.38212323188781738 0.38212323188781738
0.41335341334342957 0.41335341334342957 0.41335341334342957
0.4579167366027832 0.4579167366027832 0.4579167366027832
0.54370218515396118 0.54370218515396118 0.54370218515396118
0.65037721395492554 0.65037721395492554 0.65037721395492554
0.47353163361549377 0.47353163361549377 0.47353163361549377
0.51429170370101929 0.51429170370101929 0.51429170370101929
0.56532734632492065 0.56532734632492065 0.56532734632492065
0.63689100742340088 0.63689100742340088 0.63689100742340088
0.73129087686538696 0.73129087686538696 0.73129087686538696
0.64412230253219604 0.64412230253219604 0.64412230253219604
0.67445200681686401 0.67445200681686401 0.67445200681686401
0.6881105899810791 0.6881105899810791 0.6881105899810791
0.7594490647315979 0.7594490647315979 0.7594490647315979
0.86347836256027222 0.86347836256027222 0.86347836256027222
0.87451672554016113 0.87451672554016113 0.87451672554016113
0.86872470378875732 0.86872470378875732 0.86872470378875732
0.8752676248550415 0.8752676248550415 0.8752676248550415
0.90766787528991699 0.90766787528991699 0.90766787528991699
0.95761799812316895 0.95761799812316895 0.95761799812316895
0.51786351203918457 0.51786351203918457 0.51786351203918457
0.5420491099357605 0.5420491099357605 0.5420491099357605
0.58608603477478027 0.58608603477478027 0.58608603477478027
0.62193095684051514 0.62193095684051514 0.62193095684051514
0.7195090651512146 0.7195090651512146 0.7195090651512146
0.55814802646636963 0.55814802646636963 0.55814802646636963
0.58124911785125732 0.58124911785125732 0.58124911785125732
0.6214139461517334 0.6214139461517334 0.6214139461517334
0.65709203481674194 0.65709203481674194 0.65709203481674194
0.74817723035812378 0.74817723035812378 0.74817723035812378
0.60875159502029419 0.60875159502029419 0.60875159502029419
0.63249611854553223 0.63249611854553223 0.63249611854553223
0.6772271990776062 0.6772271990776062 0.6772271990776062
0.72541409730911255 0.72541409730911255 0.72541409730911255
0.79721295833587646 0.79721295833587646 0.79721295833587646
0.71222031116485596 0.71222031116485596 0.71222031116485596
0.71261268854141235 0.71261268854141235 0.71261268854141235
0.75391870737075806 0.75391870737075806 0.75391870737075806
0.81209325790405273 0.81209325790405273 0.81209325790405273
0.87223392724990845 0.87223392724990845 0.87223392724990845
0.88025152683258057 0.88025152683258057 0.88025152683258057
0.87727612257003784 0.87727612257003784 0.87727612257003784
0.90708446502685547 0.90708446502685547 0.90708446502685547
0.92979800701141357 0.92979800701141357 0.92979800701141357
0.9697500467300415 0.9697500467300415 0.9697500467300415
0.79076927900314331 0.79076927900314331 0.79076927900314331
0.79443848133087158 0.79443848133087158 0.79443848133087158
0.83153992891311646 0.83153992891311646 0.83153992891311646
0.86975020170211792 0.86975020170211792 0.86975020170211792
0.87733757495880127 0.87733757495880127 0.87733757495880127
0.80615878105163574 0.80615878105163574 0.80615878105163574
0.81866955757141113 0.81866955757141113 0.81866955757141113
0.85074055194854736 0.85074055194854736 0.85074055194854736
0.87672287225723267 0.87672287225723267 0.87672287225723267
0.87839561700820923 0.87839561700820923 0.87839561700820923
0.82957834005355835 0.82957834005355835 0.82957834005355835
0.83939093351364136 0.83939093351364136 0.83939093351364136
0.86371314525604248 0.86371314525604248 0.86371314525604248
0.8867231011390686 0.8867231011390686 0.8867231011390686
0.9008292555809021 0.9008292555809021 0.9008292555809021
0.85068625211715698 0.85068625211715698 0.85068625211715698
0.85371088981628418 0.85371088981628418 0.85371088981628418
0.87627935409545898 0.87627935409545898 0.87627935409545898
0.89703893661499023 0.89703893661499023 0.89703893661499023
0.92241644859313965 0.92241644859313965 0.92241644859313965
0.92407667636871338 0.92407667636871338 0.92407667636871338
0.92970722913742065 0.92970722913742065 0.92970722913742065
0.94889682531356812 0.94889682531356812 0.94889682531356812
0.95930278301239014 0.95930278301239014 0.95930278301239014
0.97393256425857544 0.97393256425857544 0.97393256425857544
