luts/negative_new/ilford_hp_5_++.cube
# Created by: G'MIC (https://gmic.eu)
TITLE "ilford_hp_5_++"
# LUT size
LUT_3D_SIZE 7
# Data domain
DOMAIN_MIN 0.0 0.0 0.0
DOMAIN_MAX 1.0 1.0 1.0
# LUT data points
0.19134160876274109 0.19134160876274109 0.19134160876274109
0.1971421092748642 0.1971421092748642 0.1971421092748642
0.22981417179107666 0.22981417179107666 0.22981417179107666
0.28416559100151062 0.28416559100151062 0.28416559100151062
0.35524728894233704 0.35524728894233704 0.35524728894233704
0.46263581514358521 0.46263581514358521 0.46263581514358521
0.60990989208221436 0.60990989208221436 0.60990989208221436
0.21899230778217316 0.21899230778217316 0.21899230778217316
0.22997196018695831 0.22997196018695831 0.22997196018695831
0.27761536836624146 0.27761536836624146 0.27761536836624146
0.34998458623886108 0.34998458623886108 0.34998458623886108
0.42378205060958862 0.42378205060958862 0.42378205060958862
0.51960539817810059 0.51960539817810059 0.51960539817810059
0.65723305940628052 0.65723305940628052 0.65723305940628052
0.28660604357719421 0.28660604357719421 0.28660604357719421
0.29682862758636475 0.29682862758636475 0.29682862758636475
0.35012450814247131 0.35012450814247131 0.35012450814247131
0.44003087282180786 0.44003087282180786 0.44003087282180786
0.5288810133934021 0.5288810133934021 0.5288810133934021
0.6185072660446167 0.6185072660446167 0.6185072660446167
0.72763240337371826 0.72763240337371826 0.72763240337371826
0.40177679061889648 0.40177679061889648 0.40177679061889648
0.40060952305793762 0.40060952305793762 0.40060952305793762
0.43621870875358582 0.43621870875358582 0.43621870875358582
0.52255111932754517 0.52255111932754517 0.52255111932754517
0.62198972702026367 0.62198972702026367 0.62198972702026367
0.71489185094833374 0.71489185094833374 0.71489185094833374
0.80689257383346558 0.80689257383346558 0.80689257383346558
0.54966980218887329 0.54966980218887329 0.54966980218887329
0.53834885358810425 0.53834885358810425 0.53834885358810425
0.55497103929519653 0.55497103929519653 0.55497103929519653
0.62207937240600586 0.62207937240600586 0.62207937240600586
0.70814996957778931 0.70814996957778931 0.70814996957778931
0.79128807783126831 0.79128807783126831 0.79128807783126831
0.86771500110626221 0.86771500110626221 0.86771500110626221
0.71597456932067871 0.71597456932067871 0.71597456932067871
0.7077363133430481 0.7077363133430481 0.7077363133430481
0.71548998355865479 0.71548998355865479 0.71548998355865479
0.75057125091552734 0.75057125091552734 0.75057125091552734
0.80175697803497314 0.80175697803497314 0.80175697803497314
0.85619944334030151 0.85619944334030151 0.85619944334030151
0.91030669212341309 0.91030669212341309 0.91030669212341309
0.87612289190292358 0.87612289190292358 0.87612289190292358
0.87144249677658081 0.87144249677658081 0.87144249677658081
0.87513238191604614 0.87513238191604614 0.87513238191604614
0.88479483127593994 0.88479483127593994 0.88479483127593994
0.90018653869628906 0.90018653869628906 0.90018653869628906
0.92284965515136719 0.92284965515136719 0.92284965515136719
0.95270317792892456 0.95270317792892456 0.95270317792892456
0.20905552804470062 0.20905552804470062 0.20905552804470062
0.21665282547473907 0.21665282547473907 0.21665282547473907
0.24782629311084747 0.24782629311084747 0.24782629311084747
0.30067852139472961 0.30067852139472961 0.30067852139472961
0.3694247305393219 0.3694247305393219 0.3694247305393219
0.46685147285461426 0.46685147285461426 0.46685147285461426
0.59788519144058228 0.59788519144058228 0.59788519144058228
0.24036374688148499 0.24036374688148499 0.24036374688148499
0.25345063209533691 0.25345063209533691 0.25345063209533691
0.29229611158370972 0.29229611158370972 0.29229611158370972
0.35507026314735413 0.35507026314735413 0.35507026314735413
0.42886191606521606 0.42886191606521606 0.42886191606521606
0.51872992515563965 0.51872992515563965 0.51872992515563965
0.65224510431289673 0.65224510431289673 0.65224510431289673
0.31418552994728088 0.31418552994728088 0.31418552994728088
0.33145856857299805 0.33145856857299805 0.33145856857299805
0.37128403782844543 0.37128403782844543 0.37128403782844543
0.44479334354400635 0.44479334354400635 0.44479334354400635
0.53320598602294922 0.53320598602294922 0.53320598602294922
0.6156812310218811 0.6156812310218811 0.6156812310218811
0.72087031602859497 0.72087031602859497 0.72087031602859497
0.43753987550735474 0.43753987550735474 0.43753987550735474
0.4463789165019989 0.4463789165019989 0.4463789165019989
0.46679207682609558 0.46679207682609558 0.46679207682609558
0.53652834892272949 0.53652834892272949 0.53652834892272949
0.63628858327865601 0.63628858327865601 0.63628858327865601
0.72387588024139404 0.72387588024139404 0.72387588024139404
0.809958815574646 0.809958815574646 0.809958815574646
0.58746379613876343 0.58746379613876343 0.58746379613876343
0.58018118143081665 0.58018118143081665 0.58018118143081665
0.58229446411132812 0.58229446411132812 0.58229446411132812
0.63392001390457153 0.63392001390457153 0.63392001390457153
0.72177749872207642 0.72177749872207642 0.72177749872207642
0.8065912127494812 0.8065912127494812 0.8065912127494812
0.88049054145812988 0.88049054145812988 0.88049054145812988
0.7476050853729248 0.7476050853729248 0.7476050853729248
0.73683780431747437 0.73683780431747437 0.73683780431747437
0.73267960548400879 0.73267960548400879 0.73267960548400879
0.76014512777328491 0.76014512777328491 0.76014512777328491
0.81372648477554321 0.81372648477554321 0.81372648477554321
0.87137866020202637 0.87137866020202637 0.87137866020202637
0.92459690570831299 0.92459690570831299 0.92459690570831299
0.89457505941390991 0.89457505941390991 0.89457505941390991
0.88769447803497314 0.88769447803497314 0.88769447803497314
0.8824692964553833 0.8824692964553833 0.8824692964553833
0.88926845788955688 0.88926845788955688 0.88926845788955688
0.907703697681427 0.907703697681427 0.907703697681427
0.93358135223388672 0.93358135223388672 0.93358135223388672
0.96520376205444336 0.96520376205444336 0.96520376205444336
0.25748494267463684 0.25748494267463684 0.25748494267463684
0.26816651225090027 0.26816651225090027 0.26816651225090027
0.29983580112457275 0.29983580112457275 0.29983580112457275
0.35907036066055298 0.35907036066055298 0.35907036066055298
0.44312277436256409 0.44312277436256409 0.44312277436256409
0.52161818742752075 0.52161818742752075 0.52161818742752075
0.6214289665222168 0.6214289665222168 0.6214289665222168
0.29028794169425964 0.29028794169425964 0.29028794169425964
0.30546131730079651 0.30546131730079651 0.30546131730079651
0.33519899845123291 0.33519899845123291 0.33519899845123291
0.38882771134376526 0.38882771134376526 0.38882771134376526
0.4633631706237793 0.4633631706237793 0.4633631706237793
0.53863567113876343 0.53863567113876343 0.53863567113876343
0.65501505136489868 0.65501505136489868 0.65501505136489868
0.35278022289276123 0.35278022289276123 0.35278022289276123
0.38185772299766541 0.38185772299766541 0.38185772299766541
0.41281431913375854 0.41281431913375854 0.41281431913375854
0.46776703000068665 0.46776703000068665 0.46776703000068665
0.54134321212768555 0.54134321212768555 0.54134321212768555
0.61073708534240723 0.61073708534240723 0.61073708534240723
0.70761227607727051 0.70761227607727051 0.70761227607727051
0.47216317057609558 0.47216317057609558 0.47216317057609558
0.49654397368431091 0.49654397368431091 0.49654397368431091
0.50950443744659424 0.50950443744659424 0.50950443744659424
0.56074714660644531 0.56074714660644531 0.56074714660644531
0.64367663860321045 0.64367663860321045 0.64367663860321045
0.7216792106628418 0.7216792106628418 0.7216792106628418
0.79881346225738525 0.79881346225738525 0.79881346225738525
0.62490642070770264 0.62490642070770264 0.62490642070770264
0.62420177459716797 0.62420177459716797 0.62420177459716797
0.62026786804199219 0.62026786804199219 0.62026786804199219
0.65911751985549927 0.65911751985549927 0.65911751985549927
0.73749709129333496 0.73749709129333496 0.73749709129333496
0.81619918346405029 0.81619918346405029 0.81619918346405029
0.88451564311981201 0.88451564311981201 0.88451564311981201
0.78202986717224121 0.78202986717224121 0.78202986717224121
0.76905214786529541 0.76905214786529541 0.76905214786529541
0.75948852300643921 0.75948852300643921 0.75948852300643921
0.78138786554336548 0.78138786554336548 0.78138786554336548
0.83005708456039429 0.83005708456039429 0.83005708456039429
0.8838353157043457 0.8838353157043457 0.8838353157043457
0.93315726518630981 0.93315726518630981 0.93315726518630981
0.90920692682266235 0.90920692682266235 0.90920692682266235
0.90084940195083618 0.90084940195083618 0.90084940195083618
0.89240151643753052 0.89240151643753052 0.89240151643753052
0.89823508262634277 0.89823508262634277 0.89823508262634277
0.91701918840408325 0.91701918840408325 0.91701918840408325
0.94254708290100098 0.94254708290100098 0.94254708290100098
0.97309941053390503 0.97309941053390503 0.97309941053390503
0.3452623188495636 0.3452623188495636 0.3452623188495636
0.36019328236579895 0.36019328236579895 0.36019328236579895
0.394155353307724 0.394155353307724 0.394155353307724
0.44504252076148987 0.44504252076148987 0.44504252076148987
0.49896541237831116 0.49896541237831116 0.49896541237831116
0.61701071262359619 0.61701071262359619 0.61701071262359619
0.71422320604324341 0.71422320604324341 0.71422320604324341
0.38561254739761353 0.38561254739761353 0.38561254739761353
0.39846411347389221 0.39846411347389221 0.39846411347389221
0.42462006211280823 0.42462006211280823 0.42462006211280823
0.46733927726745605 0.46733927726745605 0.46733927726745605
0.52399677038192749 0.52399677038192749 0.52399677038192749
0.62919408082962036 0.62919408082962036 0.62919408082962036
0.72397309541702271 0.72397309541702271 0.72397309541702271
0.43428462743759155 0.43428462743759155 0.43428462743759155
0.45776677131652832 0.45776677131652832 0.45776677131652832
0.48576962947845459 0.48576962947845459 0.48576962947845459
0.52811747789382935 0.52811747789382935 0.52811747789382935
0.58185213804244995 0.58185213804244995 0.58185213804244995
0.65122896432876587 0.65122896432876587 0.65122896432876587
0.73403501510620117 0.73403501510620117 0.73403501510620117
0.51570266485214233 0.51570266485214233 0.51570266485214233
0.54132735729217529 0.54132735729217529 0.54132735729217529
0.56640350818634033 0.56640350818634033 0.56640350818634033
0.60874390602111816 0.60874390602111816 0.60874390602111816
0.66764301061630249 0.66764301061630249 0.66764301061630249
0.73006206750869751 0.73006206750869751 0.73006206750869751
0.79545766115188599 0.79545766115188599 0.79545766115188599
0.64491444826126099 0.64491444826126099 0.64491444826126099
0.65610384941101074 0.65610384941101074 0.65610384941101074
0.67023438215255737 0.67023438215255737 0.67023438215255737
0.70693790912628174 0.70693790912628174 0.70693790912628174
0.76113224029541016 0.76113224029541016 0.76113224029541016
0.82001912593841553 0.82001912593841553 0.82001912593841553
0.87812817096710205 0.87812817096710205 0.87812817096710205
0.79479199647903442 0.79479199647903442 0.79479199647903442
0.78876471519470215 0.78876471519470215 0.78876471519470215
0.79208427667617798 0.79208427667617798 0.79208427667617798
0.81697112321853638 0.81697112321853638 0.81697112321853638
0.85037875175476074 0.85037875175476074 0.85037875175476074
0.88821494579315186 0.88821494579315186 0.88821494579315186
0.92847913503646851 0.92847913503646851 0.92847913503646851
0.90906608104705811 0.90906608104705811 0.90906608104705811
0.90446525812149048 0.90446525812149048 0.90446525812149048
0.90273416042327881 0.90273416042327881 0.90273416042327881
0.9116281270980835 0.9116281270980835 0.9116281270980835
0.92545872926712036 0.92545872926712036 0.92545872926712036
0.9435839056968689 0.9435839056968689 0.9435839056968689
0.96943950653076172 0.96943950653076172 0.96943950653076172
0.47622022032737732 0.47622022032737732 0.47622022032737732
0.49437496066093445 0.49437496066093445 0.49437496066093445
0.52813839912414551 0.52813839912414551 0.52813839912414551
0.58491933345794678 0.58491933345794678 0.58491933345794678
0.60979223251342773 0.60979223251342773 0.60979223251342773
0.66468918323516846 0.66468918323516846 0.66468918323516846
0.77531147003173828 0.77531147003173828 0.77531147003173828
0.5196881890296936 0.5196881890296936 0.5196881890296936
0.53104543685913086 0.53104543685913086 0.53104543685913086
0.55789268016815186 0.55789268016815186 0.55789268016815186
0.60131615400314331 0.60131615400314331 0.60131615400314331
0.62829673290252686 0.62829673290252686 0.62829673290252686
0.68996614217758179 0.68996614217758179 0.68996614217758179
0.78652340173721313 0.78652340173721313 0.78652340173721313
0.56146997213363647 0.56146997213363647 0.56146997213363647
0.57367819547653198 0.57367819547653198 0.57367819547653198
0.59749209880828857 0.59749209880828857 0.59749209880828857
0.63707393407821655 0.63707393407821655 0.63707393407821655
0.67523473501205444 0.67523473501205444 0.67523473501205444
0.71994984149932861 0.71994984149932861 0.71994984149932861
0.80312168598175049 0.80312168598175049 0.80312168598175049
0.60508400201797485 0.60508400201797485 0.60508400201797485
0.62224107980728149 0.62224107980728149 0.62224107980728149
0.64518678188323975 0.64518678188323975 0.64518678188323975
0.68140363693237305 0.68140363693237305 0.68140363693237305
0.72391706705093384 0.72391706705093384 0.72391706705093384
0.76435041427612305 0.76435041427612305 0.76435041427612305
0.82384413480758667 0.82384413480758667 0.82384413480758667
0.67892569303512573 0.67892569303512573 0.67892569303512573
0.69876629114151001 0.69876629114151001 0.69876629114151001
0.72165012359619141 0.72165012359619141 0.72165012359619141
0.75611776113510132 0.75611776113510132 0.75611776113510132
0.79318392276763916 0.79318392276763916 0.79318392276763916
0.8284299373626709 0.8284299373626709 0.8284299373626709
0.87352794408798218 0.87352794408798218 0.87352794408798218
0.79300665855407715 0.79300665855407715 0.79300665855407715
0.80169373750686646 0.80169373750686646 0.80169373750686646
0.81961899995803833 0.81961899995803833 0.81961899995803833
0.84790158271789551 0.84790158271789551 0.84790158271789551
0.86703395843505859 0.86703395843505859 0.86703395843505859
0.88776564598083496 0.88776564598083496 0.88776564598083496
0.91865557432174683 0.91865557432174683 0.91865557432174683
0.8981584906578064 0.8981584906578064 0.8981584906578064
0.90023219585418701 0.90023219585418701 0.90023219585418701
0.90824681520462036 0.90824681520462036 0.90824681520462036
0.92044484615325928 0.92044484615325928 0.92044484615325928
0.92874276638031006 0.92874276638031006 0.92874276638031006
0.93833762407302856 0.93833762407302856 0.93833762407302856
0.95885634422302246 0.95885634422302246 0.95885634422302246
0.65553933382034302 0.65553933382034302 0.65553933382034302
0.66559296846389771 0.66559296846389771 0.66559296846389771
0.69098341464996338 0.69098341464996338 0.69098341464996338
0.73815292119979858 0.73815292119979858 0.73815292119979858
0.76750862598419189 0.76750862598419189 0.76750862598419189
0.7649042010307312 0.7649042010307312 0.7649042010307312
0.82065492868423462 0.82065492868423462 0.82065492868423462
0.68380403518676758 0.68380403518676758 0.68380403518676758
0.69151610136032104 0.69151610136032104 0.69151610136032104
0.71355867385864258 0.71355867385864258 0.71355867385864258
0.75305521488189697 0.75305521488189697 0.75305521488189697
0.77698248624801636 0.77698248624801636 0.77698248624801636
0.77816867828369141 0.77816867828369141 0.77816867828369141
0.81749594211578369 0.81749594211578369 0.81749594211578369
0.71316695213317871 0.71316695213317871 0.71316695213317871
0.71650952100753784 0.71650952100753784 0.71650952100753784
0.73247450590133667 0.73247450590133667 0.73247450590133667
0.76500195264816284 0.76500195264816284 0.76500195264816284
0.79223775863647461 0.79223775863647461 0.79223775863647461
0.80572980642318726 0.80572980642318726 0.80572980642318726
0.84757888317108154 0.84757888317108154 0.84757888317108154
0.73439782857894897 0.73439782857894897 0.73439782857894897
0.73774796724319458 0.73774796724319458 0.73774796724319458
0.74979454278945923 0.74979454278945923 0.74979454278945923
0.77618443965911865 0.77618443965911865 0.77618443965911865
0.80509746074676514 0.80509746074676514 0.80509746074676514
0.82726073265075684 0.82726073265075684 0.82726073265075684
0.87048602104187012 0.87048602104187012 0.87048602104187012
0.76643353700637817 0.76643353700637817 0.76643353700637817
0.7738918662071228 0.7738918662071228 0.7738918662071228
0.78893482685089111 0.78893482685089111 0.78893482685089111
0.81307709217071533 0.81307709217071533 0.81307709217071533
0.83799391984939575 0.83799391984939575 0.83799391984939575
0.86042839288711548 0.86042839288711548 0.86042839288711548
0.89491516351699829 0.89491516351699829 0.89491516351699829
0.82760363817214966 0.82760363817214966 0.82760363817214966
0.83476680517196655 0.83476680517196655 0.83476680517196655
0.85104727745056152 0.85104727745056152 0.85104727745056152
0.87054705619812012 0.87054705619812012 0.87054705619812012
0.8845515251159668 0.8845515251159668 0.8845515251159668
0.89712989330291748 0.89712989330291748 0.89712989330291748
0.9214053750038147 0.9214053750038147 0.9214053750038147
0.90298986434936523 0.90298986434936523 0.90298986434936523
0.90655076503753662 0.90655076503753662 0.90655076503753662
0.91710972785949707 0.91710972785949707 0.91710972785949707
0.92747288942337036 0.92747288942337036 0.92747288942337036
0.93229502439498901 0.93229502439498901 0.93229502439498901
0.93653351068496704 0.93653351068496704 0.93653351068496704
0.95321774482727051 0.95321774482727051 0.95321774482727051
0.84237390756607056 0.84237390756607056 0.84237390756607056
0.84374415874481201 0.84374415874481201 0.84374415874481201
0.85697656869888306 0.85697656869888306 0.85697656869888306
0.88306558132171631 0.88306558132171631 0.88306558132171631
0.90104204416275024 0.90104204416275024 0.90104204416275024
0.89838492870330811 0.89838492870330811 0.89838492870330811
0.92023748159408569 0.92023748159408569 0.92023748159408569
0.85280883312225342 0.85280883312225342 0.85280883312225342
0.85530751943588257 0.85530751943588257 0.85530751943588257
0.86639082431793213 0.86639082431793213 0.86639082431793213
0.88857448101043701 0.88857448101043701 0.88857448101043701
0.90227901935577393 0.90227901935577393 0.90227901935577393
0.89934587478637695 0.89934587478637695 0.89934587478637695
0.91321253776550293 0.91321253776550293 0.91321253776550293
0.86333417892456055 0.86333417892456055 0.86333417892456055
0.86196041107177734 0.86196041107177734 0.86196041107177734
0.86849993467330933 0.86849993467330933 0.86849993467330933
0.88647019863128662 0.88647019863128662 0.88647019863128662
0.90368139743804932 0.90368139743804932 0.90368139743804932
0.9167485237121582 0.9167485237121582 0.9167485237121582
0.93266421556472778 0.93266421556472778 0.93266421556472778
0.86585623025894165 0.86585623025894165 0.86585623025894165
0.86267387866973877 0.86267387866973877 0.86267387866973877
0.86641985177993774 0.86641985177993774 0.86641985177993774
0.88135403394699097 0.88135403394699097 0.88135403394699097
0.89989161491394043 0.89989161491394043 0.89989161491394043
0.91830593347549438 0.91830593347549438 0.91830593347549438
0.94244539737701416 0.94244539737701416 0.94244539737701416
0.86845099925994873 0.86845099925994873 0.86845099925994873
0.86821955442428589 0.86821955442428589 0.86821955442428589
0.87534600496292114 0.87534600496292114 0.87534600496292114
0.88870078325271606 0.88870078325271606 0.88870078325271606
0.90358704328536987 0.90358704328536987 0.90358704328536987
0.91892147064208984 0.91892147064208984 0.91892147064208984
0.94389575719833374 0.94389575719833374 0.94389575719833374
0.8910711407661438 0.8910711407661438 0.8910711407661438
0.89300668239593506 0.89300668239593506 0.89300668239593506
0.90254896879196167 0.90254896879196167 0.90254896879196167
0.913543701171875 0.913543701171875 0.913543701171875
0.92183858156204224 0.92183858156204224 0.92183858156204224
0.92986136674880981 0.92986136674880981 0.92986136674880981
0.94928723573684692 0.94928723573684692 0.94928723573684692
0.93485349416732788 0.93485349416732788 0.93485349416732788
0.93698656558990479 0.93698656558990479 0.93698656558990479
0.94513732194900513 0.94513732194900513 0.94513732194900513
0.95151877403259277 0.95151877403259277 0.95151877403259277
0.95329594612121582 0.95329594612121582 0.95329594612121582
0.95443451404571533 0.95443451404571533 0.95443451404571533
0.96679788827896118 0.96679788827896118 0.96679788827896118
