luts/negative_new/ilford_hp_5_++.cube
# Created by: G'MIC (https://gmic.eu)
TITLE "ilford_hp_5_++"
# LUT size
LUT_3D_SIZE 5
# Data domain
DOMAIN_MIN 0.0 0.0 0.0
DOMAIN_MAX 1.0 1.0 1.0
# LUT data points
0.19134160876274109 0.19134160876274109 0.19134160876274109
0.21008862555027008 0.21008862555027008 0.21008862555027008
0.28416559100151062 0.28416559100151062 0.28416559100151062
0.40249073505401611 0.40249073505401611 0.40249073505401611
0.60990989208221436 0.60990989208221436 0.60990989208221436
0.24658071994781494 0.24658071994781494 0.24658071994781494
0.28030061721801758 0.28030061721801758 0.28030061721801758
0.39559978246688843 0.39559978246688843 0.39559978246688843
0.5167539119720459 0.5167539119720459 0.5167539119720459
0.69041460752487183 0.69041460752487183 0.69041460752487183
0.40177679061889648 0.40177679061889648 0.40177679061889648
0.41136842966079712 0.41136842966079712 0.41136842966079712
0.52255111932754517 0.52255111932754517 0.52255111932754517
0.66911482810974121 0.66911482810974121 0.66911482810974121
0.80689257383346558 0.80689257383346558 0.80689257383346558
0.63206601142883301 0.63206601142883301 0.63206601142883301
0.62225431203842163 0.62225431203842163 0.62225431203842163
0.68375074863433838 0.68375074863433838 0.68375074863433838
0.78964191675186157 0.78964191675186157 0.78964191675186157
0.89016532897949219 0.89016532897949219 0.89016532897949219
0.87612289190292358 0.87612289190292358 0.87612289190292358
0.8717881441116333 0.8717881441116333 0.8717881441116333
0.88479483127593994 0.88479483127593994 0.88479483127593994
0.91077220439910889 0.91077220439910889 0.91077220439910889
0.95270317792892456 0.95270317792892456 0.95270317792892456
0.22870773077011108 0.22870773077011108 0.22870773077011108
0.2505817711353302 0.2505817711353302 0.2505817711353302
0.32513150572776794 0.32513150572776794 0.32513150572776794
0.44124653935432434 0.44124653935432434 0.44124653935432434
0.59994977712631226 0.59994977712631226 0.59994977712631226
0.29030284285545349 0.29030284285545349 0.29030284285545349
0.3249455988407135 0.3249455988407135 0.3249455988407135
0.40692278742790222 0.40692278742790222 0.40692278742790222
0.51930993795394897 0.51930993795394897 0.51930993795394897
0.67588478326797485 0.67588478326797485 0.67588478326797485
0.45718288421630859 0.45718288421630859 0.45718288421630859
0.47681665420532227 0.47681665420532227 0.47681665420532227
0.54646080732345581 0.54646080732345581 0.54646080732345581
0.68390536308288574 0.68390536308288574 0.68390536308288574
0.80473506450653076 0.80473506450653076 0.80473506450653076
0.68765550851821899 0.68765550851821899 0.68765550851821899
0.67073351144790649 0.67073351144790649 0.67073351144790649
0.70335298776626587 0.70335298776626587 0.70335298776626587
0.81160628795623779 0.81160628795623779 0.81160628795623779
0.90910136699676514 0.90910136699676514 0.90910136699676514
0.9029848575592041 0.9029848575592041 0.9029848575592041
0.88966089487075806 0.88966089487075806 0.88966089487075806
0.89288550615310669 0.89288550615310669 0.89288550615310669
0.92485696077346802 0.92485696077346802 0.92485696077346802
0.97037559747695923 0.97037559747695923 0.97037559747695923
0.3452623188495636 0.3452623188495636 0.3452623188495636
0.37475073337554932 0.37475073337554932 0.37475073337554932
0.44504252076148987 0.44504252076148987 0.44504252076148987
0.55526328086853027 0.55526328086853027 0.55526328086853027
0.71422320604324341 0.71422320604324341 0.71422320604324341
0.41004091501235962 0.41004091501235962 0.41004091501235962
0.43745744228363037 0.43745744228363037 0.43745744228363037
0.49400797486305237 0.49400797486305237 0.49400797486305237
0.58582794666290283 0.58582794666290283 0.58582794666290283
0.72658330202102661 0.72658330202102661 0.72658330202102661
0.51570266485214233 0.51570266485214233 0.51570266485214233
0.55318146944046021 0.55318146944046021 0.55318146944046021
0.60874390602111816 0.60874390602111816 0.60874390602111816
0.69853752851486206 0.69853752851486206 0.69853752851486206
0.79545766115188599 0.79545766115188599 0.79545766115188599
0.72178024053573608 0.72178024053573608 0.72178024053573608
0.72445064783096313 0.72445064783096313 0.72445064783096313
0.76249974966049194 0.76249974966049194 0.76249974966049194
0.83143824338912964 0.83143824338912964 0.83143824338912964
0.90595626831054688 0.90595626831054688 0.90595626831054688
0.90906608104705811 0.90906608104705811 0.90906608104705811
0.90235859155654907 0.90235859155654907 0.90235859155654907
0.9116281270980835 0.9116281270980835 0.9116281270980835
0.93371486663818359 0.93371486663818359 0.93371486663818359
0.96943950653076172 0.96943950653076172 0.96943950653076172
0.56199103593826294 0.56199103593826294 0.56199103593826294
0.58888715505599976 0.58888715505599976 0.58888715505599976
0.66139858961105347 0.66139858961105347 0.66139858961105347
0.69265633821487427 0.69265633821487427 0.69265633821487427
0.79112088680267334 0.79112088680267334 0.79112088680267334
0.61797356605529785 0.61797356605529785 0.61797356605529785
0.63547796010971069 0.63547796010971069 0.63547796010971069
0.6910514235496521 0.6910514235496521 0.6910514235496521
0.72881531715393066 0.72881531715393066 0.72881531715393066
0.81406110525131226 0.81406110525131226 0.81406110525131226
0.66657429933547974 0.66657429933547974 0.66657429933547974
0.68450015783309937 0.68450015783309937 0.68450015783309937
0.72614622116088867 0.72614622116088867 0.72614622116088867
0.7758147120475769 0.7758147120475769 0.7758147120475769
0.84459352493286133 0.84459352493286133 0.84459352493286133
0.75974345207214355 0.75974345207214355 0.75974345207214355
0.78126239776611328 0.78126239776611328 0.78126239776611328
0.82015073299407959 0.82015073299407959 0.82015073299407959
0.85457205772399902 0.85457205772399902 0.85457205772399902
0.89979243278503418 0.89979243278503418 0.89979243278503418
0.89753681421279907 0.89753681421279907 0.89753681421279907
0.90551793575286865 0.90551793575286865 0.90551793575286865
0.92299163341522217 0.92299163341522217 0.92299163341522217
0.93195635080337524 0.93195635080337524 0.93195635080337524
0.95450091361999512 0.95450091361999512 0.95450091361999512
0.84237390756607056 0.84237390756607056 0.84237390756607056
0.84827059507369995 0.84827059507369995 0.84827059507369995
0.88306558132171631 0.88306558132171631 0.88306558132171631
0.90065467357635498 0.90065467357635498 0.90065467357635498
0.92023748159408569 0.92023748159408569 0.92023748159408569
0.85819578170776367 0.85819578170776367 0.85819578170776367
0.86222261190414429 0.86222261190414429 0.86222261190414429
0.88850384950637817 0.88850384950637817 0.88850384950637817
0.90612143278121948 0.90612143278121948 0.90612143278121948
0.92061984539031982 0.92061984539031982 0.92061984539031982
0.86585623025894165 0.86585623025894165 0.86585623025894165
0.86298620700836182 0.86298620700836182 0.86298620700836182
0.88135403394699097 0.88135403394699097 0.88135403394699097
0.90880978107452393 0.90880978107452393 0.90880978107452393
0.94244539737701416 0.94244539737701416 0.94244539737701416
0.87703865766525269 0.87703865766525269 0.87703865766525269
0.88188177347183228 0.88188177347183228 0.88188177347183228
0.89928823709487915 0.89928823709487915 0.89928823709487915
0.91649055480957031 0.91649055480957031 0.91649055480957031
0.94572263956069946 0.94572263956069946 0.94572263956069946
0.93485349416732788 0.93485349416732788 0.93485349416732788
0.94089841842651367 0.94089841842651367 0.94089841842651367
0.95151877403259277 0.95151877403259277 0.95151877403259277
0.95323473215103149 0.95323473215103149 0.95323473215103149
0.96679788827896118 0.96679788827896118 0.96679788827896118
