luts/negative_new/ilford_hp_5_-.cube
# Created by: G'MIC (https://gmic.eu)
TITLE "ilford_hp_5_-"
# LUT size
LUT_3D_SIZE 13
# Data domain
DOMAIN_MIN 0.0 0.0 0.0
DOMAIN_MAX 1.0 1.0 1.0
# LUT data points
0.011349442414939404 0.011349442414939404 0.011349442414939404
0.023738112300634384 0.023738112300634384 0.023738112300634384
0.047253135591745377 0.047253135591745377 0.047253135591745377
0.080450780689716339 0.080450780689716339 0.080450780689716339
0.12482286244630814 0.12482286244630814 0.12482286244630814
0.17416046559810638 0.17416046559810638 0.17416046559810638
0.22332553565502167 0.22332553565502167 0.22332553565502167
0.2726929783821106 0.2726929783821106 0.2726929783821106
0.32227808237075806 0.32227808237075806 0.32227808237075806
0.37356385588645935 0.37356385588645935 0.37356385588645935
0.42800149321556091 0.42800149321556091 0.42800149321556091
0.48853617906570435 0.48853617906570435 0.48853617906570435
0.55235475301742554 0.55235475301742554 0.55235475301742554
0.042452435940504074 0.042452435940504074 0.042452435940504074
0.058741040527820587 0.058741040527820587 0.058741040527820587
0.090068936347961426 0.090068936347961426 0.090068936347961426
0.13206295669078827 0.13206295669078827 0.13206295669078827
0.17512260377407074 0.17512260377407074 0.17512260377407074
0.21744677424430847 0.21744677424430847 0.21744677424430847
0.26020950078964233 0.26020950078964233 0.26020950078964233
0.30343961715698242 0.30343961715698242 0.30343961715698242
0.34783032536506653 0.34783032536506653 0.34783032536506653
0.39425721764564514 0.39425721764564514 0.39425721764564514
0.44489619135856628 0.44489619135856628 0.44489619135856628
0.50281637907028198 0.50281637907028198 0.50281637907028198
0.56552523374557495 0.56552523374557495 0.56552523374557495
0.095584139227867126 0.095584139227867126 0.095584139227867126
0.1087055429816246 0.1087055429816246 0.1087055429816246
0.14144200086593628 0.14144200086593628 0.14144200086593628
0.18857488036155701 0.18857488036155701 0.18857488036155701
0.23250745236873627 0.23250745236873627 0.23250745236873627
0.27169212698936462 0.27169212698936462 0.27169212698936462
0.30802071094512939 0.30802071094512939 0.30802071094512939
0.34475520253181458 0.34475520253181458 0.34475520253181458
0.38304203748703003 0.38304203748703003 0.38304203748703003
0.42474856972694397 0.42474856972694397 0.42474856972694397
0.47168835997581482 0.47168835997581482 0.47168835997581482
0.52671968936920166 0.52671968936920166 0.52671968936920166
0.58697962760925293 0.58697962760925293 0.58697962760925293
0.15972118079662323 0.15972118079662323 0.15972118079662323
0.16381733119487762 0.16381733119487762 0.16381733119487762
0.19176825881004333 0.19176825881004333 0.19176825881004333
0.23736104369163513 0.23736104369163513 0.23736104369163513
0.28468737006187439 0.28468737006187439 0.28468737006187439
0.32622721791267395 0.32622721791267395 0.32622721791267395
0.36045297980308533 0.36045297980308533 0.36045297980308533
0.39211982488632202 0.39211982488632202 0.39211982488632202
0.42626306414604187 0.42626306414604187 0.42626306414604187
0.46481910347938538 0.46481910347938538 0.46481910347938538
0.50961470603942871 0.50961470603942871 0.50961470603942871
0.56155556440353394 0.56155556440353394 0.56155556440353394
0.61857151985168457 0.61857151985168457 0.61857151985168457
0.22380049526691437 0.22380049526691437 0.22380049526691437
0.22543027997016907 0.22543027997016907 0.22543027997016907
0.24717451632022858 0.24717451632022858 0.24717451632022858
0.28669887781143188 0.28669887781143188 0.28669887781143188
0.33200138807296753 0.33200138807296753 0.33200138807296753
0.37407663464546204 0.37407663464546204 0.37407663464546204
0.4082871675491333 0.4082871675491333 0.4082871675491333
0.43881344795227051 0.43881344795227051 0.43881344795227051
0.47174617648124695 0.47174617648124695 0.47174617648124695
0.50946909189224243 0.50946909189224243 0.50946909189224243
0.55358457565307617 0.55358457565307617 0.55358457565307617
0.6039467453956604 0.6039467453956604 0.6039467453956604
0.65843075513839722 0.65843075513839722 0.65843075513839722
0.28944629430770874 0.28944629430770874 0.28944629430770874
0.29235056042671204 0.29235056042671204 0.29235056042671204
0.30775636434555054 0.30775636434555054 0.30775636434555054
0.33653673529624939 0.33653673529624939 0.33653673529624939
0.37311303615570068 0.37311303615570068 0.37311303615570068
0.41148102283477783 0.41148102283477783 0.41148102283477783
0.44667860865592957 0.44667860865592957 0.44667860865592957
0.48017102479934692 0.48017102479934692 0.48017102479934692
0.51552623510360718 0.51552623510360718 0.51552623510360718
0.55445903539657593 0.55445903539657593 0.55445903539657593
0.59929543733596802 0.59929543733596802 0.59929543733596802
0.64980024099349976 0.64980024099349976 0.64980024099349976
0.7029799222946167 0.7029799222946167 0.7029799222946167
0.35582342743873596 0.35582342743873596 0.35582342743873596
0.35789087414741516 0.35789087414741516 0.35789087414741516
0.36714443564414978 0.36714443564414978 0.36714443564414978
0.38556548953056335 0.38556548953056335 0.38556548953056335
0.41252100467681885 0.41252100467681885 0.41252100467681885
0.44526809453964233 0.44526809453964233 0.44526809453964233
0.48050013184547424 0.48050013184547424 0.48050013184547424
0.51715075969696045 0.51715075969696045 0.51715075969696045
0.55562794208526611 0.55562794208526611 0.55562794208526611
0.59642535448074341 0.59642535448074341 0.59642535448074341
0.64317792654037476 0.64317792654037476 0.64317792654037476
0.69433295726776123 0.69433295726776123 0.69433295726776123
0.7473292350769043 0.7473292350769043 0.7473292350769043
0.42215839028358459 0.42215839028358459 0.42215839028358459
0.4220370352268219 0.4220370352268219 0.4220370352268219
0.42586755752563477 0.42586755752563477 0.42586755752563477
0.43583720922470093 0.43583720922470093 0.43583720922470093
0.45417928695678711 0.45417928695678711 0.45417928695678711
0.48135101795196533 0.48135101795196533 0.48135101795196533
0.51588112115859985 0.51588112115859985 0.51588112115859985
0.55275154113769531 0.55275154113769531 0.55275154113769531
0.59322470426559448 0.59322470426559448 0.59322470426559448
0.63555628061294556 0.63555628061294556 0.63555628061294556
0.6827663779258728 0.6827663779258728 0.6827663779258728
0.73386156558990479 0.73386156558990479 0.73386156558990479
0.78581547737121582 0.78581547737121582 0.78581547737121582
0.49050045013427734 0.49050045013427734 0.49050045013427734
0.48863980174064636 0.48863980174064636 0.48863980174064636
0.48861902952194214 0.48861902952194214 0.48861902952194214
0.49232184886932373 0.49232184886932373 0.49232184886932373
0.50348955392837524 0.50348955392837524 0.50348955392837524
0.52650338411331177 0.52650338411331177 0.52650338411331177
0.55842435359954834 0.55842435359954834 0.55842435359954834
0.59473758935928345 0.59473758935928345 0.59473758935928345
0.63323801755905151 0.63323801755905151 0.63323801755905151
0.67430853843688965 0.67430853843688965 0.67430853843688965
0.71913915872573853 0.71913915872573853 0.71913915872573853
0.76746600866317749 0.76746600866317749 0.76746600866317749
0.81664091348648071 0.81664091348648071 0.81664091348648071
0.56528156995773315 0.56528156995773315 0.56528156995773315
0.56247240304946899 0.56247240304946899 0.56247240304946899
0.56049579381942749 0.56049579381942749 0.56049579381942749
0.56111711263656616 0.56111711263656616 0.56111711263656616
0.56749492883682251 0.56749492883682251 0.56749492883682251
0.58612936735153198 0.58612936735153198 0.58612936735153198
0.61393773555755615 0.61393773555755615 0.61393773555755615
0.64606797695159912 0.64606797695159912 0.64606797695159912
0.68003028631210327 0.68003028631210327 0.68003028631210327
0.71652489900588989 0.71652489900588989 0.71652489900588989
0.75633108615875244 0.75633108615875244 0.75633108615875244
0.79933607578277588 0.79933607578277588 0.79933607578277588
0.84370362758636475 0.84370362758636475 0.84370362758636475
0.64876830577850342 0.64876830577850342 0.64876830577850342
0.64573007822036743 0.64573007822036743 0.64573007822036743
0.64350301027297974 0.64350301027297974 0.64350301027297974
0.64355027675628662 0.64355027675628662 0.64355027675628662
0.6490023136138916 0.6490023136138916 0.6490023136138916
0.66277593374252319 0.66277593374252319 0.66277593374252319
0.68386292457580566 0.68386292457580566 0.68386292457580566
0.70872968435287476 0.70872968435287476 0.70872968435287476
0.7360149621963501 0.7360149621963501 0.7360149621963501
0.76566970348358154 0.76566970348358154 0.76566970348358154
0.7981598973274231 0.7981598973274231 0.7981598973274231
0.83392274379730225 0.83392274379730225 0.83392274379730225
0.87196338176727295 0.87196338176727295 0.87196338176727295
0.73911166191101074 0.73911166191101074 0.73911166191101074
0.73620855808258057 0.73620855808258057 0.73620855808258057
0.73421502113342285 0.73421502113342285 0.73421502113342285
0.73498737812042236 0.73498737812042236 0.73498737812042236
0.74011373519897461 0.74011373519897461 0.74011373519897461
0.74997043609619141 0.74997043609619141 0.74997043609619141
0.76367920637130737 0.76367920637130737 0.76367920637130737
0.7805519700050354 0.7805519700050354 0.7805519700050354
0.80041396617889404 0.80041396617889404 0.80041396617889404
0.82219606637954712 0.82219606637954712 0.82219606637954712
0.84647524356842041 0.84647524356842041 0.84647524356842041
0.87375849485397339 0.87375849485397339 0.87375849485397339
0.90455085039138794 0.90455085039138794 0.90455085039138794
0.83079224824905396 0.83079224824905396 0.83079224824905396
0.8281368613243103 0.8281368613243103 0.8281368613243103
0.82651048898696899 0.82651048898696899 0.82651048898696899
0.82769864797592163 0.82769864797592163 0.82769864797592163
0.83265304565429688 0.83265304565429688 0.83265304565429688
0.83967399597167969 0.83967399597167969 0.83967399597167969
0.84713917970657349 0.84713917970657349 0.84713917970657349
0.85703748464584351 0.85703748464584351 0.85703748464584351
0.8694036602973938 0.8694036602973938 0.8694036602973938
0.88394910097122192 0.88394910097122192 0.88394910097122192
0.90044146776199341 0.90044146776199341 0.90044146776199341
0.9199485182762146 0.9199485182762146 0.9199485182762146
0.94357270002365112 0.94357270002365112 0.94357270002365112
0.024194156751036644 0.024194156751036644 0.024194156751036644
0.038872513920068741 0.038872513920068741 0.038872513920068741
0.062560059130191803 0.062560059130191803 0.062560059130191803
0.093166261911392212 0.093166261911392212 0.093166261911392212
0.13670352101325989 0.13670352101325989 0.13670352101325989
0.18525297939777374 0.18525297939777374 0.18525297939777374
0.23316569626331329 0.23316569626331329 0.23316569626331329
0.28150591254234314 0.28150591254234314 0.28150591254234314
0.33037397265434265 0.33037397265434265 0.33037397265434265
0.3790287971496582 0.3790287971496582 0.3790287971496582
0.43016171455383301 0.43016171455383301 0.43016171455383301
0.48535001277923584 0.48535001277923584 0.48535001277923584
0.54470628499984741 0.54470628499984741 0.54470628499984741
0.052703440189361572 0.052703440189361572 0.052703440189361572
0.072805561125278473 0.072805561125278473 0.072805561125278473
0.10330747812986374 0.10330747812986374 0.10330747812986374
0.14051978290081024 0.14051978290081024 0.14051978290081024
0.1810162365436554 0.1810162365436554 0.1810162365436554
0.22189323604106903 0.22189323604106903 0.22189323604106903
0.26297673583030701 0.26297673583030701 0.26297673583030701
0.30633211135864258 0.30633211135864258 0.30633211135864258
0.35079258680343628 0.35079258680343628 0.35079258680343628
0.39600488543510437 0.39600488543510437 0.39600488543510437
0.4443049430847168 0.4443049430847168 0.4443049430847168
0.4984944760799408 0.4984944760799408 0.4984944760799408
0.55731725692749023 0.55731725692749023 0.55731725692749023
0.11366071552038193 0.11366071552038193 0.11366071552038193
0.12723816931247711 0.12723816931247711 0.12723816931247711
0.15681593120098114 0.15681593120098114 0.15681593120098114
0.19693060219287872 0.19693060219287872 0.19693060219287872
0.23584684729576111 0.23584684729576111 0.23584684729576111
0.27126866579055786 0.27126866579055786 0.27126866579055786
0.30609998106956482 0.30609998106956482 0.30609998106956482
0.34350535273551941 0.34350535273551941 0.34350535273551941
0.38203704357147217 0.38203704357147217 0.38203704357147217
0.42310935258865356 0.42310935258865356 0.42310935258865356
0.46876466274261475 0.46876466274261475 0.46876466274261475
0.52053993940353394 0.52053993940353394 0.52053993940353394
0.57801789045333862 0.57801789045333862 0.57801789045333862
0.18757238984107971 0.18757238984107971 0.18757238984107971
0.19005945324897766 0.19005945324897766 0.19005945324897766
0.21237976849079132 0.21237976849079132 0.21237976849079132
0.24930223822593689 0.24930223822593689 0.24930223822593689
0.28852435946464539 0.28852435946464539 0.28852435946464539
0.32478249073028564 0.32478249073028564 0.32478249073028564
0.35761120915412903 0.35761120915412903 0.35761120915412903
0.3899323046207428 0.3899323046207428 0.3899323046207428
0.42374047636985779 0.42374047636985779 0.42374047636985779
0.46084573864936829 0.46084573864936829 0.46084573864936829
0.50402092933654785 0.50402092933654785 0.50402092933654785
0.55389821529388428 0.55389821529388428 0.55389821529388428
0.60949289798736572 0.60949289798736572 0.60949289798736572
0.25143805146217346 0.25143805146217346 0.25143805146217346
0.25352758169174194 0.25352758169174194 0.25352758169174194
0.26982533931732178 0.26982533931732178 0.26982533931732178
0.30043095350265503 0.30043095350265503 0.30043095350265503
0.33722114562988281 0.33722114562988281 0.33722114562988281
0.37378281354904175 0.37378281354904175 0.37378281354904175
0.40694126486778259 0.40694126486778259 0.40694126486778259
0.43815833330154419 0.43815833330154419 0.43815833330154419
0.47026339173316956 0.47026339173316956 0.47026339173316956
0.5057787299156189 0.5057787299156189 0.5057787299156189
0.54760438203811646 0.54760438203811646 0.54760438203811646
0.59630870819091797 0.59630870819091797 0.59630870819091797
0.64993321895599365 0.64993321895599365 0.64993321895599365
0.31575736403465271 0.31575736403465271 0.31575736403465271
0.31818166375160217 0.31818166375160217 0.31818166375160217
0.32874539494514465 0.32874539494514465 0.32874539494514465
0.35047349333763123 0.35047349333763123 0.35047349333763123
0.38036775588989258 0.38036775588989258 0.38036775588989258
0.41419720649719238 0.41419720649719238 0.41419720649719238
0.44843113422393799 0.44843113422393799 0.44843113422393799
0.48169314861297607 0.48169314861297607 0.48169314861297607
0.515525221824646 0.515525221824646 0.515525221824646
0.55212831497192383 0.55212831497192383 0.55212831497192383
0.59491097927093506 0.59491097927093506 0.59491097927093506
0.64396160840988159 0.64396160840988159 0.64396160840988159
0.69657206535339355 0.69657206535339355 0.69657206535339355
0.38025254011154175 0.38025254011154175 0.38025254011154175
0.38119086623191833 0.38119086623191833 0.38119086623191833
0.38592582941055298 0.38592582941055298 0.38592582941055298
0.39837688207626343 0.39837688207626343 0.39837688207626343
0.41982302069664001 0.41982302069664001 0.41982302069664001
0.44898366928100586 0.44898366928100586 0.44898366928100586
0.48295164108276367 0.48295164108276367 0.48295164108276367
0.51892656087875366 0.51892656087875366 0.51892656087875366
0.5558394193649292 0.5558394193649292 0.5558394193649292
0.59526640176773071 0.59526640176773071 0.59526640176773071
0.64040887355804443 0.64040887355804443 0.64040887355804443
0.69100499153137207 0.69100499153137207 0.69100499153137207
0.74361342191696167 0.74361342191696167 0.74361342191696167
0.44223076105117798 0.44223076105117798 0.44223076105117798
0.44085943698883057 0.44085943698883057 0.44085943698883057
0.4409603476524353 0.4409603476524353 0.4409603476524353
0.44651952385902405 0.44651952385902405 0.44651952385902405
0.46010890603065491 0.46010890603065491 0.46010890603065491
0.48423182964324951 0.48423182964324951 0.48423182964324951
0.51711505651473999 0.51711505651473999 0.51711505651473999
0.55379456281661987 0.55379456281661987 0.55379456281661987
0.59284055233001709 0.59284055233001709 0.59284055233001709
0.63425958156585693 0.63425958156585693 0.63425958156585693
0.68055033683776855 0.68055033683776855 0.68055033683776855
0.73211753368377686 0.73211753368377686 0.73211753368377686
0.78472608327865601 0.78472608327865601 0.78472608327865601
0.50415527820587158 0.50415527820587158 0.50415527820587158
0.50249427556991577 0.50249427556991577 0.50249427556991577
0.50036853551864624 0.50036853551864624 0.50036853551864624
0.50110620260238647 0.50110620260238647 0.50110620260238647
0.50914037227630615 0.50914037227630615 0.50914037227630615
0.52852356433868408 0.52852356433868408 0.52852356433868408
0.55838191509246826 0.55838191509246826 0.55838191509246826
0.59337294101715088 0.59337294101715088 0.59337294101715088
0.63073140382766724 0.63073140382766724 0.63073140382766724
0.67159587144851685 0.67159587144851685 0.67159587144851685
0.71613794565200806 0.71613794565200806 0.71613794565200806
0.76586544513702393 0.76586544513702393 0.76586544513702393
0.81641072034835815 0.81641072034835815 0.81641072034835815
0.57341980934143066 0.57341980934143066 0.57341980934143066
0.57161498069763184 0.57161498069763184 0.57161498069763184
0.56935453414916992 0.56935453414916992 0.56935453414916992
0.56842738389968872 0.56842738389968872 0.56842738389968872
0.57307738065719604 0.57307738065719604 0.57307738065719604
0.58811968564987183 0.58811968564987183 0.58811968564987183
0.61312901973724365 0.61312901973724365 0.61312901973724365
0.6435927152633667 0.6435927152633667 0.6435927152633667
0.67649894952774048 0.67649894952774048 0.67649894952774048
0.71200871467590332 0.71200871467590332 0.71200871467590332
0.75187742710113525 0.75187742710113525 0.75187742710113525
0.79664754867553711 0.79664754867553711 0.79664754867553711
0.84287118911743164 0.84287118911743164 0.84287118911743164
0.65414297580718994 0.65414297580718994 0.65414297580718994
0.65202051401138306 0.65202051401138306 0.65202051401138306
0.64977693557739258 0.64977693557739258 0.64977693557739258
0.64887452125549316 0.64887452125549316 0.64887452125549316
0.65249025821685791 0.65249025821685791 0.65249025821685791
0.66371965408325195 0.66371965408325195 0.66371965408325195
0.68301939964294434 0.68301939964294434 0.68301939964294434
0.70612031221389771 0.70612031221389771 0.70612031221389771
0.73282575607299805 0.73282575607299805 0.73282575607299805
0.76175051927566528 0.76175051927566528 0.76175051927566528
0.79413402080535889 0.79413402080535889 0.79413402080535889
0.83060908317565918 0.83060908317565918 0.83060908317565918
0.87024968862533569 0.87024968862533569 0.87024968862533569
0.74281299114227295 0.74281299114227295 0.74281299114227295
0.74041867256164551 0.74041867256164551 0.74041867256164551
0.73847007751464844 0.73847007751464844 0.73847007751464844
0.7382652759552002 0.7382652759552002 0.7382652759552002
0.74148297309875488 0.74148297309875488 0.74148297309875488
0.7493709921836853 0.7493709921836853 0.7493709921836853
0.7621951699256897 0.7621951699256897 0.7621951699256897
0.77947336435317993 0.77947336435317993 0.77947336435317993
0.79822134971618652 0.79822134971618652 0.79822134971618652
0.82035189867019653 0.82035189867019653 0.82035189867019653
0.84397226572036743 0.84397226572036743 0.84397226572036743
0.8715406060218811 0.8715406060218811 0.8715406060218811
0.90258181095123291 0.90258181095123291 0.90258181095123291
0.83304619789123535 0.83304619789123535 0.83304619789123535
0.83102941513061523 0.83102941513061523 0.83102941513061523
0.82924985885620117 0.82924985885620117 0.82924985885620117
0.8294638991355896 0.8294638991355896 0.8294638991355896
0.83224540948867798 0.83224540948867798 0.83224540948867798
0.83784210681915283 0.83784210681915283 0.83784210681915283
0.84555554389953613 0.84555554389953613 0.84555554389953613
0.85630756616592407 0.85630756616592407 0.85630756616592407
0.86944139003753662 0.86944139003753662 0.86944139003753662
0.88374519348144531 0.88374519348144531 0.88374519348144531
0.89948779344558716 0.89948779344558716 0.89948779344558716
0.91868096590042114 0.91868096590042114 0.91868096590042114
0.9419519305229187 0.9419519305229187 0.9419519305229187
0.060777269303798676 0.060777269303798676 0.060777269303798676
0.076675295829772949 0.076675295829772949 0.076675295829772949
0.10153508186340332 0.10153508186340332 0.10153508186340332
0.13303306698799133 0.13303306698799133 0.13303306698799133
0.17154963314533234 0.17154963314533234 0.17154963314533234
0.21265849471092224 0.21265849471092224 0.21265849471092224
0.2562292218208313 0.2562292218208313 0.2562292218208313
0.30200955271720886 0.30200955271720886 0.30200955271720886
0.34809491038322449 0.34809491038322449 0.34809491038322449
0.39261710643768311 0.39261710643768311 0.39261710643768311
0.43817442655563354 0.43817442655563354 0.43817442655563354
0.48679065704345703 0.48679065704345703 0.48679065704345703
0.54048633575439453 0.54048633575439453 0.54048633575439453
0.087360739707946777 0.087360739707946777 0.087360739707946777
0.10672004520893097 0.10672004520893097 0.10672004520893097
0.13512712717056274 0.13512712717056274 0.13512712717056274
0.16834169626235962 0.16834169626235962 0.16834169626235962
0.20378999412059784 0.20378999412059784 0.20378999412059784
0.2389238029718399 0.2389238029718399 0.2389238029718399
0.27592489123344421 0.27592489123344421 0.27592489123344421
0.31878435611724854 0.31878435611724854 0.31878435611724854
0.36237058043479919 0.36237058043479919 0.36237058043479919
0.40484902262687683 0.40484902262687683 0.40484902262687683
0.44915363192558289 0.44915363192558289 0.44915363192558289
0.49785563349723816 0.49785563349723816 0.49785563349723816
0.55204004049301147 0.55204004049301147 0.55204004049301147
0.13968656957149506 0.13968656957149506 0.13968656957149506
0.15561904013156891 0.15561904013156891 0.15561904013156891
0.1828056275844574 0.1828056275844574 0.1828056275844574
0.21571388840675354 0.21571388840675354 0.21571388840675354
0.24879547953605652 0.24879547953605652 0.24879547953605652
0.27958190441131592 0.27958190441131592 0.27958190441131592
0.31149002909660339 0.31149002909660339 0.31149002909660339
0.3490009605884552 0.3490009605884552 0.3490009605884552
0.38775599002838135 0.38775599002838135 0.38775599002838135
0.42680385708808899 0.42680385708808899 0.42680385708808899
0.46925258636474609 0.46925258636474609 0.46925258636474609
0.51743364334106445 0.51743364334106445 0.51743364334106445
0.57155346870422363 0.57155346870422363 0.57155346870422363
0.20573244988918304 0.20573244988918304 0.20573244988918304
0.21574969589710236 0.21574969589710236 0.21574969589710236
0.23691470921039581 0.23691470921039581 0.23691470921039581
0.26675620675086975 0.26675620675086975 0.26675620675086975
0.298563152551651 0.298563152551651 0.298563152551651
0.32956108450889587 0.32956108450889587 0.32956108450889587
0.36053720116615295 0.36053720116615295 0.36053720116615295
0.39297685027122498 0.39297685027122498 0.39297685027122498
0.42588585615158081 0.42588585615158081 0.42588585615158081
0.46014517545700073 0.46014517545700073 0.46014517545700073
0.50049561262130737 0.50049561262130737 0.50049561262130737
0.54783493280410767 0.54783493280410767 0.54783493280410767
0.60106128454208374 0.60106128454208374 0.60106128454208374
0.27234473824501038 0.27234473824501038 0.27234473824501038
0.27978181838989258 0.27978181838989258 0.27978181838989258
0.29478833079338074 0.29478833079338074 0.29478833079338074
0.31844225525856018 0.31844225525856018 0.31844225525856018
0.34735956788063049 0.34735956788063049 0.34735956788063049
0.3788643479347229 0.3788643479347229 0.3788643479347229
0.41120010614395142 0.41120010614395142 0.41120010614395142
0.44270327687263489 0.44270327687263489 0.44270327687263489
