luts/negative_new/ilford_hp_5_++.cube
# Created by: G'MIC (https://gmic.eu)
TITLE "ilford_hp_5_++"
# LUT size
LUT_3D_SIZE 13
# Data domain
DOMAIN_MIN 0.0 0.0 0.0
DOMAIN_MAX 1.0 1.0 1.0
# LUT data points
0.19134160876274109 0.19134160876274109 0.19134160876274109
0.1911679208278656 0.1911679208278656 0.1911679208278656
0.1971421092748642 0.1971421092748642 0.1971421092748642
0.21008862555027008 0.21008862555027008 0.21008862555027008
0.22981417179107666 0.22981417179107666 0.22981417179107666
0.25504639744758606 0.25504639744758606 0.25504639744758606
0.28416559100151062 0.28416559100151062 0.28416559100151062
0.31707325577735901 0.31707325577735901 0.31707325577735901
0.35524728894233704 0.35524728894233704 0.35524728894233704
0.40249073505401611 0.40249073505401611 0.40249073505401611
0.46263581514358521 0.46263581514358521 0.46263581514358521
0.53382068872451782 0.53382068872451782 0.53382068872451782
0.60990989208221436 0.60990989208221436 0.60990989208221436
0.20169496536254883 0.20169496536254883 0.20169496536254883
0.20233398675918579 0.20233398675918579 0.20233398675918579
0.210200235247612 0.210200235247612 0.210200235247612
0.22621472179889679 0.22621472179889679 0.22621472179889679
0.2497175931930542 0.2497175931930542 0.2497175931930542
0.27878251671791077 0.27878251671791077 0.27878251671791077
0.31148883700370789 0.31148883700370789 0.31148883700370789
0.34542703628540039 0.34542703628540039 0.34542703628540039
0.38232743740081787 0.38232743740081787 0.38232743740081787
0.42610126733779907 0.42610126733779907 0.42610126733779907
0.48422893881797791 0.48422893881797791 0.48422893881797791
0.5553966760635376 0.5553966760635376 0.5553966760635376
0.63045012950897217 0.63045012950897217 0.63045012950897217
0.21899230778217316 0.21899230778217316 0.21899230778217316
0.21998700499534607 0.21998700499534607 0.21998700499534607
0.22997196018695831 0.22997196018695831 0.22997196018695831
0.24955657124519348 0.24955657124519348 0.24955657124519348
0.27761536836624146 0.27761536836624146 0.27761536836624146
0.31289628148078918 0.31289628148078918 0.31289628148078918
0.34998458623886108 0.34998458623886108 0.34998458623886108
0.38745796680450439 0.38745796680450439 0.38745796680450439
0.42378205060958862 0.42378205060958862 0.42378205060958862
0.46508148312568665 0.46508148312568665 0.46508148312568665
0.51960539817810059 0.51960539817810059 0.51960539817810059
0.58651071786880493 0.58651071786880493 0.58651071786880493
0.65723305940628052 0.65723305940628052 0.65723305940628052
0.24658071994781494 0.24658071994781494 0.24658071994781494
0.24686150252819061 0.24686150252819061 0.24686150252819061
0.25819414854049683 0.25819414854049683 0.25819414854049683
0.28030061721801758 0.28030061721801758 0.28030061721801758
0.31188249588012695 0.31188249588012695 0.31188249588012695
0.35168337821960449 0.35168337821960449 0.35168337821960449
0.39559978246688843 0.39559978246688843 0.39559978246688843
0.43779569864273071 0.43779569864273071 0.43779569864273071
0.47568923234939575 0.47568923234939575 0.47568923234939575
0.5167539119720459 0.5167539119720459 0.5167539119720459
0.5669395923614502 0.5669395923614502 0.5669395923614502
0.62654983997344971 0.62654983997344971 0.62654983997344971
0.69041460752487183 0.69041460752487183 0.69041460752487183
0.28660604357719421 0.28660604357719421 0.28660604357719421
0.28646504878997803 0.28646504878997803 0.28646504878997803
0.29682862758636475 0.29682862758636475 0.29682862758636475
0.31827691197395325 0.31827691197395325 0.31827691197395325
0.35012450814247131 0.35012450814247131 0.35012450814247131
0.39219138026237488 0.39219138026237488 0.39219138026237488
0.44003087282180786 0.44003087282180786 0.44003087282180786
0.48667562007904053 0.48667562007904053 0.48667562007904053
0.5288810133934021 0.5288810133934021 0.5288810133934021
0.57129901647567749 0.57129901647567749 0.57129901647567749
0.6185072660446167 0.6185072660446167 0.6185072660446167
0.67177188396453857 0.67177188396453857 0.67177188396453857
0.72763240337371826 0.72763240337371826 0.72763240337371826
0.33918479084968567 0.33918479084968567 0.33918479084968567
0.33822110295295715 0.33822110295295715 0.33822110295295715
0.34495389461517334 0.34495389461517334 0.34495389461517334
0.3621366024017334 0.3621366024017334 0.3621366024017334
0.39162731170654297 0.39162731170654297 0.39162731170654297
0.43260440230369568 0.43260440230369568 0.43260440230369568
0.48099762201309204 0.48099762201309204 0.48099762201309204
0.53041094541549683 0.53041094541549683 0.53041094541549683
0.57744461297988892 0.57744461297988892 0.57744461297988892
0.62269139289855957 0.62269139289855957 0.62269139289855957
0.66897249221801758 0.66897249221801758 0.66897249221801758
0.71797394752502441 0.71797394752502441 0.71797394752502441
0.76829659938812256 0.76829659938812256 0.76829659938812256
0.40177679061889648 0.40177679061889648 0.40177679061889648
0.3986179530620575 0.3986179530620575 0.3986179530620575
0.40060952305793762 0.40060952305793762 0.40060952305793762
0.41136842966079712 0.41136842966079712 0.41136842966079712
0.43621870875358582 0.43621870875358582 0.43621870875358582
0.47503316402435303 0.47503316402435303 0.47503316402435303
0.52255111932754517 0.52255111932754517 0.52255111932754517
0.57282084226608276 0.57282084226608276 0.57282084226608276
0.62198972702026367 0.62198972702026367 0.62198972702026367
0.66911482810974121 0.66911482810974121 0.66911482810974121
0.71489185094833374 0.71489185094833374 0.71489185094833374
0.76107829809188843 0.76107829809188843 0.76107829809188843
0.80689257383346558 0.80689257383346558 0.80689257383346558
0.47234007716178894 0.47234007716178894 0.47234007716178894
0.4669087827205658 0.4669087827205658 0.4669087827205658
0.46414867043495178 0.46414867043495178 0.46414867043495178
0.46847695112228394 0.46847695112228394 0.46847695112228394
0.48863723874092102 0.48863723874092102 0.48863723874092102
0.524181067943573 0.524181067943573 0.524181067943573
0.56864744424819946 0.56864744424819946 0.56864744424819946
0.61669975519180298 0.61669975519180298 0.61669975519180298
0.66467398405075073 0.66467398405075073 0.66467398405075073
0.71099954843521118 0.71099954843521118 0.71099954843521118
0.7554091215133667 0.7554091215133667 0.7554091215133667
0.79871398210525513 0.79871398210525513 0.79871398210525513
0.84052544832229614 0.84052544832229614 0.84052544832229614
0.54966980218887329 0.54966980218887329 0.54966980218887329
0.54323440790176392 0.54323440790176392 0.54323440790176392
0.53834885358810425 0.53834885358810425 0.53834885358810425
0.53991281986236572 0.53991281986236572 0.53991281986236572
0.55497103929519653 0.55497103929519653 0.55497103929519653
0.58413851261138916 0.58413851261138916 0.58413851261138916
0.62207937240600586 0.62207937240600586 0.62207937240600586
0.66465479135513306 0.66465479135513306 0.66465479135513306
0.70814996957778931 0.70814996957778931 0.70814996957778931
0.75066560506820679 0.75066560506820679 0.75066560506820679
0.79128807783126831 0.79128807783126831 0.79128807783126831
0.83062613010406494 0.83062613010406494 0.83062613010406494
0.86771500110626221 0.86771500110626221 0.86771500110626221
0.63206601142883301 0.63206601142883301 0.63206601142883301
0.6259993314743042 0.6259993314743042 0.6259993314743042
0.62132614850997925 0.62132614850997925 0.62132614850997925
0.62225431203842163 0.62225431203842163 0.62225431203842163
0.63279318809509277 0.63279318809509277 0.63279318809509277
0.65411204099655151 0.65411204099655151 0.65411204099655151
0.68375074863433838 0.68375074863433838 0.68375074863433838
0.71784675121307373 0.71784675121307373 0.71784675121307373
0.75380450487136841 0.75380450487136841 0.75380450487136841
0.78964191675186157 0.78964191675186157 0.78964191675186157
0.82427585124969482 0.82427585124969482 0.82427585124969482
0.85780179500579834 0.85780179500579834 0.85780179500579834
0.89016532897949219 0.89016532897949219 0.89016532897949219
0.71597456932067871 0.71597456932067871 0.71597456932067871
0.71147662401199341 0.71147662401199341 0.71147662401199341
0.7077363133430481 0.7077363133430481 0.7077363133430481
0.70830297470092773 0.70830297470092773 0.70830297470092773
0.71548998355865479 0.71548998355865479 0.71548998355865479
0.73001217842102051 0.73001217842102051 0.73001217842102051
0.75057125091552734 0.75057125091552734 0.75057125091552734
0.77514749765396118 0.77514749765396118 0.77514749765396118
0.80175697803497314 0.80175697803497314 0.80175697803497314
0.82909113168716431 0.82909113168716431 0.82909113168716431
0.85619944334030151 0.85619944334030151 0.85619944334030151
0.88310116529464722 0.88310116529464722 0.88310116529464722
0.91030669212341309 0.91030669212341309 0.91030669212341309
0.79859787225723267 0.79859787225723267 0.79859787225723267
0.79535174369812012 0.79535174369812012 0.79535174369812012
0.7925422191619873 0.7925422191619873 0.7925422191619873
0.79291695356369019 0.79291695356369019 0.79291695356369019
0.79793316125869751 0.79793316125869751 0.79793316125869751
0.80697745084762573 0.80697745084762573 0.80697745084762573
0.81898683309555054 0.81898683309555054 0.81898683309555054
0.83385807275772095 0.83385807275772095 0.83385807275772095
0.85103899240493774 0.85103899240493774 0.85103899240493774
0.8696599006652832 0.8696599006652832 0.8696599006652832
0.88881498575210571 0.88881498575210571 0.88881498575210571
0.90857470035552979 0.90857470035552979 0.90857470035552979
0.93022501468658447 0.93022501468658447 0.93022501468658447
0.87612289190292358 0.87612289190292358 0.87612289190292358
0.8737635612487793 0.8737635612487793 0.8737635612487793
0.87144249677658081 0.87144249677658081 0.87144249677658081
0.8717881441116333 0.8717881441116333 0.8717881441116333
0.87513238191604614 0.87513238191604614 0.87513238191604614
0.88000673055648804 0.88000673055648804 0.88000673055648804
0.88479483127593994 0.88479483127593994 0.88479483127593994
0.89130431413650513 0.89130431413650513 0.89130431413650513
0.90018653869628906 0.90018653869628906 0.90018653869628906
0.91077220439910889 0.91077220439910889 0.91077220439910889
0.92284965515136719 0.92284965515136719 0.92284965515136719
0.93633246421813965 0.93633246421813965 0.93633246421813965
0.95270317792892456 0.95270317792892456 0.95270317792892456
0.19723179936408997 0.19723179936408997 0.19723179936408997
0.19749003648757935 0.19749003648757935 0.19749003648757935
0.203770712018013 0.203770712018013 0.203770712018013
0.21636232733726501 0.21636232733726501 0.21636232733726501
0.235248863697052 0.235248863697052 0.235248863697052
0.25948745012283325 0.25948745012283325 0.25948745012283325
0.28756323456764221 0.28756323456764221 0.28756323456764221
0.31924128532409668 0.31924128532409668 0.31924128532409668
0.3567347526550293 0.3567347526550293 0.3567347526550293
0.40335249900817871 0.40335249900817871 0.40335249900817871
0.46096885204315186 0.46096885204315186 0.46096885204315186
0.52887356281280518 0.52887356281280518 0.52887356281280518
0.60278689861297607 0.60278689861297607 0.60278689861297607
0.20813760161399841 0.20813760161399841 0.20813760161399841
0.20920427143573761 0.20920427143573761 0.20920427143573761
0.21702751517295837 0.21702751517295837 0.21702751517295837
0.23231902718544006 0.23231902718544006 0.23231902718544006
0.2542877197265625 0.2542877197265625 0.2542877197265625
0.28175845742225647 0.28175845742225647 0.28175845742225647
0.3129328191280365 0.3129328191280365 0.3129328191280365
0.34634363651275635 0.34634363651275635 0.34634363651275635
0.3831406831741333 0.3831406831741333 0.3831406831741333
0.42712467908859253 0.42712467908859253 0.42712467908859253
0.48324495553970337 0.48324495553970337 0.48324495553970337
0.55161094665527344 0.55161094665527344 0.55161094665527344
0.6262432336807251 0.6262432336807251 0.6262432336807251
0.22681553661823273 0.22681553661823273 0.22681553661823273
0.22862628102302551 0.22862628102302551 0.22862628102302551
0.23838309943675995 0.23838309943675995 0.23838309943675995
0.25633814930915833 0.25633814930915833 0.25633814930915833
0.28210479021072388 0.28210479021072388 0.28210479021072388
0.31415918469429016 0.31415918469429016 0.31415918469429016
0.34994727373123169 0.34994727373123169 0.34994727373123169
0.38672029972076416 0.38672029972076416 0.38672029972076416
0.42378979921340942 0.42378979921340942 0.42378979921340942
0.46569740772247314 0.46569740772247314 0.46569740772247314
0.51864492893218994 0.51864492893218994 0.51864492893218994
0.58358031511306763 0.58358031511306763 0.58358031511306763
0.65511006116867065 0.65511006116867065 0.65511006116867065
0.25585472583770752 0.25585472583770752 0.25585472583770752
0.25835013389587402 0.25835013389587402 0.25835013389587402
0.26950713992118835 0.26950713992118835 0.26950713992118835
0.28922492265701294 0.28922492265701294 0.28922492265701294
0.31750595569610596 0.31750595569610596 0.31750595569610596
0.35355871915817261 0.35355871915817261 0.35355871915817261
0.39487999677658081 0.39487999677658081 0.39487999677658081
0.43607321381568909 0.43607321381568909 0.43607321381568909
0.47510933876037598 0.47510933876037598 0.47510933876037598
0.51651221513748169 0.51651221513748169 0.51651221513748169
0.56525892019271851 0.56525892019271851 0.56525892019271851
0.62375915050506592 0.62375915050506592 0.62375915050506592
0.6882205605506897 0.6882205605506897 0.6882205605506897
0.29802712798118591 0.29802712798118591 0.29802712798118591
0.30071854591369629 0.30071854591369629 0.30071854591369629
0.31090176105499268 0.31090176105499268 0.31090176105499268
0.32982507348060608 0.32982507348060608 0.32982507348060608
0.35827872157096863 0.35827872157096863 0.35827872157096863
0.39630076289176941 0.39630076289176941 0.39630076289176941
0.44110256433486938 0.44110256433486938 0.44110256433486938
0.48701551556587219 0.48701551556587219 0.48701551556587219
0.53072011470794678 0.53072011470794678 0.53072011470794678
0.57287228107452393 0.57287228107452393 0.57287228107452393
0.6185004711151123 0.6185004711151123 0.6185004711151123
0.67031240463256836 0.67031240463256836 0.67031240463256836
0.72681409120559692 0.72681409120559692 0.72681409120559692
0.3526121973991394 0.3526121973991394 0.3526121973991394
0.354766845703125 0.354766845703125 0.354766845703125
0.36194521188735962 0.36194521188735962 0.36194521188735962
0.37658002972602844 0.37658002972602844 0.37658002972602844
0.4020637571811676 0.4020637571811676 0.4020637571811676
0.43931996822357178 0.43931996822357178 0.43931996822357178
0.48524785041809082 0.48524785041809082 0.48524785041809082
0.53484725952148438 0.53484725952148438 0.53484725952148438
0.58282709121704102 0.58282709121704102 0.58282709121704102
0.62765651941299438 0.62765651941299438 0.62765651941299438
0.67207860946655273 0.67207860946655273 0.67207860946655273
0.71944731473922729 0.71944731473922729 0.71944731473922729
0.76916015148162842 0.76916015148162842 0.76916015148162842
0.4175969660282135 0.4175969660282135 0.4175969660282135
0.41717392206192017 0.41717392206192017 0.41717392206192017
0.41979017853736877 0.41979017853736877 0.41979017853736877
0.42844113707542419 0.42844113707542419 0.42844113707542419
0.44894522428512573 0.44894522428512573 0.44894522428512573
0.48353010416030884 0.48353010416030884 0.48353010416030884
0.52858626842498779 0.52858626842498779 0.52858626842498779
0.57903611660003662 0.57903611660003662 0.57903611660003662
0.62921512126922607 0.62921512126922607 0.62921512126922607
0.67608356475830078 0.67608356475830078 0.67608356475830078
0.72096115350723267 0.72096115350723267 0.72096115350723267
0.76594638824462891 0.76594638824462891 0.76594638824462891
0.81116390228271484 0.81116390228271484 0.81116390228271484
0.48908919095993042 0.48908919095993042 0.48908919095993042
0.48625418543815613 0.48625418543815613 0.48625418543815613
0.48411679267883301 0.48411679267883301 0.48411679267883301
0.48703774809837341 0.48703774809837341 0.48703774809837341
0.50244474411010742 0.50244474411010742 0.50244474411010742
0.53276652097702026 0.53276652097702026 0.53276652097702026
0.57452845573425293 0.57452845573425293 0.57452845573425293
0.62277156114578247 0.62277156114578247 0.62277156114578247
0.67198848724365234 0.67198848724365234 0.67198848724365234
0.71885567903518677 0.71885567903518677 0.71885567903518677
0.76312291622161865 0.76312291622161865 0.76312291622161865
0.80599510669708252 0.80599510669708252 0.80599510669708252
0.84747040271759033 0.84747040271759033 0.84747040271759033
0.5668785572052002 0.5668785572052002 0.5668785572052002
0.56170785427093506 0.56170785427093506 0.56170785427093506
0.55680215358734131 0.55680215358734131 0.55680215358734131
0.55616468191146851 0.55616468191146851 0.55616468191146851
0.56700986623764038 0.56700986623764038 0.56700986623764038
0.59136384725570679 0.59136384725570679 0.59136384725570679
0.62728136777877808 0.62728136777877808 0.62728136777877808
0.6701928973197937 0.6701928973197937 0.6701928973197937
0.71476829051971436 0.71476829051971436 0.71476829051971436
0.75837409496307373 0.75837409496307373 0.75837409496307373
0.7996513843536377 0.7996513843536377 0.7996513843536377
0.83863461017608643 0.83863461017608643 0.83863461017608643
0.87549316883087158 0.87549316883087158 0.87549316883087158
0.64830875396728516 0.64830875396728516 0.64830875396728516
0.64286565780639648 0.64286565780639648 0.64286565780639648
0.63739383220672607 0.63739383220672607 0.63739383220672607
0.63550323247909546 0.63550323247909546 0.63550323247909546
0.64227604866027832 0.64227604866027832 0.64227604866027832
0.6601947546005249 0.6601947546005249 0.6601947546005249
0.68832892179489136 0.68832892179489136 0.68832892179489136
0.72281163930892944 0.72281163930892944 0.72281163930892944
0.75995403528213501 0.75995403528213501 0.75995403528213501
0.79691517353057861 0.79691517353057861 0.79691517353057861
0.83240735530853271 0.83240735530853271 0.83240735530853271
0.86608028411865234 0.86608028411865234 0.86608028411865234
0.89793878793716431 0.89793878793716431 0.89793878793716431
0.73089659214019775 0.73089659214019775 0.73089659214019775
0.72616302967071533 0.72616302967071533 0.72616302967071533
0.7210545539855957 0.7210545539855957 0.7210545539855957
0.71893584728240967 0.71893584728240967 0.71893584728240967
0.7231374979019165 0.7231374979019165 0.7231374979019165
0.73524618148803711 0.73524618148803711 0.73524618148803711
0.75470399856567383 0.75470399856567383 0.75470399856567383
0.77961039543151855 0.77961039543151855 0.77961039543151855
0.80742651224136353 0.80742651224136353 0.80742651224136353
0.83576804399490356 0.83576804399490356 0.83576804399490356
0.86370629072189331 0.86370629072189331 0.86370629072189331
0.89076763391494751 0.89076763391494751 0.89076763391494751
0.91744071245193481 0.91744071245193481 0.91744071245193481
0.81101131439208984 0.81101131439208984 0.81101131439208984
0.80732059478759766 0.80732059478759766 0.80732059478759766
0.80316722393035889 0.80316722393035889 0.80316722393035889
0.80136966705322266 0.80136966705322266 0.80136966705322266
0.80361694097518921 0.80361694097518921 0.80361694097518921
0.81076431274414062 0.81076431274414062 0.81076431274414062
0.82229644060134888 0.82229644060134888 0.82229644060134888
0.83767509460449219 0.83767509460449219 0.83767509460449219
0.85578852891921997 0.85578852891921997 0.85578852891921997
0.87499421834945679 0.87499421834945679 0.87499421834945679
0.89507156610488892 0.89507156610488892 0.89507156610488892
0.91532963514328003 0.91532963514328003 0.91532963514328003
0.93677175045013428 0.93677175045013428 0.93677175045013428
0.88544195890426636 0.88544195890426636 0.88544195890426636
0.88306260108947754 0.88306260108947754 0.88306260108947754
0.87982606887817383 0.87982606887817383 0.87982606887817383
0.87795889377593994 0.87795889377593994 0.87795889377593994
0.87890738248825073 0.87890738248825073 0.87890738248825073
0.88214015960693359 0.88214015960693359 0.88214015960693359
0.88702762126922607 0.88702762126922607 0.88702762126922607
0.89426028728485107 0.89426028728485107 0.89426028728485107
0.90379077196121216 0.90379077196121216 0.90379077196121216
0.9151114821434021 0.9151114821434021 0.9151114821434021
0.92781758308410645 0.92781758308410645 0.92781758308410645
0.94189709424972534 0.94189709424972534 0.94189709424972534
0.95857018232345581 0.95857018232345581 0.95857018232345581
0.20905552804470062 0.20905552804470062 0.20905552804470062
0.21005800366401672 0.21005800366401672 0.21005800366401672
0.21665282547473907 0.21665282547473907 0.21665282547473907
0.22936956584453583 0.22936956584453583 0.22936956584453583
0.24782629311084747 0.24782629311084747 0.24782629311084747
0.27205982804298401 0.27205982804298401 0.27205982804298401
0.30067852139472961 0.30067852139472961 0.30067852139472961
0.33252191543579102 0.33252191543579102 0.33252191543579102
0.3694247305393219 0.3694247305393219 0.3694247305393219
0.41455593705177307 0.41455593705177307 0.41455593705177307
0.46685147285461426 0.46685147285461426 0.46685147285461426
0.52749204635620117 0.52749204635620117 0.52749204635620117
0.59788519144058228 0.59788519144058228 0.59788519144058228
0.22065542638301849 0.22065542638301849 0.22065542638301849
0.22255581617355347 0.22255581617355347 0.22255581617355347
0.23056133091449738 0.23056133091449738 0.23056133091449738
0.24486994743347168 0.24486994743347168 0.24486994743347168
0.26520007848739624 0.26520007848739624 0.26520007848739624
0.29113459587097168 0.29113459587097168 0.29113459587097168
0.32196685671806335 0.32196685671806335 0.32196685671806335
0.3557283878326416 0.3557283878326416 0.3557283878326416
0.39285996556282043 0.39285996556282043 0.39285996556282043
0.43563851714134216 0.43563851714134216 0.43563851714134216
0.48698046803474426 0.48698046803474426 0.48698046803474426
0.54996758699417114 0.54996758699417114 0.54996758699417114
0.62286567687988281 0.62286567687988281 0.62286567687988281
0.24036374688148499 0.24036374688148499 0.24036374688148499
0.24368084967136383 0.24368084967136383 0.24368084967136383
0.25345063209533691 0.25345063209533691 0.25345063209533691
0.26965433359146118 0.26965433359146118 0.26965433359146118
0.29229611158370972 0.29229611158370972 0.29229611158370972
0.32122102379798889 0.32122102379798889 0.32122102379798889
0.35507026314735413 0.35507026314735413 0.35507026314735413
0.39154359698295593 0.39154359698295593 0.39154359698295593
0.42886191606521606 0.42886191606521606 0.42886191606521606
0.46960890293121338 0.46960890293121338 0.46960890293121338
0.51872992515563965 0.51872992515563965 0.51872992515563965
0.580241858959198 0.580241858959198 0.580241858959198
0.65224510431289673 0.65224510431289673 0.65224510431289673
0.27104848623275757 0.27104848623275757 0.27104848623275757
0.27548390626907349 0.27548390626907349 0.27548390626907349
0.28697997331619263 0.28697997331619263 0.28697997331619263
0.3039202094078064 0.3039202094078064 0.3039202094078064
0.32855483889579773 0.32855483889579773 0.32855483889579773
0.36022087931632996 0.36022087931632996 0.36022087931632996
0.39772489666938782 0.39772489666938782 0.39772489666938782
0.43778043985366821 0.43778043985366821 0.43778043985366821
0.47729313373565674 0.47729313373565674 0.47729313373565674
0.51724076271057129 0.51724076271057129 0.51724076271057129
0.56214755773544312 0.56214755773544312 0.56214755773544312
0.61816048622131348 0.61816048622131348 0.61816048622131348
0.68313091993331909 0.68313091993331909 0.68313091993331909
0.31418552994728088 0.31418552994728088 0.31418552994728088
0.32055094838142395 0.32055094838142395 0.32055094838142395
0.33145856857299805 0.33145856857299805 0.33145856857299805
0.34750071167945862 0.34750071167945862 0.34750071167945862
0.37128403782844543 0.37128403782844543 0.37128403782844543
0.40417557954788208 0.40417557954788208 0.40417557954788208
0.44479334354400635 0.44479334354400635 0.44479334354400635
0.48940131068229675 0.48940131068229675 0.48940131068229675
0.53320598602294922 0.53320598602294922 0.53320598602294922
