luts/negative_new/ilford_hp_5.cube
# Created by: G'MIC (https://gmic.eu)
TITLE "ilford_hp_5"
# LUT size
LUT_3D_SIZE 5
# Data domain
DOMAIN_MIN 0.0 0.0 0.0
DOMAIN_MAX 1.0 1.0 1.0
# LUT data points
0.033758081495761871 0.033758081495761871 0.033758081495761871
0.10442093759775162 0.10442093759775162 0.10442093759775162
0.22216677665710449 0.22216677665710449 0.22216677665710449
0.38118714094161987 0.38118714094161987 0.38118714094161987
0.58280551433563232 0.58280551433563232 0.58280551433563232
0.15897780656814575 0.15897780656814575 0.15897780656814575
0.22549904882907867 0.22549904882907867 0.22549904882907867
0.35891148447990417 0.35891148447990417 0.35891148447990417
0.49683132767677307 0.49683132767677307 0.49683132767677307
0.66020464897155762 0.66020464897155762 0.66020464897155762
0.36664679646492004 0.36664679646492004 0.36664679646492004
0.39035332202911377 0.39035332202911377 0.39035332202911377
0.50171196460723877 0.50171196460723877 0.50171196460723877
0.64565932750701904 0.64565932750701904 0.64565932750701904
0.78469103574752808 0.78469103574752808 0.78469103574752808
0.60740786790847778 0.60740786790847778 0.60740786790847778
0.59433567523956299 0.59433567523956299 0.59433567523956299
0.65109997987747192 0.65109997987747192 0.65109997987747192
0.75693213939666748 0.75693213939666748 0.75693213939666748
0.87086844444274902 0.87086844444274902 0.87086844444274902
0.86590522527694702 0.86590522527694702 0.86590522527694702
0.86127018928527832 0.86127018928527832 0.86127018928527832
0.86976611614227295 0.86976611614227295 0.86976611614227295
0.8944430947303772 0.8944430947303772 0.8944430947303772
0.9521898627281189 0.9521898627281189 0.9521898627281189
0.12876403331756592 0.12876403331756592 0.12876403331756592
0.1869199275970459 0.1869199275970459 0.1869199275970459
0.2947235107421875 0.2947235107421875 0.2947235107421875
0.41092124581336975 0.41092124581336975 0.41092124581336975
0.56922686100006104 0.56922686100006104 0.56922686100006104
0.23882988095283508 0.23882988095283508 0.23882988095283508
0.28696912527084351 0.28696912527084351 0.28696912527084351
0.37414473295211792 0.37414473295211792 0.37414473295211792
0.47938865423202515 0.47938865423202515 0.47938865423202515
0.63381874561309814 0.63381874561309814 0.63381874561309814
0.44217571616172791 0.44217571616172791 0.44217571616172791
0.45057398080825806 0.45057398080825806 0.45057398080825806
0.52995991706848145 0.52995991706848145 0.52995991706848145
0.66210281848907471 0.66210281848907471 0.66210281848907471
0.77868807315826416 0.77868807315826416 0.77868807315826416
0.66195380687713623 0.66195380687713623 0.66195380687713623
0.64736086130142212 0.64736086130142212 0.64736086130142212
0.66865509748458862 0.66865509748458862 0.66865509748458862
0.76273709535598755 0.76273709535598755 0.76273709535598755
0.8754197359085083 0.8754197359085083 0.8754197359085083
0.89139282703399658 0.89139282703399658 0.89139282703399658
0.88160967826843262 0.88160967826843262 0.88160967826843262
0.8758348822593689 0.8758348822593689 0.8758348822593689
0.89894294738769531 0.89894294738769531 0.89894294738769531
0.96030694246292114 0.96030694246292114 0.96030694246292114
0.31997954845428467 0.31997954845428467 0.31997954845428467
0.35574409365653992 0.35574409365653992 0.35574409365653992
0.41568505764007568 0.41568505764007568 0.41568505764007568
0.53069210052490234 0.53069210052490234 0.53069210052490234
0.68070918321609497 0.68070918321609497 0.68070918321609497
0.38521140813827515 0.38521140813827515 0.38521140813827515
0.41904795169830322 0.41904795169830322 0.41904795169830322
0.47076377272605896 0.47076377272605896 0.47076377272605896
0.55797213315963745 0.55797213315963745 0.55797213315963745
0.69949978590011597 0.69949978590011597 0.69949978590011597
0.49422362446784973 0.49422362446784973 0.49422362446784973
0.5306510329246521 0.5306510329246521 0.5306510329246521
0.58076971769332886 0.58076971769332886 0.58076971769332886
0.65521866083145142 0.65521866083145142 0.65521866083145142
0.75609976053237915 0.75609976053237915 0.75609976053237915
0.69554489850997925 0.69554489850997925 0.69554489850997925
0.71453702449798584 0.71453702449798584 0.71453702449798584
0.73747581243515015 0.73747581243515015 0.73747581243515015
0.79613155126571655 0.79613155126571655 0.79613155126571655
0.88786447048187256 0.88786447048187256 0.88786447048187256
0.9061506986618042 0.9061506986618042 0.9061506986618042
0.90160524845123291 0.90160524845123291 0.90160524845123291
0.90430909395217896 0.90430909395217896 0.90430909395217896
0.92236757278442383 0.92236757278442383 0.92236757278442383
0.97488927841186523 0.97488927841186523 0.97488927841186523
0.55847716331481934 0.55847716331481934 0.55847716331481934
0.57194310426712036 0.57194310426712036 0.57194310426712036
0.63593208789825439 0.63593208789825439 0.63593208789825439
0.66562789678573608 0.66562789678573608 0.66562789678573608
0.76392185688018799 0.76392185688018799 0.76392185688018799
0.58377432823181152 0.58377432823181152 0.58377432823181152
0.61387300491333008 0.61387300491333008 0.61387300491333008
0.66530382633209229 0.66530382633209229 0.66530382633209229
0.69760000705718994 0.69760000705718994 0.69760000705718994
0.79207956790924072 0.79207956790924072 0.79207956790924072
0.62314718961715698 0.62314718961715698 0.62314718961715698
0.65202027559280396 0.65202027559280396 0.65202027559280396
0.7002074122428894 0.7002074122428894 0.7002074122428894
0.75496011972427368 0.75496011972427368 0.75496011972427368
0.83318263292312622 0.83318263292312622 0.83318263292312622
0.7406267523765564 0.7406267523765564 0.7406267523765564
0.74730348587036133 0.74730348587036133 0.74730348587036133
0.78388231992721558 0.78388231992721558 0.78388231992721558
0.84001219272613525 0.84001219272613525 0.84001219272613525
0.90921735763549805 0.90921735763549805 0.90921735763549805
0.89799696207046509 0.89799696207046509 0.89799696207046509
0.89879459142684937 0.89879459142684937 0.89879459142684937
0.91555517911911011 0.91555517911911011 0.91555517911911011
0.93312454223632812 0.93312454223632812 0.93312454223632812
0.97234112024307251 0.97234112024307251 0.97234112024307251
0.8267204761505127 0.8267204761505127 0.8267204761505127
0.82758414745330811 0.82758414745330811 0.82758414745330811
0.86328995227813721 0.86328995227813721 0.86328995227813721
0.89652460813522339 0.89652460813522339 0.89652460813522339
0.91195905208587646 0.91195905208587646 0.91195905208587646
0.83939176797866821 0.83939176797866821 0.83939176797866821
0.8503376841545105 0.8503376841545105 0.8503376841545105
0.87747025489807129 0.87747025489807129 0.87747025489807129
0.89557194709777832 0.89557194709777832 0.89557194709777832
0.90264379978179932 0.90264379978179932 0.90264379978179932
0.85528826713562012 0.85528826713562012 0.85528826713562012
0.86307793855667114 0.86307793855667114 0.86307793855667114
0.88642936944961548 0.88642936944961548 0.88642936944961548
0.90939909219741821 0.90939909219741821 0.90939909219741821
0.93574053049087524 0.93574053049087524 0.93574053049087524
0.87597495317459106 0.87597495317459106 0.87597495317459106
0.88284063339233398 0.88284063339233398 0.88284063339233398
0.90280157327651978 0.90280157327651978 0.90280157327651978
0.92322003841400146 0.92322003841400146 0.92322003841400146
0.95583260059356689 0.95583260059356689 0.95583260059356689
0.9396127462387085 0.9396127462387085 0.9396127462387085
0.94613957405090332 0.94613957405090332 0.94613957405090332
0.95809686183929443 0.95809686183929443 0.95809686183929443
0.96438705921173096 0.96438705921173096 0.96438705921173096
0.98122084140777588 0.98122084140777588 0.98122084140777588
