luts/negative_new/ilford_hp_5_+.cube
# Created by: G'MIC (https://gmic.eu)
TITLE "ilford_hp_5_+"
# LUT size
LUT_3D_SIZE 13
# Data domain
DOMAIN_MIN 0.0 0.0 0.0
DOMAIN_MAX 1.0 1.0 1.0
# LUT data points
0.14400096237659454 0.14400096237659454 0.14400096237659454
0.15436829626560211 0.15436829626560211 0.15436829626560211
0.17154452204704285 0.17154452204704285 0.17154452204704285
0.19455139338970184 0.19455139338970184 0.19455139338970184
0.22261187434196472 0.22261187434196472 0.22261187434196472
0.25460684299468994 0.25460684299468994 0.25460684299468994
0.28963187336921692 0.28963187336921692 0.28963187336921692
0.32733827829360962 0.32733827829360962 0.32733827829360962
0.36771255731582642 0.36771255731582642 0.36771255731582642
0.41550719738006592 0.41550719738006592 0.41550719738006592
0.47391238808631897 0.47391238808631897 0.47391238808631897
0.53884994983673096 0.53884994983673096 0.53884994983673096
0.60571193695068359 0.60571193695068359 0.60571193695068359
0.1622767448425293 0.1622767448425293 0.1622767448425293
0.17365184426307678 0.17365184426307678 0.17365184426307678
0.19182145595550537 0.19182145595550537 0.19182145595550537
0.2159171849489212 0.2159171849489212 0.2159171849489212
0.2451949268579483 0.2451949268579483 0.2451949268579483
0.27878040075302124 0.27878040075302124 0.27878040075302124
0.31521844863891602 0.31521844863891602 0.31521844863891602
0.35362967848777771 0.35362967848777771 0.35362967848777771
0.3942277729511261 0.3942277729511261 0.3942277729511261
0.44109669327735901 0.44109669327735901 0.44109669327735901
0.49800455570220947 0.49800455570220947 0.49800455570220947
0.56126350164413452 0.56126350164413452 0.56126350164413452
0.62596613168716431 0.62596613168716431 0.62596613168716431
0.19161839783191681 0.19161839783191681 0.19161839783191681
0.20263068377971649 0.20263068377971649 0.20263068377971649
0.22104710340499878 0.22104710340499878 0.22104710340499878
0.24555113911628723 0.24555113911628723 0.24555113911628723
0.27598100900650024 0.27598100900650024 0.27598100900650024
0.31172594428062439 0.31172594428062439 0.31172594428062439
0.35084843635559082 0.35084843635559082 0.35084843635559082
0.39133548736572266 0.39133548736572266 0.39133548736572266
0.43316319584846497 0.43316319584846497 0.43316319584846497
0.47920489311218262 0.47920489311218262 0.47920489311218262
0.53329765796661377 0.53329765796661377 0.53329765796661377
0.59207522869110107 0.59207522869110107 0.59207522869110107
0.65327185392379761 0.65327185392379761 0.65327185392379761
0.23224145174026489 0.23224145174026489 0.23224145174026489
0.2420036792755127 0.2420036792755127 0.2420036792755127
0.2588963508605957 0.2588963508605957 0.2588963508605957
0.28230264782905579 0.28230264782905579 0.28230264782905579
0.31318354606628418 0.31318354606628418 0.31318354606628418
0.35075104236602783 0.35075104236602783 0.35075104236602783
0.3927772045135498 0.3927772045135498 0.3927772045135498
0.43615278601646423 0.43615278601646423 0.43615278601646423
0.47894918918609619 0.47894918918609619 0.47894918918609619
0.52385973930358887 0.52385973930358887 0.52385973930358887
0.57406294345855713 0.57406294345855713 0.57406294345855713
0.63008421659469604 0.63008421659469604 0.63008421659469604
0.68637347221374512 0.68637347221374512 0.68637347221374512
0.28217968344688416 0.28217968344688416 0.28217968344688416
0.28941842913627625 0.28941842913627625 0.28941842913627625
0.30317100882530212 0.30317100882530212 0.30317100882530212
0.32420653104782104 0.32420653104782104 0.32420653104782104
0.35362747311592102 0.35362747311592102 0.35362747311592102
0.39160138368606567 0.39160138368606567 0.39160138368606567
0.43583601713180542 0.43583601713180542 0.43583601713180542
0.48139122128486633 0.48139122128486633 0.48139122128486633
0.52510255575180054 0.52510255575180054 0.52510255575180054
0.56965798139572144 0.56965798139572144 0.56965798139572144
0.61801433563232422 0.61801433563232422 0.61801433563232422
0.66985392570495605 0.66985392570495605 0.66985392570495605
0.72257554531097412 0.72257554531097412 0.72257554531097412
0.33906975388526917 0.33906975388526917 0.33906975388526917
0.34318536520004272 0.34318536520004272 0.34318536520004272
0.35244923830032349 0.35244923830032349 0.35244923830032349
0.36911725997924805 0.36911725997924805 0.36911725997924805
0.39563333988189697 0.39563333988189697 0.39563333988189697
0.43213829398155212 0.43213829398155212 0.43213829398155212
0.47595566511154175 0.47595566511154175 0.47595566511154175
0.52215570211410522 0.52215570211410522 0.52215570211410522
0.56742352247238159 0.56742352247238159 0.56742352247238159
0.61301583051681519 0.61301583051681519 0.61301583051681519
0.66058504581451416 0.66058504581451416 0.66058504581451416
0.70986074209213257 0.70986074209213257 0.70986074209213257
0.75916749238967896 0.75916749238967896 0.75916749238967896
0.40174770355224609 0.40174770355224609 0.40174770355224609
0.40213742852210999 0.40213742852210999 0.40213742852210999
0.40602627396583557 0.40602627396583557 0.40602627396583557
0.41698062419891357 0.41698062419891357 0.41698062419891357
0.43927314877510071 0.43927314877510071 0.43927314877510071
0.47328653931617737 0.47328653931617737 0.47328653931617737
0.51508432626724243 0.51508432626724243 0.51508432626724243
0.56032907962799072 0.56032907962799072 0.56032907962799072
0.60619807243347168 0.60619807243347168 0.60619807243347168
0.65239930152893066 0.65239930152893066 0.65239930152893066
0.69931769371032715 0.69931769371032715 0.69931769371032715
0.74669373035430908 0.74669373035430908 0.74669373035430908
0.79277884960174561 0.79277884960174561 0.79277884960174561
0.47015184164047241 0.47015184164047241 0.47015184164047241
0.46702918410301208 0.46702918410301208 0.46702918410301208
0.46588721871376038 0.46588721871376038 0.46588721871376038
0.47043541073799133 0.47043541073799133 0.47043541073799133
0.48819723725318909 0.48819723725318909 0.48819723725318909
0.51909530162811279 0.51909530162811279 0.51909530162811279
0.55779409408569336 0.55779409408569336 0.55779409408569336
0.60019963979721069 0.60019963979721069 0.60019963979721069
0.64417588710784912 0.64417588710784912 0.64417588710784912
0.68861269950866699 0.68861269950866699 0.68861269950866699
0.73350006341934204 0.73350006341934204 0.73350006341934204
0.77837735414505005 0.77837735414505005 0.77837735414505005
0.82185393571853638 0.82185393571853638 0.82185393571853638
0.54439514875411987 0.54439514875411987 0.54439514875411987
0.53932434320449829 0.53932434320449829 0.53932434320449829
0.53536784648895264 0.53536784648895264 0.53536784648895264
0.53618055582046509 0.53618055582046509 0.53618055582046509
0.54924029111862183 0.54924029111862183 0.54924029111862183
0.57479900121688843 0.57479900121688843 0.57479900121688843
0.60767138004302979 0.60767138004302979 0.60767138004302979
0.64463436603546143 0.64463436603546143 0.64463436603546143
0.68366914987564087 0.68366914987564087 0.68366914987564087
0.72371011972427368 0.72371011972427368 0.72371011972427368
0.76445937156677246 0.76445937156677246 0.76445937156677246
0.80560171604156494 0.80560171604156494 0.80560171604156494
0.84596782922744751 0.84596782922744751 0.84596782922744751
0.6238332986831665 0.6238332986831665 0.6238332986831665
0.61871629953384399 0.61871629953384399 0.61871629953384399
0.61424881219863892 0.61424881219863892 0.61424881219863892
0.61424428224563599 0.61424428224563599 0.61424428224563599
0.62295335531234741 0.62295335531234741 0.62295335531234741
0.64114499092102051 0.64114499092102051 0.64114499092102051
0.66617172956466675 0.66617172956466675 0.66617172956466675
0.69549393653869629 0.69549393653869629 0.69549393653869629
0.72713690996170044 0.72713690996170044 0.72713690996170044
0.76031577587127686 0.76031577587127686 0.76031577587127686
0.79505062103271484 0.79505062103271484 0.79505062103271484
0.831001877784729 0.831001877784729 0.831001877784729
0.86731189489364624 0.86731189489364624 0.86731189489364624
0.70625823736190796 0.70625823736190796 0.70625823736190796
0.70217728614807129 0.70217728614807129 0.70217728614807129
0.69865983724594116 0.69865983724594116 0.69865983724594116
0.69845211505889893 0.69845211505889893 0.69845211505889893
0.70404225587844849 0.70404225587844849 0.70404225587844849
0.71573841571807861 0.71573841571807861 0.71573841571807861
0.73219788074493408 0.73219788074493408 0.73219788074493408
0.7525373101234436 0.7525373101234436 0.7525373101234436
0.77527111768722534 0.77527111768722534 0.77527111768722534
0.80060487985610962 0.80060487985610962 0.80060487985610962
0.82808846235275269 0.82808846235275269 0.82808846235275269
0.85785579681396484 0.85785579681396484 0.85785579681396484
0.88947290182113647 0.88947290182113647 0.88947290182113647
0.78866744041442871 0.78866744041442871 0.78866744041442871
0.7858043909072876 0.7858043909072876 0.7858043909072876
0.78315693140029907 0.78315693140029907 0.78315693140029907
0.78305494785308838 0.78305494785308838 0.78305494785308838
0.78684055805206299 0.78684055805206299 0.78684055805206299
0.79351407289505005 0.79351407289505005 0.79351407289505005
0.80218905210494995 0.80218905210494995 0.80218905210494995
0.81334060430526733 0.81334060430526733 0.81334060430526733
0.82771170139312744 0.82771170139312744 0.82771170139312744
0.84450507164001465 0.84450507164001465 0.84450507164001465
0.8645939826965332 0.8645939826965332 0.8645939826965332
0.8879014253616333 0.8879014253616333 0.8879014253616333
0.91414499282836914 0.91414499282836914 0.91414499282836914
0.86738866567611694 0.86738866567611694 0.86738866567611694
0.86552697420120239 0.86552697420120239 0.86552697420120239
0.86347454786300659 0.86347454786300659 0.86347454786300659
0.8636786937713623 0.8636786937713623 0.8636786937713623
0.86635571718215942 0.86635571718215942 0.86635571718215942
0.86939656734466553 0.86939656734466553 0.86939656734466553
0.87156760692596436 0.87156760692596436 0.87156760692596436
0.87493264675140381 0.87493264675140381 0.87493264675140381
0.88169556856155396 0.88169556856155396 0.88169556856155396
0.89191174507141113 0.89191174507141113 0.89191174507141113
0.90489071607589722 0.90489071607589722 0.90489071607589722
0.92228215932846069 0.92228215932846069 0.92228215932846069
0.94322782754898071 0.94322782754898071 0.94322782754898071
0.15396517515182495 0.15396517515182495 0.15396517515182495
0.16537488996982574 0.16537488996982574 0.16537488996982574
0.18346194922924042 0.18346194922924042 0.18346194922924042
0.20669537782669067 0.20669537782669067 0.20669537782669067
0.23469004034996033 0.23469004034996033 0.23469004034996033
0.26665017008781433 0.26665017008781433 0.26665017008781433
0.30188754200935364 0.30188754200935364 0.30188754200935364
0.33913734555244446 0.33913734555244446 0.33913734555244446
0.37945231795310974 0.37945231795310974 0.37945231795310974
0.42446222901344299 0.42446222901344299 0.42446222901344299
0.4771389365196228 0.4771389365196228 0.4771389365196228
0.53590935468673706 0.53590935468673706 0.53590935468673706
0.59842902421951294 0.59842902421951294 0.59842902421951294
0.17078667879104614 0.17078667879104614 0.17078667879104614
0.18334399163722992 0.18334399163722992 0.18334399163722992
0.20261150598526001 0.20261150598526001 0.20261150598526001
0.22710256278514862 0.22710256278514862 0.22710256278514862
0.25608858466148376 0.25608858466148376 0.25608858466148376
0.28918918967247009 0.28918918967247009 0.28918918967247009
0.32540133595466614 0.32540133595466614 0.32540133595466614
0.36339324712753296 0.36339324712753296 0.36339324712753296
0.40314808487892151 0.40314808487892151 0.40314808487892151
0.44724884629249573 0.44724884629249573 0.44724884629249573
0.49856135249137878 0.49856135249137878 0.49856135249137878
0.55690127611160278 0.55690127611160278 0.55690127611160278
0.61933773756027222 0.61933773756027222 0.61933773756027222
0.20043578743934631 0.20043578743934631 0.20043578743934631
0.21293525397777557 0.21293525397777557 0.21293525397777557
0.23208634555339813 0.23208634555339813 0.23208634555339813
0.25664103031158447 0.25664103031158447 0.25664103031158447
0.28632974624633789 0.28632974624633789 0.28632974624633789
0.32107061147689819 0.32107061147689819 0.32107061147689819
0.35995236039161682 0.35995236039161682 0.35995236039161682
0.39941218495368958 0.39941218495368958 0.39941218495368958
0.43931925296783447 0.43931925296783447 0.43931925296783447
0.48218533396720886 0.48218533396720886 0.48218533396720886
0.53144985437393188 0.53144985437393188 0.53144985437393188
0.58776366710662842 0.58776366710662842 0.58776366710662842
0.6486172080039978 0.6486172080039978 0.6486172080039978
0.24331113696098328 0.24331113696098328 0.24331113696098328
0.25412741303443909 0.25412741303443909 0.25412741303443909
0.27118206024169922 0.27118206024169922 0.27118206024169922
0.29418367147445679 0.29418367147445679 0.29418367147445679
0.32394841313362122 0.32394841313362122 0.32394841313362122
0.3603212833404541 0.3603212833404541 0.3603212833404541
0.40212342143058777 0.40212342143058777 0.40212342143058777
0.44469311833381653 0.44469311833381653 0.44469311833381653
0.48462724685668945 0.48462724685668945 0.48462724685668945
0.52606743574142456 0.52606743574142456 0.52606743574142456
0.5732492208480835 0.5732492208480835 0.5732492208480835
0.62693911790847778 0.62693911790847778 0.62693911790847778
0.68459391593933105 0.68459391593933105 0.68459391593933105
0.29567345976829529 0.29567345976829529 0.29567345976829529
0.30396291613578796 0.30396291613578796 0.30396291613578796
0.31771454215049744 0.31771454215049744 0.31771454215049744
0.33766373991966248 0.33766373991966248 0.33766373991966248
0.36558228731155396 0.36558228731155396 0.36558228731155396
0.40220257639884949 0.40220257639884949 0.40220257639884949
0.44608244299888611 0.44608244299888611 0.44608244299888611
0.49139931797981262 0.49139931797981262 0.49139931797981262
0.53182905912399292 0.53182905912399292 0.53182905912399292
0.57327759265899658 0.57327759265899658 0.57327759265899658
0.61940699815750122 0.61940699815750122 0.61940699815750122
0.67057967185974121 0.67057967185974121 0.67057967185974121
0.72394424676895142 0.72394424676895142 0.72394424676895142
0.35452297329902649 0.35452297329902649 0.35452297329902649
0.35996136069297791 0.35996136069297791 0.35996136069297791
0.36918932199478149 0.36918932199478149 0.36918932199478149
0.38435682654380798 0.38435682654380798 0.38435682654380798
0.40870660543441772 0.40870660543441772 0.40870660543441772
0.44311720132827759 0.44311720132827759 0.44311720132827759
0.48574066162109375 0.48574066162109375 0.48574066162109375
0.53099894523620605 0.53099894523620605 0.53099894523620605
0.57459163665771484 0.57459163665771484 0.57459163665771484
0.61865794658660889 0.61865794658660889 0.61865794658660889
0.66541659832000732 0.66541659832000732 0.66541659832000732
0.71426737308502197 0.71426737308502197 0.71426737308502197
0.76303559541702271 0.76303559541702271 0.76303559541702271
0.41844633221626282 0.41844633221626282 0.41844633221626282
0.420340895652771 0.420340895652771 0.420340895652771
0.42438066005706787 0.42438066005706787 0.42438066005706787
0.43390652537345886 0.43390652537345886 0.43390652537345886
0.4534192681312561 0.4534192681312561 0.4534192681312561
0.48428291082382202 0.48428291082382202 0.48428291082382202
0.52395170927047729 0.52395170927047729 0.52395170927047729
0.56794589757919312 0.56794589757919312 0.56794589757919312
0.61339062452316284 0.61339062452316284 0.61339062452316284
0.65967774391174316 0.65967774391174316 0.65967774391174316
0.70669454336166382 0.70669454336166382 0.70669454336166382
0.75406539440155029 0.75406539440155029 0.75406539440155029
0.7998960018157959 0.7998960018157959 0.7998960018157959
0.48700663447380066 0.48700663447380066 0.48700663447380066
0.4853571355342865 0.4853571355342865 0.4853571355342865
0.48456522822380066 0.48456522822380066 0.48456522822380066
0.48852837085723877 0.48852837085723877 0.48852837085723877
0.50279682874679565 0.50279682874679565 0.50279682874679565
0.52938824892044067 0.52938824892044067 0.52938824892044067
0.56539124250411987 0.56539124250411987 0.56539124250411987
0.60662144422531128 0.60662144422531128 0.60662144422531128
0.65070068836212158 0.65070068836212158 0.65070068836212158
0.69588226079940796 0.69588226079940796 0.69588226079940796
0.74137216806411743 0.74137216806411743 0.74137216806411743
0.78667902946472168 0.78667902946472168 0.78667902946472168
0.83025252819061279 0.83025252819061279 0.83025252819061279
0.5606728196144104 0.5606728196144104 0.5606728196144104
0.55639469623565674 0.55639469623565674 0.55639469623565674
0.5523144006729126 0.5523144006729126 0.5523144006729126
0.5524858832359314 0.5524858832359314 0.5524858832359314
0.56191432476043701 0.56191432476043701 0.56191432476043701
0.58297610282897949 0.58297610282897949 0.58297610282897949
0.61332511901855469 0.61332511901855469 0.61332511901855469
0.6497158408164978 0.6497158408164978 0.6497158408164978
0.68892639875411987 0.68892639875411987 0.68892639875411987
0.72915518283843994 0.72915518283843994 0.72915518283843994
0.77038872241973877 0.77038872241973877 0.77038872241973877
0.81233638525009155 0.81233638525009155 0.81233638525009155
0.85344904661178589 0.85344904661178589 0.85344904661178589
0.63863420486450195 0.63863420486450195 0.63863420486450195
0.63374090194702148 0.63374090194702148 0.63374090194702148
0.62862515449523926 0.62862515449523926 0.62862515449523926
0.62686812877655029 0.62686812877655029 0.62686812877655029
0.63231641054153442 0.63231641054153442 0.63231641054153442
0.64689594507217407 0.64689594507217407 0.64689594507217407
0.6701124906539917 0.6701124906539917 0.6701124906539917
0.69884783029556274 0.69884783029556274 0.69884783029556274
0.73040413856506348 0.73040413856506348 0.73040413856506348
0.76353305578231812 0.76353305578231812 0.76353305578231812
0.79841405153274536 0.79841405153274536 0.79841405153274536
0.83544886112213135 0.83544886112213135 0.83544886112213135
0.87270462512969971 0.87270462512969971 0.87270462512969971
0.71940183639526367 0.71940183639526367 0.71940183639526367
0.71508520841598511 0.71508520841598511 0.71508520841598511
0.7100379467010498 0.7100379467010498 0.7100379467010498
0.70762306451797485 0.70762306451797485 0.70762306451797485
0.71025282144546509 0.71025282144546509 0.71025282144546509
0.71934026479721069 0.71934026479721069 0.71934026479721069
0.73467499017715454 0.73467499017715454 0.73467499017715454
0.75443464517593384 0.75443464517593384 0.75443464517593384
0.77730965614318848 0.77730965614318848 0.77730965614318848
0.80228835344314575 0.80228835344314575 0.80228835344314575
0.82994431257247925 0.82994431257247925 0.82994431257247925
0.86059975624084473 0.86059975624084473 0.86059975624084473
0.89307653903961182 0.89307653903961182 0.89307653903961182
0.79966568946838379 0.79966568946838379 0.79966568946838379
0.79623883962631226 0.79623883962631226 0.79623883962631226
0.79220390319824219 0.79220390319824219 0.79220390319824219
0.78998595476150513 0.78998595476150513 0.78998595476150513
0.79081147909164429 0.79081147909164429 0.79081147909164429
0.79538625478744507 0.79538625478744507 0.79538625478744507
0.80332809686660767 0.80332809686660767 0.80332809686660767
0.81442058086395264 0.81442058086395264 0.81442058086395264
0.82864844799041748 0.82864844799041748 0.82864844799041748
0.84580588340759277 0.84580588340759277 0.84580588340759277
0.86582887172698975 0.86582887172698975 0.86582887172698975
0.88999104499816895 0.88999104499816895 0.88999104499816895
0.91688066720962524 0.91688066720962524 0.91688066720962524
0.87570458650588989 0.87570458650588989 0.87570458650588989
0.87349647283554077 0.87349647283554077 0.87349647283554077
0.87023890018463135 0.87023890018463135 0.87023890018463135
0.8682141900062561 0.8682141900062561 0.8682141900062561
0.86795055866241455 0.86795055866241455 0.86795055866241455
0.86940485239028931 0.86940485239028931 0.86940485239028931
0.87138849496841431 0.87138849496841431 0.87138849496841431
0.87519603967666626 0.87519603967666626 0.87519603967666626
0.88209420442581177 0.88209420442581177 0.88209420442581177
0.89221692085266113 0.89221692085266113 0.89221692085266113
0.90606635808944702 0.90606635808944702 0.90606635808944702
0.92333829402923584 0.92333829402923584 0.92333829402923584
0.94517314434051514 0.94517314434051514 0.94517314434051514
0.17405706644058228 0.17405706644058228 0.17405706644058228
0.1855110228061676 0.1855110228061676 0.1855110228061676
0.20337288081645966 0.20337288081645966 0.20337288081645966
0.22583726048469543 0.22583726048469543 0.22583726048469543
0.2527301013469696 0.2527301013469696 0.2527301013469696
0.28393450379371643 0.28393450379371643 0.28393450379371643
0.31881663203239441 0.31881663203239441 0.31881663203239441
0.35690867900848389 0.35690867900848389 0.35690867900848389
0.39654475450515747 0.39654475450515747 0.39654475450515747
0.43849682807922363 0.43849682807922363 0.43849682807922363
0.48391470313072205 0.48391470313072205 0.48391470313072205
0.53488659858703613 0.53488659858703613 0.53488659858703613
0.59188723564147949 0.59188723564147949 0.59188723564147949
0.18995256721973419 0.18995256721973419 0.18995256721973419
0.20280402898788452 0.20280402898788452 0.20280402898788452
0.22163161635398865 0.22163161635398865 0.22163161635398865
0.24463184177875519 0.24463184177875519 0.24463184177875519
0.27169406414031982 0.27169406414031982 0.27169406414031982
0.30292576551437378 0.30292576551437378 0.30292576551437378
0.33833792805671692 0.33833792805671692 0.33833792805671692
0.37618479132652283 0.37618479132652283 0.37618479132652283
0.41521796584129333 0.41521796584129333 0.41521796584129333
0.45578143000602722 0.45578143000602722 0.45578143000602722
0.50063985586166382 0.50063985586166382 0.50063985586166382
0.55249452590942383 0.55249452590942383 0.55249452590942383
0.61178028583526611 0.61178028583526611 0.61178028583526611
0.21951626241207123 0.21951626241207123 0.21951626241207123
0.23236528038978577 0.23236528038978577 0.23236528038978577
0.25072142481803894 0.25072142481803894 0.25072142481803894
0.27341082692146301 0.27341082692146301 0.27341082692146301
0.30038678646087646 0.30038678646087646 0.30038678646087646
0.33234062790870667 0.33234062790870667 0.33234062790870667
0.36868956685066223 0.36868956685066223 0.36868956685066223
0.40726247429847717 0.40726247429847717 0.40726247429847717
0.44552025198936462 0.44552025198936462 0.44552025198936462
0.4848099946975708 0.4848099946975708 0.4848099946975708
0.52905774116516113 0.52905774116516113 0.52905774116516113
0.58144360780715942 0.58144360780715942 0.58144360780715942
0.64195376634597778 0.64195376634597778 0.64195376634597778
0.26313459873199463 0.26313459873199463 0.26313459873199463
0.27404698729515076 0.27404698729515076 0.27404698729515076
0.29034906625747681 0.29034906625747681 0.29034906625747681
0.31121477484703064 0.31121477484703064 0.31121477484703064
0.33743253350257874 0.33743253350257874 0.33743253350257874
0.37009498476982117 0.37009498476982117 0.37009498476982117
0.40824675559997559 0.40824675559997559 0.40824675559997559
0.44797414541244507 0.44797414541244507 0.44797414541244507
0.48583844304084778 0.48583844304084778 0.48583844304084778
0.52480673789978027 0.52480673789978027 0.52480673789978027
0.5691521167755127 0.5691521167755127 0.5691521167755127
0.62103748321533203 0.62103748321533203 0.62103748321533203
0.67981821298599243 0.67981821298599243 0.67981821298599243
0.31598326563835144 0.31598326563835144 0.31598326563835144
0.32526335120201111 0.32526335120201111 0.32526335120201111
0.33829611539840698 0.33829611539840698 0.33829611539840698
0.35559764504432678 0.35559764504432678 0.35559764504432678
0.3797709047794342 0.3797709047794342 0.3797709047794342
0.41188639402389526 0.41188639402389526 0.41188639402389526
0.45112568140029907 0.45112568140029907 0.45112568140029907
0.4925687313079834 0.4925687313079834 0.4925687313079834
0.53152483701705933 0.53152483701705933 0.53152483701705933
