luts/negative_new/ilford_hp_5_+.cube
# Created by: G'MIC (https://gmic.eu)
TITLE "ilford_hp_5_+"
# LUT size
LUT_3D_SIZE 7
# Data domain
DOMAIN_MIN 0.0 0.0 0.0
DOMAIN_MAX 1.0 1.0 1.0
# LUT data points
0.14400096237659454 0.14400096237659454 0.14400096237659454
0.17154452204704285 0.17154452204704285 0.17154452204704285
0.22261187434196472 0.22261187434196472 0.22261187434196472
0.28963187336921692 0.28963187336921692 0.28963187336921692
0.36771255731582642 0.36771255731582642 0.36771255731582642
0.47391238808631897 0.47391238808631897 0.47391238808631897
0.60571193695068359 0.60571193695068359 0.60571193695068359
0.19161839783191681 0.19161839783191681 0.19161839783191681
0.22104710340499878 0.22104710340499878 0.22104710340499878
0.27598100900650024 0.27598100900650024 0.27598100900650024
0.35084843635559082 0.35084843635559082 0.35084843635559082
0.43316319584846497 0.43316319584846497 0.43316319584846497
0.53329765796661377 0.53329765796661377 0.53329765796661377
0.65327185392379761 0.65327185392379761 0.65327185392379761
0.28217968344688416 0.28217968344688416 0.28217968344688416
0.30317100882530212 0.30317100882530212 0.30317100882530212
0.35362747311592102 0.35362747311592102 0.35362747311592102
0.43583601713180542 0.43583601713180542 0.43583601713180542
0.52510255575180054 0.52510255575180054 0.52510255575180054
0.61801433563232422 0.61801433563232422 0.61801433563232422
0.72257554531097412 0.72257554531097412 0.72257554531097412
0.40174770355224609 0.40174770355224609 0.40174770355224609
0.40602627396583557 0.40602627396583557 0.40602627396583557
0.43927314877510071 0.43927314877510071 0.43927314877510071
0.51508432626724243 0.51508432626724243 0.51508432626724243
0.60619807243347168 0.60619807243347168 0.60619807243347168
0.69931769371032715 0.69931769371032715 0.69931769371032715
0.79277884960174561 0.79277884960174561 0.79277884960174561
0.54439514875411987 0.54439514875411987 0.54439514875411987
0.53536784648895264 0.53536784648895264 0.53536784648895264
0.54924029111862183 0.54924029111862183 0.54924029111862183
0.60767138004302979 0.60767138004302979 0.60767138004302979
0.68366914987564087 0.68366914987564087 0.68366914987564087
0.76445937156677246 0.76445937156677246 0.76445937156677246
0.84596782922744751 0.84596782922744751 0.84596782922744751
0.70625823736190796 0.70625823736190796 0.70625823736190796
0.69865983724594116 0.69865983724594116 0.69865983724594116
0.70404225587844849 0.70404225587844849 0.70404225587844849
0.73219788074493408 0.73219788074493408 0.73219788074493408
0.77527111768722534 0.77527111768722534 0.77527111768722534
0.82808846235275269 0.82808846235275269 0.82808846235275269
0.88947290182113647 0.88947290182113647 0.88947290182113647
0.86738866567611694 0.86738866567611694 0.86738866567611694
0.86347454786300659 0.86347454786300659 0.86347454786300659
0.86635571718215942 0.86635571718215942 0.86635571718215942
0.87156760692596436 0.87156760692596436 0.87156760692596436
0.88169556856155396 0.88169556856155396 0.88169556856155396
0.90489071607589722 0.90489071607589722 0.90489071607589722
0.94322782754898071 0.94322782754898071 0.94322782754898071
0.17405706644058228 0.17405706644058228 0.17405706644058228
0.20337288081645966 0.20337288081645966 0.20337288081645966
0.2527301013469696 0.2527301013469696 0.2527301013469696
0.31881663203239441 0.31881663203239441 0.31881663203239441
0.39654475450515747 0.39654475450515747 0.39654475450515747
0.48391470313072205 0.48391470313072205 0.48391470313072205
0.59188723564147949 0.59188723564147949 0.59188723564147949
0.21951626241207123 0.21951626241207123 0.21951626241207123
0.25072142481803894 0.25072142481803894 0.25072142481803894
0.30038678646087646 0.30038678646087646 0.30038678646087646
0.36868956685066223 0.36868956685066223 0.36868956685066223
0.44552025198936462 0.44552025198936462 0.44552025198936462
0.52905774116516113 0.52905774116516113 0.52905774116516113
0.64195376634597778 0.64195376634597778 0.64195376634597778
0.31598326563835144 0.31598326563835144 0.31598326563835144
0.33829611539840698 0.33829611539840698 0.33829611539840698
0.3797709047794342 0.3797709047794342 0.3797709047794342
0.45112568140029907 0.45112568140029907 0.45112568140029907
0.53152483701705933 0.53152483701705933 0.53152483701705933
0.61709135770797729 0.61709135770797729 0.61709135770797729
0.72075313329696655 0.72075313329696655 0.72075313329696655
0.43987634778022766 0.43987634778022766 0.43987634778022766
0.44866141676902771 0.44866141676902771 0.44866141676902771
0.47100305557250977 0.47100305557250977 0.47100305557250977
0.5319368839263916 0.5319368839263916 0.5319368839263916
0.61820739507675171 0.61820739507675171 0.61820739507675171
0.71278625726699829 0.71278625726699829 0.71278625726699829
0.80288243293762207 0.80288243293762207 0.80288243293762207
0.5796622633934021 0.5796622633934021 0.5796622633934021
0.57372927665710449 0.57372927665710449 0.57372927665710449
0.57811427116394043 0.57811427116394043 0.57811427116394043
0.6215788722038269 0.6215788722038269 0.6215788722038269
0.69538283348083496 0.69538283348083496 0.69538283348083496
0.77655196189880371 0.77655196189880371 0.77655196189880371
0.85856854915618896 0.85856854915618896 0.85856854915618896
0.73393619060516357 0.73393619060516357 0.73393619060516357
0.72399270534515381 0.72399270534515381 0.72399270534515381
0.71926498413085938 0.71926498413085938 0.71926498413085938
0.73948925733566284 0.73948925733566284 0.73948925733566284
0.78164643049240112 0.78164643049240112 0.78164643049240112
0.83304387331008911 0.83304387331008911 0.83304387331008911
0.8972475528717041 0.8972475528717041 0.8972475528717041
0.88377088308334351 0.88377088308334351 0.88377088308334351
0.8768078088760376 0.8768078088760376 0.8768078088760376
0.87031316757202148 0.87031316757202148 0.87031316757202148
0.87207955121994019 0.87207955121994019 0.87207955121994019
0.88402712345123291 0.88402712345123291 0.88402712345123291
0.90888255834579468 0.90888255834579468 0.90888255834579468
0.94916272163391113 0.94916272163391113 0.94916272163391113
0.24762390553951263 0.24762390553951263 0.24762390553951263
0.27056533098220825 0.27056533098220825 0.27056533098220825
0.30978003144264221 0.30978003144264221 0.30978003144264221
0.369089275598526 0.369089275598526 0.369089275598526
0.45005658268928528 0.45005658268928528 0.45005658268928528
0.52641677856445312 0.52641677856445312 0.52641677856445312
0.61046308279037476 0.61046308279037476 0.61046308279037476
0.29268696904182434 0.29268696904182434 0.29268696904182434
0.3133513331413269 0.3133513331413269 0.3133513331413269
0.34464794397354126 0.34464794397354126 0.34464794397354126
0.39381143450737 0.39381143450737 0.39381143450737
0.46818497776985168 0.46818497776985168 0.46818497776985168
0.54170548915863037 0.54170548915863037 0.54170548915863037
0.63841527700424194 0.63841527700424194 0.63841527700424194
0.37027013301849365 0.37027013301849365 0.37027013301849365
0.3909614086151123 0.3909614086151123 0.3909614086151123
0.41749855875968933 0.41749855875968933 0.41749855875968933
0.46261131763458252 0.46261131763458252 0.46261131763458252
0.5264020562171936 0.5264020562171936 0.5264020562171936
0.6109732985496521 0.6109732985496521 0.6109732985496521
0.70576316118240356 0.70576316118240356 0.70576316118240356
0.48070803284645081 0.48070803284645081 0.48070803284645081
0.49573633074760437 0.49573633074760437 0.49573633074760437
0.51011258363723755 0.51011258363723755 0.51011258363723755
0.55070573091506958 0.55070573091506958 0.55070573091506958
0.62259113788604736 0.62259113788604736 0.62259113788604736
0.72124505043029785 0.72124505043029785 0.72124505043029785
0.78994464874267578 0.78994464874267578 0.78994464874267578
0.61522001028060913 0.61522001028060913 0.61522001028060913
0.6152079701423645 0.6152079701423645 0.6152079701423645
0.61775189638137817 0.61775189638137817 0.61775189638137817
0.65056800842285156 0.65056800842285156 0.65056800842285156
0.71596837043762207 0.71596837043762207 0.71596837043762207
0.79204064607620239 0.79204064607620239 0.79204064607620239
0.85923093557357788 0.85923093557357788 0.85923093557357788
0.76423472166061401 0.76423472166061401 0.76423472166061401
0.75444144010543823 0.75444144010543823 0.75444144010543823
0.74754565954208374 0.74754565954208374 0.74754565954208374
0.76461350917816162 0.76461350917816162 0.76461350917816162
0.80283278226852417 0.80283278226852417 0.80283278226852417
0.85040521621704102 0.85040521621704102 0.85040521621704102
0.90826898813247681 0.90826898813247681 0.90826898813247681
0.8996281623840332 0.8996281623840332 0.8996281623840332
0.89009130001068115 0.89009130001068115 0.89009130001068115
0.88038074970245361 0.88038074970245361 0.88038074970245361
0.88255518674850464 0.88255518674850464 0.88255518674850464
0.89575290679931641 0.89575290679931641 0.89575290679931641
0.92065703868865967 0.92065703868865967 0.92065703868865967
0.9590378999710083 0.9590378999710083 0.9590378999710083
0.35172829031944275 0.35172829031944275 0.35172829031944275
0.37229657173156738 0.37229657173156738 0.37229657173156738
0.40527620911598206 0.40527620911598206 0.40527620911598206
0.45005452632904053 0.45005452632904053 0.45005452632904053
0.5044969916343689 0.5044969916343689 0.5044969916343689
0.60669612884521484 0.60669612884521484 0.60669612884521484
0.70228928327560425 0.70228928327560425 0.70228928327560425
0.39674299955368042 0.39674299955368042 0.39674299955368042
0.40842550992965698 0.40842550992965698 0.40842550992965698
0.4303756058216095 0.4303756058216095 0.4303756058216095
0.46817973256111145 0.46817973256111145 0.46817973256111145
0.53112000226974487 0.53112000226974487 0.53112000226974487
0.62547945976257324 0.62547945976257324 0.62547945976257324
0.70955806970596313 0.70955806970596313 0.70955806970596313
0.43614327907562256 0.43614327907562256 0.43614327907562256
0.45985585451126099 0.45985585451126099 0.45985585451126099
0.48544257879257202 0.48544257879257202 0.48544257879257202
0.52208566665649414 0.52208566665649414 0.52208566665649414
0.57833659648895264 0.57833659648895264 0.57833659648895264
0.65321958065032959 0.65321958065032959 0.65321958065032959
0.72673529386520386 0.72673529386520386 0.72673529386520386
0.51414018869400024 0.51414018869400024 0.51414018869400024
0.53698539733886719 0.53698539733886719 0.53698539733886719
0.56104475259780884 0.56104475259780884 0.56104475259780884
0.5960424542427063 0.5960424542427063 0.5960424542427063
0.64854997396469116 0.64854997396469116 0.64854997396469116
0.71994823217391968 0.71994823217391968 0.71994823217391968
0.77527576684951782 0.77527576684951782 0.77527576684951782
0.64007341861724854 0.64007341861724854 0.64007341861724854
0.64703452587127686 0.64703452587127686 0.64703452587127686
0.66056102514266968 0.66056102514266968 0.66056102514266968
0.69386065006256104 0.69386065006256104 0.69386065006256104
0.74503690004348755 0.74503690004348755 0.74503690004348755
0.80414879322052002 0.80414879322052002 0.80414879322052002
0.86024749279022217 0.86024749279022217 0.86024749279022217
0.78403151035308838 0.78403151035308838 0.78403151035308838
0.77618998289108276 0.77618998289108276 0.77618998289108276
0.77913814783096313 0.77913814783096313 0.77913814783096313
0.80367517471313477 0.80367517471313477 0.80367517471313477
0.83397990465164185 0.83397990465164185 0.83397990465164185
0.8727109432220459 0.8727109432220459 0.8727109432220459
0.92072802782058716 0.92072802782058716 0.92072802782058716
0.90473473072052002 0.90473473072052002 0.90473473072052002
0.89607340097427368 0.89607340097427368 0.89607340097427368
0.8920212984085083 0.8920212984085083 0.8920212984085083
0.89972496032714844 0.89972496032714844 0.89972496032714844
0.91261065006256104 0.91261065006256104 0.91261065006256104
0.93355000019073486 0.93355000019073486 0.93355000019073486
0.96616184711456299 0.96616184711456299 0.96616184711456299
0.47677969932556152 0.47677969932556152 0.47677969932556152
0.50330954790115356 0.50330954790115356 0.50330954790115356
0.53757232427597046 0.53757232427597046 0.53757232427597046
0.57955008745193481 0.57955008745193481 0.57955008745193481
0.5985451340675354 0.5985451340675354 0.5985451340675354
0.64833450317382812 0.64833450317382812 0.64833450317382812
0.76334249973297119 0.76334249973297119 0.76334249973297119
0.51425284147262573 0.51425284147262573 0.51425284147262573
0.53080517053604126 0.53080517053604126 0.53080517053604126
0.55829638242721558 0.55829638242721558 0.55829638242721558
0.60026413202285767 0.60026413202285767 0.60026413202285767
0.62528687715530396 0.62528687715530396 0.62528687715530396
0.66943120956420898 0.66943120956420898 0.66943120956420898
0.77569663524627686 0.77569663524627686 0.77569663524627686
0.54062658548355103 0.54062658548355103 0.54062658548355103
0.56247997283935547 0.56247997283935547 0.56247997283935547
0.59166210889816284 0.59166210889816284 0.59166210889816284
0.63193517923355103 0.63193517923355103 0.63193517923355103
0.67268848419189453 0.67268848419189453 0.67268848419189453
0.7184138298034668 0.7184138298034668 0.7184138298034668
0.79265999794006348 0.79265999794006348 0.79265999794006348
0.58774232864379883 0.58774232864379883 0.58774232864379883
0.60894685983657837 0.60894685983657837 0.60894685983657837
0.63653737306594849 0.63653737306594849 0.63653737306594849
0.67296779155731201 0.67296779155731201 0.67296779155731201
0.71992433071136475 0.71992433071136475 0.71992433071136475
0.76598066091537476 0.76598066091537476 0.76598066091537476
0.8121638298034668 0.8121638298034668 0.8121638298034668
0.67329728603363037 0.67329728603363037 0.67329728603363037
0.6858794093132019 0.6858794093132019 0.6858794093132019
0.70440101623535156 0.70440101623535156 0.70440101623535156
0.73642683029174805 0.73642683029174805 0.73642683029174805
0.78300416469573975 0.78300416469573975 0.78300416469573975
0.82729381322860718 0.82729381322860718 0.82729381322860718
0.87289386987686157 0.87289386987686157 0.87289386987686157
0.78330725431442261 0.78330725431442261 0.78330725431442261
0.78736960887908936 0.78736960887908936 0.78736960887908936
0.80042904615402222 0.80042904615402222 0.80042904615402222
0.83017241954803467 0.83017241954803467 0.83017241954803467
0.85679101943969727 0.85679101943969727 0.85679101943969727
0.88630598783493042 0.88630598783493042 0.88630598783493042
0.92511457204818726 0.92511457204818726 0.92511457204818726
0.89313846826553345 0.89313846826553345 0.89313846826553345
0.89075326919555664 0.89075326919555664 0.89075326919555664
0.89555686712265015 0.89555686712265015 0.89555686712265015
0.90882086753845215 0.90882086753845215 0.90882086753845215
0.92147600650787354 0.92147600650787354 0.92147600650787354
0.93738788366317749 0.93738788366317749 0.93738788366317749
0.96401554346084595 0.96401554346084595 0.96401554346084595
0.64523607492446899 0.64523607492446899 0.64523607492446899
0.66250360012054443 0.66250360012054443 0.66250360012054443
0.68532401323318481 0.68532401323318481 0.68532401323318481
0.71441483497619629 0.71441483497619629 0.71441483497619629
0.74932587146759033 0.74932587146759033 0.74932587146759033
0.75746583938598633 0.75746583938598633 0.75746583938598633
0.81017249822616577 0.81017249822616577 0.81017249822616577
0.66569596529006958 0.66569596529006958 0.66569596529006958
0.68016177415847778 0.68016177415847778 0.68016177415847778
0.70177358388900757 0.70177358388900757 0.70177358388900757
0.73274272680282593 0.73274272680282593 0.73274272680282593
0.75878137350082397 0.75878137350082397 0.75878137350082397
0.77199333906173706 0.77199333906173706 0.77199333906173706
0.81844323873519897 0.81844323873519897 0.81844323873519897
0.68665462732315063 0.68665462732315063 0.68665462732315063
0.69950538873672485 0.69950538873672485 0.69950538873672485
0.72180867195129395 0.72180867195129395 0.72180867195129395
0.75403010845184326 0.75403010845184326 0.75403010845184326
0.78494787216186523 0.78494787216186523 0.78494787216186523
0.80559408664703369 0.80559408664703369 0.80559408664703369
0.8331296443939209 0.8331296443939209 0.8331296443939209
0.70994788408279419 0.70994788408279419 0.70994788408279419
0.7203298807144165 0.7203298807144165 0.7203298807144165
0.73994654417037964 0.73994654417037964 0.73994654417037964
0.76969283819198608 0.76969283819198608 0.76969283819198608
0.80523860454559326 0.80523860454559326 0.80523860454559326
0.83460664749145508 0.83460664749145508 0.83460664749145508
0.86308318376541138 0.86308318376541138 0.86308318376541138
0.74850702285766602 0.74850702285766602 0.74850702285766602
0.75653547048568726 0.75653547048568726 0.75653547048568726
0.77149355411529541 0.77149355411529541 0.77149355411529541
0.79699337482452393 0.79699337482452393 0.79699337482452393
0.83341014385223389 0.83341014385223389 0.83341014385223389
0.86563068628311157 0.86563068628311157 0.86563068628311157
0.89688265323638916 0.89688265323638916 0.89688265323638916
0.81310158967971802 0.81310158967971802 0.81310158967971802
0.81750631332397461 0.81750631332397461 0.81750631332397461
0.83043110370635986 0.83043110370635986 0.83043110370635986
0.85130411386489868 0.85130411386489868 0.85130411386489868
0.87668275833129883 0.87668275833129883 0.87668275833129883
0.89940714836120605 0.89940714836120605 0.89940714836120605
0.9270327091217041 0.9270327091217041 0.9270327091217041
0.89497756958007812 0.89497756958007812 0.89497756958007812
0.89509958028793335 0.89509958028793335 0.89509958028793335
0.90344727039337158 0.90344727039337158 0.90344727039337158
0.91549170017242432 0.91549170017242432 0.91549170017242432
0.92660009860992432 0.92660009860992432 0.92660009860992432
0.93791389465332031 0.93791389465332031 0.93791389465332031
0.9581264853477478 0.9581264853477478 0.9581264853477478
0.83020693063735962 0.83020693063735962 0.83020693063735962
0.83263343572616577 0.83263343572616577 0.83263343572616577
0.8391643762588501 0.8391643762588501 0.8391643762588501
0.85487741231918335 0.85487741231918335 0.85487741231918335
0.88333982229232788 0.88333982229232788 0.88333982229232788
0.89554208517074585 0.89554208517074585 0.89554208517074585
0.91264081001281738 0.91264081001281738 0.91264081001281738
0.83755588531494141 0.83755588531494141 0.83755588531494141
0.84202653169631958 0.84202653169631958 0.84202653169631958
0.84949386119842529 0.84949386119842529 0.84949386119842529
0.86499494314193726 0.86499494314193726 0.86499494314193726
0.8852686882019043 0.8852686882019043 0.8852686882019043
0.89159321784973145 0.89159321784973145 0.89159321784973145
0.90183538198471069 0.90183538198471069 0.90183538198471069
0.84814012050628662 0.84814012050628662 0.84814012050628662
0.84973609447479248 0.84973609447479248 0.84973609447479248
0.85907143354415894 0.85907143354415894 0.85907143354415894
0.87669557332992554 0.87669557332992554 0.87669557332992554
0.89522433280944824 0.89522433280944824 0.89522433280944824
0.90422886610031128 0.90422886610031128 0.90422886610031128
0.90759497880935669 0.90759497880935669 0.90759497880935669
0.85218679904937744 0.85218679904937744 0.85218679904937744
0.85121220350265503 0.85121220350265503 0.85121220350265503
0.85939484834671021 0.85939484834671021 0.85939484834671021
0.87683135271072388 0.87683135271072388 0.87683135271072388
0.89805883169174194 0.89805883169174194 0.89805883169174194
0.91575950384140015 0.91575950384140015 0.91575950384140015
0.92994952201843262 0.92994952201843262 0.92994952201843262
0.85570830106735229 0.85570830106735229 0.85570830106735229
0.85602450370788574 0.85602450370788574 0.85602450370788574
0.86417257785797119 0.86417257785797119 0.86417257785797119
0.88026624917984009 0.88026624917984009 0.88026624917984009
0.90110093355178833 0.90110093355178833 0.90110093355178833
0.92058706283569336 0.92058706283569336 0.92058706283569336
0.94108873605728149 0.94108873605728149 0.94108873605728149
0.88019490242004395 0.88019490242004395 0.88019490242004395
0.88017576932907104 0.88017576932907104 0.88017576932907104
0.88889676332473755 0.88889676332473755 0.88889676332473755
0.90216672420501709 0.90216672420501709 0.90216672420501709
0.91689127683639526 0.91689127683639526 0.91689127683639526
0.93049484491348267 0.93049484491348267 0.93049484491348267
0.94965451955795288 0.94965451955795288 0.94965451955795288
0.92865049839019775 0.92865049839019775 0.92865049839019775
0.92836707830429077 0.92836707830429077 0.92836707830429077
0.93510556221008301 0.93510556221008301 0.93510556221008301
0.94297748804092407 0.94297748804092407 0.94297748804092407
0.94931834936141968 0.94931834936141968 0.94931834936141968
0.95436054468154907 0.95436054468154907 0.95436054468154907
0.96757733821868896 0.96757733821868896 0.96757733821868896
