luts/negative_new/ilford_hp_5_-.cube
# Created by: G'MIC (https://gmic.eu)
TITLE "ilford_hp_5_-"
# LUT size
LUT_3D_SIZE 7
# Data domain
DOMAIN_MIN 0.0 0.0 0.0
DOMAIN_MAX 1.0 1.0 1.0
# LUT data points
0.011349442414939404 0.011349442414939404 0.011349442414939404
0.047253135591745377 0.047253135591745377 0.047253135591745377
0.12482286244630814 0.12482286244630814 0.12482286244630814
0.22332553565502167 0.22332553565502167 0.22332553565502167
0.32227808237075806 0.32227808237075806 0.32227808237075806
0.42800149321556091 0.42800149321556091 0.42800149321556091
0.55235475301742554 0.55235475301742554 0.55235475301742554
0.095584139227867126 0.095584139227867126 0.095584139227867126
0.14144200086593628 0.14144200086593628 0.14144200086593628
0.23250745236873627 0.23250745236873627 0.23250745236873627
0.30802071094512939 0.30802071094512939 0.30802071094512939
0.38304203748703003 0.38304203748703003 0.38304203748703003
0.47168835997581482 0.47168835997581482 0.47168835997581482
0.58697962760925293 0.58697962760925293 0.58697962760925293
0.22380049526691437 0.22380049526691437 0.22380049526691437
0.24717451632022858 0.24717451632022858 0.24717451632022858
0.33200138807296753 0.33200138807296753 0.33200138807296753
0.4082871675491333 0.4082871675491333 0.4082871675491333
0.47174617648124695 0.47174617648124695 0.47174617648124695
0.55358457565307617 0.55358457565307617 0.55358457565307617
0.65843075513839722 0.65843075513839722 0.65843075513839722
0.35582342743873596 0.35582342743873596 0.35582342743873596
0.36714443564414978 0.36714443564414978 0.36714443564414978
0.41252100467681885 0.41252100467681885 0.41252100467681885
0.48050013184547424 0.48050013184547424 0.48050013184547424
0.55562794208526611 0.55562794208526611 0.55562794208526611
0.64317792654037476 0.64317792654037476 0.64317792654037476
0.7473292350769043 0.7473292350769043 0.7473292350769043
0.49050045013427734 0.49050045013427734 0.49050045013427734
0.48861902952194214 0.48861902952194214 0.48861902952194214
0.50348955392837524 0.50348955392837524 0.50348955392837524
0.55842435359954834 0.55842435359954834 0.55842435359954834
0.63323801755905151 0.63323801755905151 0.63323801755905151
0.71913915872573853 0.71913915872573853 0.71913915872573853
0.81664091348648071 0.81664091348648071 0.81664091348648071
0.64876830577850342 0.64876830577850342 0.64876830577850342
0.64350301027297974 0.64350301027297974 0.64350301027297974
0.6490023136138916 0.6490023136138916 0.6490023136138916
0.68386292457580566 0.68386292457580566 0.68386292457580566
0.7360149621963501 0.7360149621963501 0.7360149621963501
0.7981598973274231 0.7981598973274231 0.7981598973274231
0.87196338176727295 0.87196338176727295 0.87196338176727295
0.83079224824905396 0.83079224824905396 0.83079224824905396
0.82651048898696899 0.82651048898696899 0.82651048898696899
0.83265304565429688 0.83265304565429688 0.83265304565429688
0.84713917970657349 0.84713917970657349 0.84713917970657349
0.8694036602973938 0.8694036602973938 0.8694036602973938
0.90044146776199341 0.90044146776199341 0.90044146776199341
0.94357270002365112 0.94357270002365112 0.94357270002365112
0.060777269303798676 0.060777269303798676 0.060777269303798676
0.10153508186340332 0.10153508186340332 0.10153508186340332
0.17154963314533234 0.17154963314533234 0.17154963314533234
0.2562292218208313 0.2562292218208313 0.2562292218208313
0.34809491038322449 0.34809491038322449 0.34809491038322449
0.43817442655563354 0.43817442655563354 0.43817442655563354
0.54048633575439453 0.54048633575439453 0.54048633575439453
0.13968656957149506 0.13968656957149506 0.13968656957149506
0.1828056275844574 0.1828056275844574 0.1828056275844574
0.24879547953605652 0.24879547953605652 0.24879547953605652
0.31149002909660339 0.31149002909660339 0.31149002909660339
0.38775599002838135 0.38775599002838135 0.38775599002838135
0.46925258636474609 0.46925258636474609 0.46925258636474609
0.57155346870422363 0.57155346870422363 0.57155346870422363
0.27234473824501038 0.27234473824501038 0.27234473824501038
0.29478833079338074 0.29478833079338074 0.29478833079338074
0.34735956788063049 0.34735956788063049 0.34735956788063049
0.41120010614395142 0.41120010614395142 0.41120010614395142
0.47259858250617981 0.47259858250617981 0.47259858250617981
0.54273563623428345 0.54273563623428345 0.54273563623428345
0.64113467931747437 0.64113467931747437 0.64113467931747437
0.40885439515113831 0.40885439515113831 0.40885439515113831
0.40982222557067871 0.40982222557067871 0.40982222557067871
0.43190789222717285 0.43190789222717285 0.43190789222717285
0.49114248156547546 0.49114248156547546 0.49114248156547546
0.56121170520782471 0.56121170520782471 0.56121170520782471
0.63939142227172852 0.63939142227172852 0.63939142227172852
0.74076825380325317 0.74076825380325317 0.74076825380325317
0.52188044786453247 0.52188044786453247 0.52188044786453247
0.51843547821044922 0.51843547821044922 0.51843547821044922
0.5197298526763916 0.5197298526763916 0.5197298526763916
0.56353282928466797 0.56353282928466797 0.56353282928466797
0.63364678621292114 0.63364678621292114 0.63364678621292114
0.71661186218261719 0.71661186218261719 0.71661186218261719
0.8193853497505188 0.8193853497505188 0.8193853497505188
0.66379249095916748 0.66379249095916748 0.66379249095916748
0.66136062145233154 0.66136062145233154 0.66136062145233154
0.66140127182006836 0.66140127182006836 0.66140127182006836
0.68517744541168213 0.68517744541168213 0.68517744541168213
0.73313885927200317 0.73313885927200317 0.73313885927200317
0.79387003183364868 0.79387003183364868 0.79387003183364868
0.87101680040359497 0.87101680040359497 0.87101680040359497
0.8373228907585144 0.8373228907585144 0.8373228907585144
0.83419501781463623 0.83419501781463623 0.83419501781463623
0.83456504344940186 0.83456504344940186 0.83456504344940186
0.84582936763763428 0.84582936763763428 0.84582936763763428
0.87232977151870728 0.87232977151870728 0.87232977151870728
0.90262234210968018 0.90262234210968018 0.90262234210968018
0.9424138069152832 0.9424138069152832 0.9424138069152832
0.18878303468227386 0.18878303468227386 0.18878303468227386
0.22451707720756531 0.22451707720756531 0.22451707720756531
0.28145888447761536 0.28145888447761536 0.28145888447761536
0.33933135867118835 0.33933135867118835 0.33933135867118835
0.41300079226493835 0.41300079226493835 0.41300079226493835
0.47738143801689148 0.47738143801689148 0.47738143801689148
0.56033426523208618 0.56033426523208618 0.56033426523208618
0.24055822193622589 0.24055822193622589 0.24055822193622589
0.27202051877975464 0.27202051877975464 0.27202051877975464
0.31683552265167236 0.31683552265167236 0.31683552265167236
0.36380094289779663 0.36380094289779663 0.36380094289779663
0.4233279824256897 0.4233279824256897 0.4233279824256897
0.49257957935333252 0.49257957935333252 0.49257957935333252
0.5805780291557312 0.5805780291557312 0.5805780291557312
0.3233950138092041 0.3233950138092041 0.3233950138092041
0.35336717963218689 0.35336717963218689 0.35336717963218689
0.39091995358467102 0.39091995358467102 0.39091995358467102
0.44213107228279114 0.44213107228279114 0.44213107228279114
0.4895649254322052 0.4895649254322052 0.4895649254322052
0.5437512993812561 0.5437512993812561 0.5437512993812561
0.63087964057922363 0.63087964057922363 0.63087964057922363
0.44909965991973877 0.44909965991973877 0.44909965991973877
0.45653468370437622 0.45653468370437622 0.45653468370437622
0.47480529546737671 0.47480529546737671 0.47480529546737671
0.52396255731582642 0.52396255731582642 0.52396255731582642
0.58206075429916382 0.58206075429916382 0.58206075429916382
0.64460140466690063 0.64460140466690063 0.64460140466690063
0.73356813192367554 0.73356813192367554 0.73356813192367554
0.55661559104919434 0.55661559104919434 0.55661559104919434
0.56331247091293335 0.56331247091293335 0.56331247091293335
0.5675283670425415 0.5675283670425415 0.5675283670425415
0.59493792057037354 0.59493792057037354 0.59493792057037354
0.6526302695274353 0.6526302695274353 0.6526302695274353
0.7330939769744873 0.7330939769744873 0.7330939769744873
0.82587003707885742 0.82587003707885742 0.82587003707885742
0.69346076250076294 0.69346076250076294 0.69346076250076294
0.69649732112884521 0.69649732112884521 0.69649732112884521
0.69702732563018799 0.69702732563018799 0.69702732563018799
0.70326352119445801 0.70326352119445801 0.70326352119445801
0.74402308464050293 0.74402308464050293 0.74402308464050293
0.8098868727684021 0.8098868727684021 0.8098868727684021
0.87871253490447998 0.87871253490447998 0.87871253490447998
0.85452789068222046 0.85452789068222046 0.85452789068222046
0.85212111473083496 0.85212111473083496 0.85212111473083496
0.84903985261917114 0.84903985261917114 0.84903985261917114
0.85318207740783691 0.85318207740783691 0.85318207740783691
0.88021957874298096 0.88021957874298096 0.88021957874298096
0.91187840700149536 0.91187840700149536 0.91187840700149536
0.94498783349990845 0.94498783349990845 0.94498783349990845
0.32301974296569824 0.32301974296569824 0.32301974296569824
0.34684938192367554 0.34684938192367554 0.34684938192367554
0.38352462649345398 0.38352462649345398 0.38352462649345398
0.42179390788078308 0.42179390788078308 0.42179390788078308
0.46904918551445007 0.46904918551445007 0.46904918551445007
0.53322732448577881 0.53322732448577881 0.53322732448577881
0.63491141796112061 0.63491141796112061 0.63491141796112061
0.36266699433326721 0.36266699433326721 0.36266699433326721
0.37833008170127869 0.37833008170127869 0.37833008170127869
0.40576568245887756 0.40576568245887756 0.40576568245887756
0.43476393818855286 0.43476393818855286 0.43476393818855286
0.48370116949081421 0.48370116949081421 0.48370116949081421
0.56192457675933838 0.56192457675933838 0.56192457675933838
0.64291590452194214 0.64291590452194214 0.64291590452194214
0.40645545721054077 0.40645545721054077 0.40645545721054077
0.42773357033729553 0.42773357033729553 0.42773357033729553
0.45687615871429443 0.45687615871429443 0.45687615871429443
0.49143153429031372 0.49143153429031372 0.49143153429031372
0.53625226020812988 0.53625226020812988 0.53625226020812988
0.59736645221710205 0.59736645221710205 0.59736645221710205
0.66607379913330078 0.66607379913330078 0.66607379913330078
0.47353163361549377 0.47353163361549377 0.47353163361549377
0.49972966313362122 0.49972966313362122 0.49972966313362122
0.52910095453262329 0.52910095453262329 0.52910095453262329
0.56532734632492065 0.56532734632492065 0.56532734632492065
0.61097615957260132 0.61097615957260132 0.61097615957260132
0.66608709096908569 0.66608709096908569 0.66608709096908569
0.73129087686538696 0.73129087686538696 0.73129087686538696
0.57590597867965698 0.57590597867965698 0.57590597867965698
0.60062545537948608 0.60062545537948608 0.60062545537948608
0.62445992231369019 0.62445992231369019 0.62445992231369019
0.64201599359512329 0.64201599359512329 0.64201599359512329
0.68628346920013428 0.68628346920013428 0.68628346920013428
0.75598013401031494 0.75598013401031494 0.75598013401031494
0.82669740915298462 0.82669740915298462 0.82669740915298462
0.71862488985061646 0.71862488985061646 0.71862488985061646
0.72882378101348877 0.72882378101348877 0.72882378101348877
0.73959970474243164 0.73959970474243164 0.73959970474243164
0.74295580387115479 0.74295580387115479 0.74295580387115479
0.77444016933441162 0.77444016933441162 0.77444016933441162
0.83522516489028931 0.83522516489028931 0.83522516489028931
0.89396613836288452 0.89396613836288452 0.89396613836288452
0.87451672554016113 0.87451672554016113 0.87451672554016113
0.86949676275253296 0.86949676275253296 0.86949676275253296
0.86932587623596191 0.86932587623596191 0.86932587623596191
0.8752676248550415 0.8752676248550415 0.8752676248550415
0.89286941289901733 0.89286941289901733 0.89286941289901733
0.92354172468185425 0.92354172468185425 0.92354172468185425
0.95761799812316895 0.95761799812316895 0.95761799812316895
0.44730731844902039 0.44730731844902039 0.44730731844902039
0.46384432911872864 0.46384432911872864 0.46384432911872864
0.49059700965881348 0.49059700965881348 0.49059700965881348
0.51883292198181152 0.51883292198181152 0.51883292198181152
0.54214781522750854 0.54214781522750854 0.54214781522750854
0.58991807699203491 0.58991807699203491 0.58991807699203491
0.70364439487457275 0.70364439487457275 0.70364439487457275
0.47473534941673279 0.47473534941673279 0.47473534941673279
0.48901218175888062 0.48901218175888062 0.48901218175888062
0.51188087463378906 0.51188087463378906 0.51188087463378906
0.53740274906158447 0.53740274906158447 0.53740274906158447
0.56976693868637085 0.56976693868637085 0.56976693868637085
0.61883741617202759 0.61883741617202759 0.61883741617202759
0.71269881725311279 0.71269881725311279 0.71269881725311279
0.50786340236663818 0.50786340236663818 0.50786340236663818
0.52427834272384644 0.52427834272384644 0.52427834272384644
0.54953563213348389 0.54953563213348389 0.54953563213348389
0.57975775003433228 0.57975775003433228 0.57975775003433228
0.61469262838363647 0.61469262838363647 0.61469262838363647
0.64927881956100464 0.64927881956100464 0.64927881956100464
0.74208325147628784 0.74208325147628784 0.74208325147628784
0.54916644096374512 0.54916644096374512 0.54916644096374512
0.56951069831848145 0.56951069831848145 0.56951069831848145
0.59670144319534302 0.59670144319534302 0.59670144319534302
0.63036704063415527 0.63036704063415527 0.63036704063415527
0.66899698972702026 0.66899698972702026 0.66899698972702026
0.70658582448959351 0.70658582448959351 0.70658582448959351
0.7650797963142395 0.7650797963142395 0.7650797963142395
0.62582838535308838 0.62582838535308838 0.62582838535308838
0.63961666822433472 0.63961666822433472 0.63961666822433472
0.65598171949386597 0.65598171949386597 0.65598171949386597
0.68930536508560181 0.68930536508560181 0.68930536508560181
0.73273366689682007 0.73273366689682007 0.73273366689682007
0.77669107913970947 0.77669107913970947 0.77669107913970947
0.82188522815704346 0.82188522815704346 0.82188522815704346
0.74406194686889648 0.74406194686889648 0.74406194686889648
0.74539101123809814 0.74539101123809814 0.74539101123809814
0.7536778450012207 0.7536778450012207 0.7536778450012207
0.78833925724029541 0.78833925724029541 0.78833925724029541
0.81922954320907593 0.81922954320907593 0.81922954320907593
0.8579973578453064 0.8579973578453064 0.8579973578453064
0.90844005346298218 0.90844005346298218 0.90844005346298218
0.87916016578674316 0.87916016578674316 0.87916016578674316
0.8733983039855957 0.8733983039855957 0.8733983039855957
0.88027280569076538 0.88027280569076538 0.88027280569076538
0.90196222066879272 0.90196222066879272 0.90196222066879272
0.91597270965576172 0.91597270965576172 0.91597270965576172
0.9367867112159729 0.9367867112159729 0.9367867112159729
0.97049760818481445 0.97049760818481445 0.97049760818481445
0.60107159614562988 0.60107159614562988 0.60107159614562988
0.60960900783538818 0.60960900783538818 0.60960900783538818
0.63182145357131958 0.63182145357131958 0.63182145357131958
0.66417640447616577 0.66417640447616577 0.66417640447616577
0.69434493780136108 0.69434493780136108 0.69434493780136108
0.70724523067474365 0.70724523067474365 0.70724523067474365
0.75346356630325317 0.75346356630325317 0.75346356630325317
0.62139856815338135 0.62139856815338135 0.62139856815338135
0.63181990385055542 0.63181990385055542 0.63181990385055542
0.6529242992401123 0.6529242992401123 0.6529242992401123
0.68145251274108887 0.68145251274108887 0.68145251274108887
0.70596301555633545 0.70596301555633545 0.70596301555633545
0.71612781286239624 0.71612781286239624 0.71612781286239624
0.76176160573959351 0.76176160573959351 0.76176160573959351
0.64890760183334351 0.64890760183334351 0.64890760183334351
0.65950268507003784 0.65950268507003784 0.65950268507003784
0.68041503429412842 0.68041503429412842 0.68041503429412842
0.70917904376983643 0.70917904376983643 0.70917904376983643
0.73891502618789673 0.73891502618789673 0.73891502618789673
0.7454717755317688 0.7454717755317688 0.7454717755317688
0.78324282169342041 0.78324282169342041 0.78324282169342041
0.67773318290710449 0.67773318290710449 0.67773318290710449
0.68621128797531128 0.68621128797531128 0.68621128797531128
0.70494562387466431 0.70494562387466431 0.70494562387466431
0.73375564813613892 0.73375564813613892 0.73375564813613892
0.76419329643249512 0.76419329643249512 0.76419329643249512
0.77966541051864624 0.77966541051864624 0.77966541051864624
0.81679773330688477 0.81679773330688477 0.81679773330688477
0.71991074085235596 0.71991074085235596 0.71991074085235596
0.72086340188980103 0.72086340188980103 0.72086340188980103
0.72993159294128418 0.72993159294128418 0.72993159294128418
0.76106739044189453 0.76106739044189453 0.76106739044189453
0.79527884721755981 0.79527884721755981 0.79527884721755981
0.81761831045150757 0.81761831045150757 0.81761831045150757
0.85039055347442627 0.85039055347442627 0.85039055347442627
0.79033792018890381 0.79033792018890381 0.79033792018890381
0.78555804491043091 0.78555804491043091 0.78555804491043091
0.79129421710968018 0.79129421710968018 0.79129421710968018
0.82299566268920898 0.82299566268920898 0.82299566268920898
0.85353189706802368 0.85353189706802368 0.85353189706802368
0.87689054012298584 0.87689054012298584 0.87689054012298584
0.91086792945861816 0.91086792945861816 0.91086792945861816
0.88677453994750977 0.88677453994750977 0.88677453994750977
0.88299572467803955 0.88299572467803955 0.88299572467803955
0.89256298542022705 0.89256298542022705 0.89256298542022705
0.91340529918670654 0.91340529918670654 0.91340529918670654
0.92890000343322754 0.92890000343322754 0.92890000343322754
0.94181448221206665 0.94181448221206665 0.94181448221206665
0.96655946969985962 0.96655946969985962 0.96655946969985962
0.79076927900314331 0.79076927900314331 0.79076927900314331
0.78991681337356567 0.78991681337356567 0.78991681337356567
0.80354750156402588 0.80354750156402588 0.80354750156402588
0.83153992891311646 0.83153992891311646 0.83153992891311646
0.86132329702377319 0.86132329702377319 0.86132329702377319
0.86946916580200195 0.86946916580200195 0.86946916580200195
0.87733757495880127 0.87733757495880127 0.87733757495880127
0.79884237051010132 0.79884237051010132 0.79884237051010132
0.80399024486541748 0.80399024486541748 0.80399024486541748
0.81872010231018066 0.81872010231018066 0.81872010231018066
0.84356522560119629 0.84356522560119629 0.84356522560119629
0.86592358350753784 0.86592358350753784 0.86592358350753784
0.86878460645675659 0.86878460645675659 0.86878460645675659
0.87406253814697266 0.87406253814697266 0.87406253814697266
0.81482648849487305 0.81482648849487305 0.81482648849487305
0.82091015577316284 0.82091015577316284 0.82091015577316284
0.83540934324264526 0.83540934324264526 0.83540934324264526
0.85713887214660645 0.85713887214660645 0.85713887214660645
0.87861329317092896 0.87861329317092896 0.87861329317092896
0.88714063167572021 0.88714063167572021 0.88714063167572021
0.88954025506973267 0.88954025506973267 0.88954025506973267
0.82957834005355835 0.82957834005355835 0.82957834005355835
0.83328932523727417 0.83328932523727417 0.83328932523727417
0.84726577997207642 0.84726577997207642 0.84726577997207642
0.86371314525604248 0.86371314525604248 0.86371314525604248
0.88110154867172241 0.88110154867172241 0.88110154867172241
0.88967794179916382 0.88967794179916382 0.88967794179916382
0.9008292555809021 0.9008292555809021 0.9008292555809021
0.83985632658004761 0.83985632658004761 0.83985632658004761
0.84127408266067505 0.84127408266067505 0.84127408266067505
0.85251468420028687 0.85251468420028687 0.85251468420028687
0.86784106492996216 0.86784106492996216 0.86784106492996216
0.88303631544113159 0.88303631544113159 0.88303631544113159
0.89180374145507812 0.89180374145507812 0.89180374145507812
0.91047370433807373 0.91047370433807373 0.91047370433807373
0.86752891540527344 0.86752891540527344 0.86752891540527344
0.86617672443389893 0.86617672443389893 0.86617672443389893
0.87574124336242676 0.87574124336242676 0.87574124336242676
0.89277929067611694 0.89277929067611694 0.89277929067611694
0.90731680393218994 0.90731680393218994 0.90731680393218994
0.91660982370376587 0.91660982370376587 0.91660982370376587
0.93655812740325928 0.93655812740325928 0.93655812740325928
0.92407667636871338 0.92407667636871338 0.92407667636871338
0.92500209808349609 0.92500209808349609 0.92500209808349609
0.93561190366744995 0.93561190366744995 0.93561190366744995
0.94889682531356812 0.94889682531356812 0.94889682531356812
0.95724892616271973 0.95724892616271973 0.95724892616271973
0.96093803644180298 0.96093803644180298 0.96093803644180298
0.97393256425857544 0.97393256425857544 0.97393256425857544
