luts/negative_new/kodak_tri-x_400.cube
# Created by: G'MIC (https://gmic.eu)
TITLE "kodak_tri-x_400"
# LUT size
LUT_3D_SIZE 5
# Data domain
DOMAIN_MIN 0.0 0.0 0.0
DOMAIN_MAX 1.0 1.0 1.0
# LUT data points
0.071213603019714355 0.071213603019714355 0.071213603019714355
0.097156494855880737 0.097156494855880737 0.097156494855880737
0.16401652991771698 0.16401652991771698 0.16401652991771698
0.29096552729606628 0.29096552729606628 0.29096552729606628
0.46704360842704773 0.46704360842704773 0.46704360842704773
0.17649425566196442 0.17649425566196442 0.17649425566196442
0.22239048779010773 0.22239048779010773 0.22239048779010773
0.33148330450057983 0.33148330450057983 0.33148330450057983
0.41504061222076416 0.41504061222076416 0.41504061222076416
0.56952923536300659 0.56952923536300659 0.56952923536300659
0.37038400769233704 0.37038400769233704 0.37038400769233704
0.36791202425956726 0.36791202425956726 0.36791202425956726
0.5179743766784668 0.5179743766784668 0.5179743766784668
0.65357375144958496 0.65357375144958496 0.65357375144958496
0.7642098069190979 0.7642098069190979 0.7642098069190979
0.64395600557327271 0.64395600557327271 0.64395600557327271
0.60734349489212036 0.60734349489212036 0.60734349489212036
0.6620945930480957 0.6620945930480957 0.6620945930480957
0.79126369953155518 0.79126369953155518 0.79126369953155518
0.88642293214797974 0.88642293214797974 0.88642293214797974
0.90407514572143555 0.90407514572143555 0.90407514572143555
0.9001958966255188 0.9001958966255188 0.9001958966255188
0.88481605052947998 0.88481605052947998 0.88481605052947998
0.93354737758636475 0.93354737758636475 0.93354737758636475
0.96719443798065186 0.96719443798065186 0.96719443798065186
0.12908148765563965 0.12908148765563965 0.12908148765563965
0.18277844786643982 0.18277844786643982 0.18277844786643982
0.29786878824234009 0.29786878824234009 0.29786878824234009
0.33593413233757019 0.33593413233757019 0.33593413233757019
0.47334510087966919 0.47334510087966919 0.47334510087966919
0.23929312825202942 0.23929312825202942 0.23929312825202942
0.25613883137702942 0.25613883137702942 0.25613883137702942
0.32558634877204895 0.32558634877204895 0.32558634877204895
0.41756525635719299 0.41756525635719299 0.41756525635719299
0.56164830923080444 0.56164830923080444 0.56164830923080444
0.47583726048469543 0.47583726048469543 0.47583726048469543
0.44914162158966064 0.44914162158966064 0.44914162158966064
0.52639538049697876 0.52639538049697876 0.52639538049697876
0.66191369295120239 0.66191369295120239 0.66191369295120239
0.76490527391433716 0.76490527391433716 0.76490527391433716
0.69670587778091431 0.69670587778091431 0.69670587778091431
0.67855501174926758 0.67855501174926758 0.67855501174926758
0.68036735057830811 0.68036735057830811 0.68036735057830811
0.78725755214691162 0.78725755214691162 0.78725755214691162
0.89817547798156738 0.89817547798156738 0.89817547798156738
0.92043989896774292 0.92043989896774292 0.92043989896774292
0.90909773111343384 0.90909773111343384 0.90909773111343384
0.88995891809463501 0.88995891809463501 0.88995891809463501
0.92178946733474731 0.92178946733474731 0.92178946733474731
0.97821187973022461 0.97821187973022461 0.97821187973022461
0.26466500759124756 0.26466500759124756 0.26466500759124756
0.32463064789772034 0.32463064789772034 0.32463064789772034
0.40960693359375 0.40960693359375 0.40960693359375
0.58086448907852173 0.58086448907852173 0.58086448907852173
0.69027018547058105 0.69027018547058105 0.69027018547058105
0.32078218460083008 0.32078218460083008 0.32078218460083008
0.37207812070846558 0.37207812070846558 0.37207812070846558
0.46734648942947388 0.46734648942947388 0.46734648942947388
0.61351484060287476 0.61351484060287476 0.61351484060287476
0.66452974081039429 0.66452974081039429 0.66452974081039429
0.53393089771270752 0.53393089771270752 0.53393089771270752
0.56505393981933594 0.56505393981933594 0.56505393981933594
0.58000952005386353 0.58000952005386353 0.58000952005386353
0.64692491292953491 0.64692491292953491 0.64692491292953491
0.73700094223022461 0.73700094223022461 0.73700094223022461
0.81017601490020752 0.81017601490020752 0.81017601490020752
0.78117996454238892 0.78117996454238892 0.78117996454238892
0.74073785543441772 0.74073785543441772 0.74073785543441772
0.81452697515487671 0.81452697515487671 0.81452697515487671
0.90516561269760132 0.90516561269760132 0.90516561269760132
0.94951921701431274 0.94951921701431274 0.94951921701431274
0.93713700771331787 0.93713700771331787 0.93713700771331787
0.92224514484405518 0.92224514484405518 0.92224514484405518
0.94102436304092407 0.94102436304092407 0.94102436304092407
0.98722648620605469 0.98722648620605469 0.98722648620605469
0.46254497766494751 0.46254497766494751 0.46254497766494751
0.51163303852081299 0.51163303852081299 0.51163303852081299
0.61794495582580566 0.61794495582580566 0.61794495582580566
0.67619234323501587 0.67619234323501587 0.67619234323501587
0.80749309062957764 0.80749309062957764 0.80749309062957764
0.52689075469970703 0.52689075469970703 0.52689075469970703
0.56108725070953369 0.56108725070953369 0.56108725070953369
0.64479285478591919 0.64479285478591919 0.64479285478591919
0.70260900259017944 0.70260900259017944 0.70260900259017944
0.83792233467102051 0.83792233467102051 0.83792233467102051
0.56987136602401733 0.56987136602401733 0.56987136602401733
0.60745829343795776 0.60745829343795776 0.60745829343795776
0.69844013452529907 0.69844013452529907 0.69844013452529907
0.77176022529602051 0.77176022529602051 0.77176022529602051
0.86693286895751953 0.86693286895751953 0.86693286895751953
0.80505597591400146 0.80505597591400146 0.80505597591400146
0.80532681941986084 0.80532681941986084 0.80532681941986084
0.82828629016876221 0.82828629016876221 0.82828629016876221
0.85350209474563599 0.85350209474563599 0.85350209474563599
0.90157973766326904 0.90157973766326904 0.90157973766326904
0.97455900907516479 0.97455900907516479 0.97455900907516479
0.96698415279388428 0.96698415279388428 0.96698415279388428
0.97445595264434814 0.97445595264434814 0.97445595264434814
0.97166341543197632 0.97166341543197632 0.97166341543197632
0.98137027025222778 0.98137027025222778 0.98137027025222778
0.78266304731369019 0.78266304731369019 0.78266304731369019
0.78891468048095703 0.78891468048095703 0.78891468048095703
0.84028869867324829 0.84028869867324829 0.84028869867324829
0.90208381414413452 0.90208381414413452 0.90208381414413452
0.91976392269134521 0.91976392269134521 0.91976392269134521
0.80725556612014771 0.80725556612014771 0.80725556612014771
0.81545001268386841 0.81545001268386841 0.81545001268386841
0.84867709875106812 0.84867709875106812 0.84867709875106812
0.90805047750473022 0.90805047750473022 0.90805047750473022
0.92493176460266113 0.92493176460266113 0.92493176460266113
0.81276869773864746 0.81276869773864746 0.81276869773864746
0.83165377378463745 0.83165377378463745 0.83165377378463745
0.86441880464553833 0.86441880464553833 0.86441880464553833
0.91299957036972046 0.91299957036972046 0.91299957036972046
0.94245642423629761 0.94245642423629761 0.94245642423629761
0.85665059089660645 0.85665059089660645 0.85665059089660645
0.85561728477478027 0.85561728477478027 0.85561728477478027
0.86705160140991211 0.86705160140991211 0.86705160140991211
0.91603481769561768 0.91603481769561768 0.91603481769561768
0.9718325138092041 0.9718325138092041 0.9718325138092041
0.97123903036117554 0.97123903036117554 0.97123903036117554
0.97014033794403076 0.97014033794403076 0.97014033794403076
0.98456734418869019 0.98456734418869019 0.98456734418869019
0.98758071660995483 0.98758071660995483 0.98758071660995483
0.98190557956695557 0.98190557956695557 0.98190557956695557
