luts/negative_new/kodak_tri-x_400_-.cube
# Created by: G'MIC (https://gmic.eu)
TITLE "kodak_tri-x_400_-"
# LUT size
LUT_3D_SIZE 13
# Data domain
DOMAIN_MIN 0.0 0.0 0.0
DOMAIN_MAX 1.0 1.0 1.0
# LUT data points
0.0064607206732034683 0.0064607206732034683 0.0064607206732034683
0.024908775463700294 0.024908775463700294 0.024908775463700294
0.048169348388910294 0.048169348388910294 0.048169348388910294
0.066556744277477264 0.066556744277477264 0.066556744277477264
0.091578446328639984 0.091578446328639984 0.091578446328639984
0.1234624832868576 0.1234624832868576 0.1234624832868576
0.16266025602817535 0.16266025602817535 0.16266025602817535
0.21386069059371948 0.21386069059371948 0.21386069059371948
0.26594787836074829 0.26594787836074829 0.26594787836074829
0.30791977047920227 0.30791977047920227 0.30791977047920227
0.35002955794334412 0.35002955794334412 0.35002955794334412
0.39962181448936462 0.39962181448936462 0.39962181448936462
0.45451480150222778 0.45451480150222778 0.45451480150222778
0.046130102127790451 0.046130102127790451 0.046130102127790451
0.068059839308261871 0.068059839308261871 0.068059839308261871
0.098797202110290527 0.098797202110290527 0.098797202110290527
0.11662198603153229 0.11662198603153229 0.11662198603153229
0.13492769002914429 0.13492769002914429 0.13492769002914429
0.16263104975223541 0.16263104975223541 0.16263104975223541
0.19997456669807434 0.19997456669807434 0.19997456669807434
0.24679630994796753 0.24679630994796753 0.24679630994796753
0.29391920566558838 0.29391920566558838 0.29391920566558838
0.33575984835624695 0.33575984835624695 0.33575984835624695
0.37723734974861145 0.37723734974861145 0.37723734974861145
0.42446091771125793 0.42446091771125793 0.42446091771125793
0.47780334949493408 0.47780334949493408 0.47780334949493408
0.10063135623931885 0.10063135623931885 0.10063135623931885
0.11010096222162247 0.11010096222162247 0.11010096222162247
0.14761081337928772 0.14761081337928772 0.14761081337928772
0.1848086416721344 0.1848086416721344 0.1848086416721344
0.20829287171363831 0.20829287171363831 0.20829287171363831
0.23193269968032837 0.23193269968032837 0.23193269968032837
0.26369890570640564 0.26369890570640564 0.26369890570640564
0.30232334136962891 0.30232334136962891 0.30232334136962891
0.34195727109909058 0.34195727109909058 0.34195727109909058
0.37936526536941528 0.37936526536941528 0.37936526536941528
0.41720360517501831 0.41720360517501831 0.41720360517501831
0.45942401885986328 0.45942401885986328 0.45942401885986328
0.50932753086090088 0.50932753086090088 0.50932753086090088
0.16652311384677887 0.16652311384677887 0.16652311384677887
0.16019377112388611 0.16019377112388611 0.16019377112388611
0.18951821327209473 0.18951821327209473 0.18951821327209473
0.23988324403762817 0.23988324403762817 0.23988324403762817
0.28161245584487915 0.28161245584487915 0.28161245584487915
0.31414318084716797 0.31414318084716797 0.31414318084716797
0.34362199902534485 0.34362199902534485 0.34362199902534485
0.37422275543212891 0.37422275543212891 0.37422275543212891
0.40607026219367981 0.40607026219367981 0.40607026219367981
0.43786230683326721 0.43786230683326721 0.43786230683326721
0.47085502743721008 0.47085502743721008 0.47085502743721008
0.5088428258895874 0.5088428258895874 0.5088428258895874
0.55433642864227295 0.55433642864227295 0.55433642864227295
0.24259799718856812 0.24259799718856812 0.24259799718856812
0.22699777781963348 0.22699777781963348 0.22699777781963348
0.2391284853219986 0.2391284853219986 0.2391284853219986
0.28449031710624695 0.28449031710624695 0.28449031710624695
0.33862587809562683 0.33862587809562683 0.33862587809562683
0.38522279262542725 0.38522279262542725 0.38522279262542725
0.42043840885162354 0.42043840885162354 0.42043840885162354
0.44794073700904846 0.44794073700904846 0.44794073700904846
0.47461754083633423 0.47461754083633423 0.47461754083633423
0.50297266244888306 0.50297266244888306 0.50297266244888306
0.53392696380615234 0.53392696380615234 0.53392696380615234
0.56979155540466309 0.56979155540466309 0.56979155540466309
0.61140990257263184 0.61140990257263184 0.61140990257263184
0.32290107011795044 0.32290107011795044 0.32290107011795044
0.3038889467716217 0.3038889467716217 0.3038889467716217
0.30187335610389709 0.30187335610389709 0.30187335610389709
0.331938236951828 0.331938236951828 0.331938236951828
0.38146045804023743 0.38146045804023743 0.38146045804023743
0.43394577503204346 0.43394577503204346 0.43394577503204346
0.4772895872592926 0.4772895872592926 0.4772895872592926
0.50852048397064209 0.50852048397064209 0.50852048397064209
0.53629368543624878 0.53629368543624878 0.53629368543624878
0.56553149223327637 0.56553149223327637 0.56553149223327637
0.59775924682617188 0.59775924682617188 0.59775924682617188
0.633262038230896 0.633262038230896 0.633262038230896
0.67194032669067383 0.67194032669067383 0.67194032669067383
0.39854905009269714 0.39854905009269714 0.39854905009269714
0.3805091381072998 0.3805091381072998 0.3805091381072998
0.37144237756729126 0.37144237756729126 0.37144237756729126
0.3854515552520752 0.3854515552520752 0.3854515552520752
0.42089110612869263 0.42089110612869263 0.42089110612869263
0.46770456433296204 0.46770456433296204 0.46770456433296204
0.51309555768966675 0.51309555768966675 0.51309555768966675
0.55145525932312012 0.55145525932312012 0.55145525932312012
0.58572995662689209 0.58572995662689209 0.58572995662689209
0.62021708488464355 0.62021708488464355 0.62021708488464355
0.6563870906829834 0.6563870906829834 0.6563870906829834
0.69403356313705444 0.69403356313705444 0.69403356313705444
0.73103904724121094 0.73103904724121094 0.73103904724121094
0.46841686964035034 0.46841686964035034 0.46841686964035034
0.45321369171142578 0.45321369171142578 0.45321369171142578
0.44187664985656738 0.44187664985656738 0.44187664985656738
0.44444477558135986 0.44444477558135986 0.44444477558135986
0.46476840972900391 0.46476840972900391 0.46476840972900391
0.50001287460327148 0.50001287460327148 0.50001287460327148
0.54236423969268799 0.54236423969268799 0.54236423969268799
0.58452653884887695 0.58452653884887695 0.58452653884887695
0.62556707859039307 0.62556707859039307 0.62556707859039307
0.66704970598220825 0.66704970598220825 0.66704970598220825
0.70864331722259521 0.70864331722259521 0.70864331722259521
0.74920773506164551 0.74920773506164551 0.74920773506164551
0.78650635480880737 0.78650635480880737 0.78650635480880737
0.54281342029571533 0.54281342029571533 0.54281342029571533
0.52951574325561523 0.52951574325561523 0.52951574325561523
0.51690524816513062 0.51690524816513062 0.51690524816513062
0.51099961996078491 0.51099961996078491 0.51099961996078491
0.51805561780929565 0.51805561780929565 0.51805561780929565
0.54090791940689087 0.54090791940689087 0.54090791940689087
0.57697844505310059 0.57697844505310059 0.57697844505310059
0.61929243803024292 0.61929243803024292 0.61929243803024292
0.66414409875869751 0.66414409875869751 0.66414409875869751
0.7104300856590271 0.7104300856590271 0.7104300856590271
0.75661933422088623 0.75661933422088623 0.75661933422088623
0.80037182569503784 0.80037182569503784 0.80037182569503784
0.83742201328277588 0.83742201328277588 0.83742201328277588
0.62497472763061523 0.62497472763061523 0.62497472763061523
0.61384278535842896 0.61384278535842896 0.61384278535842896
0.60084474086761475 0.60084474086761475 0.60084474086761475
0.58913701772689819 0.58913701772689819 0.58913701772689819
0.58469164371490479 0.58469164371490479 0.58469164371490479
0.59578126668930054 0.59578126668930054 0.59578126668930054
0.62560755014419556 0.62560755014419556 0.62560755014419556
0.66568458080291748 0.66568458080291748 0.66568458080291748
0.71028190851211548 0.71028190851211548 0.71028190851211548
0.75680524110794067 0.75680524110794067 0.75680524110794067
0.80328506231307983 0.80328506231307983 0.80328506231307983
0.84773969650268555 0.84773969650268555 0.84773969650268555
0.88242232799530029 0.88242232799530029 0.88242232799530029
0.71348363161087036 0.71348363161087036 0.71348363161087036
0.70599484443664551 0.70599484443664551 0.70599484443664551
0.69555491209030151 0.69555491209030151 0.69555491209030151
0.68192648887634277 0.68192648887634277 0.68192648887634277
0.66852283477783203 0.66852283477783203 0.66852283477783203
0.66874140501022339 0.66874140501022339 0.66874140501022339
0.69206357002258301 0.69206357002258301 0.69206357002258301
0.72694128751754761 0.72694128751754761 0.72694128751754761
0.76650106906890869 0.76650106906890869 0.76650106906890869
0.80828511714935303 0.80828511714935303 0.80828511714935303
0.84944695234298706 0.84944695234298706 0.84944695234298706
0.8879702091217041 0.8879702091217041 0.8879702091217041
0.91810828447341919 0.91810828447341919 0.91810828447341919
0.80408191680908203 0.80408191680908203 0.80408191680908203
0.80128210783004761 0.80128210783004761 0.80128210783004761
0.79590314626693726 0.79590314626693726 0.79590314626693726
0.78631305694580078 0.78631305694580078 0.78631305694580078
0.77143019437789917 0.77143019437789917 0.77143019437789917
0.76471221446990967 0.76471221446990967 0.76471221446990967
0.77646589279174805 0.77646589279174805 0.77646589279174805
0.80078125 0.80078125 0.80078125
0.83101975917816162 0.83101975917816162 0.83101975917816162
0.86331599950790405 0.86331599950790405 0.86331599950790405
0.89502221345901489 0.89502221345901489 0.89502221345901489
0.9231727123260498 0.9231727123260498 0.9231727123260498
0.94675260782241821 0.94675260782241821 0.94675260782241821
0.89139413833618164 0.89139413833618164 0.89139413833618164
0.89233368635177612 0.89233368635177612 0.89233368635177612
0.89132928848266602 0.89132928848266602 0.89132928848266602
0.88696300983428955 0.88696300983428955 0.88696300983428955
0.87562006711959839 0.87562006711959839 0.87562006711959839
0.86665672063827515 0.86665672063827515 0.86665672063827515
0.86782634258270264 0.86782634258270264 0.86782634258270264
0.87957119941711426 0.87957119941711426 0.87957119941711426
0.89852356910705566 0.89852356910705566 0.89852356910705566
0.91997677087783813 0.91997677087783813 0.91997677087783813
0.940582275390625 0.940582275390625 0.940582275390625
0.95863145589828491 0.95863145589828491 0.95863145589828491
0.97489583492279053 0.97489583492279053 0.97489583492279053
0.019963925704360008 0.019963925704360008 0.019963925704360008
0.045539811253547668 0.045539811253547668 0.045539811253547668
0.079652123153209686 0.079652123153209686 0.079652123153209686
0.10612662881612778 0.10612662881612778 0.10612662881612778
0.12641718983650208 0.12641718983650208 0.12641718983650208
0.14999058842658997 0.14999058842658997 0.14999058842658997
0.17420023679733276 0.17420023679733276 0.17420023679733276
0.21851974725723267 0.21851974725723267 0.21851974725723267
0.26566702127456665 0.26566702127456665 0.26566702127456665
0.30492264032363892 0.30492264032363892 0.30492264032363892
0.3492952287197113 0.3492952287197113 0.3492952287197113
0.40391218662261963 0.40391218662261963 0.40391218662261963
0.46487990021705627 0.46487990021705627 0.46487990021705627
0.064339339733123779 0.064339339733123779 0.064339339733123779
0.082171916961669922 0.082171916961669922 0.082171916961669922
0.11039352416992188 0.11039352416992188 0.11039352416992188
0.12832562625408173 0.12832562625408173 0.12832562625408173
0.14489446580410004 0.14489446580410004 0.14489446580410004
0.16952817142009735 0.16952817142009735 0.16952817142009735
0.20130501687526703 0.20130501687526703 0.20130501687526703
0.24518494307994843 0.24518494307994843 0.24518494307994843
0.29027339816093445 0.29027339816093445 0.29027339816093445
0.33090898394584656 0.33090898394584656 0.33090898394584656
0.37480232119560242 0.37480232119560242 0.37480232119560242
0.42726638913154602 0.42726638913154602 0.42726638913154602
0.48628804087638855 0.48628804087638855 0.48628804087638855
0.13480976223945618 0.13480976223945618 0.13480976223945618
0.13180240988731384 0.13180240988731384 0.13180240988731384
0.1565956175327301 0.1565956175327301 0.1565956175327301
0.18916290998458862 0.18916290998458862 0.18916290998458862
0.20513024926185608 0.20513024926185608 0.20513024926185608
0.22610747814178467 0.22610747814178467 0.22610747814178467
0.25749596953392029 0.25749596953392029 0.25749596953392029
0.29644423723220825 0.29644423723220825 0.29644423723220825
0.33643528819084167 0.33643528819084167 0.33643528819084167
0.37454572319984436 0.37454572319984436 0.37454572319984436
0.41519072651863098 0.41519072651863098 0.41519072651863098
0.46369576454162598 0.46369576454162598 0.46369576454162598
0.51905834674835205 0.51905834674835205 0.51905834674835205
0.20714244246482849 0.20714244246482849 0.20714244246482849
0.18649980425834656 0.18649980425834656 0.18649980425834656
0.200071781873703 0.200071781873703 0.200071781873703
0.24696001410484314 0.24696001410484314 0.24696001410484314
0.28512537479400635 0.28512537479400635 0.28512537479400635
0.31388634443283081 0.31388634443283081 0.31388634443283081
0.33839687705039978 0.33839687705039978 0.33839687705039978
0.36790567636489868 0.36790567636489868 0.36790567636489868
0.40128108859062195 0.40128108859062195 0.40128108859062195
0.43460121750831604 0.43460121750831604 0.43460121750831604
0.47055652737617493 0.47055652737617493 0.47055652737617493
0.51450389623641968 0.51450389623641968 0.51450389623641968
0.56504917144775391 0.56504917144775391 0.56504917144775391
0.27846577763557434 0.27846577763557434 0.27846577763557434
0.25534534454345703 0.25534534454345703 0.25534534454345703
0.25613468885421753 0.25613468885421753 0.25613468885421753
0.29342877864837646 0.29342877864837646 0.29342877864837646
0.346647709608078 0.346647709608078 0.346647709608078
0.39064007997512817 0.39064007997512817 0.39064007997512817
0.41887560486793518 0.41887560486793518 0.41887560486793518
0.4444635808467865 0.4444635808467865 0.4444635808467865
0.47244676947593689 0.47244676947593689 0.47244676947593689
0.5023266077041626 0.5023266077041626 0.5023266077041626
0.53550291061401367 0.53550291061401367 0.53550291061401367
0.57530015707015991 0.57530015707015991 0.57530015707015991
0.61989337205886841 0.61989337205886841 0.61989337205886841
0.34978944063186646 0.34978944063186646 0.34978944063186646
0.32879135012626648 0.32879135012626648 0.32879135012626648
0.31885328888893127 0.31885328888893127 0.31885328888893127
0.33691829442977905 0.33691829442977905 0.33691829442977905
0.38318946957588196 0.38318946957588196 0.38318946957588196
0.43602803349494934 0.43602803349494934 0.43602803349494934
0.47802978754043579 0.47802978754043579 0.47802978754043579
0.5098080039024353 0.5098080039024353 0.5098080039024353
0.53821808099746704 0.53821808099746704 0.53821808099746704
0.5681954026222229 0.5681954026222229 0.5681954026222229
0.60161393880844116 0.60161393880844116 0.60161393880844116
0.63887137174606323 0.63887137174606323 0.63887137174606323
0.67901813983917236 0.67901813983917236 0.67901813983917236
0.41459384560585022 0.41459384560585022 0.41459384560585022
0.39650723338127136 0.39650723338127136 0.39650723338127136
0.38226103782653809 0.38226103782653809 0.38226103782653809
0.38739079236984253 0.38739079236984253 0.38739079236984253
0.41883611679077148 0.41883611679077148 0.41883611679077148
0.46750339865684509 0.46750339865684509 0.46750339865684509
0.51632028818130493 0.51632028818130493 0.51632028818130493
0.55708533525466919 0.55708533525466919 0.55708533525466919
0.59161138534545898 0.59161138534545898 0.59161138534545898
0.6256636381149292 0.6256636381149292 0.6256636381149292
0.66151785850524902 0.66151785850524902 0.66151785850524902
0.69924509525299072 0.69924509525299072 0.69924509525299072
0.7373841404914856 0.7373841404914856 0.7373841404914856
0.47835657000541687 0.47835657000541687 0.47835657000541687
0.46327179670333862 0.46327179670333862 0.46327179670333862
0.44919055700302124 0.44919055700302124 0.44919055700302124
0.44629260897636414 0.44629260897636414 0.44629260897636414
0.46344497799873352 0.46344497799873352 0.46344497799873352
0.50005096197128296 0.50005096197128296 0.50005096197128296
0.54646098613739014 0.54646098613739014 0.54646098613739014
0.59156936407089233 0.59156936407089233 0.59156936407089233
0.63284289836883545 0.63284289836883545 0.63284289836883545
0.67251384258270264 0.67251384258270264 0.67251384258270264
0.7124144434928894 0.7124144434928894 0.7124144434928894
0.75282984972000122 0.75282984972000122 0.75282984972000122
0.79116541147232056 0.79116541147232056 0.79116541147232056
0.55014508962631226 0.55014508962631226 0.55014508962631226
0.53676652908325195 0.53676652908325195 0.53676652908325195
0.52292007207870483 0.52292007207870483 0.52292007207870483
0.51414304971694946 0.51414304971694946 0.51414304971694946
0.51915502548217773 0.51915502548217773 0.51915502548217773
0.54322969913482666 0.54322969913482666 0.54322969913482666
0.58234995603561401 0.58234995603561401 0.58234995603561401
0.62655401229858398 0.62655401229858398 0.62655401229858398
0.67042374610900879 0.67042374610900879 0.67042374610900879
0.71314150094985962 0.71314150094985962 0.71314150094985962
0.75593501329421997 0.75593501329421997 0.75593501329421997
0.79939943552017212 0.79939943552017212 0.79939943552017212
0.83880156278610229 0.83880156278610229 0.83880156278610229
0.63120853900909424 0.63120853900909424 0.63120853900909424
0.61991870403289795 0.61991870403289795 0.61991870403289795
0.60647571086883545 0.60647571086883545 0.60647571086883545
0.59422999620437622 0.59422999620437622 0.59422999620437622
0.58984547853469849 0.58984547853469849 0.58984547853469849
0.6027866005897522 0.6027866005897522 0.6027866005897522
0.63286674022674561 0.63286674022674561 0.63286674022674561
0.67247915267944336 0.67247915267944336 0.67247915267944336
0.71450722217559814 0.71450722217559814 0.71450722217559814
0.75602966547012329 0.75602966547012329 0.75602966547012329
0.79855483770370483 0.79855483770370483 0.79855483770370483
0.84219145774841309 0.84219145774841309 0.84219145774841309
0.88010281324386597 0.88010281324386597 0.88010281324386597
0.71855151653289795 0.71855151653289795 0.71855151653289795
0.71074402332305908 0.71074402332305908 0.71074402332305908
0.69985145330429077 0.69985145330429077 0.69985145330429077
0.68724679946899414 0.68724679946899414 0.68724679946899414
0.67780810594558716 0.67780810594558716 0.67780810594558716
0.68108123540878296 0.68108123540878296 0.68108123540878296
0.70170533657073975 0.70170533657073975 0.70170533657073975
0.7339826226234436 0.7339826226234436 0.7339826226234436
0.770790696144104 0.770790696144104 0.770790696144104
0.80823040008544922 0.80823040008544922 0.80823040008544922
0.84564632177352905 0.84564632177352905 0.84564632177352905
0.88295489549636841 0.88295489549636841 0.88295489549636841
0.91556030511856079 0.91556030511856079 0.91556030511856079
0.80784666538238525 0.80784666538238525 0.80784666538238525
0.80423653125762939 0.80423653125762939 0.80423653125762939
0.79805004596710205 0.79805004596710205 0.79805004596710205
0.78899449110031128 0.78899449110031128 0.78899449110031128
0.77872151136398315 0.77872151136398315 0.77872151136398315
0.77584129571914673 0.77584129571914673 0.77584129571914673
0.78598946332931519 0.78598946332931519 0.78598946332931519
0.80790597200393677 0.80790597200393677 0.80790597200393677
0.83647006750106812 0.83647006750106812 0.83647006750106812
0.86673122644424438 0.86673122644424438 0.86673122644424438
0.89552438259124756 0.89552438259124756 0.89552438259124756
0.92240303754806519 0.92240303754806519 0.92240303754806519
0.94644695520401001 0.94644695520401001 0.94644695520401001
0.89343535900115967 0.89343535900115967 0.89343535900115967
0.89398622512817383 0.89398622512817383 0.89398622512817383
0.89200198650360107 0.89200198650360107 0.89200198650360107
0.88729238510131836 0.88729238510131836 0.88729238510131836
0.88009011745452881 0.88009011745452881 0.88009011745452881
0.87460160255432129 0.87460160255432129 0.87460160255432129
0.87554192543029785 0.87554192543029785 0.87554192543029785
0.88631987571716309 0.88631987571716309 0.88631987571716309
0.90446293354034424 0.90446293354034424 0.90446293354034424
0.92501330375671387 0.92501330375671387 0.92501330375671387
0.94395220279693604 0.94395220279693604 0.94395220279693604
0.96085333824157715 0.96085333824157715 0.96085333824157715
0.97679293155670166 0.97679293155670166 0.97679293155670166
0.048903431743383408 0.048903431743383408 0.048903431743383408
0.073177814483642578 0.073177814483642578 0.073177814483642578
0.10902765393257141 0.10902765393257141 0.10902765393257141
0.14883774518966675 0.14883774518966675 0.14883774518966675
0.19079184532165527 0.19079184532165527 0.19079184532165527
0.21723464131355286 0.21723464131355286 0.21723464131355286
0.22732497751712799 0.22732497751712799 0.22732497751712799
0.25101235508918762 0.25101235508918762 0.25101235508918762
0.28199055790901184 0.28199055790901184 0.28199055790901184
0.31275302171707153 0.31275302171707153 0.31275302171707153
0.35402461886405945 0.35402461886405945 0.35402461886405945
0.40843915939331055 0.40843915939331055 0.40843915939331055
0.47149786353111267 0.47149786353111267 0.47149786353111267
0.08754788339138031 0.08754788339138031 0.08754788339138031
0.10362521559000015 0.10362521559000015 0.10362521559000015
0.13165877759456635 0.13165877759456635 0.13165877759456635
0.16260553896427155 0.16260553896427155 0.16260553896427155
0.19490708410739899 0.19490708410739899 0.19490708410739899
0.21500381827354431 0.21500381827354431 0.21500381827354431
0.23895852267742157 0.23895852267742157 0.23895852267742157
0.27086746692657471 0.27086746692657471 0.27086746692657471
0.30301281809806824 0.30301281809806824 0.30301281809806824
0.33565410971641541 0.33565410971641541 0.33565410971641541
0.37691941857337952 0.37691941857337952 0.37691941857337952
0.42996850609779358 0.42996850609779358 0.42996850609779358
0.48982450366020203 0.48982450366020203 0.48982450366020203
0.16013725101947784 0.16013725101947784 0.16013725101947784
0.15475049614906311 0.15475049614906311 0.15475049614906311
0.17358531057834625 0.17358531057834625 0.17358531057834625
0.20049223303794861 0.20049223303794861 0.20049223303794861
0.22078558802604675 0.22078558802604675 0.22078558802604675
0.24179938435554504 0.24179938435554504 0.24179938435554504
0.27330231666564941 0.27330231666564941 0.27330231666564941
0.30730268359184265 0.30730268359184265 0.30730268359184265
0.33940649032592773 0.33940649032592773 0.33940649032592773
0.3725472092628479 0.3725472092628479 0.3725472092628479
0.41393065452575684 0.41393065452575684 0.41393065452575684
0.46607941389083862 0.46607941389083862 0.46607941389083862
0.52472031116485596 0.52472031116485596 0.52472031116485596
0.24141894280910492 0.24141894280910492 0.24141894280910492
0.22449705004692078 0.22449705004692078 0.22449705004692078
0.23171974718570709 0.23171974718570709 0.23171974718570709
0.26041442155838013 0.26041442155838013 0.26041442155838013
0.29057562351226807 0.29057562351226807 0.29057562351226807
0.31676751375198364 0.31676751375198364 0.31676751375198364
0.33728080987930298 0.33728080987930298 0.33728080987930298
0.36303219199180603 0.36303219199180603 0.36303219199180603
0.39581620693206787 0.39581620693206787 0.39581620693206787
0.42830058932304382 0.42830058932304382 0.42830058932304382
0.46669876575469971 0.46669876575469971 0.46669876575469971
0.51583600044250488 0.51583600044250488 0.51583600044250488
0.57112413644790649 0.57112413644790649 0.57112413644790649
0.3213876485824585 0.3213876485824585 0.3213876485824585
0.30535045266151428 0.30535045266151428 0.30535045266151428
0.29894691705703735 0.29894691705703735 0.29894691705703735
0.31363904476165771 0.31363904476165771 0.31363904476165771
0.35167604684829712 0.35167604684829712 0.35167604684829712
0.38941332697868347 0.38941332697868347 0.38941332697868347
0.41293776035308838 0.41293776035308838 0.41293776035308838
0.43557065725326538 0.43557065725326538 0.43557065725326538
