luts/negative_new/kodak_tri-x_400_+.cube
# Created by: G'MIC (https://gmic.eu)
TITLE "kodak_tri-x_400_+"
# LUT size
LUT_3D_SIZE 7
# Data domain
DOMAIN_MIN 0.0 0.0 0.0
DOMAIN_MAX 1.0 1.0 1.0
# LUT data points
0.058792788535356522 0.058792788535356522 0.058792788535356522
0.071080692112445831 0.071080692112445831 0.071080692112445831
0.091208517551422119 0.091208517551422119 0.091208517551422119
0.12476145476102829 0.12476145476102829 0.12476145476102829
0.19126692414283752 0.19126692414283752 0.19126692414283752
0.27175065875053406 0.27175065875053406 0.27175065875053406
0.39223021268844604 0.39223021268844604 0.39223021268844604
0.094872720539569855 0.094872720539569855 0.094872720539569855
0.10949545353651047 0.10949545353651047 0.10949545353651047
0.16485896706581116 0.16485896706581116 0.16485896706581116
0.20527182519435883 0.20527182519435883 0.20527182519435883
0.25885072350502014 0.25885072350502014 0.25885072350502014
0.33968174457550049 0.33968174457550049 0.33968174457550049
0.45534637570381165 0.45534637570381165 0.45534637570381165
0.17286571860313416 0.17286571860313416 0.17286571860313416
0.17170326411724091 0.17170326411724091 0.17170326411724091
0.25474780797958374 0.25474780797958374 0.25474780797958374
0.32937049865722656 0.32937049865722656 0.32937049865722656
0.39565858244895935 0.39565858244895935 0.39565858244895935
0.47828468680381775 0.47828468680381775 0.47828468680381775
0.57964742183685303 0.57964742183685303 0.57964742183685303
0.29660508036613464 0.29660508036613464 0.29660508036613464
0.28269532322883606 0.28269532322883606 0.28269532322883606
0.32403102517127991 0.32403102517127991 0.32403102517127991
0.43266206979751587 0.43266206979751587 0.43266206979751587
0.56853759288787842 0.56853759288787842 0.56853759288787842
0.6475098729133606 0.6475098729133606 0.6475098729133606
0.7231442928314209 0.7231442928314209 0.7231442928314209
0.48291411995887756 0.48291411995887756 0.48291411995887756
0.46225515007972717 0.46225515007972717 0.46225515007972717
0.4512840211391449 0.4512840211391449 0.4512840211391449
0.53431093692779541 0.53431093692779541 0.53431093692779541
0.65623778104782104 0.65623778104782104 0.65623778104782104
0.76261788606643677 0.76261788606643677 0.76261788606643677
0.83745908737182617 0.83745908737182617 0.83745908737182617
0.69353830814361572 0.69353830814361572 0.69353830814361572
0.6867901086807251 0.6867901086807251 0.6867901086807251
0.64968013763427734 0.64968013763427734 0.64968013763427734
0.69516623020172119 0.69516623020172119 0.69516623020172119
0.7783694863319397 0.7783694863319397 0.7783694863319397
0.85682249069213867 0.85682249069213867 0.85682249069213867
0.91566997766494751 0.91566997766494751 0.91566997766494751
0.87049150466918945 0.87049150466918945 0.87049150466918945
0.88003844022750854 0.88003844022750854 0.88003844022750854
0.87325578927993774 0.87325578927993774 0.87325578927993774
0.87703907489776611 0.87703907489776611 0.87703907489776611
0.90969854593276978 0.90969854593276978 0.90969854593276978
0.94326150417327881 0.94326150417327881 0.94326150417327881
0.96877121925354004 0.96877121925354004 0.96877121925354004
0.064423657953739166 0.064423657953739166 0.064423657953739166
0.10085555166006088 0.10085555166006088 0.10085555166006088
0.14086475968360901 0.14086475968360901 0.14086475968360901
0.18041977286338806 0.18041977286338806 0.18041977286338806
0.21145910024642944 0.21145910024642944 0.21145910024642944
0.27093979716300964 0.27093979716300964 0.27093979716300964
0.4035017192363739 0.4035017192363739 0.4035017192363739
0.11916855722665787 0.11916855722665787 0.11916855722665787
0.13718721270561218 0.13718721270561218 0.13718721270561218
0.17274275422096252 0.17274275422096252 0.17274275422096252
0.20503918826580048 0.20503918826580048 0.20503918826580048
0.24993693828582764 0.24993693828582764 0.24993693828582764
0.33595523238182068 0.33595523238182068 0.33595523238182068
0.46835300326347351 0.46835300326347351 0.46835300326347351
0.24050799012184143 0.24050799012184143 0.24050799012184143
0.21480725705623627 0.21480725705623627 0.21480725705623627
0.26673892140388489 0.26673892140388489 0.26673892140388489
0.33001589775085449 0.33001589775085449 0.33001589775085449
0.39025494456291199 0.39025494456291199 0.39025494456291199
0.48039042949676514 0.48039042949676514 0.48039042949676514
0.59618067741394043 0.59618067741394043 0.59618067741394043
0.36592507362365723 0.36592507362365723 0.36592507362365723
0.34263116121292114 0.34263116121292114 0.34263116121292114
0.34320721030235291 0.34320721030235291 0.34320721030235291
0.45259052515029907 0.45259052515029907 0.45259052515029907
0.55375593900680542 0.55375593900680542 0.55375593900680542
0.64669609069824219 0.64669609069824219 0.64669609069824219
0.73508602380752563 0.73508602380752563 0.73508602380752563
0.52691483497619629 0.52691483497619629 0.52691483497619629
0.51142972707748413 0.51142972707748413 0.51142972707748413
0.4890739917755127 0.4890739917755127 0.4890739917755127
0.54368215799331665 0.54368215799331665 0.54368215799331665
0.64751619100570679 0.64751619100570679 0.64751619100570679
0.75723302364349365 0.75723302364349365 0.75723302364349365
0.84128028154373169 0.84128028154373169 0.84128028154373169
0.71624737977981567 0.71624737977981567 0.71624737977981567
0.7086181640625 0.7086181640625 0.7086181640625
0.68455642461776733 0.68455642461776733 0.68455642461776733
0.70250612497329712 0.70250612497329712 0.70250612497329712
0.77112501859664917 0.77112501859664917 0.77112501859664917
0.85253822803497314 0.85253822803497314 0.85253822803497314
0.91653156280517578 0.91653156280517578 0.91653156280517578
0.88450795412063599 0.88450795412063599 0.88450795412063599
0.88950264453887939 0.88950264453887939 0.88950264453887939
0.88293242454528809 0.88293242454528809 0.88293242454528809
0.88578051328659058 0.88578051328659058 0.88578051328659058
0.91210830211639404 0.91210830211639404 0.91210830211639404
0.94396317005157471 0.94396317005157471 0.94396317005157471
0.97323554754257202 0.97323554754257202 0.97323554754257202
0.11989330500364304 0.11989330500364304 0.11989330500364304
0.14885973930358887 0.14885973930358887 0.14885973930358887
0.19082045555114746 0.19082045555114746 0.19082045555114746
0.28463044762611389 0.28463044762611389 0.28463044762611389
0.35716098546981812 0.35716098546981812 0.35716098546981812
0.3591858446598053 0.3591858446598053 0.3591858446598053
0.42168000340461731 0.42168000340461731 0.42168000340461731
0.15177524089813232 0.15177524089813232 0.15177524089813232
0.18064887821674347 0.18064887821674347 0.18064887821674347
0.22407913208007812 0.22407913208007812 0.22407913208007812
0.31200632452964783 0.31200632452964783 0.31200632452964783
0.3463253378868103 0.3463253378868103 0.3463253378868103
0.36983475089073181 0.36983475089073181 0.36983475089073181
0.46740764379501343 0.46740764379501343 0.46740764379501343
0.27722150087356567 0.27722150087356567 0.27722150087356567
0.27870142459869385 0.27870142459869385 0.27870142459869385
0.30005186796188354 0.30005186796188354 0.30005186796188354
0.34701800346374512 0.34701800346374512 0.34701800346374512
0.38874533772468567 0.38874533772468567 0.38874533772468567
0.46172067523002625 0.46172067523002625 0.46172067523002625
0.56653261184692383 0.56653261184692383 0.56653261184692383
0.47667601704597473 0.47667601704597473 0.47667601704597473
0.47192701697349548 0.47192701697349548 0.47192701697349548
0.42627564072608948 0.42627564072608948 0.42627564072608948
0.47758284211158752 0.47758284211158752 0.47758284211158752
0.56242901086807251 0.56242901086807251 0.56242901086807251
0.64579218626022339 0.64579218626022339 0.64579218626022339
0.73127061128616333 0.73127061128616333 0.73127061128616333
0.60643231868743896 0.60643231868743896 0.60643231868743896
0.61169338226318359 0.61169338226318359 0.61169338226318359
0.57370519638061523 0.57370519638061523 0.57370519638061523
0.57152003049850464 0.57152003049850464 0.57152003049850464
0.66500580310821533 0.66500580310821533 0.66500580310821533
0.76984268426895142 0.76984268426895142 0.76984268426895142
0.8473936915397644 0.8473936915397644 0.8473936915397644
0.75844144821166992 0.75844144821166992 0.75844144821166992
0.75423973798751831 0.75423973798751831 0.75423973798751831
0.73574835062026978 0.73574835062026978 0.73574835062026978
0.72014915943145752 0.72014915943145752 0.72014915943145752
0.77272516489028931 0.77272516489028931 0.77272516489028931
0.8562014102935791 0.8562014102935791 0.8562014102935791
0.92255079746246338 0.92255079746246338 0.92255079746246338
0.90249639749526978 0.90249639749526978 0.90249639749526978
0.90299856662750244 0.90299856662750244 0.90299856662750244
0.9017828106880188 0.9017828106880188 0.9017828106880188
0.89596271514892578 0.89596271514892578 0.89596271514892578
0.90609467029571533 0.90609467029571533 0.90609467029571533
0.93768531084060669 0.93768531084060669 0.93768531084060669
0.97153449058532715 0.97153449058532715 0.97153449058532715
0.20352226495742798 0.20352226495742798 0.20352226495742798
0.22588218748569489 0.22588218748569489 0.22588218748569489
0.27852430939674377 0.27852430939674377 0.27852430939674377
0.34429115056991577 0.34429115056991577 0.34429115056991577
0.4474579393863678 0.4474579393863678 0.4474579393863678
0.5854499340057373 0.5854499340057373 0.5854499340057373
0.64807558059692383 0.64807558059692383 0.64807558059692383
0.23730771243572235 0.23730771243572235 0.23730771243572235
0.25771766901016235 0.25771766901016235 0.25771766901016235
0.3098912239074707 0.3098912239074707 0.3098912239074707
0.37443026900291443 0.37443026900291443 0.37443026900291443
0.49456298351287842 0.49456298351287842 0.49456298351287842
0.59361177682876587 0.59361177682876587 0.59361177682876587
0.63699632883071899 0.63699632883071899 0.63699632883071899
0.29009923338890076 0.29009923338890076 0.29009923338890076
0.31339320540428162 0.31339320540428162 0.31339320540428162
0.36016938090324402 0.36016938090324402 0.36016938090324402
0.43812486529350281 0.43812486529350281 0.43812486529350281
0.53463268280029297 0.53463268280029297 0.53463268280029297
0.58822339773178101 0.58822339773178101 0.58822339773178101
0.61945295333862305 0.61945295333862305 0.61945295333862305
0.47810342907905579 0.47810342907905579 0.47810342907905579
0.48885622620582581 0.48885622620582581 0.48885622620582581
0.50330787897109985 0.50330787897109985 0.50330787897109985
0.53084176778793335 0.53084176778793335 0.53084176778793335
0.57951313257217407 0.57951313257217407 0.57951313257217407
0.62122136354446411 0.62122136354446411 0.62122136354446411
0.68432736396789551 0.68432736396789551 0.68432736396789551
0.69668769836425781 0.69668769836425781 0.69668769836425781
0.69407528638839722 0.69407528638839722 0.69407528638839722
0.6888001561164856 0.6888001561164856 0.6888001561164856
0.65824252367019653 0.65824252367019653 0.65824252367019653
0.70476394891738892 0.70476394891738892 0.70476394891738892
0.76904040575027466 0.76904040575027466 0.76904040575027466
0.83693557977676392 0.83693557977676392 0.83693557977676392
0.82359439134597778 0.82359439134597778 0.82359439134597778
0.81453210115432739 0.81453210115432739 0.81453210115432739
0.81431460380554199 0.81431460380554199 0.81431460380554199
0.78084546327590942 0.78084546327590942 0.78084546327590942
0.78872370719909668 0.78872370719909668 0.78872370719909668
0.86168843507766724 0.86168843507766724 0.86168843507766724
0.92883992195129395 0.92883992195129395 0.92883992195129395
0.93571978807449341 0.93571978807449341 0.93571978807449341
0.93083459138870239 0.93083459138870239 0.93083459138870239
0.93286406993865967 0.93286406993865967 0.93286406993865967
0.91382038593292236 0.91382038593292236 0.91382038593292236
0.90287584066390991 0.90287584066390991 0.90287584066390991
0.93153923749923706 0.93153923749923706 0.93153923749923706
0.97023230791091919 0.97023230791091919 0.97023230791091919
0.31838473677635193 0.31838473677635193 0.31838473677635193
0.34236368536949158 0.34236368536949158 0.34236368536949158
0.3942408561706543 0.3942408561706543 0.3942408561706543
0.4850541353225708 0.4850541353225708 0.4850541353225708
0.52351778745651245 0.52351778745651245 0.52351778745651245
0.62522643804550171 0.62522643804550171 0.62522643804550171
0.7862858772277832 0.7862858772277832 0.7862858772277832
0.36979967355728149 0.36979967355728149 0.36979967355728149
0.39061212539672852 0.39061212539672852 0.39061212539672852
0.43072906136512756 0.43072906136512756 0.43072906136512756
0.5027424693107605 0.5027424693107605 0.5027424693107605
0.55773937702178955 0.55773937702178955 0.55773937702178955
0.64556854963302612 0.64556854963302612 0.64556854963302612
0.79097038507461548 0.79097038507461548 0.79097038507461548
0.40380781888961792 0.40380781888961792 0.40380781888961792
0.43695726990699768 0.43695726990699768 0.43695726990699768
0.49716231226921082 0.49716231226921082 0.49716231226921082
0.55163216590881348 0.55163216590881348 0.55163216590881348
0.6061173677444458 0.6061173677444458 0.6061173677444458
0.70279473066329956 0.70279473066329956 0.70279473066329956
0.80848574638366699 0.80848574638366699 0.80848574638366699
0.49140462279319763 0.49140462279319763 0.49140462279319763
0.48779416084289551 0.48779416084289551 0.48779416084289551
0.53815078735351562 0.53815078735351562 0.53815078735351562
0.59570693969726562 0.59570693969726562 0.59570693969726562
0.6585686206817627 0.6585686206817627 0.6585686206817627
0.73889762163162231 0.73889762163162231 0.73889762163162231
0.79211968183517456 0.79211968183517456 0.79211968183517456
0.67994880676269531 0.67994880676269531 0.67994880676269531
0.70129245519638062 0.70129245519638062 0.70129245519638062
0.70905256271362305 0.70905256271362305 0.70905256271362305
0.71193760633468628 0.71193760633468628 0.71193760633468628
0.74064081907272339 0.74064081907272339 0.74064081907272339
0.77777469158172607 0.77777469158172607 0.77777469158172607
0.8139004111289978 0.8139004111289978 0.8139004111289978
0.8769105076789856 0.8769105076789856 0.8769105076789856
0.87414723634719849 0.87414723634719849 0.87414723634719849
0.87801671028137207 0.87801671028137207 0.87801671028137207
0.85489636659622192 0.85489636659622192 0.85489636659622192
0.83123540878295898 0.83123540878295898 0.83123540878295898
0.86325174570083618 0.86325174570083618 0.86325174570083618
0.92355740070343018 0.92355740070343018 0.92355740070343018
0.9738122820854187 0.9738122820854187 0.9738122820854187
0.97208261489868164 0.97208261489868164 0.97208261489868164
0.97160428762435913 0.97160428762435913 0.97160428762435913
0.95518428087234497 0.95518428087234497 0.95518428087234497
0.9343256950378418 0.9343256950378418 0.9343256950378418
0.94203150272369385 0.94203150272369385 0.94203150272369385
0.97640979290008545 0.97640979290008545 0.97640979290008545
0.50793099403381348 0.50793099403381348 0.50793099403381348
0.52756798267364502 0.52756798267364502 0.52756798267364502
0.5697253942489624 0.5697253942489624 0.5697253942489624
0.64480286836624146 0.64480286836624146 0.64480286836624146
0.71035701036453247 0.71035701036453247 0.71035701036453247
0.73563230037689209 0.73563230037689209 0.73563230037689209
0.79289394617080688 0.79289394617080688 0.79289394617080688
0.54473841190338135 0.54473841190338135 0.54473841190338135
0.56725776195526123 0.56725776195526123 0.56725776195526123
0.59720098972320557 0.59720098972320557 0.59720098972320557
0.6557886004447937 0.6557886004447937 0.6557886004447937
0.72626632452011108 0.72626632452011108 0.72626632452011108
0.74247777462005615 0.74247777462005615 0.74247777462005615
0.79889011383056641 0.79889011383056641 0.79889011383056641
0.59525614976882935 0.59525614976882935 0.59525614976882935
0.61456102132797241 0.61456102132797241 0.61456102132797241
0.65270352363586426 0.65270352363586426 0.65270352363586426
0.69690620899200439 0.69690620899200439 0.69690620899200439
0.74820530414581299 0.74820530414581299 0.74820530414581299
0.76727485656738281 0.76727485656738281 0.76727485656738281
0.83514404296875 0.83514404296875 0.83514404296875
0.58209657669067383 0.58209657669067383 0.58209657669067383
0.61115854978561401 0.61115854978561401 0.61115854978561401
0.66661304235458374 0.66661304235458374 0.66661304235458374
0.72222071886062622 0.72222071886062622 0.72222071886062622
0.76987630128860474 0.76987630128860474 0.76987630128860474
0.80289191007614136 0.80289191007614136 0.80289191007614136
0.86895155906677246 0.86895155906677246 0.86895155906677246
0.70076149702072144 0.70076149702072144 0.70076149702072144
0.70385360717773438 0.70385360717773438 0.70385360717773438
0.71423554420471191 0.71423554420471191 0.71423554420471191
0.75146353244781494 0.75146353244781494 0.75146353244781494
0.80071640014648438 0.80071640014648438 0.80071640014648438
0.84677791595458984 0.84677791595458984 0.84677791595458984
0.90021955966949463 0.90021955966949463 0.90021955966949463
0.87166750431060791 0.87166750431060791 0.87166750431060791
0.86924725770950317 0.86924725770950317 0.86924725770950317
0.86748003959655762 0.86748003959655762 0.86748003959655762
0.87172394990921021 0.87172394990921021 0.87172394990921021
0.88339006900787354 0.88339006900787354 0.88339006900787354
0.89083671569824219 0.89083671569824219 0.89083671569824219
0.92587292194366455 0.92587292194366455 0.92587292194366455
0.97668665647506714 0.97668665647506714 0.97668665647506714
0.97971105575561523 0.97971105575561523 0.97971105575561523
0.97520250082015991 0.97520250082015991 0.97520250082015991
0.97828894853591919 0.97828894853591919 0.97828894853591919
0.97657781839370728 0.97657781839370728 0.97657781839370728
0.95911520719528198 0.95911520719528198 0.95911520719528198
0.97195708751678467 0.97195708751678467 0.97195708751678467
0.7517591118812561 0.7517591118812561 0.7517591118812561
0.75347012281417847 0.75347012281417847 0.75347012281417847
0.77251768112182617 0.77251768112182617 0.77251768112182617
0.81678420305252075 0.81678420305252075 0.81678420305252075
0.86880487203598022 0.86880487203598022 0.86880487203598022
0.89989763498306274 0.89989763498306274 0.89989763498306274
0.90802574157714844 0.90802574157714844 0.90802574157714844
0.76730167865753174 0.76730167865753174 0.76730167865753174
0.77578479051589966 0.77578479051589966 0.77578479051589966
0.78858101367950439 0.78858101367950439 0.78858101367950439
0.81829768419265747 0.81829768419265747 0.81829768419265747
0.8660847544670105 0.8660847544670105 0.8660847544670105
0.89050328731536865 0.89050328731536865 0.89050328731536865
0.8977237343788147 0.8977237343788147 0.8977237343788147
0.79218173027038574 0.79218173027038574 0.79218173027038574
0.80405747890472412 0.80405747890472412 0.80405747890472412
0.81922829151153564 0.81922829151153564 0.81922829151153564
0.83733630180358887 0.83733630180358887 0.83733630180358887
0.86419504880905151 0.86419504880905151 0.86419504880905151
0.88668417930603027 0.88668417930603027 0.88668417930603027
0.90518295764923096 0.90518295764923096 0.90518295764923096
0.78730714321136475 0.78730714321136475 0.78730714321136475
0.80037736892700195 0.80037736892700195 0.80037736892700195
0.82519161701202393 0.82519161701202393 0.82519161701202393
0.85435265302658081 0.85435265302658081 0.85435265302658081
0.87770301103591919 0.87770301103591919 0.87770301103591919
0.90620982646942139 0.90620982646942139 0.90620982646942139
0.93073755502700806 0.93073755502700806 0.93073755502700806
0.78302180767059326 0.78302180767059326 0.78302180767059326
0.79968637228012085 0.79968637228012085 0.79968637228012085
0.8207629919052124 0.8207629919052124 0.8207629919052124
0.84578680992126465 0.84578680992126465 0.84578680992126465
0.87567019462585449 0.87567019462585449 0.87567019462585449
0.91521775722503662 0.91521775722503662 0.91521775722503662
0.94764930009841919 0.94764930009841919 0.94764930009841919
0.89891678094863892 0.89891678094863892 0.89891678094863892
0.90382623672485352 0.90382623672485352 0.90382623672485352
0.88984549045562744 0.88984549045562744 0.88984549045562744
0.88789427280426025 0.88789427280426025 0.88789427280426025
0.90912860631942749 0.90912860631942749 0.90912860631942749
0.93218952417373657 0.93218952417373657 0.93218952417373657
0.95728075504302979 0.95728075504302979 0.95728075504302979
0.97426211833953857 0.97426211833953857 0.97426211833953857
0.98272866010665894 0.98272866010665894 0.98272866010665894
0.96953612565994263 0.96953612565994263 0.96953612565994263
0.97471886873245239 0.97471886873245239 0.97471886873245239
0.9816737174987793 0.9816737174987793 0.9816737174987793
0.97330260276794434 0.97330260276794434 0.97330260276794434
0.97681510448455811 0.97681510448455811 0.97681510448455811
