luts/negative_new/kodak_portra_800.cube
# Created by: G'MIC (https://gmic.eu)
TITLE "kodak_portra_800"
# LUT size
LUT_3D_SIZE 7
# Data domain
DOMAIN_MIN 0.0 0.0 0.0
DOMAIN_MAX 1.0 1.0 1.0
# LUT data points
0.034757517278194427 0.046882167458534241 0.049364816397428513
0.15176191926002502 0.051797199994325638 0.044294949620962143
0.35347512364387512 0.026809049770236015 0.031861189752817154
0.62346112728118896 0.0075151482596993446 0.011877666227519512
0.84854328632354736 0.010656798258423805 0.0062734717503190041
0.98214948177337646 0.013080746866762638 2.154182038793806e-05
1 0.13361229002475739 0.00011435116175562143
0.008836694061756134 0.14357940852642059 0.059052322059869766
0.12109605222940445 0.15865065157413483 0.04275837168097496
0.34268930554389954 0.17451223731040955 0.019205998629331589
0.61177569627761841 0.16009736061096191 0.007076652254909277
0.84524136781692505 0.18147081136703491 0.0022241480182856321
0.98524391651153564 0.22778300940990448 0.0016079023480415344
0.9994702935218811 0.27981531620025635 0.00084108836017549038
0.002186075784265995 0.28763356804847717 0.07461567223072052
0.01878306083381176 0.29808589816093445 0.058113381266593933
0.28761526942253113 0.3523450493812561 0.0090424781665205956
0.58713060617446899 0.39698460698127747 0.0028434004634618759
0.7991403341293335 0.41978192329406738 0.0028029498644173145
0.96566063165664673 0.43394625186920166 0.0012835185043513775
0.99632382392883301 0.45012480020523071 0.00073529413202777505
0.0015913720708340406 0.46557354927062988 0.078957170248031616
0.0080240583047270775 0.46843931078910828 0.059024885296821594
0.14736528694629669 0.48527485132217407 0.011822763830423355
0.49406537413597107 0.55233103036880493 0.0043129418045282364
0.75122559070587158 0.59955346584320068 7.8627643233630806e-05
0.92068028450012207 0.61034959554672241 0.00020428825519047678
0.99971628189086914 0.61654835939407349 0
0 0.63269752264022827 0.069586656987667084
0.0036044700536876917 0.62898361682891846 0.061699498444795609
0.031047999858856201 0.62660300731658936 0.025843331590294838
0.39545524120330811 0.6721758246421814 0.0076737497001886368
0.66865485906600952 0.72819262742996216 0.0045296913012862206
0.88247311115264893 0.76617491245269775 1.4959597137931269e-05
0.99263584613800049 0.760661780834198 0
0 0.79575228691101074 0.15301771461963654
0.0018300374504178762 0.79052412509918213 0.15284629166126251
0.032857544720172882 0.78674995899200439 0.12812575697898865
0.37020748853683472 0.80097585916519165 0.063319198787212372
0.60677295923233032 0.83493584394454956 0.013464280404150486
0.81297039985656738 0.86611777544021606 0.0045796562917530537
0.97647958993911743 0.87962663173675537 5.3316005505621433e-05
0.17076274752616882 0.94741535186767578 0.39921706914901733
0.23422977328300476 0.94553142786026001 0.39736476540565491
0.35458707809448242 0.94143861532211304 0.39629948139190674
0.48743647336959839 0.94098746776580811 0.38770952820777893
0.63451099395751953 0.95238655805587769 0.3518010675907135
0.78121268749237061 0.96445482969284058 0.26721340417861938
0.93312418460845947 0.97420364618301392 0.087764650583267212
0.03267892450094223 0.05132254958152771 0.16934876143932343
0.16002137959003448 0.04271991178393364 0.17246343195438385
0.35863170027732849 0.010480050928890705 0.16413334012031555
0.61139452457427979 0.0083686234429478645 0.14413890242576599
0.85117959976196289 0.0046400781720876694 0.12442371249198914
0.98944783210754395 0.0053005442023277283 0.093904770910739899
1 0.095049567520618439 0.054529376327991486
0.012514630332589149 0.15985509753227234 0.16432662308216095
0.13354814052581787 0.16133894026279449 0.1764519214630127
0.35760587453842163 0.15476858615875244 0.16083160042762756
0.62604713439941406 0.12648740410804749 0.14177633821964264
0.84839791059494019 0.12927080690860748 0.11804733425378799
0.98680073022842407 0.19078633189201355 0.07594037801027298
1 0.25985622406005859 0.033190619200468063
0.0049742157571017742 0.31776559352874756 0.18617548048496246
0.06160799041390419 0.32259562611579895 0.17453494668006897
0.31442990899085999 0.35694527626037598 0.14197179675102234
0.59826838970184326 0.38489222526550293 0.091327309608459473
0.81681948900222778 0.4014226496219635 0.067401766777038574
0.96987271308898926 0.42133387923240662 0.034156154841184616
1 0.44393676519393921 0.01752726174890995
0.0015973857371136546 0.48398500680923462 0.18461352586746216
0.0074426238425076008 0.48488196730613708 0.18571537733078003
0.18924549221992493 0.4964594841003418 0.14697681367397308
0.51121705770492554 0.5533137321472168 0.063209876418113708
0.76757872104644775 0.60004585981369019 0.015937341377139091
0.93350565433502197 0.60661882162094116 0.015661889687180519
0.99962794780731201 0.61159950494766235 0.0088073881343007088
3.1115963793126866e-05 0.64553451538085938 0.19109444320201874
0.003403577720746398 0.64050734043121338 0.18681080639362335
0.068480290472507477 0.63539713621139526 0.1654282808303833
0.40594857931137085 0.67174243927001953 0.097002588212490082
0.67159909009933472 0.72156232595443726 0.017939278855919838
0.88944321870803833 0.76536518335342407 0.004209436010569334
0.99574702978134155 0.75924926996231079 0.0054094502702355385
0.00086379703134298325 0.80195039510726929 0.2480120062828064
0.002142289187759161 0.79665905237197876 0.24435484409332275
0.074891336262226105 0.79293632507324219 0.22368922829627991
0.38764837384223938 0.80325222015380859 0.19497878849506378
0.6084180474281311 0.82973021268844604 0.11964882910251617
0.81195688247680664 0.8617369532585144 0.02459106408059597
0.98484200239181519 0.8871757984161377 0.0018385943258181214
0.20427606999874115 0.94816482067108154 0.44339656829833984
0.26782986521720886 0.94665002822875977 0.44161695241928101
0.37531983852386475 0.94301122426986694 0.44007167220115662
0.49705016613006592 0.94055616855621338 0.43605375289916992
0.63788187503814697 0.95026093721389771 0.40868553519248962
0.78678196668624878 0.96374976634979248 0.34646624326705933
0.9327855110168457 0.97250145673751831 0.19184665381908417
0.0085285855457186699 0.051101863384246826 0.36352118849754333
0.1360219269990921 0.037828676402568817 0.36483410000801086
0.38383603096008301 0.0085856271907687187 0.37328633666038513
0.62690877914428711 0.006696783471852541 0.36889013648033142
0.85342800617218018 0.0027334324549883604 0.35555532574653625
0.99185049533843994 0.0037115358281880617 0.31934288144111633
1 0.03932933509349823 0.32199552655220032
0.0086185084655880928 0.17334790527820587 0.36636927723884583
0.12251362204551697 0.1682266891002655 0.35895469784736633
0.38659283518791199 0.13690881431102753 0.37552237510681152
0.64019757509231567 0.056228935718536377 0.36954092979431152
0.85516220331192017 0.02261669747531414 0.3445676863193512
0.9930223822593689 0.088026739656925201 0.33236417174339294
1 0.24962155520915985 0.32927200198173523
0.011090327054262161 0.34954413771629333 0.35320878028869629
0.12074946612119675 0.35137945413589478 0.35552680492401123
0.36143919825553894 0.3580162525177002 0.36028483510017395
0.61628967523574829 0.3565518856048584 0.3558809757232666
0.81944090127944946 0.37455174326896667 0.34447991847991943
0.96660459041595459 0.40741381049156189 0.33348184823989868
1 0.4432004988193512 0.31553953886032104
0.009114912711083889 0.53023570775985718 0.37287014722824097
0.1529063880443573 0.53045809268951416 0.37188073992729187
0.31076407432556152 0.5219840407371521 0.34982839226722717
0.55348974466323853 0.56300264596939087 0.32246315479278564
0.77319502830505371 0.58951258659362793 0.30790895223617554
0.92993581295013428 0.59876424074172974 0.31033501029014587
0.99484723806381226 0.61231321096420288 0.29973950982093811
0.03329487144947052 0.67980349063873291 0.38327953219413757
0.044594351202249527 0.67726308107376099 0.3649088442325592
0.23300497233867645 0.66752934455871582 0.34876793622970581
0.45685422420501709 0.6789783239364624 0.31880876421928406
0.69316482543945312 0.72360694408416748 0.28514617681503296
0.88891875743865967 0.75834709405899048 0.26695773005485535
0.99632328748703003 0.76122242212295532 0.28135627508163452
0.0062166848219931126 0.81658053398132324 0.4018370509147644
0.013839871622622013 0.81420731544494629 0.38740044832229614
0.21648889780044556 0.80781006813049316 0.37554237246513367
0.4063994288444519 0.80033338069915771 0.35160857439041138
0.62303823232650757 0.82863140106201172 0.3286125659942627
0.81551879644393921 0.8592911958694458 0.28163248300552368
0.98145943880081177 0.88602811098098755 0.23419776558876038
0.29314655065536499 0.94910991191864014 0.53235268592834473
0.33343172073364258 0.94681429862976074 0.52937597036361694
0.41949963569641113 0.94374006986618042 0.52727609872817993
0.51733922958374023 0.94035965204238892 0.51904118061065674
0.64502084255218506 0.94689112901687622 0.50374281406402588
0.78908568620681763 0.95975065231323242 0.4719943106174469
0.93114793300628662 0.97131150960922241 0.39291718602180481
0.0072060381062328815 0.031593009829521179 0.5897601842880249
0.14945796132087708 0.015142119489610195 0.58952575922012329
0.43150508403778076 0.0049325679428875446 0.59875571727752686
0.67209172248840332 0.0042301849462091923 0.61404883861541748
0.85194593667984009 0.0020203832536935806 0.59753823280334473
0.98929816484451294 0.0032041661906987429 0.57053661346435547
1 0.0067372638732194901 0.53358173370361328
0.013961357995867729 0.17300282418727875 0.58667832612991333
0.13008537888526917 0.16472715139389038 0.58778089284896851
0.42363631725311279 0.1371576189994812 0.60445302724838257
0.66469824314117432 0.068344652652740479 0.61619943380355835
0.84521299600601196 0.024853097274899483 0.59880822896957397
0.98512822389602661 0.029666660353541374 0.57065463066101074
1 0.11534785479307175 0.54501301050186157
0.012412561103701591 0.35419923067092896 0.56705397367477417
0.039098329842090607 0.35546278953552246 0.57144778966903687
0.37883773446083069 0.357654869556427 0.58623379468917847
0.6332087516784668 0.36543074250221252 0.59351158142089844
0.81941956281661987 0.35272830724716187 0.58161419630050659
0.96503233909606934 0.37049847841262817 0.57176077365875244
0.99977588653564453 0.431343674659729 0.55944830179214478
0.013981778174638748 0.55378168821334839 0.55407166481018066
0.14356890320777893 0.55755472183227539 0.55734062194824219
0.38785004615783691 0.55983644723892212 0.56819576025009155
0.59081625938415527 0.57241809368133545 0.5641096830368042
0.77144891023635864 0.58549374341964722 0.564544677734375
0.92348659038543701 0.59891754388809204 0.56270468235015869
0.99602079391479492 0.62848383188247681 0.56743824481964111
0.22658471763134003 0.71050286293029785 0.57343894243240356
0.30764088034629822 0.70981121063232422 0.57427525520324707
0.42891508340835571 0.70814591646194458 0.56844490766525269
0.52813786268234253 0.70061659812927246 0.54122787714004517
0.71113604307174683 0.73099148273468018 0.53390371799468994
0.88314318656921387 0.75634932518005371 0.54061621427536011
0.99500179290771484 0.76203328371047974 0.55544257164001465
0.33822673559188843 0.83171570301055908 0.6049494743347168
0.36292377114295959 0.8318256139755249 0.59572935104370117
0.40465891361236572 0.82644528150558472 0.57001173496246338
0.4856453537940979 0.81656122207641602 0.53844314813613892
0.63176268339157104 0.82619339227676392 0.52101057767868042
0.82445520162582397 0.86464989185333252 0.52584236860275269
0.9783443808555603 0.8844141960144043 0.51798886060714722
0.43192005157470703 0.94681680202484131 0.6604236364364624
0.44311165809631348 0.94832247495651245 0.65241628885269165
0.48297432065010071 0.94495135545730591 0.64126116037368774
0.55527198314666748 0.93894308805465698 0.63017010688781738
0.65704542398452759 0.94414013624191284 0.61845976114273071
0.79324245452880859 0.95773971080780029 0.60711479187011719
0.93456262350082397 0.97188848257064819 0.57366263866424561
0.019042115658521652 0.010284902527928352 0.77140551805496216
0.23000392317771912 0.0069417916238307953 0.77412563562393188
0.47057083249092102 0.0060367956757545471 0.77834045886993408
0.6798551082611084 0.0078655015677213669 0.78599554300308228
0.85442692041397095 0.0042154351249337196 0.79573225975036621
0.97958093881607056 0.0035520365927368402 0.77865457534790039
0.99846816062927246 0.0067103216424584389 0.74486082792282104
0.018561165779829025 0.16633228957653046 0.77048146724700928
0.22230200469493866 0.15760694444179535 0.7721703052520752
0.45457708835601807 0.11899784952402115 0.77432090044021606
0.67451333999633789 0.10105731338262558 0.79135209321975708
0.85022115707397461 0.083477690815925598 0.7991642951965332
0.97678446769714355 0.059132549911737442 0.77874094247817993
1 0.12981390953063965 0.74870401620864868
0.010034703649580479 0.35691660642623901 0.75021857023239136
0.12302441895008087 0.35502320528030396 0.75921851396560669
0.41425955295562744 0.3607637882232666 0.76134645938873291
0.64108890295028687 0.38076776266098022 0.76888799667358398
0.82363134622573853 0.39340108633041382 0.78165286779403687
0.95342928171157837 0.37533837556838989 0.76747763156890869
0.99835258722305298 0.41817453503608704 0.74787521362304688
0.010186976753175259 0.54554909467697144 0.72906118631362915
0.042907010763883591 0.54902362823486328 0.73056173324584961
0.35369515419006348 0.55004483461380005 0.73642092943191528
0.58489120006561279 0.57007378339767456 0.7431073784828186
0.78121799230575562 0.60094749927520752 0.7618556022644043
0.9207497239112854 0.60236585140228271 0.75834333896636963
0.9947124719619751 0.60932821035385132 0.7536512017250061
0.17257498204708099 0.72233527898788452 0.72421282529830933
0.28456345200538635 0.71955418586730957 0.73165357112884521
0.44704967737197876 0.71767210960388184 0.73623216152191162
0.59169834852218628 0.72614645957946777 0.73429775238037109
0.73771530389785767 0.7384335994720459 0.73438286781311035
0.88246059417724609 0.75880259275436401 0.7387661337852478
0.99044525623321533 0.77070564031600952 0.74977791309356689
0.4369141161441803 0.84892386198043823 0.75231271982192993
0.47317978739738464 0.84706646203994751 0.75046634674072266
0.53135401010513306 0.84779858589172363 0.74679809808731079
0.61347866058349609 0.84620010852813721 0.73949640989303589
0.68294274806976318 0.83960413932800293 0.71030807495117188
0.83982664346694946 0.86938291788101196 0.71883618831634521
0.97495776414871216 0.88362205028533936 0.72877413034439087
0.56091809272766113 0.95037776231765747 0.79596781730651855
0.58184188604354858 0.94888067245483398 0.79562640190124512
0.61095792055130005 0.94845753908157349 0.79026907682418823
0.64467543363571167 0.94975119829177856 0.77061748504638672
0.70396220684051514 0.94750630855560303 0.75427865982055664
0.80489456653594971 0.95660865306854248 0.74395328760147095
0.94003438949584961 0.96903002262115479 0.73173940181732178
0.2519228458404541 0.0091080758720636368 0.90827417373657227
0.36432591080665588 0.0090491501614451408 0.90829968452453613
0.51776617765426636 0.0075536989606916904 0.91033220291137695
0.68591195344924927 0.0069589205086231232 0.91214001178741455
0.84367853403091431 0.0053049423731863499 0.91936767101287842
0.9778062105178833 0.021159542724490166 0.92381763458251953
0.99964874982833862 0.017011245712637901 0.90710115432739258
0.24182167649269104 0.18069908022880554 0.9044184684753418
0.35229372978210449 0.17097513377666473 0.90173977613449097
0.51032322645187378 0.15258944034576416 0.90544050931930542
0.68175733089447021 0.14801603555679321 0.90976977348327637
0.84075605869293213 0.19694823026657104 0.9163171648979187
0.97035223245620728 0.2254321426153183 0.91925382614135742
0.99994975328445435 0.22736455500125885 0.89832991361618042
0.18090994656085968 0.36860021948814392 0.89739549160003662
0.31191182136535645 0.37349164485931396 0.89631742238998413
0.47663214802742004 0.38193026185035706 0.89237838983535767
0.65964388847351074 0.38910108804702759 0.89875608682632446
0.82045471668243408 0.4336262047290802 0.90629285573959351
0.94949245452880859 0.45230185985565186 0.90859448909759521
0.99614220857620239 0.45982730388641357 0.89458858966827393
0.016718845814466476 0.54191398620605469 0.87793952226638794
0.15272553265094757 0.544730544090271 0.87875974178314209
0.41855362057685852 0.55955278873443604 0.87857580184936523
0.61426091194152832 0.57661432027816772 0.87934619188308716
0.78187674283981323 0.60903787612915039 0.88699090480804443
0.91914498805999756 0.63493949174880981 0.89685839414596558
0.99145412445068359 0.63299310207366943 0.8903089165687561
0.089061364531517029 0.71646440029144287 0.8639291524887085
0.22619080543518066 0.71258419752120972 0.86289191246032715
0.41258683800697327 0.71034461259841919 0.86367577314376831
0.56108659505844116 0.71970617771148682 0.86478042602539062
0.73628932237625122 0.74891728162765503 0.87052756547927856
0.88902860879898071 0.77471244335174561 0.88374954462051392
0.98617571592330933 0.77730149030685425 0.87935274839401245
0.40329766273498535 0.85159659385681152 0.86697602272033691
0.44544479250907898 0.85021471977233887 0.86335033178329468
0.53254055976867676 0.85676205158233643 0.86399334669113159
0.63679099082946777 0.85507673025131226 0.86685770750045776
0.74795150756835938 0.86317473649978638 0.87080377340316772
0.85792630910873413 0.87378573417663574 0.8709414005279541
0.97134554386138916 0.88708913326263428 0.87710940837860107
0.61833459138870239 0.9567064642906189 0.8872295618057251
0.6335265040397644 0.95348644256591797 0.88437956571578979
0.67247974872589111 0.95350337028503418 0.88609188795089722
0.72337663173675537 0.95279324054718018 0.88635838031768799
0.78547221422195435 0.95685738325119019 0.88656789064407349
0.8473096489906311 0.95686274766921997 0.87094223499298096
0.94379246234893799 0.96869301795959473 0.87138360738754272
0.42382588982582092 0.10565019398927689 0.990489661693573
0.47929662466049194 0.097073979675769806 0.98999828100204468
0.5830456018447876 0.088321387767791748 0.99053692817687988
0.7061188817024231 0.099592022597789764 0.99150294065475464
0.83356600999832153 0.15935380756855011 0.98915064334869385
0.95901203155517578 0.26523736119270325 0.9924391508102417
1 0.29062601923942566 0.99068105220794678
0.42628481984138489 0.24804815649986267 0.98678493499755859
0.48232954740524292 0.2506164014339447 0.98695391416549683
0.57894551753997803 0.24701994657516479 0.98692351579666138
0.70073723793029785 0.26609507203102112 0.98454791307449341
0.82828444242477417 0.30862021446228027 0.9867779016494751
0.9472426176071167 0.36765477061271667 0.98676145076751709
0.99786162376403809 0.39276987314224243 0.99021917581558228
0.40681856870651245 0.4214138388633728 0.98175829648971558
0.46807160973548889 0.42528441548347473 0.9845091700553894
0.56635618209838867 0.43127462267875671 0.98270785808563232
0.69159966707229614 0.44263604283332825 0.98235076665878296
0.8162195086479187 0.47073686122894287 0.9816211462020874
0.93029922246932983 0.5234561562538147 0.97816073894500732
0.99594682455062866 0.54775607585906982 0.98417943716049194
0.35121855139732361 0.57814329862594604 0.98229563236236572
0.41940617561340332 0.58701276779174805 0.97942590713500977
0.53995370864868164 0.59599989652633667 0.98096758127212524
0.66323971748352051 0.60384243726730347 0.97570192813873291
0.7942347526550293 0.62974649667739868 0.97903966903686523
0.90933233499526978 0.66147327423095703 0.97575837373733521
0.99322080612182617 0.68414342403411865 0.98255026340484619
0.26119479537010193 0.71820962429046631 0.97492939233779907
0.34015467762947083 0.7206118106842041 0.97477364540100098
0.46350193023681641 0.72335046529769897 0.97288417816162109
0.61429190635681152 0.73512309789657593 0.96752029657363892
0.76164829730987549 0.75967496633529663 0.97199517488479614
0.88900983333587646 0.78307253122329712 0.97485703229904175
0.98223191499710083 0.79813545942306519 0.97288817167282104
0.43595805764198303 0.8590276837348938 0.96600693464279175
0.47877153754234314 0.85827499628067017 0.96610510349273682
0.54199779033660889 0.85755360126495361 0.96492123603820801
0.62646186351776123 0.85805678367614746 0.96675097942352295
0.74116963148117065 0.86562442779541016 0.96746146678924561
0.87428128719329834 0.88365834951400757 0.96951192617416382
0.97160810232162476 0.89586836099624634 0.97070443630218506
0.61737936735153198 0.96154093742370605 0.96529620885848999
0.63404864072799683 0.96066421270370483 0.96601605415344238
0.67845368385314941 0.95995748043060303 0.96725142002105713
0.73180687427520752 0.95807915925979614 0.96733421087265015
0.80738663673400879 0.96232932806015015 0.96773463487625122
0.8739922046661377 0.96238178014755249 0.96613806486129761
0.96234655380249023 0.96965372562408447 0.9681084156036377
