luts/negative_new/kodak_portra_800_++.cube
# Created by: G'MIC (https://gmic.eu)
TITLE "kodak_portra_800_++"
# LUT size
LUT_3D_SIZE 5
# Data domain
DOMAIN_MIN 0.0 0.0 0.0
DOMAIN_MAX 1.0 1.0 1.0
# LUT data points
0.070072025060653687 0.14488174021244049 0.19163678586483002
0.25470492243766785 0.14782856404781342 0.1853039413690567
0.58419996500015259 0.15115946531295776 0.18418057262897491
0.91718858480453491 0.18597714602947235 0.15085770189762115
0.99980145692825317 0.29980155825614929 0.098655417561531067
0.035642046481370926 0.25356200337409973 0.20600372552871704
0.21364103257656097 0.27350559830665588 0.19306617975234985
0.55734771490097046 0.32368576526641846 0.15962971746921539
0.87530034780502319 0.35444265604019165 0.11657864600419998
0.99962121248245239 0.41426509618759155 0.034973010420799255
0.003907566424459219 0.46177241206169128 0.22772683203220367
0.077216222882270813 0.46562460064888 0.21311201155185699
0.48165425658226013 0.55557101964950562 0.12157107889652252
0.84166061878204346 0.60230886936187744 0.0077445385977625847
0.99221831560134888 0.60951077938079834 0.012650433927774429
0.00013140510418452322 0.70838934183120728 0.24523532390594482
0.0090895108878612518 0.70068496465682983 0.24238917231559753
0.37117734551429749 0.73238682746887207 0.19753502309322357
0.7543376088142395 0.80177682638168335 0.017352070659399033
0.98835641145706177 0.8330303430557251 0.0006841023568995297
0.33215996623039246 0.94459736347198486 0.4765467643737793
0.40784153342247009 0.93952977657318115 0.48017612099647522
0.56877714395523071 0.936920166015625 0.4777069091796875
0.75592482089996338 0.95548743009567261 0.42151299118995667
0.95185494422912598 0.97194498777389526 0.21475927531719208
0.052006620913743973 0.14789064228534698 0.32151207327842712
0.27224624156951904 0.13539521396160126 0.32818621397018433
0.6013329029083252 0.019853629171848297 0.31737822294235229
0.93482667207717896 0.069329202175140381 0.29637870192527771
1 0.29459485411643982 0.30456298589706421
0.032480757683515549 0.27708384394645691 0.3131701648235321
0.24777133762836456 0.28140869736671448 0.32877150177955627
0.59325748682022095 0.30163508653640747 0.31149125099182129
0.90045362710952759 0.34286931157112122 0.30472192168235779
0.99965786933898926 0.42060971260070801 0.27634137868881226
0.0034986010286957026 0.51164722442626953 0.34450629353523254
0.16198097169399261 0.50547236204147339 0.33103874325752258
0.51871567964553833 0.56433963775634766 0.28308537602424622
0.84736305475234985 0.58981645107269287 0.22140195965766907
0.99776506423950195 0.60211747884750366 0.1851399689912796
0.00025432810070924461 0.73606675863265991 0.35317933559417725
0.022657178342342377 0.72847718000411987 0.3435610830783844
0.4083501398563385 0.73736470937728882 0.32366722822189331
0.77044111490249634 0.80434787273406982 0.2328944057226181
0.99724781513214111 0.82570427656173706 0.083342999219894409
0.38400048017501831 0.94476264715194702 0.5406150221824646
0.44244128465652466 0.93934869766235352 0.54362726211547852
0.58800250291824341 0.93731081485748291 0.54364198446273804
0.76204568147659302 0.95121681690216064 0.50592565536499023
0.95191329717636108 0.97096562385559082 0.37617012858390808
0.013849535025656223 0.14271607995033264 0.60446774959564209
0.310365229845047 0.11722732335329056 0.61125439405441284
0.65088146924972534 0.0088136410340666771 0.62548857927322388
0.93951272964477539 0.0039119794964790344 0.60014206171035767
0.99971872568130493 0.0076443841680884361 0.54623079299926758
0.0087751802057027817 0.28994089365005493 0.58970862627029419
0.25133001804351807 0.28921544551849365 0.60546398162841797
0.63236337900161743 0.27181175351142883 0.62187206745147705
0.92539721727371216 0.22260825335979462 0.59762012958526611
1 0.35527944564819336 0.5644909143447876
0.0069389641284942627 0.56329250335693359 0.57677417993545532
0.23428735136985779 0.56750810146331787 0.57744008302688599
0.56874525547027588 0.57905620336532593 0.5773811936378479
0.85833549499511719 0.60728597640991211 0.57916653156280518
0.9963376522064209 0.65215712785720825 0.57892036437988281
0.26129305362701416 0.78230935335159302 0.60223865509033203
0.37793195247650146 0.77788758277893066 0.5982285737991333
0.51524484157562256 0.76133394241333008 0.56347537040710449
0.78563249111175537 0.80761229991912842 0.54886031150817871
0.98370683193206787 0.80890375375747681 0.50225389003753662
0.50626003742218018 0.94766640663146973 0.68307304382324219
0.54057610034942627 0.94629025459289551 0.67700803279876709
0.62631350755691528 0.94128072261810303 0.66634809970855713
0.76834267377853394 0.94540858268737793 0.65269201993942261
0.94725722074508667 0.97058439254760742 0.60837382078170776
0.17068402469158173 0.12823285162448883 0.85246294736862183
0.39622893929481506 0.08472336083650589 0.85056769847869873
0.67289620637893677 0.0091462377458810806 0.86147558689117432
0.94078481197357178 0.0050362679176032543 0.87007814645767212
1 0.012193134054541588 0.83732903003692627
0.05548572912812233 0.29431390762329102 0.84248358011245728
0.33530101180076599 0.29530265927314758 0.84146416187286377
0.66241574287414551 0.29549321532249451 0.84869265556335449
0.92558914422988892 0.29491403698921204 0.86196565628051758
0.99799251556396484 0.33082538843154907 0.8371894359588623
0.0070518944412469864 0.55360358953475952 0.81296229362487793
0.16179966926574707 0.55311846733093262 0.81505376100540161
0.58911502361297607 0.58146184682846069 0.81642866134643555
0.87550169229507446 0.6256597638130188 0.84022277593612671
0.9916377067565918 0.64379304647445679 0.83416104316711426
0.25938469171524048 0.80173826217651367 0.80426299571990967
0.41111302375793457 0.80106252431869507 0.80571877956390381
0.62832188606262207 0.80511540174484253 0.80814206600189209
0.82231241464614868 0.81753122806549072 0.81408149003982544
0.98192209005355835 0.84595996141433716 0.82109099626541138
0.63641703128814697 0.95397734642028809 0.84810048341751099
0.66815316677093506 0.95364761352539062 0.84837627410888672
0.73959594964981079 0.95178413391113281 0.8434826135635376
0.81319749355316162 0.94778186082839966 0.82260847091674805
0.95685744285583496 0.96794271469116211 0.81446856260299683
0.40337517857551575 0.19221833348274231 0.98852133750915527
0.51414620876312256 0.18224503099918365 0.99117767810821533
0.71015751361846924 0.17288066446781158 0.98844003677368164
0.91927409172058105 0.23251035809516907 0.98804676532745361
1 0.30268356204032898 0.98686426877975464
0.39442723989486694 0.36146748065948486 0.98557013273239136
0.51073426008224487 0.36103039979934692 0.98368608951568604
0.70291835069656372 0.3687775731086731 0.98916661739349365
0.90455442667007446 0.42624616622924805 0.98618441820144653
0.99921202659606934 0.48287460207939148 0.98256462812423706
0.32815122604370117 0.5901871919631958 0.98352432250976562
0.47235453128814697 0.59970009326934814 0.98033684492111206
0.68420487642288208 0.61931252479553223 0.97786766290664673
0.86806559562683105 0.66349983215332031 0.96971988677978516
0.9930071234703064 0.70156854391098022 0.97618812322616577
0.34853574633598328 0.80212235450744629 0.96923959255218506
0.4435865581035614 0.79851049184799194 0.96864181756973267
0.62087470293045044 0.8016054630279541 0.96589678525924683
0.83353745937347412 0.82928448915481567 0.96735447645187378
0.98004943132400513 0.86092448234558105 0.97151249647140503
0.65759444236755371 0.96287268400192261 0.96578294038772583
0.687874436378479 0.96173095703125 0.96555691957473755
0.76690185070037842 0.95822149515151978 0.96625632047653198
0.86257255077362061 0.96235114336013794 0.9673011302947998
0.97131705284118652 0.97031790018081665 0.96614640951156616
