luts/negative_new/kodak_tri-x_400.cube
# Created by: G'MIC (https://gmic.eu)
TITLE "kodak_tri-x_400"
# LUT size
LUT_3D_SIZE 13
# Data domain
DOMAIN_MIN 0.0 0.0 0.0
DOMAIN_MAX 1.0 1.0 1.0
# LUT data points
0.071213603019714355 0.071213603019714355 0.071213603019714355
0.076692871749401093 0.076692871749401093 0.076692871749401093
0.08590080589056015 0.08590080589056015 0.08590080589056015
0.097156494855880737 0.097156494855880737 0.097156494855880737
0.1153557151556015 0.1153557151556015 0.1153557151556015
0.13834206759929657 0.13834206759929657 0.13834206759929657
0.16401652991771698 0.16401652991771698 0.16401652991771698
0.19702117145061493 0.19702117145061493 0.19702117145061493
0.23971082270145416 0.23971082270145416 0.23971082270145416
0.29096552729606628 0.29096552729606628 0.29096552729606628
0.34767228364944458 0.34767228364944458 0.34767228364944458
0.40611416101455688 0.40611416101455688 0.40611416101455688
0.46704360842704773 0.46704360842704773 0.46704360842704773
0.099779374897480011 0.099779374897480011 0.099779374897480011
0.1062983050942421 0.1062983050942421 0.1062983050942421
0.11850155144929886 0.11850155144929886 0.11850155144929886
0.13069647550582886 0.13069647550582886 0.13069647550582886
0.14823001623153687 0.14823001623153687 0.14823001623153687
0.17124475538730621 0.17124475538730621 0.17124475538730621
0.19590581953525543 0.19590581953525543 0.19590581953525543
0.22645175457000732 0.22645175457000732 0.22645175457000732
0.26468333601951599 0.26468333601951599 0.26468333601951599
0.31170439720153809 0.31170439720153809 0.31170439720153809
0.36665505170822144 0.36665505170822144 0.36665505170822144
0.42656537890434265 0.42656537890434265 0.42656537890434265
0.49038019776344299 0.49038019776344299 0.49038019776344299
0.13495758175849915 0.13495758175849915 0.13495758175849915
0.13974499702453613 0.13974499702453613 0.13974499702453613
0.15619179606437683 0.15619179606437683 0.15619179606437683
0.17639917135238647 0.17639917135238647 0.17639917135238647
0.20109996199607849 0.20109996199607849 0.20109996199607849
0.22920159995555878 0.22920159995555878 0.22920159995555878
0.25559297204017639 0.25559297204017639 0.25559297204017639
0.28206685185432434 0.28206685185432434 0.28206685185432434
0.31272038817405701 0.31272038817405701 0.31272038817405701
0.35304063558578491 0.35304063558578491 0.35304063558578491
0.40295913815498352 0.40295913815498352 0.40295913815498352
0.45962584018707275 0.45962584018707275 0.45962584018707275
0.52275210618972778 0.52275210618972778 0.52275210618972778
0.17649425566196442 0.17649425566196442 0.17649425566196442
0.17388986051082611 0.17388986051082611 0.17388986051082611
0.18956518173217773 0.18956518173217773 0.18956518173217773
0.22239048779010773 0.22239048779010773 0.22239048779010773
0.26383045315742493 0.26383045315742493 0.26383045315742493
0.30228611826896667 0.30228611826896667 0.30228611826896667
0.33148330450057983 0.33148330450057983 0.33148330450057983
0.35537964105606079 0.35537964105606079 0.35537964105606079
0.38024944067001343 0.38024944067001343 0.38024944067001343
0.41504061222076416 0.41504061222076416 0.41504061222076416
0.46002838015556335 0.46002838015556335 0.46002838015556335
0.5118488073348999 0.5118488073348999 0.5118488073348999
0.56952923536300659 0.56952923536300659 0.56952923536300659
0.22859016060829163 0.22859016060829163 0.22859016060829163
0.21812953054904938 0.21812953054904938 0.21812953054904938
0.23003517091274261 0.23003517091274261 0.23003517091274261
0.26879161596298218 0.26879161596298218 0.26879161596298218
0.32096192240715027 0.32096192240715027 0.32096192240715027
0.36940440535545349 0.36940440535545349 0.36940440535545349
0.40551388263702393 0.40551388263702393 0.40551388263702393
0.43450036644935608 0.43450036644935608 0.43450036644935608
0.46047818660736084 0.46047818660736084 0.46047818660736084
0.49323076009750366 0.49323076009750366 0.49323076009750366
0.53410232067108154 0.53410232067108154 0.53410232067108154
0.58033090829849243 0.58033090829849243 0.58033090829849243
0.6313469409942627 0.6313469409942627 0.6313469409942627
0.29385495185852051 0.29385495185852051 0.29385495185852051
0.28170523047447205 0.28170523047447205 0.28170523047447205
0.28706341981887817 0.28706341981887817 0.28706341981887817
0.3166070282459259 0.3166070282459259 0.3166070282459259
0.36463600397109985 0.36463600397109985 0.36463600397109985
0.41794216632843018 0.41794216632843018 0.41794216632843018
0.46751615405082703 0.46751615405082703 0.46751615405082703
0.50933945178985596 0.50933945178985596 0.50933945178985596
0.5446091890335083 0.5446091890335083 0.5446091890335083
0.57791733741760254 0.57791733741760254 0.57791733741760254
0.61450099945068359 0.61450099945068359 0.61450099945068359
0.65525269508361816 0.65525269508361816 0.65525269508361816
0.69934338331222534 0.69934338331222534 0.69934338331222534
0.37038400769233704 0.37038400769233704 0.37038400769233704
0.35793596506118774 0.35793596506118774 0.35793596506118774
0.35432368516921997 0.35432368516921997 0.35432368516921997
0.36791202425956726 0.36791202425956726 0.36791202425956726
0.40467020869255066 0.40467020869255066 0.40467020869255066
0.45839515328407288 0.45839515328407288 0.45839515328407288
0.5179743766784668 0.5179743766784668 0.5179743766784668
0.57295411825180054 0.57295411825180054 0.57295411825180054
0.61801743507385254 0.61801743507385254 0.61801743507385254
0.65357375144958496 0.65357375144958496 0.65357375144958496
0.6879352331161499 0.6879352331161499 0.6879352331161499
0.7251359224319458 0.7251359224319458 0.7251359224319458
0.7642098069190979 0.7642098069190979 0.7642098069190979
0.45640671253204346 0.45640671253204346 0.45640671253204346
0.44404605031013489 0.44404605031013489 0.44404605031013489
0.43147674202919006 0.43147674202919006 0.43147674202919006
0.4291452169418335 0.4291452169418335 0.4291452169418335
0.45284616947174072 0.45284616947174072 0.45284616947174072
0.50219470262527466 0.50219470262527466 0.50219470262527466
0.56191486120223999 0.56191486120223999 0.56191486120223999
0.62173473834991455 0.62173473834991455 0.62173473834991455
0.67215448617935181 0.67215448617935181 0.67215448617935181
0.7111126184463501 0.7111126184463501 0.7111126184463501
0.74601036310195923 0.74601036310195923 0.74601036310195923
0.7815706729888916 0.7815706729888916 0.7815706729888916
0.81732344627380371 0.81732344627380371 0.81732344627380371
0.54961484670639038 0.54961484670639038 0.54961484670639038
0.53974074125289917 0.53974074125289917 0.53974074125289917
0.52279162406921387 0.52279162406921387 0.52279162406921387
0.5112767219543457 0.5112767219543457 0.5112767219543457
0.52136325836181641 0.52136325836181641 0.52136325836181641
0.55692487955093384 0.55692487955093384 0.55692487955093384
0.60778921842575073 0.60778921842575073 0.60778921842575073
0.66289156675338745 0.66289156675338745 0.66289156675338745
0.71242243051528931 0.71242243051528931 0.71242243051528931
0.75366318225860596 0.75366318225860596 0.75366318225860596
0.78907442092895508 0.78907442092895508 0.78907442092895508
0.82347053289413452 0.82347053289413452 0.82347053289413452
0.85633569955825806 0.85633569955825806 0.85633569955825806
0.64395600557327271 0.64395600557327271 0.64395600557327271
0.63690090179443359 0.63690090179443359 0.63690090179443359
0.62189728021621704 0.62189728021621704 0.62189728021621704
0.60734349489212036 0.60734349489212036 0.60734349489212036
0.6054081916809082 0.6054081916809082 0.6054081916809082
0.62398159503936768 0.62398159503936768 0.62398159503936768
0.6620945930480957 0.6620945930480957 0.6620945930480957
0.70832335948944092 0.70832335948944092 0.70832335948944092
0.75285732746124268 0.75285732746124268 0.75285732746124268
0.79126369953155518 0.79126369953155518 0.79126369953155518
0.82511025667190552 0.82511025667190552 0.82511025667190552
0.85692912340164185 0.85692912340164185 0.85692912340164185
0.88642293214797974 0.88642293214797974 0.88642293214797974
0.7357182502746582 0.7357182502746582 0.7357182502746582
0.73158037662506104 0.73158037662506104 0.73158037662506104
0.7215302586555481 0.7215302586555481 0.7215302586555481
0.70837563276290894 0.70837563276290894 0.70837563276290894
0.69747650623321533 0.69747650623321533 0.69747650623321533
0.70140641927719116 0.70140641927719116 0.70140641927719116
0.72777986526489258 0.72777986526489258 0.72777986526489258
0.76438653469085693 0.76438653469085693 0.76438653469085693
0.80146932601928711 0.80146932601928711 0.80146932601928711
0.83375757932662964 0.83375757932662964 0.83375757932662964
0.86170077323913574 0.86170077323913574 0.86170077323913574
0.88790762424468994 0.88790762424468994 0.88790762424468994
0.91277754306793213 0.91277754306793213 0.91277754306793213
0.82342076301574707 0.82342076301574707 0.82342076301574707
0.82264810800552368 0.82264810800552368 0.82264810800552368
0.81788527965545654 0.81788527965545654 0.81788527965545654
0.80951261520385742 0.80951261520385742 0.80951261520385742
0.79678821563720703 0.79678821563720703 0.79678821563720703
0.79115498065948486 0.79115498065948486 0.79115498065948486
0.80501574277877808 0.80501574277877808 0.80501574277877808
0.83076411485671997 0.83076411485671997 0.83076411485671997
0.85882109403610229 0.85882109403610229 0.85882109403610229
0.88263559341430664 0.88263559341430664 0.88263559341430664
0.90191799402236938 0.90191799402236938 0.90191799402236938
0.92006105184555054 0.92006105184555054 0.92006105184555054
0.93894803524017334 0.93894803524017334 0.93894803524017334
0.90407514572143555 0.90407514572143555 0.90407514572143555
0.90566259622573853 0.90566259622573853 0.90566259622573853
0.90446615219116211 0.90446615219116211 0.90446615219116211
0.9001958966255188 0.9001958966255188 0.9001958966255188
0.88941484689712524 0.88941484689712524 0.88941484689712524
0.88081157207489014 0.88081157207489014 0.88081157207489014
0.88481605052947998 0.88481605052947998 0.88481605052947998
0.89952570199966431 0.89952570199966431 0.89952570199966431
0.91844367980957031 0.91844367980957031 0.91844367980957031
0.93354737758636475 0.93354737758636475 0.93354737758636475
0.94434064626693726 0.94434064626693726 0.94434064626693726
0.95470482110977173 0.95470482110977173 0.95470482110977173
0.96719443798065186 0.96719443798065186 0.96719443798065186
0.083048082888126373 0.083048082888126373 0.083048082888126373
0.087779402732849121 0.087779402732849121 0.087779402732849121
0.097687259316444397 0.097687259316444397 0.097687259316444397
0.11305410414934158 0.11305410414934158 0.11305410414934158
0.13752758502960205 0.13752758502960205 0.13752758502960205
0.15748466551303864 0.15748466551303864 0.15748466551303864
0.17588773369789124 0.17588773369789124 0.17588773369789124
0.20578765869140625 0.20578765869140625 0.20578765869140625
0.24387598037719727 0.24387598037719727 0.24387598037719727
0.29137268662452698 0.29137268662452698 0.29137268662452698
0.34769251942634583 0.34769251942634583 0.34769251942634583
0.40768930315971375 0.40768930315971375 0.40768930315971375
0.47328585386276245 0.47328585386276245 0.47328585386276245
0.10986066609621048 0.10986066609621048 0.10986066609621048
0.11327297985553741 0.11327297985553741 0.11327297985553741
0.12210024893283844 0.12210024893283844 0.12210024893283844
0.13450255990028381 0.13450255990028381 0.13450255990028381
0.15577191114425659 0.15577191114425659 0.15577191114425659
0.17683719098567963 0.17683719098567963 0.17683719098567963
0.19671447575092316 0.19671447575092316 0.19671447575092316
0.22487114369869232 0.22487114369869232 0.22487114369869232
0.259919673204422 0.259919673204422 0.259919673204422
0.30557185411453247 0.30557185411453247 0.30557185411453247
0.36134308576583862 0.36134308576583862 0.36134308576583862
0.42559435963630676 0.42559435963630676 0.42559435963630676
0.49567461013793945 0.49567461013793945 0.49567461013793945
0.14781977236270905 0.14781977236270905 0.14781977236270905
0.14816407859325409 0.14816407859325409 0.14816407859325409
0.15699401497840881 0.15699401497840881 0.15699401497840881
0.17228500545024872 0.17228500545024872 0.17228500545024872
0.19568285346031189 0.19568285346031189 0.19568285346031189
0.22432227432727814 0.22432227432727814 0.22432227432727814
0.25214233994483948 0.25214233994483948 0.25214233994483948
0.27856522798538208 0.27856522798538208 0.27856522798538208
0.30738633871078491 0.30738633871078491 0.30738633871078491
0.34671744704246521 0.34671744704246521 0.34671744704246521
0.39768028259277344 0.39768028259277344 0.39768028259277344
0.45914676785469055 0.45914676785469055 0.45914676785469055
0.52808070182800293 0.52808070182800293 0.52808070182800293
0.19849672913551331 0.19849672913551331 0.19849672913551331
0.19275999069213867 0.19275999069213867 0.19275999069213867
0.19940146803855896 0.19940146803855896 0.19940146803855896
0.22128613293170929 0.22128613293170929 0.22128613293170929
0.25522968173027039 0.25522968173027039 0.25522968173027039
0.29372069239616394 0.29372069239616394 0.29372069239616394
0.32882684469223022 0.32882684469223022 0.32882684469223022
0.35588499903678894 0.35588499903678894 0.35588499903678894
0.38069027662277222 0.38069027662277222 0.38069027662277222
0.41404861211776733 0.41404861211776733 0.41404861211776733
0.45808649063110352 0.45808649063110352 0.45808649063110352
0.51192641258239746 0.51192641258239746 0.51192641258239746
0.57361823320388794 0.57361823320388794 0.57361823320388794
0.25967893004417419 0.25967893004417419 0.25967893004417419
0.24802546203136444 0.24802546203136444 0.24802546203136444
0.25109347701072693 0.25109347701072693 0.25109347701072693
0.27557823061943054 0.27557823061943054 0.27557823061943054
0.31728515028953552 0.31728515028953552 0.31728515028953552
0.36442095041275024 0.36442095041275024 0.36442095041275024
0.40623399615287781 0.40623399615287781 0.40623399615287781
0.43808403611183167 0.43808403611183167 0.43808403611183167
0.46548449993133545 0.46548449993133545 0.46548449993133545
0.49740606546401978 0.49740606546401978 0.49740606546401978
0.53559279441833496 0.53559279441833496 0.53559279441833496
0.58113706111907959 0.58113706111907959 0.58113706111907959
0.63349217176437378 0.63349217176437378 0.63349217176437378
0.32636618614196777 0.32636618614196777 0.32636618614196777
0.31316867470741272 0.31316867470741272 0.31316867470741272
0.31105250120162964 0.31105250120162964 0.31105250120162964
0.32864359021186829 0.32864359021186829 0.32864359021186829
0.3675563633441925 0.3675563633441925 0.3675563633441925
0.42007637023925781 0.42007637023925781 0.42007637023925781
0.47213774919509888 0.47213774919509888 0.47213774919509888
0.51447588205337524 0.51447588205337524 0.51447588205337524
0.54970049858093262 0.54970049858093262 0.54970049858093262
0.58294200897216797 0.58294200897216797 0.58294200897216797
0.61819767951965332 0.61819767951965332 0.61819767951965332
0.65741848945617676 0.65741848945617676 0.65741848945617676
0.70096749067306519 0.70096749067306519 0.70096749067306519
0.39715984463691711 0.39715984463691711 0.39715984463691711
0.38454222679138184 0.38454222679138184 0.38454222679138184
0.3758552074432373 0.3758552074432373 0.3758552074432373
0.38078609108924866 0.38078609108924866 0.38078609108924866
0.40973314642906189 0.40973314642906189 0.40973314642906189
0.4620327353477478 0.4620327353477478 0.4620327353477478
0.5218961238861084 0.5218961238861084 0.5218961238861084
0.5760188102722168 0.5760188102722168 0.5760188102722168
0.6201484203338623 0.6201484203338623 0.6201484203338623
0.65727394819259644 0.65727394819259644 0.65727394819259644
0.6920778751373291 0.6920778751373291 0.6920778751373291
0.72779762744903564 0.72779762744903564 0.72779762744903564
0.76609253883361816 0.76609253883361816 0.76609253883361816
0.47609210014343262 0.47609210014343262 0.47609210014343262
0.4643189013004303 0.4643189013004303 0.4643189013004303
0.44969469308853149 0.44969469308853149 0.44969469308853149
0.44185319542884827 0.44185319542884827 0.44185319542884827
0.45918089151382446 0.45918089151382446 0.45918089151382446
0.50452321767807007 0.50452321767807007 0.50452321767807007
0.56341409683227539 0.56341409683227539 0.56341409683227539
0.62215507030487061 0.62215507030487061 0.62215507030487061
0.67187005281448364 0.67187005281448364 0.67187005281448364
0.71270525455474854 0.71270525455474854 0.71270525455474854
0.74863737821578979 0.74863737821578979 0.74863737821578979
0.78406703472137451 0.78406703472137451 0.78406703472137451
0.81913149356842041 0.81913149356842041 0.81913149356842041
0.56421470642089844 0.56421470642089844 0.56421470642089844
0.55447113513946533 0.55447113513946533 0.55447113513946533
0.53776085376739502 0.53776085376739502 0.53776085376739502
0.52453947067260742 0.52453947067260742 0.52453947067260742
0.5302422046661377 0.5302422046661377 0.5302422046661377
0.56118005514144897 0.56118005514144897 0.56118005514144897
0.60911262035369873 0.60911262035369873 0.60911262035369873
0.66198956966400146 0.66198956966400146 0.66198956966400146
0.7103121280670166 0.7103121280670166 0.7103121280670166
0.75173467397689819 0.75173467397689819 0.75173467397689819
0.7889525294303894 0.7889525294303894 0.7889525294303894
0.82502442598342896 0.82502442598342896 0.82502442598342896
0.85876178741455078 0.85876178741455078 0.85876178741455078
0.65608620643615723 0.65608620643615723 0.65608620643615723
0.64938557147979736 0.64938557147979736 0.64938557147979736
0.63606077432632446 0.63606077432632446 0.63606077432632446
0.6222652792930603 0.6222652792930603 0.6222652792930603
0.61817914247512817 0.61817914247512817 0.61817914247512817
0.63272833824157715 0.63272833824157715 0.63272833824157715
0.66549021005630493 0.66549021005630493 0.66549021005630493
0.70730704069137573 0.70730704069137573 0.70730704069137573
0.74892920255661011 0.74892920255661011 0.74892920255661011
0.78653478622436523 0.78653478622436523 0.78653478622436523
0.82203716039657593 0.82203716039657593 0.82203716039657593
0.85676878690719604 0.85676878690719604 0.85676878690719604
0.8887481689453125 0.8887481689453125 0.8887481689453125
0.74666786193847656 0.74666786193847656 0.74666786193847656
0.74290329217910767 0.74290329217910767 0.74290329217910767
0.73398470878601074 0.73398470878601074 0.73398470878601074
0.72201168537139893 0.72201168537139893 0.72201168537139893
0.71192288398742676 0.71192288398742676 0.71192288398742676
0.7136351466178894 0.7136351466178894 0.7136351466178894
0.73300963640213013 0.73300963640213013 0.73300963640213013
0.76368290185928345 0.76368290185928345 0.76368290185928345
0.79684185981750488 0.79684185981750488 0.79684185981750488
0.82784450054168701 0.82784450054168701 0.82784450054168701
0.85775917768478394 0.85775917768478394 0.85775917768478394
0.8871425986289978 0.8871425986289978 0.8871425986289978
0.91485023498535156 0.91485023498535156 0.91485023498535156
0.83227860927581787 0.83227860927581787 0.83227860927581787
0.83150410652160645 0.83150410652160645 0.83150410652160645
0.82680833339691162 0.82680833339691162 0.82680833339691162
0.81787574291229248 0.81787574291229248 0.81787574291229248
0.80611008405685425 0.80611008405685425 0.80611008405685425
0.8003808856010437 0.8003808856010437 0.8003808856010437
0.80904841423034668 0.80904841423034668 0.80904841423034668
0.82929790019989014 0.82929790019989014 0.82929790019989014
0.85369223356246948 0.85369223356246948 0.85369223356246948
0.87685710191726685 0.87685710191726685 0.87685710191726685
0.89849668741226196 0.89849668741226196 0.89849668741226196
0.91968542337417603 0.91968542337417603 0.91968542337417603
0.94102782011032104 0.94102782011032104 0.94102782011032104
0.91039019823074341 0.91039019823074341 0.91039019823074341
0.91178017854690552 0.91178017854690552 0.91178017854690552
0.90976810455322266 0.90976810455322266 0.90976810455322266
0.90349119901657104 0.90349119901657104 0.90349119901657104
0.89317184686660767 0.89317184686660767 0.89317184686660767
0.88459962606430054 0.88459962606430054 0.88459962606430054
0.88609516620635986 0.88609516620635986 0.88609516620635986
0.89719772338867188 0.89719772338867188 0.89719772338867188
0.91315734386444092 0.91315734386444092 0.91315734386444092
0.92798209190368652 0.92798209190368652 0.92798209190368652
0.94109761714935303 0.94109761714935303 0.94109761714935303
0.95452284812927246 0.95452284812927246 0.95452284812927246
0.96974194049835205 0.96974194049835205 0.96974194049835205
0.10165773332118988 0.10165773332118988 0.10165773332118988
0.10770194977521896 0.10770194977521896 0.10770194977521896
0.12301058322191238 0.12301058322191238 0.12301058322191238
0.15197078883647919 0.15197078883647919 0.15197078883647919
0.18904863297939301 0.18904863297939301 0.18904863297939301
0.20547540485858917 0.20547540485858917 0.20547540485858917
0.22090375423431396 0.22090375423431396 0.22090375423431396
0.24459326267242432 0.24459326267242432 0.24459326267242432
0.26679730415344238 0.26679730415344238 0.26679730415344238
0.2959316074848175 0.2959316074848175 0.2959316074848175
0.34296771883964539 0.34296771883964539 0.34296771883964539
0.40504446625709534 0.40504446625709534 0.40504446625709534
0.47580650448799133 0.47580650448799133 0.47580650448799133
0.12473618984222412 0.12473618984222412 0.12473618984222412
0.12860566377639771 0.12860566377639771 0.12860566377639771
0.14041495323181152 0.14041495323181152 0.14041495323181152
0.16231547296047211 0.16231547296047211 0.16231547296047211
0.19147279858589172 0.19147279858589172 0.19147279858589172
0.21012821793556213 0.21012821793556213 0.21012821793556213
0.22539292275905609 0.22539292275905609 0.22539292275905609
0.24693721532821655 0.24693721532821655 0.24693721532821655
0.27030393481254578 0.27030393481254578 0.27030393481254578
0.30611729621887207 0.30611729621887207 0.30611729621887207
0.35619455575942993 0.35619455575942993 0.35619455575942993
0.42116862535476685 0.42116862535476685 0.42116862535476685
0.4970676600933075 0.4970676600933075 0.4970676600933075
0.16310118138790131 0.16310118138790131 0.16310118138790131
0.16277295351028442 0.16277295351028442 0.16277295351028442
0.16985361278057098 0.16985361278057098 0.16985361278057098
0.18416067957878113 0.18416067957878113 0.18416067957878113
0.20690780878067017 0.20690780878067017 0.20690780878067017
0.23595546185970306 0.23595546185970306 0.23595546185970306
0.25958773493766785 0.25958773493766785 0.25958773493766785
0.28406617045402527 0.28406617045402527 0.28406617045402527
0.3091910183429718 0.3091910183429718 0.3091910183429718
0.34543153643608093 0.34543153643608093 0.34543153643608093
0.39263331890106201 0.39263331890106201 0.39263331890106201
0.45455735921859741 0.45455735921859741 0.45455735921859741
0.53010988235473633 0.53010988235473633 0.53010988235473633
0.22427739202976227 0.22427739202976227 0.22427739202976227
0.21695348620414734 0.21695348620414734 0.21695348620414734
0.21776977181434631 0.21776977181434631 0.21776977181434631
0.23100723326206207 0.23100723326206207 0.23100723326206207
0.257619708776474 0.257619708776474 0.257619708776474
0.29080110788345337 0.29080110788345337 0.29080110788345337
0.32196584343910217 0.32196584343910217 0.32196584343910217
0.35168182849884033 0.35168182849884033 0.35168182849884033
0.37989342212677002 0.37989342212677002 0.37989342212677002
0.41440203785896301 0.41440203785896301 0.41440203785896301
0.4537946879863739 0.4537946879863739 0.4537946879863739
0.50653171539306641 0.50653171539306641 0.50653171539306641
0.57205212116241455 0.57205212116241455 0.57205212116241455
0.29993969202041626 0.29993969202041626 0.29993969202041626
0.28563711047172546 0.28563711047172546 0.28563711047172546
0.28061211109161377 0.28061211109161377 0.28061211109161377
0.29174396395683289 0.29174396395683289 0.29174396395683289
0.32129645347595215 0.32129645347595215 0.32129645347595215
0.36218792200088501 0.36218792200088501 0.36218792200088501
0.40171515941619873 0.40171515941619873 0.40171515941619873
0.43376797437667847 0.43376797437667847 0.43376797437667847
0.46502161026000977 0.46502161026000977 0.46502161026000977
