luts/negative_new/kodak_portra_400_++.cube
# Created by: G'MIC (https://gmic.eu)
TITLE "kodak_portra_400_++"
# LUT size
LUT_3D_SIZE 7
# Data domain
DOMAIN_MIN 0.0 0.0 0.0
DOMAIN_MAX 1.0 1.0 1.0
# LUT data points
0.092288821935653687 0.096826247870922089 0.089207544922828674
0.17809118330478668 0.095652021467685699 0.079446636140346527
0.3766903281211853 0.054851021617650986 0.062378078699111938
0.62224388122558594 0.0097936894744634628 0.032888226211071014
0.82953715324401855 0.015049025416374207 0.0071609648875892162
0.95738333463668823 0.13189150393009186 0.004238128662109375
0.99734872579574585 0.20610526204109192 0
0.048997588455677032 0.17300994694232941 0.092136189341545105
0.14213006198406219 0.17766770720481873 0.078994154930114746
0.35941395163536072 0.1975674033164978 0.045484371483325958
0.61736780405044556 0.19299976527690887 0.012769347988069057
0.819435715675354 0.21039964258670807 0.0058510871604084969
0.94640582799911499 0.26047196984291077 0.0078431377187371254
0.99520760774612427 0.3162473738193512 0.0041382135823369026
0.0029327243100851774 0.31436541676521301 0.11323004215955734
0.071824111044406891 0.31204673647880554 0.11989330500364304
0.30143198370933533 0.35766589641571045 0.054552115499973297
0.58219313621520996 0.39809301495552063 0.0035152060445398092
0.7800866961479187 0.41182136535644531 0.0061673331074416637
0.92232918739318848 0.43485891819000244 0.004678389523178339
0.99321287870407104 0.45906779170036316 0.0056108962744474411
0.0013309703208506107 0.4856361448764801 0.15067344903945923
0.0072428383864462376 0.46600225567817688 0.16352461278438568
0.20886972546577454 0.48802214860916138 0.1298324316740036
0.48600739240646362 0.5360836386680603 0.031023392453789711
0.73338645696640015 0.57367157936096191 0.0047602336853742599
0.88258635997772217 0.58080798387527466 9.2091278929729015e-05
0.98943805694580078 0.59237712621688843 0.0014079823158681393
0.0024153615813702345 0.63398545980453491 0.21782700717449188
0.0078587848693132401 0.61911892890930176 0.22890818119049072
0.18532353639602661 0.61112594604492188 0.22953547537326813
0.43107855319976807 0.6386604905128479 0.19014418125152588
0.65908670425415039 0.67626833915710449 0.075731270015239716
0.8415379524230957 0.70705217123031616 0.0084467120468616486
0.9756920337677002 0.71587091684341431 0.0025794983375817537
0.0795554518699646 0.76411193609237671 0.34531101584434509
0.18654723465442657 0.75748634338378906 0.35504981875419617
0.33954277634620667 0.74329966306686401 0.36695897579193115
0.47423055768013 0.74393808841705322 0.35786736011505127
0.63121515512466431 0.76892590522766113 0.32360661029815674
0.79092180728912354 0.80029642581939697 0.25686159729957581
0.95347851514816284 0.83044463396072388 0.15079605579376221
0.46271595358848572 0.89768695831298828 0.57831203937530518
0.4970935583114624 0.89751917123794556 0.58739513158798218
0.54860544204711914 0.88796019554138184 0.59726798534393311
0.61596834659576416 0.88469415903091431 0.60835790634155273
0.69539493322372437 0.89754986763000488 0.59941333532333374
0.79422193765640259 0.91946345567703247 0.58455586433410645
0.91123849153518677 0.93977576494216919 0.54307305812835693
0.074579142034053802 0.10083699226379395 0.17224361002445221
0.20460507273674011 0.090054333209991455 0.19845236837863922
0.39472663402557373 0.037297777831554413 0.19017994403839111
0.64452314376831055 0.0056930691935122013 0.17860473692417145
0.84496951103210449 0.005029341671615839 0.15721894800662994
0.96526652574539185 0.074196971952915192 0.12887977063655853
1 0.23373225331306458 0.084456607699394226
0.028430115431547165 0.20065952837467194 0.18187166750431061
0.16449268162250519 0.20135566592216492 0.1889498233795166
0.39412632584571838 0.19479101896286011 0.18188270926475525
0.64304494857788086 0.17142353951931 0.16091591119766235
0.8321196436882019 0.18853145837783813 0.12874686717987061
0.95529139041900635 0.25753310322761536 0.094654753804206848
0.99966084957122803 0.32911035418510437 0.05687275156378746
0.0027777429204434156 0.37115940451622009 0.21272389590740204
0.1076800599694252 0.3567466139793396 0.21023854613304138
0.34413829445838928 0.37099197506904602 0.19151993095874786
0.60620403289794922 0.40366643667221069 0.11356223374605179
0.80107790231704712 0.4123816192150116 0.053652819246053696
0.93051886558532715 0.43634608387947083 0.034526929259300232
0.9987034797668457 0.46207618713378906 0.021494083106517792
0.0017372281290590763 0.53020435571670532 0.23354008793830872
0.022863784804940224 0.51206803321838379 0.24180543422698975
0.25945734977722168 0.50620198249816895 0.24196510016918182
0.51782864332199097 0.5498473048210144 0.18001864850521088
0.74287384748458862 0.58053606748580933 0.069669209420681
0.89532327651977539 0.5863376259803772 0.0099298665300011635
0.98900121450424194 0.59268248081207275 0.0068922904320061207
0.0035501217935234308 0.65908420085906982 0.29306325316429138
0.019567063078284264 0.64673489332199097 0.2938995361328125
0.25248059630393982 0.62936818599700928 0.30574384331703186
0.45330354571342468 0.64510041475296021 0.2826479971408844
0.66850990056991577 0.68084210157394409 0.21991643309593201
0.852122962474823 0.71324902772903442 0.11466827243566513
0.97841441631317139 0.7172664999961853 0.015299763530492783
0.13933712244033813 0.77559167146682739 0.39634612202644348
0.23624260723590851 0.76838529109954834 0.40539246797561646
0.36565285921096802 0.75478541851043701 0.41624701023101807
0.49823147058486938 0.7507932186126709 0.41860315203666687
0.63792115449905396 0.77175021171569824 0.38415122032165527
0.79184353351593018 0.8014339804649353 0.3387036919593811
0.95289778709411621 0.83109205961227417 0.27039232850074768
0.47378650307655334 0.9034314751625061 0.59941214323043823
0.49925866723060608 0.89886188507080078 0.60327231884002686
0.5527309775352478 0.89155888557434082 0.61139005422592163
0.62363314628601074 0.88497233390808105 0.62854140996932983
0.69609129428863525 0.89772790670394897 0.61840981245040894
0.79487210512161255 0.91622090339660645 0.60381227731704712
0.91467404365539551 0.93900662660598755 0.57422709465026855
0.019373785704374313 0.10697536170482635 0.36456730961799622
0.21435897052288055 0.08480650931596756 0.40224137902259827
0.47140786051750183 0.014281658455729485 0.43425112962722778
0.68426752090454102 0.0022883694618940353 0.43675920367240906
0.8605155348777771 0.0038810430560261011 0.41997191309928894
0.97645831108093262 0.013924856670200825 0.38068273663520813
1 0.20222674310207367 0.37143987417221069
0.0076530007645487785 0.20934934914112091 0.35327550768852234
0.16561411321163177 0.21166513860225677 0.38455161452293396
0.46158930659294128 0.19919192790985107 0.42892029881477356
0.68022269010543823 0.14454993605613708 0.4299258291721344
0.84824073314666748 0.14419552683830261 0.4079495370388031
0.96495366096496582 0.23468032479286194 0.37866917252540588
1 0.3415682315826416 0.371479332447052
0.00014427035057451576 0.42234066128730774 0.39526623487472534
0.064667858183383942 0.41984125971794128 0.39827820658683777
0.40713256597518921 0.41467028856277466 0.4147581160068512
0.64117169380187988 0.41655978560447693 0.38926827907562256
0.80779421329498291 0.42838272452354431 0.37590566277503967
0.93042302131652832 0.45394730567932129 0.35500696301460266
0.99741542339324951 0.47796246409416199 0.33803009986877441
0.0046662725508213043 0.61231428384780884 0.44508829712867737
0.14963614940643311 0.60096317529678345 0.43582668900489807
0.37847712635993958 0.565521240234375 0.42489001154899597
0.57528471946716309 0.57646471261978149 0.39721179008483887
0.75455939769744873 0.59020698070526123 0.35188743472099304
0.89881926774978638 0.59048116207122803 0.29886791110038757
0.99308937788009644 0.5943455696105957 0.28156507015228271
0.17993737757205963 0.70747512578964233 0.46534955501556396
0.24299752712249756 0.69768333435058594 0.45155054330825806
0.36767870187759399 0.667522132396698 0.44261708855628967
0.51062637567520142 0.65961652994155884 0.43472543358802795
0.69267493486404419 0.69250547885894775 0.41095221042633057
0.85786759853363037 0.71662557125091553 0.36261942982673645
0.98026478290557861 0.71167260408401489 0.27808058261871338
0.27914255857467651 0.79826807975769043 0.51103061437606812
0.32574790716171265 0.78974372148513794 0.49950078129768372
0.4190862774848938 0.7726670503616333 0.4993477463722229
0.51683264970779419 0.753517746925354 0.50276666879653931
0.64560681581497192 0.77680498361587524 0.4940280020236969
0.79617595672607422 0.80803263187408447 0.47381591796875
0.9498254656791687 0.82842117547988892 0.43310219049453735
0.48590022325515747 0.91123276948928833 0.632240891456604
0.51200854778289795 0.90888398885726929 0.63656121492385864
0.55200618505477905 0.89540833234786987 0.63530582189559937
0.63113319873809814 0.89302122592926025 0.65816229581832886
0.70427447557449341 0.89871466159820557 0.66285794973373413
0.79603374004364014 0.91902512311935425 0.64852088689804077
0.91190451383590698 0.93112438917160034 0.61762779951095581
0.011477750726044178 0.11719008535146713 0.57995378971099854
0.2207317054271698 0.083555333316326141 0.60098981857299805
0.52692234516143799 0.017634596675634384 0.64782607555389404
0.7614557147026062 0.003946356475353241 0.6801038384437561
0.86929225921630859 0.0059689539484679699 0.65504878759384155
0.97547465562820435 0.044594619423151016 0.63931798934936523
0.99981206655502319 0.21563068032264709 0.60096508264541626
0.0083053139969706535 0.22879880666732788 0.56346136331558228
0.1772456169128418 0.21976311504840851 0.58935815095901489
0.50553756952285767 0.20796537399291992 0.63666397333145142
0.74706542491912842 0.21095657348632812 0.67246228456497192
0.85715800523757935 0.21244616806507111 0.64861953258514404
0.96245580911636353 0.27004861831665039 0.6233522891998291
0.99943292140960693 0.34506157040596008 0.59696006774902344
0.0022087995894253254 0.39132276177406311 0.53408122062683105
0.075653538107872009 0.39930203557014465 0.55370551347732544
0.43056970834732056 0.42313021421432495 0.59506487846374512
0.69349652528762817 0.46007072925567627 0.64630746841430664
0.82195204496383667 0.45996618270874023 0.62780296802520752
0.92972517013549805 0.47787034511566162 0.60924011468887329
0.99343788623809814 0.50769436359405518 0.60265970230102539
0.0019174612825736403 0.62505769729614258 0.60384279489517212
0.070944391191005707 0.62000250816345215 0.60648483037948608
0.40957099199295044 0.6183784008026123 0.60602164268493652
0.62701284885406494 0.61886763572692871 0.61565744876861572
0.77317953109741211 0.61374670267105103 0.59221911430358887
0.89429545402526855 0.61577838659286499 0.58252465724945068
0.98917669057846069 0.6202855110168457 0.56740164756774902
0.20079481601715088 0.76386970281600952 0.63774824142456055
0.33061227202415466 0.75485622882843018 0.63737720251083374
0.48346367478370667 0.7343018651008606 0.62707507610321045
0.58589547872543335 0.70248913764953613 0.60691803693771362
0.72093826532363892 0.70881843566894531 0.58316612243652344
0.85983800888061523 0.7227473258972168 0.56354153156280518
0.97748160362243652 0.7156493067741394 0.51474171876907349
0.42837616801261902 0.83183747529983521 0.65539979934692383
0.46527722477912903 0.82691794633865356 0.65177303552627563
0.51636701822280884 0.81259667873382568 0.63499456644058228
0.57653141021728516 0.78917169570922852 0.61939531564712524
0.66971307992935181 0.77944099903106689 0.60779708623886108
0.80470901727676392 0.81239473819732666 0.6028401255607605
0.9453999400138855 0.82688504457473755 0.57739543914794922
0.52418237924575806 0.92647624015808105 0.70501279830932617
0.537345290184021 0.91937994956970215 0.69480395317077637
0.5805472731590271 0.91813331842422485 0.69730967283248901
0.63889199495315552 0.90754526853561401 0.70479226112365723
0.71417975425720215 0.89958232641220093 0.712169349193573
0.79985076189041138 0.91664642095565796 0.70620667934417725
0.91635674238204956 0.93774890899658203 0.69117206335067749
0.1494525671005249 0.13787087798118591 0.73762637376785278
0.32992997765541077 0.12104629725217819 0.74988901615142822
0.55160444974899292 0.06070314347743988 0.77201354503631592
0.76766824722290039 0.058735087513923645 0.80427443981170654
0.90242642164230347 0.15025132894515991 0.81711602210998535
0.97489994764328003 0.21439710259437561 0.7892765998840332
0.99961847066879272 0.30756902694702148 0.76006537675857544
0.077813543379306793 0.2442469447851181 0.72917032241821289
0.2836424708366394 0.2509162425994873 0.73781841993331909
0.53205317258834839 0.25025221705436707 0.76330351829528809
0.74867957830429077 0.28925302624702454 0.79638814926147461
0.88309758901596069 0.33735746145248413 0.80693823099136353
0.96572971343994141 0.36323791742324829 0.78719353675842285
0.99701344966888428 0.41032737493515015 0.76686340570449829
0.0070654028095304966 0.40310993790626526 0.69738352298736572
0.1848616898059845 0.41436779499053955 0.71018260717391968
0.46103134751319885 0.43012779951095581 0.73354238271713257
0.69372665882110596 0.48199570178985596 0.77696949243545532
0.84869831800460815 0.52372980117797852 0.79259902238845825
0.93887382745742798 0.52284151315689087 0.77881604433059692
0.99569070339202881 0.53820657730102539 0.77123737335205078
0.0046159331686794758 0.57172936201095581 0.68449002504348755
0.071506336331367493 0.56953084468841553 0.68425923585891724
0.37832292914390564 0.57703900337219238 0.69504243135452271
0.61559712886810303 0.61223912239074707 0.73513847589492798
0.80341577529907227 0.65604084730148315 0.77251029014587402
0.90561133623123169 0.64935672283172607 0.75759083032608032
0.98721390962600708 0.65217721462249756 0.75339484214782715
0.1643560379743576 0.74746257066726685 0.74013710021972656
0.29482752084732056 0.74592268466949463 0.74131625890731812
0.45852583646774292 0.74362033605575562 0.74089574813842773
0.60823529958724976 0.74626541137695312 0.74574500322341919
0.75873291492462158 0.74828261137008667 0.75225865840911865
0.87382787466049194 0.74989092350006104 0.74056977033615112
0.97901570796966553 0.74297386407852173 0.72865200042724609
0.40590542554855347 0.87402141094207764 0.77725863456726074
0.45937338471412659 0.86913514137268066 0.7744210958480835
0.54850471019744873 0.86189687252044678 0.77271395921707153
0.64619183540344238 0.84621948003768921 0.76157021522521973
0.71543782949447632 0.81218510866165161 0.73508739471435547
0.82568931579589844 0.82139384746551514 0.72676140069961548
0.95926284790039062 0.8273627758026123 0.70826256275177002
0.52673959732055664 0.94851982593536377 0.79075980186462402
0.57224094867706299 0.94939446449279785 0.79770159721374512
0.61451870203018188 0.93843728303909302 0.7896694540977478
0.67400491237640381 0.9327317476272583 0.78192347288131714
0.7306780219078064 0.9141736626625061 0.77332758903503418
0.81650763750076294 0.91811144351959229 0.77927833795547485
0.92304486036300659 0.92973208427429199 0.76067954301834106
0.36296287178993225 0.20381675660610199 0.86007726192474365
0.45251563191413879 0.20010431110858917 0.86612606048583984
0.59456700086593628 0.20087875425815582 0.8735470175743103
0.74700450897216797 0.23755717277526855 0.88994646072387695
0.88335311412811279 0.3358231782913208 0.90853136777877808
0.98017960786819458 0.39309591054916382 0.90978139638900757
0.9984438419342041 0.42834171652793884 0.88616174459457397
0.33683121204376221 0.3030984103679657 0.8520234227180481
0.42475926876068115 0.31341513991355896 0.85693490505218506
0.57713621854782104 0.32286116480827332 0.86905205249786377
0.72890228033065796 0.36830034852027893 0.88502413034439087
0.8736681342124939 0.44298842549324036 0.90802204608917236
0.97627013921737671 0.4754922091960907 0.90994393825531006
0.99607843160629272 0.48493227362632751 0.89893728494644165
0.24442937970161438 0.4417833685874939 0.83362185955047607
0.36313465237617493 0.4536324143409729 0.83851128816604614
0.53225141763687134 0.4738081693649292 0.85108321905136108
0.68895262479782104 0.5063711404800415 0.86906033754348755
0.84894531965255737 0.56888729333877563 0.89573818445205688
0.95308870077133179 0.5962948203086853 0.89799946546554565
0.99606406688690186 0.59218966960906982 0.89465844631195068
0.05200691893696785 0.57485860586166382 0.79521316289901733
0.19694758951663971 0.57802987098693848 0.79923957586288452
0.43768376111984253 0.58870285749435425 0.81983309984207153
0.63348913192749023 0.61762386560440063 0.84308052062988281
0.8036695122718811 0.67530584335327148 0.87456750869750977
0.9264567494392395 0.69690459966659546 0.88815945386886597
0.99351036548614502 0.69035929441452026 0.88139122724533081
0.073887050151824951 0.70717775821685791 0.80686122179031372
0.21854092180728912 0.70852124691009521 0.81067585945129395
0.38898888230323792 0.70369309186935425 0.8103519082069397
0.54873538017272949 0.70077341794967651 0.80837947130203247
0.74096351861953735 0.74209433794021606 0.84006369113922119
0.90407401323318481 0.78923112154006958 0.88072305917739868
0.98484861850738525 0.78354495763778687 0.8740960955619812
0.36118212342262268 0.85861402750015259 0.85361194610595703
0.41685187816619873 0.85740762948989868 0.85589933395385742
0.50950527191162109 0.85202085971832275 0.85547453165054321
0.61957603693008423 0.85265094041824341 0.85569471120834351
0.73740404844284058 0.84862709045410156 0.85298639535903931
0.85980463027954102 0.85304480791091919 0.86100190877914429
0.96426534652709961 0.85848444700241089 0.85421222448348999
0.50223457813262939 0.96698248386383057 0.87837457656860352
0.54037511348724365 0.970977783203125 0.88123869895935059
0.60202515125274658 0.96501785516738892 0.88161289691925049
0.68699002265930176 0.964191734790802 0.88208687305450439
0.76763755083084106 0.95010471343994141 0.87452620267868042
0.84215784072875977 0.93531578779220581 0.86668330430984497
0.94243836402893066 0.94470787048339844 0.8607795238494873
0.53025913238525391 0.37284162640571594 0.96362423896789551
0.5755380392074585 0.38010519742965698 0.96635043621063232
0.65504509210586548 0.39546960592269897 0.96758174896240234
0.75168323516845703 0.42464163899421692 0.97208571434020996
0.8601115345954895 0.4634706974029541 0.97541296482086182
0.96688544750213623 0.52818006277084351 0.98374903202056885
0.99946969747543335 0.5483022928237915 0.97612917423248291
0.52793806791305542 0.44968363642692566 0.96144735813140869
0.56650108098983765 0.45621618628501892 0.96150070428848267
0.64421612024307251 0.46501711010932922 0.9629441499710083
0.74415880441665649 0.49160298705101013 0.96939510107040405
0.85708349943161011 0.53541380167007446 0.9748876690864563
0.95989871025085449 0.57738363742828369 0.97952908277511597
0.99797844886779785 0.59723562002182007 0.97971433401107788
0.49091359972953796 0.5441780686378479 0.95063281059265137
0.53640264272689819 0.55447429418563843 0.95150786638259888
0.61266756057739258 0.56643497943878174 0.95263183116912842
0.7250245213508606 0.581398606300354 0.95901495218276978
0.83655834197998047 0.6143001914024353 0.96674078702926636
0.94848304986953735 0.65457451343536377 0.97735416889190674
0.99594682455062866 0.66359132528305054 0.97653782367706299
0.43625566363334656 0.64921665191650391 0.93870037794113159
0.48149517178535461 0.64904004335403442 0.93898659944534302
0.5762704610824585 0.65213721990585327 0.94354945421218872
0.69252306222915649 0.66802847385406494 0.95163804292678833
0.81702238321304321 0.70090031623840332 0.96382719278335571
0.92792594432830811 0.72674202919006348 0.96397578716278076
0.99500203132629395 0.73191684484481812 0.95838600397109985
0.31559711694717407 0.73199594020843506 0.92326635122299194
0.36562848091125488 0.72733360528945923 0.91982805728912354
0.48028066754341125 0.72905898094177246 0.92689460515975952
0.61620944738388062 0.73928457498550415 0.93409794569015503
0.76533621549606323 0.76423525810241699 0.94924473762512207
0.90757608413696289 0.80194008350372314 0.96363675594329834
0.98719203472137451 0.82298260927200317 0.96884846687316895
0.38980257511138916 0.84051847457885742 0.9365006685256958
0.42762181162834167 0.83946377038955688 0.94188851118087769
0.49606963992118835 0.83765685558319092 0.9382246732711792
0.58736664056777954 0.83297246694564819 0.93666976690292358
0.69348526000976562 0.82740509510040283 0.93394029140472412
0.85998070240020752 0.8609929084777832 0.95377844572067261
0.97801649570465088 0.89581716060638428 0.96751528978347778
0.46431145071983337 0.94547200202941895 0.94686621427536011
0.50126034021377563 0.95984315872192383 0.96117359399795532
0.5645287036895752 0.96115046739578247 0.95833808183670044
0.65232259035110474 0.95854377746582031 0.96041560173034668
0.75059717893600464 0.95780247449874878 0.96203219890594482
0.85903763771057129 0.9598618745803833 0.96377015113830566
0.95401334762573242 0.95841628313064575 0.95498514175415039
