luts/negative_new/kodak_portra_400_+.cube
# Created by: G'MIC (https://gmic.eu)
TITLE "kodak_portra_400_+"
# LUT size
LUT_3D_SIZE 5
# Data domain
DOMAIN_MIN 0.0 0.0 0.0
DOMAIN_MAX 1.0 1.0 1.0
# LUT data points
0.064967691898345947 0.067169517278671265 0.060739226639270782
0.29236677289009094 0.042678099125623703 0.051473431289196014
0.64068704843521118 0.0068087261170148849 0.018793247640132904
0.90503567457199097 0.035771209746599197 0.0003425149479880929
0.99530190229415894 0.21854096651077271 0.0011096580419689417
0.011497601866722107 0.24001428484916687 0.086054287850856781
0.24972760677337646 0.26149088144302368 0.050710879266262054
0.62560153007507324 0.29886206984519958 0.0047889109700918198
0.88957768678665161 0.33299380540847778 0.011805007234215736
0.99685502052307129 0.38410136103630066 0.009691605344414711
0.0022992601152509451 0.48314490914344788 0.16310608386993408
0.16144417226314545 0.47428324818611145 0.16860306262969971
0.51400130987167358 0.53775125741958618 0.044773701578378677
0.81635969877243042 0.57567900419235229 0.0072193071246147156
0.99058037996292114 0.58475619554519653 0.0040230844169855118
0.010928764007985592 0.70002841949462891 0.29488334059715271
0.21008960902690887 0.68055331707000732 0.30563151836395264
0.46592056751251221 0.6889229416847229 0.29374998807907104
0.73813873529434204 0.73966103792190552 0.1946399062871933
0.9750247597694397 0.77212655544281006 0.02596811018884182
0.47037628293037415 0.90168899297714233 0.58302140235900879
0.52060574293136597 0.89410555362701416 0.59267956018447876
0.62126994132995605 0.88791996240615845 0.61689037084579468
0.74652034044265747 0.91161435842514038 0.59873443841934204
0.92309033870697021 0.93995434045791626 0.551166832447052
0.047146305441856384 0.075227431952953339 0.27102756500244141
0.34749415516853333 0.018319912254810333 0.30915766954421997
0.67889547348022461 0.0057040643878281116 0.31519079208374023
0.92114704847335815 0.016392426565289497 0.27566084265708923
1 0.24359138309955597 0.25967413187026978
0.0046251933090388775 0.30755093693733215 0.29042521119117737
0.30896955728530884 0.30376768112182617 0.29960700869560242
0.64991480112075806 0.29883727431297302 0.2785000205039978
0.89044463634490967 0.34247675538063049 0.25308993458747864
0.99940919876098633 0.39776593446731567 0.22655056416988373
0.047441668808460236 0.5742151141166687 0.35060814023017883
0.26835650205612183 0.54000389575958252 0.34049975872039795
0.55408716201782227 0.55407917499542236 0.31204023957252502
0.83221745491027832 0.58526843786239624 0.20361611247062683
0.99723750352859497 0.58823412656784058 0.12087282538414001
0.13216504454612732 0.73214948177337646 0.40628856420516968
0.3031267523765564 0.71382111310958862 0.41691577434539795
0.49236243963241577 0.70007997751235962 0.4151054322719574
0.74580615758895874 0.74594837427139282 0.36782816052436829
0.97452300786972046 0.77152496576309204 0.26883059740066528
0.48281633853912354 0.9101940393447876 0.61776793003082275
0.53323203325271606 0.90228968858718872 0.62574470043182373
0.62762820720672607 0.89051634073257446 0.64644473791122437
0.75061285495758057 0.91183900833129883 0.64044928550720215
0.92594099044799805 0.93900901079177856 0.60168737173080444
0.029993394389748573 0.091854661703109741 0.58936911821365356
0.40374711155891418 0.032996173948049545 0.62962734699249268
0.76170915365219116 0.0053917081095278263 0.68068653345108032
0.92753762006759644 0.02369983121752739 0.65393543243408203
1 0.23106773197650909 0.60258561372756958
0.0072188880294561386 0.31052440404891968 0.55542254447937012
0.34860730171203613 0.3215840756893158 0.59146970510482788
0.72395223379135132 0.36356309056282043 0.66412854194641113
0.90033143758773804 0.37454333901405334 0.63263803720474243
0.9966806173324585 0.43303585052490234 0.60159099102020264
0.0014418208738788962 0.6261293888092041 0.61350852251052856
0.30774930119514465 0.62630003690719604 0.61286628246307373
0.62404114007949829 0.61729317903518677 0.61363106966018677
0.83847075700759888 0.61883795261383057 0.58946484327316284
0.99178671836853027 0.61629337072372437 0.57784414291381836
0.36349228024482727 0.79768949747085571 0.64691096544265747
0.46831583976745605 0.78481858968734741 0.64256161451339722
0.57805138826370239 0.74587631225585938 0.61418372392654419
0.76647555828094482 0.76141130924224854 0.59565883874893188
0.9697500467300415 0.76863771677017212 0.54626607894897461
0.54159581661224365 0.93086546659469604 0.71416807174682617
0.55953466892242432 0.92673540115356445 0.70431888103485107
0.6435844898223877 0.90883088111877441 0.70860069990158081
0.75972551107406616 0.9078139066696167 0.71224880218505859
0.92592918872833252 0.93850201368331909 0.69839465618133545
0.2990151047706604 0.165172278881073 0.80524533987045288
0.48907417058944702 0.16305522620677948 0.81970536708831787
0.7546766996383667 0.19878698885440826 0.85361897945404053
0.95177924633026123 0.3051777184009552 0.86861300468444824
1 0.37024092674255371 0.84622371196746826
0.23170743882656097 0.35185310244560242 0.78674209117889404
0.44744309782981873 0.37226417660713196 0.80341500043869019
0.71747851371765137 0.42433688044548035 0.83730983734130859
0.92303884029388428 0.4830566942691803 0.86002737283706665
0.9922257661819458 0.50655794143676758 0.835033118724823
0.010679133236408234 0.56216198205947876 0.73325002193450928
0.30441614985466003 0.57037317752838135 0.74563419818878174
0.62945288419723511 0.6132323145866394 0.79630470275878906
0.87762057781219482 0.68296033143997192 0.84107416868209839
0.99483197927474976 0.67612504959106445 0.8317762017250061
0.29741060733795166 0.80594170093536377 0.80088269710540771
0.42617052793502808 0.80523103475570679 0.80208152532577515
0.61827391386032104 0.80314207077026367 0.8042868971824646
0.81183892488479614 0.80835419893264771 0.80856198072433472
0.9738648533821106 0.80298012495040894 0.79411894083023071
0.53152841329574585 0.96057850122451782 0.8429298996925354
0.58552223443984985 0.95992368459701538 0.83763039112091064
0.69418394565582275 0.95127624273300171 0.83949154615402222
0.79268068075180054 0.92653053998947144 0.82377064228057861
0.93904155492782593 0.9403998851776123 0.82565611600875854
0.53747379779815674 0.39232110977172852 0.96419328451156616
0.60851877927780151 0.40442046523094177 0.96703219413757324
0.75274068117141724 0.43622258305549622 0.97279244661331177
0.91870224475860596 0.50173598527908325 0.97895896434783936
0.99961495399475098 0.55086034536361694 0.98522078990936279
0.51568758487701416 0.50968354940414429 0.95972263813018799
0.59213054180145264 0.51290762424468994 0.96008491516113281
0.73319661617279053 0.53384751081466675 0.96399742364883423
0.8996654748916626 0.59888529777526855 0.9753715991973877
0.99895650148391724 0.63292604684829712 0.97872793674468994
0.44444194436073303 0.64901423454284668 0.94061779975891113
0.52898120880126953 0.64980006217956543 0.94490748643875122
0.69412147998809814 0.66561275720596313 0.95498001575469971
0.87577193975448608 0.71939754486083984 0.96590077877044678
0.99527031183242798 0.74463415145874023 0.96658992767333984
0.3563326895236969 0.78753364086151123 0.93146473169326782
0.42661496996879578 0.78309637308120728 0.92970937490463257
0.57607704401016235 0.77703893184661865 0.93117636442184448
0.810840904712677 0.81087720394134521 0.94890415668487549
0.98706847429275513 0.86523568630218506 0.96823239326477051
0.48921364545822144 0.96306341886520386 0.95533901453018188
0.53828513622283936 0.96284335851669312 0.96187734603881836
0.6594434380531311 0.96058470010757446 0.96228182315826416
0.81024664640426636 0.9605565071105957 0.96457034349441528
0.96274363994598389 0.96591615676879883 0.96390485763549805
