luts/negative_new/kodak_tmax_3200_alt.cube
# Created by: G'MIC (https://gmic.eu)
TITLE "kodak_tmax_3200_alt"
# LUT size
LUT_3D_SIZE 5
# Data domain
DOMAIN_MIN 0.0 0.0 0.0
DOMAIN_MAX 1.0 1.0 1.0
# LUT data points
0.017549656331539154 0.017549656331539154 0.017549656331539154
0.024299532175064087 0.024299532175064087 0.024299532175064087
0.046872321516275406 0.046872321516275406 0.046872321516275406
0.10670354217290878 0.10670354217290878 0.10670354217290878
0.21579553186893463 0.21579553186893463 0.21579553186893463
0.16326172649860382 0.16326172649860382 0.16326172649860382
0.17512048780918121 0.17512048780918121 0.17512048780918121
0.20952408015727997 0.20952408015727997 0.20952408015727997
0.279217928647995 0.279217928647995 0.279217928647995
0.39679500460624695 0.39679500460624695 0.39679500460624695
0.42091101408004761 0.42091101408004761 0.42091101408004761
0.44194391369819641 0.44194391369819641 0.44194391369819641
0.47495508193969727 0.47495508193969727 0.47495508193969727
0.52468371391296387 0.52468371391296387 0.52468371391296387
0.60095149278640747 0.60095149278640747 0.60095149278640747
0.69262194633483887 0.69262194633483887 0.69262194633483887
0.71259194612503052 0.71259194612503052 0.71259194612503052
0.72589540481567383 0.72589540481567383 0.72589540481567383
0.74529188871383667 0.74529188871383667 0.74529188871383667
0.77600014209747314 0.77600014209747314 0.77600014209747314
0.89531785249710083 0.89531785249710083 0.89531785249710083
0.90232843160629272 0.90232843160629272 0.90232843160629272
0.90806752443313599 0.90806752443313599 0.90806752443313599
0.91255569458007812 0.91255569458007812 0.91255569458007812
0.92403227090835571 0.92403227090835571 0.92403227090835571
0.027555368840694427 0.027555368840694427 0.027555368840694427
0.059566184878349304 0.059566184878349304 0.059566184878349304
0.092764280736446381 0.092764280736446381 0.092764280736446381
0.15152157843112946 0.15152157843112946 0.15152157843112946
0.26396942138671875 0.26396942138671875 0.26396942138671875
0.19501581788063049 0.19501581788063049 0.19501581788063049
0.2215970903635025 0.2215970903635025 0.2215970903635025
0.26773226261138916 0.26773226261138916 0.26773226261138916
0.33689144253730774 0.33689144253730774 0.33689144253730774
0.44483184814453125 0.44483184814453125 0.44483184814453125
0.46133914589881897 0.46133914589881897 0.46133914589881897
0.47312408685684204 0.47312408685684204 0.47312408685684204
0.50634646415710449 0.50634646415710449 0.50634646415710449
0.55696094036102295 0.55696094036102295 0.55696094036102295
0.62908852100372314 0.62908852100372314 0.62908852100372314
0.71366685628890991 0.71366685628890991 0.71366685628890991
0.71852958202362061 0.71852958202362061 0.71852958202362061
0.73399233818054199 0.73399233818054199 0.73399233818054199
0.75655126571655273 0.75655126571655273 0.75655126571655273
0.79116004705429077 0.79116004705429077 0.79116004705429077
0.89645218849182129 0.89645218849182129 0.89645218849182129
0.89777958393096924 0.89777958393096924 0.89777958393096924
0.90699928998947144 0.90699928998947144 0.90699928998947144
0.91527360677719116 0.91527360677719116 0.91527360677719116
0.93255126476287842 0.93255126476287842 0.93255126476287842
0.070940323173999786 0.070940323173999786 0.070940323173999786
0.10310625284910202 0.10310625284910202 0.10310625284910202
0.1471296101808548 0.1471296101808548 0.1471296101808548
0.21648363769054413 0.21648363769054413 0.21648363769054413
0.34320187568664551 0.34320187568664551 0.34320187568664551
0.26467794179916382 0.26467794179916382 0.26467794179916382
0.29766029119491577 0.29766029119491577 0.29766029119491577
0.34334617853164673 0.34334617853164673 0.34334617853164673
0.41232141852378845 0.41232141852378845 0.41232141852378845
0.51966458559036255 0.51966458559036255 0.51966458559036255
0.52718299627304077 0.52718299627304077 0.52718299627304077
0.53675460815429688 0.53675460815429688 0.53675460815429688
0.56408786773681641 0.56408786773681641 0.56408786773681641
0.60589849948883057 0.60589849948883057 0.60589849948883057
0.67046880722045898 0.67046880722045898 0.67046880722045898
0.7481311559677124 0.7481311559677124 0.7481311559677124
0.74822449684143066 0.74822449684143066 0.74822449684143066
0.75839328765869141 0.75839328765869141 0.75839328765869141
0.77487170696258545 0.77487170696258545 0.77487170696258545
0.80762177705764771 0.80762177705764771 0.80762177705764771
0.90964525938034058 0.90964525938034058 0.90964525938034058
0.908355712890625 0.908355712890625 0.908355712890625
0.91191178560256958 0.91191178560256958 0.91191178560256958
0.91859018802642822 0.91859018802642822 0.91859018802642822
0.93795359134674072 0.93795359134674072 0.93795359134674072
0.17770838737487793 0.17770838737487793 0.17770838737487793
0.20925971865653992 0.20925971865653992 0.20925971865653992
0.24793088436126709 0.24793088436126709 0.24793088436126709
0.33938872814178467 0.33938872814178467 0.33938872814178467
0.46693772077560425 0.46693772077560425 0.46693772077560425
0.38889560103416443 0.38889560103416443 0.38889560103416443
0.41382768750190735 0.41382768750190735 0.41382768750190735
0.44884085655212402 0.44884085655212402 0.44884085655212402
0.51289057731628418 0.51289057731628418 0.51289057731628418
0.60720539093017578 0.60720539093017578 0.60720539093017578
0.60449141263961792 0.60449141263961792 0.60449141263961792
0.61872190237045288 0.61872190237045288 0.61872190237045288
0.63769257068634033 0.63769257068634033 0.63769257068634033
0.6668630838394165 0.6668630838394165 0.6668630838394165
0.71771383285522461 0.71771383285522461 0.71771383285522461
0.7833138108253479 0.7833138108253479 0.7833138108253479
0.7889397144317627 0.7889397144317627 0.7889397144317627
0.79457336664199829 0.79457336664199829 0.79457336664199829
0.80265289545059204 0.80265289545059204 0.80265289545059204
0.82887214422225952 0.82887214422225952 0.82887214422225952
0.92733782529830933 0.92733782529830933 0.92733782529830933
0.92780542373657227 0.92780542373657227 0.92780542373657227
0.92774218320846558 0.92774218320846558 0.92774218320846558
0.9290805459022522 0.9290805459022522 0.9290805459022522
0.9456942081451416 0.9456942081451416 0.9456942081451416
0.34767031669616699 0.34767031669616699 0.34767031669616699
0.38993114233016968 0.38993114233016968 0.38993114233016968
0.4281582236289978 0.4281582236289978 0.4281582236289978
0.50814294815063477 0.50814294815063477 0.50814294815063477
0.59028202295303345 0.59028202295303345 0.59028202295303345
0.54329216480255127 0.54329216480255127 0.54329216480255127
0.56860119104385376 0.56860119104385376 0.56860119104385376
0.59485530853271484 0.59485530853271484 0.59485530853271484
0.63490152359008789 0.63490152359008789 0.63490152359008789
0.68764877319335938 0.68764877319335938 0.68764877319335938
0.70575582981109619 0.70575582981109619 0.70575582981109619
0.71962100267410278 0.71962100267410278 0.71962100267410278
0.72932451963424683 0.72932451963424683 0.72932451963424683
0.74181240797042847 0.74181240797042847 0.74181240797042847
0.77091813087463379 0.77091813087463379 0.77091813087463379
0.83778321743011475 0.83778321743011475 0.83778321743011475
0.84527766704559326 0.84527766704559326 0.84527766704559326
0.84667235612869263 0.84667235612869263 0.84667235612869263
0.84835284948348999 0.84835284948348999 0.84835284948348999
0.86691552400588989 0.86691552400588989 0.86691552400588989
0.95806038379669189 0.95806038379669189 0.95806038379669189
0.96201789379119873 0.96201789379119873 0.96201789379119873
0.96180510520935059 0.96180510520935059 0.96180510520935059
0.95910108089447021 0.95910108089447021 0.95910108089447021
0.9706234335899353 0.9706234335899353 0.9706234335899353
