luts/negative_new/kodak_tmax_3200_++.cube
# Created by: G'MIC (https://gmic.eu)
TITLE "kodak_tmax_3200_++"
# LUT size
LUT_3D_SIZE 7
# Data domain
DOMAIN_MIN 0.0 0.0 0.0
DOMAIN_MAX 1.0 1.0 1.0
# LUT data points
0.29365694522857666 0.29365694522857666 0.29365694522857666
0.29155895113945007 0.29155895113945007 0.29155895113945007
0.2959631085395813 0.2959631085395813 0.2959631085395813
0.30380582809448242 0.30380582809448242 0.30380582809448242
0.31198284029960632 0.31198284029960632 0.31198284029960632
0.33237782120704651 0.33237782120704651 0.33237782120704651
0.38038325309753418 0.38038325309753418 0.38038325309753418
0.30510109663009644 0.30510109663009644 0.30510109663009644
0.30570873618125916 0.30570873618125916 0.30570873618125916
0.31943729519844055 0.31943729519844055 0.31943729519844055
0.33861222863197327 0.33861222863197327 0.33861222863197327
0.35071393847465515 0.35071393847465515 0.35071393847465515
0.37035125494003296 0.37035125494003296 0.37035125494003296
0.4261537492275238 0.4261537492275238 0.4261537492275238
0.33539143204689026 0.33539143204689026 0.33539143204689026
0.33674877882003784 0.33674877882003784 0.33674877882003784
0.35815641283988953 0.35815641283988953 0.35815641283988953
0.39201512932777405 0.39201512932777405 0.39201512932777405
0.42278376221656799 0.42278376221656799 0.42278376221656799
0.46219512820243835 0.46219512820243835 0.46219512820243835
0.53566908836364746 0.53566908836364746 0.53566908836364746
0.40476140379905701 0.40476140379905701 0.40476140379905701
0.40515640377998352 0.40515640377998352 0.40515640377998352
0.4281952977180481 0.4281952977180481 0.4281952977180481
0.47111886739730835 0.47111886739730835 0.47111886739730835
0.52526980638504028 0.52526980638504028 0.52526980638504028
0.60196179151535034 0.60196179151535034 0.60196179151535034
0.70297354459762573 0.70297354459762573 0.70297354459762573
0.53563982248306274 0.53563982248306274 0.53563982248306274
0.53551316261291504 0.53551316261291504 0.53551316261291504
0.55496323108673096 0.55496323108673096 0.55496323108673096
0.59316760301589966 0.59316760301589966 0.59316760301589966
0.64492833614349365 0.64492833614349365 0.64492833614349365
0.7206873893737793 0.7206873893737793 0.7206873893737793
0.81622529029846191 0.81622529029846191 0.81622529029846191
0.70885616540908813 0.70885616540908813 0.70885616540908813
0.70704507827758789 0.70704507827758789 0.70704507827758789
0.71998971700668335 0.71998971700668335 0.71998971700668335
0.74701976776123047 0.74701976776123047 0.74701976776123047
0.77761828899383545 0.77761828899383545 0.77761828899383545
0.81944769620895386 0.81944769620895386 0.81944769620895386
0.87873333692550659 0.87873333692550659 0.87873333692550659
0.88167357444763184 0.88167357444763184 0.88167357444763184
0.87609916925430298 0.87609916925430298 0.87609916925430298
0.88162094354629517 0.88162094354629517 0.88162094354629517
0.89821887016296387 0.89821887016296387 0.89821887016296387
0.90933406352996826 0.90933406352996826 0.90933406352996826
0.91947764158248901 0.91947764158248901 0.91947764158248901
0.94040638208389282 0.94040638208389282 0.94040638208389282
0.28717219829559326 0.28717219829559326 0.28717219829559326
0.29230150580406189 0.29230150580406189 0.29230150580406189
0.30326187610626221 0.30326187610626221 0.30326187610626221
0.31306356191635132 0.31306356191635132 0.31306356191635132
0.32000604271888733 0.32000604271888733 0.32000604271888733
0.33824500441551208 0.33824500441551208 0.33824500441551208
0.38209456205368042 0.38209456205368042 0.38209456205368042
0.30293956398963928 0.30293956398963928 0.30293956398963928
0.30817607045173645 0.30817607045173645 0.30817607045173645
0.32514768838882446 0.32514768838882446 0.32514768838882446
0.34426659345626831 0.34426659345626831 0.34426659345626831
0.35653942823410034 0.35653942823410034 0.35653942823410034
0.37976101040840149 0.37976101040840149 0.37976101040840149
0.43430593609809875 0.43430593609809875 0.43430593609809875
0.34227257966995239 0.34227257966995239 0.34227257966995239
0.34652721881866455 0.34652721881866455 0.34652721881866455
0.36719846725463867 0.36719846725463867 0.36719846725463867
0.39732104539871216 0.39732104539871216 0.39732104539871216
0.42998701333999634 0.42998701333999634 0.42998701333999634
0.4759562611579895 0.4759562611579895 0.4759562611579895
0.54773873090744019 0.54773873090744019 0.54773873090744019
0.42866414785385132 0.42866414785385132 0.42866414785385132
0.43044149875640869 0.43044149875640869 0.43044149875640869
0.44758576154708862 0.44758576154708862 0.44758576154708862
0.47851854562759399 0.47851854562759399 0.47851854562759399
0.53276568651199341 0.53276568651199341 0.53276568651199341
0.61213141679763794 0.61213141679763794 0.61213141679763794
0.70414066314697266 0.70414066314697266 0.70414066314697266
0.56945943832397461 0.56945943832397461 0.56945943832397461
0.56888943910598755 0.56888943910598755 0.56888943910598755
0.57903438806533813 0.57903438806533813 0.57903438806533813
0.60151749849319458 0.60151749849319458 0.60151749849319458
0.64554709196090698 0.64554709196090698 0.64554709196090698
0.71795505285263062 0.71795505285263062 0.71795505285263062
0.81617575883865356 0.81617575883865356 0.81617575883865356
0.73478794097900391 0.73478794097900391 0.73478794097900391
0.73268753290176392 0.73268753290176392 0.73268753290176392
0.73843389749526978 0.73843389749526978 0.73843389749526978
0.75462621450424194 0.75462621450424194 0.75462621450424194
0.77863997220993042 0.77863997220993042 0.77863997220993042
0.81347209215164185 0.81347209215164185 0.81347209215164185
0.87916582822799683 0.87916582822799683 0.87916582822799683
0.89131182432174683 0.89131182432174683 0.89131182432174683
0.88666075468063354 0.88666075468063354 0.88666075468063354
0.88921403884887695 0.88921403884887695 0.88921403884887695
0.90037977695465088 0.90037977695465088 0.90037977695465088
0.91354560852050781 0.91354560852050781 0.91354560852050781
0.92450392246246338 0.92450392246246338 0.92450392246246338
0.94531261920928955 0.94531261920928955 0.94531261920928955
0.28428670763969421 0.28428670763969421 0.28428670763969421
0.29600512981414795 0.29600512981414795 0.29600512981414795
0.31501173973083496 0.31501173973083496 0.31501173973083496
0.32866162061691284 0.32866162061691284 0.32866162061691284
0.33390071988105774 0.33390071988105774 0.33390071988105774
0.34982010722160339 0.34982010722160339 0.34982010722160339
0.3898213803768158 0.3898213803768158 0.3898213803768158
0.30255049467086792 0.30255049467086792 0.30255049467086792
0.31272211670875549 0.31272211670875549 0.31272211670875549
0.33295053243637085 0.33295053243637085 0.33295053243637085
0.35195055603981018 0.35195055603981018 0.35195055603981018
0.36329907178878784 0.36329907178878784 0.36329907178878784
0.38540855050086975 0.38540855050086975 0.38540855050086975
0.43618512153625488 0.43618512153625488 0.43618512153625488
0.34918326139450073 0.34918326139450073 0.34918326139450073
0.35772469639778137 0.35772469639778137 0.35772469639778137
0.37908491492271423 0.37908491492271423 0.37908491492271423
0.40728861093521118 0.40728861093521118 0.40728861093521118
0.43778863549232483 0.43778863549232483 0.43778863549232483
0.47562897205352783 0.47562897205352783 0.47562897205352783
0.54144144058227539 0.54144144058227539 0.54144144058227539
0.45048102736473083 0.45048102736473083 0.45048102736473083
0.45808804035186768 0.45808804035186768 0.45808804035186768
0.47536149621009827 0.47536149621009827 0.47536149621009827
0.50409811735153198 0.50409811735153198 0.50409811735153198
0.56438249349594116 0.56438249349594116 0.56438249349594116
0.6286199688911438 0.6286199688911438 0.6286199688911438
0.6964753270149231 0.6964753270149231 0.6964753270149231
0.60780531167984009 0.60780531167984009 0.60780531167984009
0.61085134744644165 0.61085134744644165 0.61085134744644165
0.61887639760971069 0.61887639760971069 0.61887639760971069
0.63506561517715454 0.63506561517715454 0.63506561517715454
0.67887818813323975 0.67887818813323975 0.67887818813323975
0.74308335781097412 0.74308335781097412 0.74308335781097412
0.82042485475540161 0.82042485475540161 0.82042485475540161
0.76628178358078003 0.76628178358078003 0.76628178358078003
0.76574641466140747 0.76574641466140747 0.76574641466140747
0.76895010471343994 0.76895010471343994 0.76895010471343994
0.78063458204269409 0.78063458204269409 0.78063458204269409
0.80218607187271118 0.80218607187271118 0.80218607187271118
0.83501666784286499 0.83501666784286499 0.83501666784286499
0.88873428106307983 0.88873428106307983 0.88873428106307983
0.90254288911819458 0.90254288911819458 0.90254288911819458
0.89730000495910645 0.89730000495910645 0.89730000495910645
0.89946877956390381 0.89946877956390381 0.89946877956390381
0.90932947397232056 0.90932947397232056 0.90932947397232056
0.9212372899055481 0.9212372899055481 0.9212372899055481
0.93140709400177002 0.93140709400177002 0.93140709400177002
0.94982320070266724 0.94982320070266724 0.94982320070266724
0.28728505969047546 0.28728505969047546 0.28728505969047546
0.30186784267425537 0.30186784267425537 0.30186784267425537
0.32707908749580383 0.32707908749580383 0.32707908749580383
0.34738290309906006 0.34738290309906006 0.34738290309906006
0.35378476977348328 0.35378476977348328 0.35378476977348328
0.36656424403190613 0.36656424403190613 0.36656424403190613
0.39820238947868347 0.39820238947868347 0.39820238947868347
0.30663549900054932 0.30663549900054932 0.30663549900054932
0.31856566667556763 0.31856566667556763 0.31856566667556763
0.34244093298912048 0.34244093298912048 0.34244093298912048
0.36703041195869446 0.36703041195869446 0.36703041195869446
0.37979727983474731 0.37979727983474731 0.37979727983474731
0.39436742663383484 0.39436742663383484 0.39436742663383484
0.43178346753120422 0.43178346753120422 0.43178346753120422
0.34867426753044128 0.34867426753044128 0.34867426753044128
0.36085522174835205 0.36085522174835205 0.36085522174835205
0.38792029023170471 0.38792029023170471 0.38792029023170471
0.42481216788291931 0.42481216788291931 0.42481216788291931
0.44872191548347473 0.44872191548347473 0.44872191548347473
0.46737834811210632 0.46737834811210632 0.46737834811210632
0.52096128463745117 0.52096128463745117 0.52096128463745117
0.4443143904209137 0.4443143904209137 0.4443143904209137
0.46220162510871887 0.46220162510871887 0.46220162510871887
0.49073514342308044 0.49073514342308044 0.49073514342308044
0.53424268960952759 0.53424268960952759 0.53424268960952759
0.58019483089447021 0.58019483089447021 0.58019483089447021
0.61284542083740234 0.61284542083740234 0.61284542083740234
0.66506689786911011 0.66506689786911011 0.66506689786911011
0.61137717962265015 0.61137717962265015 0.61137717962265015
0.63009250164031982 0.63009250164031982 0.63009250164031982
0.65247857570648193 0.65247857570648193 0.65247857570648193
0.67641079425811768 0.67641079425811768 0.67641079425811768
0.71638399362564087 0.71638399362564087 0.71638399362564087
0.75870382785797119 0.75870382785797119 0.75870382785797119
0.80968880653381348 0.80968880653381348 0.80968880653381348
0.78036409616470337 0.78036409616470337 0.78036409616470337
0.7891194224357605 0.7891194224357605 0.7891194224357605
0.79700404405593872 0.79700404405593872 0.79700404405593872
0.81323254108428955 0.81323254108428955 0.81323254108428955
0.83559137582778931 0.83559137582778931 0.83559137582778931
0.86337274312973022 0.86337274312973022 0.86337274312973022
0.90137064456939697 0.90137064456939697 0.90137064456939697
0.91204893589019775 0.91204893589019775 0.91204893589019775
0.90677404403686523 0.90677404403686523 0.90677404403686523
0.91122889518737793 0.91122889518737793 0.91122889518737793
0.92288357019424438 0.92288357019424438 0.92288357019424438
0.9323495626449585 0.9323495626449585 0.9323495626449585
0.9395064115524292 0.9395064115524292 0.9395064115524292
0.95136970281600952 0.95136970281600952 0.95136970281600952
0.29851073026657104 0.29851073026657104 0.29851073026657104
0.31001380085945129 0.31001380085945129 0.31001380085945129
0.33336403965950012 0.33336403965950012 0.33336403965950012
0.36088117957115173 0.36088117957115173 0.36088117957115173
0.38618665933609009 0.38618665933609009 0.38618665933609009
0.40394255518913269 0.40394255518913269 0.40394255518913269
0.41370999813079834 0.41370999813079834 0.41370999813079834
0.32408493757247925 0.32408493757247925 0.32408493757247925
0.33253574371337891 0.33253574371337891 0.33253574371337891
0.35529404878616333 0.35529404878616333 0.35529404878616333
0.38994798064231873 0.38994798064231873 0.38994798064231873
0.42267397046089172 0.42267397046089172 0.42267397046089172
0.43933960795402527 0.43933960795402527 0.43933960795402527
0.44861903786659241 0.44861903786659241 0.44861903786659241
0.36573725938796997 0.36573725938796997 0.36573725938796997
0.37562048435211182 0.37562048435211182 0.37562048435211182
0.40503889322280884 0.40503889322280884 0.40503889322280884
0.45798823237419128 0.45798823237419128 0.45798823237419128
0.49995923042297363 0.49995923042297363 0.49995923042297363
0.51258498430252075 0.51258498430252075 0.51258498430252075
0.52882468700408936 0.52882468700408936 0.52882468700408936
0.43135356903076172 0.43135356903076172 0.43135356903076172
0.45119807124137878 0.45119807124137878 0.45119807124137878
0.49016794562339783 0.49016794562339783 0.49016794562339783
0.56250733137130737 0.56250733137130737 0.56250733137130737
0.60748708248138428 0.60748708248138428 0.60748708248138428
0.62087488174438477 0.62087488174438477 0.62087488174438477
0.65498596429824829 0.65498596429824829 0.65498596429824829
0.58650833368301392 0.58650833368301392 0.58650833368301392
0.60668563842773438 0.60668563842773438 0.60668563842773438
0.63557952642440796 0.63557952642440796 0.63557952642440796
0.68842297792434692 0.68842297792434692 0.68842297792434692
0.73662275075912476 0.73662275075912476 0.73662275075912476
0.76807457208633423 0.76807457208633423 0.76807457208633423
0.80820560455322266 0.80820560455322266 0.80820560455322266
0.77845615148544312 0.77845615148544312 0.77845615148544312
0.79336655139923096 0.79336655139923096 0.79336655139923096
0.79652714729309082 0.79652714729309082 0.79652714729309082
0.82538288831710815 0.82538288831710815 0.82538288831710815
0.8544539213180542 0.8544539213180542 0.8544539213180542
0.88011574745178223 0.88011574745178223 0.88011574745178223
0.91572856903076172 0.91572856903076172 0.91572856903076172
0.91759097576141357 0.91759097576141357 0.91759097576141357
0.91948521137237549 0.91948521137237549 0.91948521137237549
0.91897094249725342 0.91897094249725342 0.91897094249725342
0.9309423565864563 0.9309423565864563 0.9309423565864563
0.94077569246292114 0.94077569246292114 0.94077569246292114
0.94773852825164795 0.94773852825164795 0.94773852825164795
0.96107107400894165 0.96107107400894165 0.96107107400894165
0.31814539432525635 0.31814539432525635 0.31814539432525635
0.32592037320137024 0.32592037320137024 0.32592037320137024
0.34832045435905457 0.34832045435905457 0.34832045435905457
0.38616675138473511 0.38616675138473511 0.38616675138473511
0.44306731224060059 0.44306731224060059 0.44306731224060059
0.49917975068092346 0.49917975068092346 0.49917975068092346
0.48776599764823914 0.48776599764823914 0.48776599764823914
0.35144945979118347 0.35144945979118347 0.35144945979118347
0.35402882099151611 0.35402882099151611 0.35402882099151611
0.37515762448310852 0.37515762448310852 0.37515762448310852
0.41956508159637451 0.41956508159637451 0.41956508159637451
0.48443472385406494 0.48443472385406494 0.48443472385406494
0.54033130407333374 0.54033130407333374 0.54033130407333374
0.53503477573394775 0.53503477573394775 0.53503477573394775
0.41093099117279053 0.41093099117279053 0.41093099117279053
0.41265186667442322 0.41265186667442322 0.41265186667442322
0.43929746747016907 0.43929746747016907 0.43929746747016907
0.49496597051620483 0.49496597051620483 0.49496597051620483
0.57169383764266968 0.57169383764266968 0.57169383764266968
0.61121433973312378 0.61121433973312378 0.61121433973312378
0.59952092170715332 0.59952092170715332 0.59952092170715332
0.44597300887107849 0.44597300887107849 0.44597300887107849
0.46560195088386536 0.46560195088386536 0.46560195088386536
0.52179819345474243 0.52179819345474243 0.52179819345474243
0.5987250804901123 0.5987250804901123 0.5987250804901123
0.66476690769195557 0.66476690769195557 0.66476690769195557
0.69429987668991089 0.69429987668991089 0.69429987668991089
0.69651919603347778 0.69651919603347778 0.69651919603347778
0.55828374624252319 0.55828374624252319 0.55828374624252319
0.570037841796875 0.570037841796875 0.570037841796875
0.59594404697418213 0.59594404697418213 0.59594404697418213
0.68336039781570435 0.68336039781570435 0.68336039781570435
0.76326978206634521 0.76326978206634521 0.76326978206634521
0.79891395568847656 0.79891395568847656 0.79891395568847656
0.82130557298660278 0.82130557298660278 0.82130557298660278
0.76801049709320068 0.76801049709320068 0.76801049709320068
0.77055996656417847 0.77055996656417847 0.77055996656417847
0.78471094369888306 0.78471094369888306 0.78471094369888306
0.82044893503189087 0.82044893503189087 0.82044893503189087
0.85743576288223267 0.85743576288223267 0.85743576288223267
0.88538950681686401 0.88538950681686401 0.88538950681686401
0.91085183620452881 0.91085183620452881 0.91085183620452881
0.90717786550521851 0.90717786550521851 0.90717786550521851
0.90677976608276367 0.90677976608276367 0.90677976608276367
0.91754543781280518 0.91754543781280518 0.91754543781280518
0.9330323338508606 0.9330323338508606 0.9330323338508606
0.93946307897567749 0.93946307897567749 0.93946307897567749
0.94658035039901733 0.94658035039901733 0.94658035039901733
0.96126961708068848 0.96126961708068848 0.96126961708068848
0.35022634267807007 0.35022634267807007 0.35022634267807007
0.35937276482582092 0.35937276482582092 0.35937276482582092
0.38838064670562744 0.38838064670562744 0.38838064670562744
0.44121620059013367 0.44121620059013367 0.44121620059013367
0.52886509895324707 0.52886509895324707 0.52886509895324707
0.6456182599067688 0.6456182599067688 0.6456182599067688
0.68674761056900024 0.68674761056900024 0.68674761056900024
0.38027670979499817 0.38027670979499817 0.38027670979499817
0.38366296887397766 0.38366296887397766 0.38366296887397766
0.41241532564163208 0.41241532564163208 0.41241532564163208
0.46943598985671997 0.46943598985671997 0.46943598985671997
0.56180870532989502 0.56180870532989502 0.56180870532989502
0.68203866481781006 0.68203866481781006 0.68203866481781006
0.72193342447280884 0.72193342447280884 0.72193342447280884
0.44422093033790588 0.44422093033790588 0.44422093033790588
0.45080935955047607 0.45080935955047607 0.45080935955047607
0.47349965572357178 0.47349965572357178 0.47349965572357178
0.53283679485321045 0.53283679485321045 0.53283679485321045
0.63323724269866943 0.63323724269866943 0.63323724269866943
0.73075413703918457 0.73075413703918457 0.73075413703918457
0.75541496276855469 0.75541496276855469 0.75541496276855469
0.5001673698425293 0.5001673698425293 0.5001673698425293
0.52583187818527222 0.52583187818527222 0.52583187818527222
0.57102465629577637 0.57102465629577637 0.57102465629577637
0.63994991779327393 0.63994991779327393 0.63994991779327393
0.72329729795455933 0.72329729795455933 0.72329729795455933
0.78489720821380615 0.78489720821380615 0.78489720821380615
0.79867714643478394 0.79867714643478394 0.79867714643478394
0.50841277837753296 0.50841277837753296 0.50841277837753296
0.52185970544815063 0.52185970544815063 0.52185970544815063
0.58664017915725708 0.58664017915725708 0.58664017915725708
0.69468188285827637 0.69468188285827637 0.69468188285827637
0.80205190181732178 0.80205190181732178 0.80205190181732178
0.8428570032119751 0.8428570032119751 0.8428570032119751
0.86394858360290527 0.86394858360290527 0.86394858360290527
0.74394840002059937 0.74394840002059937 0.74394840002059937
0.7561449408531189 0.7561449408531189 0.7561449408531189
0.77094799280166626 0.77094799280166626 0.77094799280166626
0.79476499557495117 0.79476499557495117 0.79476499557495117
0.84249073266983032 0.84249073266983032 0.84249073266983032
0.88967657089233398 0.88967657089233398 0.88967657089233398
0.91702908277511597 0.91702908277511597 0.91702908277511597
0.90462207794189453 0.90462207794189453 0.90462207794189453
0.90756517648696899 0.90756517648696899 0.90756517648696899
0.91459780931472778 0.91459780931472778 0.91459780931472778
0.92749869823455811 0.92749869823455811 0.92749869823455811
0.92982763051986694 0.92982763051986694 0.92982763051986694
0.94133085012435913 0.94133085012435913 0.94133085012435913
0.95977210998535156 0.95977210998535156 0.95977210998535156
