luts/negative_new/kodak_tmax_3200_++.cube
# Created by: G'MIC (https://gmic.eu)
TITLE "kodak_tmax_3200_++"
# LUT size
LUT_3D_SIZE 13
# Data domain
DOMAIN_MIN 0.0 0.0 0.0
DOMAIN_MAX 1.0 1.0 1.0
# LUT data points
0.29365694522857666 0.29365694522857666 0.29365694522857666
0.29179579019546509 0.29179579019546509 0.29179579019546509
0.29155895113945007 0.29155895113945007 0.29155895113945007
0.29268857836723328 0.29268857836723328 0.29268857836723328
0.2959631085395813 0.2959631085395813 0.2959631085395813
0.29986143112182617 0.29986143112182617 0.29986143112182617
0.30380582809448242 0.30380582809448242 0.30380582809448242
0.30745628476142883 0.30745628476142883 0.30745628476142883
0.31198284029960632 0.31198284029960632 0.31198284029960632
0.31959089636802673 0.31959089636802673 0.31959089636802673
0.33237782120704651 0.33237782120704651 0.33237782120704651
0.3525453507900238 0.3525453507900238 0.3525453507900238
0.38038325309753418 0.38038325309753418 0.38038325309753418
0.29823657870292664 0.29823657870292664 0.29823657870292664
0.29659134149551392 0.29659134149551392 0.29659134149551392
0.29732635617256165 0.29732635617256165 0.29732635617256165
0.30075660347938538 0.30075660347938538 0.30075660347938538
0.30619341135025024 0.30619341135025024 0.30619341135025024
0.31262609362602234 0.31262609362602234 0.31262609362602234
0.31865677237510681 0.31865677237510681 0.31865677237510681
0.32326170802116394 0.32326170802116394 0.32326170802116394
0.32759839296340942 0.32759839296340942 0.32759839296340942
0.3345896303653717 0.3345896303653717 0.3345896303653717
0.34678977727890015 0.34678977727890015 0.34678977727890015
0.36777475476264954 0.36777475476264954 0.36777475476264954
0.39846166968345642 0.39846166968345642 0.39846166968345642
0.30510109663009644 0.30510109663009644 0.30510109663009644
0.30396914482116699 0.30396914482116699 0.30396914482116699
0.30570873618125916 0.30570873618125916 0.30570873618125916
0.31107965111732483 0.31107965111732483 0.31107965111732483
0.31943729519844055 0.31943729519844055 0.31943729519844055
0.32950180768966675 0.32950180768966675 0.32950180768966675
0.33861222863197327 0.33861222863197327 0.33861222863197327
0.34526413679122925 0.34526413679122925 0.34526413679122925
0.35071393847465515 0.35071393847465515 0.35071393847465515
0.3579203188419342 0.3579203188419342 0.3579203188419342
0.37035125494003296 0.37035125494003296 0.37035125494003296
0.39188879728317261 0.39188879728317261 0.39188879728317261
0.4261537492275238 0.4261537492275238 0.4261537492275238
0.31669139862060547 0.31669139862060547 0.31669139862060547
0.31490156054496765 0.31490156054496765 0.31490156054496765
0.31800955533981323 0.31800955533981323 0.31800955533981323
0.32511842250823975 0.32511842250823975 0.32511842250823975
0.33631992340087891 0.33631992340087891 0.33631992340087891
0.35007533431053162 0.35007533431053162 0.35007533431053162
0.36360317468643188 0.36360317468643188 0.36360317468643188
0.373675137758255 0.373675137758255 0.373675137758255
0.38247624039649963 0.38247624039649963 0.38247624039649963
0.39273303747177124 0.39273303747177124 0.39273303747177124
0.40720191597938538 0.40720191597938538 0.40720191597938538
0.43058454990386963 0.43058454990386963 0.43058454990386963
0.46941414475440979 0.46941414475440979 0.46941414475440979
0.33539143204689026 0.33539143204689026 0.33539143204689026
0.33306241035461426 0.33306241035461426 0.33306241035461426
0.33674877882003784 0.33674877882003784 0.33674877882003784
0.34500175714492798 0.34500175714492798 0.34500175714492798
0.35815641283988953 0.35815641283988953 0.35815641283988953
0.37480425834655762 0.37480425834655762 0.37480425834655762
0.39201512932777405 0.39201512932777405 0.39201512932777405
0.4075658917427063 0.4075658917427063 0.4075658917427063
0.42278376221656799 0.42278376221656799 0.42278376221656799
0.44044074416160583 0.44044074416160583 0.44044074416160583
0.46219512820243835 0.46219512820243835 0.46219512820243835
0.49226129055023193 0.49226129055023193 0.49226129055023193
0.53566908836364746 0.53566908836364746 0.53566908836364746
0.36396962404251099 0.36396962404251099 0.36396962404251099
0.36146500706672668 0.36146500706672668 0.36146500706672668
0.36451622843742371 0.36451622843742371 0.36451622843742371
0.37302923202514648 0.37302923202514648 0.37302923202514648
0.38749876618385315 0.38749876618385315 0.38749876618385315
0.4065392017364502 0.4065392017364502 0.4065392017364502
0.42642742395401001 0.42642742395401001 0.42642742395401001
0.44782832264900208 0.44782832264900208 0.44782832264900208
0.4711308479309082 0.4711308479309082 0.4711308479309082
0.49817192554473877 0.49817192554473877 0.49817192554473877
0.53096365928649902 0.53096365928649902 0.53096365928649902
0.57161027193069458 0.57161027193069458 0.57161027193069458
0.61872261762619019 0.61872261762619019 0.61872261762619019
0.40476140379905701 0.40476140379905701 0.40476140379905701
0.40254983305931091 0.40254983305931091 0.40254983305931091
0.40515640377998352 0.40515640377998352 0.40515640377998352
0.41292983293533325 0.41292983293533325 0.41292983293533325
0.4281952977180481 0.4281952977180481 0.4281952977180481
0.44835841655731201 0.44835841655731201 0.44835841655731201
0.47111886739730835 0.47111886739730835 0.47111886739730835
0.49643555283546448 0.49643555283546448 0.49643555283546448
0.52526980638504028 0.52526980638504028 0.52526980638504028
0.5601956844329834 0.5601956844329834 0.5601956844329834
0.60196179151535034 0.60196179151535034 0.60196179151535034
0.65125077962875366 0.65125077962875366 0.65125077962875366
0.70297354459762573 0.70297354459762573 0.70297354459762573
0.46149376034736633 0.46149376034736633 0.46149376034736633
0.45993641018867493 0.45993641018867493 0.45993641018867493
0.46226131916046143 0.46226131916046143 0.46226131916046143
0.46923863887786865 0.46923863887786865 0.46923863887786865
0.48410454392433167 0.48410454392433167 0.48410454392433167
0.5038338303565979 0.5038338303565979 0.5038338303565979
0.52667975425720215 0.52667975425720215 0.52667975425720215
0.5527147650718689 0.5527147650718689 0.5527147650718689
0.58346396684646606 0.58346396684646606 0.58346396684646606
0.62061434984207153 0.62061434984207153 0.62061434984207153
0.66597139835357666 0.66597139835357666 0.66597139835357666
0.71811652183532715 0.71811652183532715 0.71811652183532715
0.77092713117599487 0.77092713117599487 0.77092713117599487
0.53563982248306274 0.53563982248306274 0.53563982248306274
0.53348702192306519 0.53348702192306519 0.53348702192306519
0.53551316261291504 0.53551316261291504 0.53551316261291504
0.54220527410507202 0.54220527410507202 0.54220527410507202
0.55496323108673096 0.55496323108673096 0.55496323108673096
0.57276564836502075 0.57276564836502075 0.57276564836502075
0.59316760301589966 0.59316760301589966 0.59316760301589966
0.61685442924499512 0.61685442924499512 0.61685442924499512
0.64492833614349365 0.64492833614349365 0.64492833614349365
0.67913389205932617 0.67913389205932617 0.67913389205932617
0.7206873893737793 0.7206873893737793 0.7206873893737793
0.76847302913665771 0.76847302913665771 0.76847302913665771
0.81622529029846191 0.81622529029846191 0.81622529029846191
0.62013828754425049 0.62013828754425049 0.62013828754425049
0.6176300048828125 0.6176300048828125 0.6176300048828125
0.61927735805511475 0.61927735805511475 0.61927735805511475
0.62503629922866821 0.62503629922866821 0.62503629922866821
0.63547033071517944 0.63547033071517944 0.63547033071517944
0.6505204439163208 0.6505204439163208 0.6505204439163208
0.66887575387954712 0.66887575387954712 0.66887575387954712
0.68753701448440552 0.68753701448440552 0.68753701448440552
0.70974135398864746 0.70974135398864746 0.70974135398864746
0.73694092035293579 0.73694092035293579 0.73694092035293579
0.7702522873878479 0.7702522873878479 0.7702522873878479
0.80935823917388916 0.80935823917388916 0.80935823917388916
0.84944069385528564 0.84944069385528564 0.84944069385528564
0.70885616540908813 0.70885616540908813 0.70885616540908813
0.70649212598800659 0.70649212598800659 0.70649212598800659
0.70704507827758789 0.70704507827758789 0.70704507827758789
0.71137738227844238 0.71137738227844238 0.71137738227844238
0.71998971700668335 0.71998971700668335 0.71998971700668335
0.73231089115142822 0.73231089115142822 0.73231089115142822
0.74701976776123047 0.74701976776123047 0.74701976776123047
0.76158010959625244 0.76158010959625244 0.76158010959625244
0.77761828899383545 0.77761828899383545 0.77761828899383545
0.79615497589111328 0.79615497589111328 0.79615497589111328
0.81944769620895386 0.81944769620895386 0.81944769620895386
0.84759467840194702 0.84759467840194702 0.84759467840194702
0.87873333692550659 0.87873333692550659 0.87873333692550659
0.79717361927032471 0.79717361927032471 0.79717361927032471
0.79451489448547363 0.79451489448547363 0.79451489448547363
0.7936866283416748 0.7936866283416748 0.7936866283416748
0.79646420478820801 0.79646420478820801 0.79646420478820801
0.80340522527694702 0.80340522527694702 0.80340522527694702
0.81367343664169312 0.81367343664169312 0.81367343664169312
0.82549053430557251 0.82549053430557251 0.82549053430557251
0.83616858720779419 0.83616858720779419 0.83616858720779419
0.84566491842269897 0.84566491842269897 0.84566491842269897
0.85579580068588257 0.85579580068588257 0.85579580068588257
0.86935436725616455 0.86935436725616455 0.86935436725616455
0.88716268539428711 0.88716268539428711 0.88716268539428711
0.90813672542572021 0.90813672542572021 0.90813672542572021
0.88167357444763184 0.88167357444763184 0.88167357444763184
0.87804681062698364 0.87804681062698364 0.87804681062698364
0.87609916925430298 0.87609916925430298 0.87609916925430298
0.87705790996551514 0.87705790996551514 0.87705790996551514
0.88162094354629517 0.88162094354629517 0.88162094354629517
0.88930684328079224 0.88930684328079224 0.88930684328079224
0.89821887016296387 0.89821887016296387 0.89821887016296387
0.90480351448059082 0.90480351448059082 0.90480351448059082
0.90933406352996826 0.90933406352996826 0.90933406352996826
0.91369909048080444 0.91369909048080444 0.91369909048080444
0.91947764158248901 0.91947764158248901 0.91947764158248901
0.9277382493019104 0.9277382493019104 0.9277382493019104
0.94040638208389282 0.94040638208389282 0.94040638208389282
0.29018673300743103 0.29018673300743103 0.29018673300743103
0.29009410738945007 0.29009410738945007 0.29009410738945007
0.29158362746238708 0.29158362746238708 0.29158362746238708
0.29457971453666687 0.29457971453666687 0.29457971453666687
0.29893350601196289 0.29893350601196289 0.29893350601196289
0.30370250344276428 0.30370250344276428 0.30370250344276428
0.30768048763275146 0.30768048763275146 0.30768048763275146
0.31107506155967712 0.31107506155967712 0.31107506155967712
0.31509459018707275 0.31509459018707275 0.31509459018707275
0.3218061625957489 0.3218061625957489 0.3218061625957489
0.33399772644042969 0.33399772644042969 0.33399772644042969
0.3532373309135437 0.3532373309135437 0.3532373309135437
0.37985697388648987 0.37985697388648987 0.37985697388648987
0.29553121328353882 0.29553121328353882 0.29553121328353882
0.29556706547737122 0.29556706547737122 0.29556706547737122
0.29766902327537537 0.29766902327537537 0.29766902327537537
0.30242159962654114 0.30242159962654114 0.30242159962654114
0.30893942713737488 0.30893942713737488 0.30893942713737488
0.31600821018218994 0.31600821018218994 0.31600821018218994
0.32195365428924561 0.32195365428924561 0.32195365428924561
0.32629102468490601 0.32629102468490601 0.32629102468490601
0.33036959171295166 0.33036959171295166 0.33036959171295166
0.33690556883811951 0.33690556883811951 0.33690556883811951
0.34915712475776672 0.34915712475776672 0.34915712475776672
0.36967331171035767 0.36967331171035767 0.36967331171035767
0.39916077256202698 0.39916077256202698 0.39916077256202698
0.30322733521461487 0.30322733521461487 0.30322733521461487
0.3031688928604126 0.3031688928604126 0.3031688928604126
0.30644461512565613 0.30644461512565613 0.30644461512565613
0.31285327672958374 0.31285327672958374 0.31285327672958374
0.32198038697242737 0.32198038697242737 0.32198038697242737
0.33233577013015747 0.33233577013015747 0.33233577013015747
0.34174636006355286 0.34174636006355286 0.34174636006355286
0.34802019596099854 0.34802019596099854 0.34802019596099854
0.3532574474811554 0.3532574474811554 0.3532574474811554
0.36078420281410217 0.36078420281410217 0.36078420281410217
0.37399265170097351 0.37399265170097351 0.37399265170097351
0.39618244767189026 0.39618244767189026 0.39618244767189026
0.42928838729858398 0.42928838729858398 0.42928838729858398
0.31655031442642212 0.31655031442642212 0.31655031442642212
0.31605544686317444 0.31605544686317444 0.31605544686317444
0.31970915198326111 0.31970915198326111 0.31970915198326111
0.32754611968994141 0.32754611968994141 0.32754611968994141
0.33910888433456421 0.33910888433456421 0.33910888433456421
0.35308963060379028 0.35308963060379028 0.35308963060379028
0.36665168404579163 0.36665168404579163 0.36665168404579163
0.37643882632255554 0.37643882632255554 0.37643882632255554
0.38503259420394897 0.38503259420394897 0.38503259420394897
0.39627352356910706 0.39627352356910706 0.39627352356910706
0.41282138228416443 0.41282138228416443 0.41282138228416443
0.43851754069328308 0.43851754069328308 0.43851754069328308
0.47569766640663147 0.47569766640663147 0.47569766640663147
0.33764505386352539 0.33764505386352539 0.33764505386352539
0.33649644255638123 0.33649644255638123 0.33649644255638123
0.34036213159561157 0.34036213159561157 0.34036213159561157
0.34879502654075623 0.34879502654075623 0.34879502654075623
0.36179131269454956 0.36179131269454956 0.36179131269454956
0.37794247269630432 0.37794247269630432 0.37794247269630432
0.39479392766952515 0.39479392766952515 0.39479392766952515
0.41007286310195923 0.41007286310195923 0.41007286310195923
0.4255920946598053 0.4255920946598053 0.4255920946598053
0.44444698095321655 0.44444698095321655 0.44444698095321655
0.46850401163101196 0.46850401163101196 0.46850401163101196
0.50042110681533813 0.50042110681533813 0.50042110681533813
0.54184544086456299 0.54184544086456299 0.54184544086456299
0.36951813101768494 0.36951813101768494 0.36951813101768494
0.3679262101650238 0.3679262101650238 0.3679262101650238
0.37113955616950989 0.37113955616950989 0.37113955616950989
0.37954095005989075 0.37954095005989075 0.37954095005989075
0.3926861584186554 0.3926861584186554 0.3926861584186554
0.40970668196678162 0.40970668196678162 0.40970668196678162
0.42916578054428101 0.42916578054428101 0.42916578054428101
0.45002135634422302 0.45002135634422302 0.45002135634422302
0.47365003824234009 0.47365003824234009 0.47365003824234009
0.50210660696029663 0.50210660696029663 0.50210660696029663
0.53608924150466919 0.53608924150466919 0.53608924150466919
0.57694542407989502 0.57694542407989502 0.57694542407989502
0.62245839834213257 0.62245839834213257 0.62245839834213257
0.41456183791160583 0.41456183791160583 0.41456183791160583
0.4125581681728363 0.4125581681728363 0.4125581681728363
0.41527488827705383 0.41527488827705383 0.41527488827705383
0.42269864678382874 0.42269864678382874 0.42269864678382874
0.43546199798583984 0.43546199798583984 0.43546199798583984
0.45258551836013794 0.45258551836013794 0.45258551836013794
0.47302892804145813 0.47302892804145813 0.47302892804145813
0.49723345041275024 0.49723345041275024 0.49723345041275024
0.52672308683395386 0.52672308683395386 0.52672308683395386
0.56259608268737793 0.56259608268737793 0.56259608268737793
0.60530471801757812 0.60530471801757812 0.60530471801757812
0.65373474359512329 0.65373474359512329 0.65373474359512329
0.70311307907104492 0.70311307907104492 0.70311307907104492
0.47495439648628235 0.47495439648628235 0.47495439648628235
0.47292563319206238 0.47292563319206238 0.47292563319206238
0.47504791617393494 0.47504791617393494 0.47504791617393494
0.4813600480556488 0.4813600480556488 0.4813600480556488
0.49288204312324524 0.49288204312324524 0.49288204312324524
0.50891858339309692 0.50891858339309692 0.50891858339309692
0.52834957838058472 0.52834957838058472 0.52834957838058472
0.55238896608352661 0.55238896608352661 0.55238896608352661
0.58281630277633667 0.58281630277633667 0.58281630277633667
0.62062090635299683 0.62062090635299683 0.62062090635299683
0.66646039485931396 0.66646039485931396 0.66646039485931396
0.71816080808639526 0.71816080808639526 0.71816080808639526
0.7695162296295166 0.7695162296295166 0.7695162296295166
0.54969555139541626 0.54969555139541626 0.54969555139541626
0.54739433526992798 0.54739433526992798 0.54739433526992798
0.5490347146987915 0.5490347146987915 0.5490347146987915
0.55432522296905518 0.55432522296905518 0.55432522296905518
0.56405395269393921 0.56405395269393921 0.56405395269393921
0.57778513431549072 0.57778513431549072 0.57778513431549072
0.59482252597808838 0.59482252597808838 0.59482252597808838
0.6160881519317627 0.6160881519317627 0.6160881519317627
0.64269208908081055 0.64269208908081055 0.64269208908081055
0.6760404109954834 0.6760404109954834 0.6760404109954834
0.71769505739212036 0.71769505739212036 0.71769505739212036
0.76661044359207153 0.76661044359207153 0.76661044359207153
0.81541746854782104 0.81541746854782104 0.81541746854782104
0.6333732008934021 0.6333732008934021 0.6333732008934021
0.63126665353775024 0.63126665353775024 0.63126665353775024
0.63207179307937622 0.63207179307937622 0.63207179307937622
0.63623958826065063 0.63623958826065063 0.63623958826065063
0.64413142204284668 0.64413142204284668 0.64413142204284668
0.65561288595199585 0.65561288595199585 0.65561288595199585
0.67000687122344971 0.67000687122344971 0.67000687122344971
0.68703317642211914 0.68703317642211914 0.68703317642211914
0.70715916156768799 0.70715916156768799 0.70715916156768799
0.73228079080581665 0.73228079080581665 0.73228079080581665
0.76491165161132812 0.76491165161132812 0.76491165161132812
0.80588960647583008 0.80588960647583008 0.80588960647583008
0.84867846965789795 0.84867846965789795 0.84867846965789795
0.72006213665008545 0.72006213665008545 0.72006213665008545
0.71795332431793213 0.71795332431793213 0.71795332431793213
0.71782857179641724 0.71782857179641724 0.71782857179641724
0.72082531452178955 0.72082531452178955 0.72082531452178955
0.72733575105667114 0.72733575105667114 0.72733575105667114
0.73706769943237305 0.73706769943237305 0.73706769943237305
0.74903148412704468 0.74903148412704468 0.74903148412704468
0.76200956106185913 0.76200956106185913 0.76200956106185913
0.7762637734413147 0.7762637734413147 0.7762637734413147
0.79304623603820801 0.79304623603820801 0.79304623603820801
0.81533896923065186 0.81533896923065186 0.81533896923065186
0.84495848417282104 0.84495848417282104 0.84495848417282104
0.8781704306602478 0.8781704306602478 0.8781704306602478
0.80533516407012939 0.80533516407012939 0.80533516407012939
0.80287754535675049 0.80287754535675049 0.80287754535675049
0.801788330078125 0.801788330078125 0.801788330078125
0.80367976427078247 0.80367976427078247 0.80367976427078247
0.80872231721878052 0.80872231721878052 0.80872231721878052
0.81695771217346191 0.81695771217346191 0.81695771217346191
0.82689887285232544 0.82689887285232544 0.82689887285232544
0.83651113510131836 0.83651113510131836 0.83651113510131836
0.84592992067337036 0.84592992067337036 0.84592992067337036
0.85602527856826782 0.85602527856826782 0.85602527856826782
0.86873382329940796 0.86873382329940796 0.86873382329940796
0.8867795467376709 0.8867795467376709 0.8867795467376709
0.90879857540130615 0.90879857540130615 0.90879857540130615
0.88613265752792358 0.88613265752792358 0.88613265752792358
0.88324862718582153 0.88324862718582153 0.88324862718582153
0.88100993633270264 0.88100993633270264 0.88100993633270264
0.88150596618652344 0.88150596618652344 0.88150596618652344
0.8850632905960083 0.8850632905960083 0.8850632905960083
0.89139717817306519 0.89139717817306519 0.89139717817306519
0.89886540174484253 0.89886540174484253 0.89886540174484253
0.90527743101119995 0.90527743101119995 0.90527743101119995
0.91049987077713013 0.91049987077713013 0.91049987077713013
0.91539078950881958 0.91539078950881958 0.91539078950881958
0.92066031694412231 0.92066031694412231 0.92066031694412231
0.92891174554824829 0.92891174554824829 0.92891174554824829
0.94229453802108765 0.94229453802108765 0.94229453802108765
0.28717219829559326 0.28717219829559326 0.28717219829559326
0.28874605894088745 0.28874605894088745 0.28874605894088745
0.29230150580406189 0.29230150580406189 0.29230150580406189
0.29734030365943909 0.29734030365943909 0.29734030365943909
0.30326187610626221 0.30326187610626221 0.30326187610626221
0.3088718056678772 0.3088718056678772 0.3088718056678772
0.31306356191635132 0.31306356191635132 0.31306356191635132
0.31637230515480042 0.31637230515480042 0.31637230515480042
0.32000604271888733 0.32000604271888733 0.32000604271888733
0.32649776339530945 0.32649776339530945 0.32649776339530945
0.33824500441551208 0.33824500441551208 0.33824500441551208
0.35673826932907104 0.35673826932907104 0.35673826932907104
0.38209456205368042 0.38209456205368042 0.38209456205368042
0.29333561658859253 0.29333561658859253 0.29333561658859253
0.29482921957969666 0.29482921957969666 0.29482921957969666
0.29872369766235352 0.29872369766235352 0.29872369766235352
0.30493724346160889 0.30493724346160889 0.30493724346160889
0.31251639127731323 0.31251639127731323 0.31251639127731323
0.32003238797187805 0.32003238797187805 0.32003238797187805
0.32610043883323669 0.32610043883323669 0.32610043883323669
0.33038294315338135 0.33038294315338135 0.33038294315338135
0.3345169723033905 0.3345169723033905 0.3345169723033905
0.3411661684513092 0.3411661684513092 0.3411661684513092
0.35386323928833008 0.35386323928833008 0.35386323928833008
0.37398424744606018 0.37398424744606018 0.37398424744606018
0.40235236287117004 0.40235236287117004 0.40235236287117004
0.30293956398963928 0.30293956398963928 0.30293956398963928
0.30373126268386841 0.30373126268386841 0.30373126268386841
0.30817607045173645 0.30817607045173645 0.30817607045173645
0.31558266282081604 0.31558266282081604 0.31558266282081604
0.32514768838882446 0.32514768838882446 0.32514768838882446
0.33539655804634094 0.33539655804634094 0.33539655804634094
0.34426659345626831 0.34426659345626831 0.34426659345626831
0.35071480274200439 0.35071480274200439 0.35071480274200439
0.35653942823410034 0.35653942823410034 0.35653942823410034
0.36517101526260376 0.36517101526260376 0.36517101526260376
0.37976101040840149 0.37976101040840149 0.37976101040840149
0.40261891484260559 0.40261891484260559 0.40261891484260559
0.43430593609809875 0.43430593609809875 0.43430593609809875
0.31732955574989319 0.31732955574989319 0.31732955574989319
0.31842115521430969 0.31842115521430969 0.31842115521430969
0.32319208979606628 0.32319208979606628 0.32319208979606628
0.33138865232467651 0.33138865232467651 0.33138865232467651
0.34271794557571411 0.34271794557571411 0.34271794557571411
0.35568904876708984 0.35568904876708984 0.35568904876708984
0.36803072690963745 0.36803072690963745 0.36803072690963745
0.37840843200683594 0.37840843200683594 0.37840843200683594
0.38837733864784241 0.38837733864784241 0.38837733864784241
0.40120646357536316 0.40120646357536316 0.40120646357536316
0.41994723677635193 0.41994723677635193 0.41994723677635193
0.44679757952690125 0.44679757952690125 0.44679757952690125
0.48222231864929199 0.48222231864929199 0.48222231864929199
0.34227257966995239 0.34227257966995239 0.34227257966995239
0.34215667843818665 0.34215667843818665 0.34215667843818665
0.34652721881866455 0.34652721881866455 0.34652721881866455
0.35500460863113403 0.35500460863113403 0.35500460863113403
0.36719846725463867 0.36719846725463867 0.36719846725463867
0.38182058930397034 0.38182058930397034 0.38182058930397034
0.39732104539871216 0.39732104539871216 0.39732104539871216
0.41290709376335144 0.41290709376335144 0.41290709376335144
0.42998701333999634 0.42998701333999634 0.42998701333999634
