luts/negative_new/kodak_portra_800_-.cube
# Created by: G'MIC (https://gmic.eu)
TITLE "kodak_portra_800_-"
# LUT size
LUT_3D_SIZE 7
# Data domain
DOMAIN_MIN 0.0 0.0 0.0
DOMAIN_MAX 1.0 1.0 1.0
# LUT data points
0.028568746522068977 0.031116141006350517 0.033333137631416321
0.17146165668964386 0.032173007726669312 0.025266984477639198
0.39263036847114563 0.0095442524179816246 0.022361336275935173
0.63129490613937378 0.0063689285889267921 0.0077936062589287758
0.83592039346694946 0.0047274571843445301 0.0077305212616920471
0.97999668121337891 0.0035239276476204395 0.002644452964887023
1 0.079137913882732391 0
0.0081260977312922478 0.1523849219083786 0.04720744863152504
0.14454345405101776 0.17220599949359894 0.027297345921397209
0.38088691234588623 0.17503473162651062 0.010865918360650539
0.62401217222213745 0.15666414797306061 0.0064334943890571594
0.82635515928268433 0.15201994776725769 0.0028065850492566824
0.9715346097946167 0.18915306031703949 0.003607641439884901
0.99871635437011719 0.25507262349128723 0.0066771861165761948
0.0026479533407837152 0.30552318692207336 0.070188499987125397
0.035402394831180573 0.3150295615196228 0.054193131625652313
0.32324132323265076 0.36223873496055603 0.0059074698947370052
0.59014666080474854 0.38414144515991211 0.0037465414498001337
0.79194247722625732 0.38601812720298767 0.0061870650388300419
0.94495517015457153 0.40777298808097839 0.0076299929060041904
0.99544531106948853 0.41853547096252441 0.011764706112444401
0 0.46340307593345642 0.10084092617034912
0.0059602772817015648 0.46218037605285645 0.097381919622421265
0.19867362082004547 0.48220255970954895 0.046187754720449448
0.49276444315910339 0.53522425889968872 0.0052808872424066067
0.74250680208206177 0.57304495573043823 0.0023118113167583942
0.91261577606201172 0.5795440673828125 0.0041902279481291771
0.99221521615982056 0.58276796340942383 0.0037275725044310093
0 0.6047976016998291 0.14953316748142242
0.0042007896117866039 0.59989237785339355 0.14737069606781006
0.11240063607692719 0.60095208883285522 0.12144075334072113
0.403768390417099 0.63956916332244873 0.034293141216039658
0.65922349691390991 0.69232857227325439 0.0063262190669775009
0.87484687566757202 0.7287256121635437 0.00054859835654497147
0.99642479419708252 0.74236607551574707 0
0.0006581325433216989 0.75734084844589233 0.21926520764827728
0.0047333510592579842 0.75862276554107666 0.2186560183763504
0.14106851816177368 0.75302690267562866 0.20091469585895538
0.39414551854133606 0.76832348108291626 0.16771069169044495
0.59995478391647339 0.79754000902175903 0.06580759584903717
0.8090893030166626 0.83492922782897949 0.0053595448844134808
0.98418927192687988 0.87061303853988647 1.3643152669828851e-05
0.18806478381156921 0.92797714471817017 0.38495954871177673
0.26028376817703247 0.92659902572631836 0.38406229019165039
0.37240102887153625 0.92299699783325195 0.3878471851348877
0.49707457423210144 0.92370116710662842 0.37950292229652405
0.64790964126586914 0.93627798557281494 0.34517759084701538
0.79966938495635986 0.95398330688476562 0.26968258619308472
0.94956034421920776 0.96875631809234619 0.088936209678649902
0.029559865593910217 0.034461870789527893 0.17937029898166656
0.1797473132610321 0.024202130734920502 0.18203592300415039
0.39650645852088928 0.0085256984457373619 0.1747785359621048
0.62605184316635132 0.0075943740084767342 0.164152592420578
0.82922637462615967 0.0037909264210611582 0.15200062096118927
0.97701048851013184 0.004176450427621603 0.12326263636350632
1 0.094047889113426208 0.083676658570766449
0.019817471504211426 0.17043380439281464 0.17803169786930084
0.16799011826515198 0.17066006362438202 0.18512260913848877
0.3940047025680542 0.15805140137672424 0.16951581835746765
0.62404459714889526 0.15062823891639709 0.15896503627300262
0.82288265228271484 0.15140825510025024 0.14067693054676056
0.96808063983917236 0.191054567694664 0.10839606076478958
1 0.25668904185295105 0.072941333055496216
0.024857869371771812 0.33722376823425293 0.20345887541770935
0.12908530235290527 0.33879455924034119 0.19369405508041382
0.35270732641220093 0.36675792932510376 0.16061839461326599
0.59636503458023071 0.38249164819717407 0.13533304631710052
0.79238003492355347 0.38861244916915894 0.12024308741092682
0.95086991786956787 0.40638446807861328 0.08006788045167923
0.99996793270111084 0.42915287613868713 0.046027913689613342
0.0033181284088641405 0.48283630609512329 0.2160973995923996
0.033464081585407257 0.48005929589271545 0.20767791569232941
0.25531402230262756 0.48845738172531128 0.18845371901988983
0.50872582197189331 0.53417116403579712 0.12192042917013168
0.74801784753799438 0.57276046276092529 0.057544946670532227
0.91923826932907104 0.58173573017120361 0.055238716304302216
0.99975466728210449 0.59186267852783203 0.037763528525829315
0.00049917184514924884 0.62109512090682983 0.24058794975280762
0.0056564928963780403 0.61562556028366089 0.2350563108921051
0.19242323935031891 0.60994744300842285 0.21859800815582275
0.42650261521339417 0.64076024293899536 0.17918509244918823
0.65838545560836792 0.68552237749099731 0.088202334940433502
0.87954115867614746 0.73239529132843018 0.012698453851044178
0.99710863828659058 0.74236452579498291 0.01553789060562849
0.002142229350283742 0.7684522271156311 0.28630521893501282
0.0061124763451516628 0.764537513256073 0.27703055739402771
0.19633917510509491 0.75602489709854126 0.2649942934513092
0.40352123975753784 0.76600712537765503 0.24455989897251129
0.60773062705993652 0.79914009571075439 0.19296295940876007
0.80847221612930298 0.83234494924545288 0.076609469950199127
0.9861106276512146 0.86981731653213501 0.0030523710884153843
0.21640853583812714 0.9286988377571106 0.42236846685409546
0.27859470248222351 0.92685782909393311 0.42258688807487488
0.38185316324234009 0.92120969295501709 0.42143547534942627
0.50264686346054077 0.92376786470413208 0.41893404722213745
0.64666414260864258 0.93723362684249878 0.39130830764770508
0.80151784420013428 0.95275801420211792 0.33479061722755432
0.95004856586456299 0.96678882837295532 0.19103041291236877
0.009333382360637188 0.033020693808794022 0.37738773226737976
0.179693803191185 0.023008130490779877 0.38615128397941589
0.41335052251815796 0.0047889258712530136 0.39019057154655457
0.626964271068573 0.0094617810100317001 0.36973661184310913
0.82815849781036377 0.0050679822452366352 0.35213631391525269
0.97680723667144775 0.0035091773606836796 0.33753699064254761
1 0.074203357100486755 0.3374817967414856
0.0096216686069965363 0.18281367421150208 0.36701995134353638
0.18146952986717224 0.18095090985298157 0.37186217308044434
0.41297796368598938 0.16412319242954254 0.38232678174972534
0.63199383020401001 0.1133049875497818 0.37547516822814941
0.82508748769760132 0.07661418616771698 0.35641485452651978
0.97578072547912598 0.13799957931041718 0.34783062338829041
1 0.26186567544937134 0.34493741393089294
0.031389333307743073 0.35762670636177063 0.361654132604599
0.20354312658309937 0.36335298418998718 0.37113365530967712
0.38785180449485779 0.36789178848266602 0.37006616592407227
0.60068845748901367 0.37521117925643921 0.36352542042732239
0.79091554880142212 0.37988483905792236 0.35989490151405334
0.94959837198257446 0.40220949053764343 0.34887146949768066
0.99995118379592896 0.43361997604370117 0.32753312587738037
0.16741369664669037 0.51670318841934204 0.3825288712978363
0.25190266966819763 0.51826506853103638 0.38300633430480957
0.35614606738090515 0.51001405715942383 0.36481204628944397
0.54066473245620728 0.540302574634552 0.34471729397773743
0.7481200098991394 0.56460112333297729 0.33057421445846558
0.91538995504379272 0.57665485143661499 0.33492138981819153
0.99591535329818726 0.58919638395309448 0.31750920414924622
0.13364556431770325 0.6471104621887207 0.39008587598800659
0.18192307651042938 0.64473974704742432 0.38036489486694336
0.30092290043830872 0.63587522506713867 0.36327293515205383
0.46672308444976807 0.64438909292221069 0.33678123354911804
0.67592650651931763 0.68940860033035278 0.31340181827545166
0.88252002000808716 0.73214888572692871 0.29262736439704895
0.99539953470230103 0.74046611785888672 0.29753944277763367
0.011958656832575798 0.78193408250808716 0.39718019962310791
0.10141106694936752 0.77806240320205688 0.39004385471343994
0.27555045485496521 0.76914232969284058 0.37912514805793762
0.42683476209640503 0.76676446199417114 0.36291813850402832
0.61966532468795776 0.79766291379928589 0.34927648305892944
0.81395024061203003 0.83348488807678223 0.30910810828208923
0.98685985803604126 0.86957544088363647 0.24479876458644867
0.27355891466140747 0.93258237838745117 0.50089114904403687
0.32355028390884399 0.92962563037872314 0.50110083818435669
0.40581867098808289 0.92691564559936523 0.49476379156112671
0.51515549421310425 0.92399144172668457 0.4910588264465332
0.64964759349822998 0.93540513515472412 0.47979232668876648
0.80006885528564453 0.95161718130111694 0.44475975632667542
0.94937586784362793 0.96837550401687622 0.36865794658660889
0.0084495097398757935 0.033882740885019302 0.56700330972671509
0.17120598256587982 0.023212747648358345 0.57727253437042236
0.42616021633148193 0.0048251431435346603 0.59093594551086426
0.64801174402236938 0.0060550915077328682 0.59319639205932617
0.82076048851013184 0.0070310407318174839 0.57558101415634155
0.97053337097167969 0.0037324943114072084 0.5537523627281189
0.99993103742599487 0.003940328024327755 0.5330272912979126
0.0050098043866455555 0.18685781955718994 0.5638737678527832
0.1956864595413208 0.18135303258895874 0.57342797517776489
0.42912125587463379 0.17007620632648468 0.58188778162002563
0.64508342742919922 0.14280597865581512 0.59356391429901123
0.81265759468078613 0.086460396647453308 0.57558548450469971
0.96925872564315796 0.085152678191661835 0.55785626173019409
1 0.1451626718044281 0.53609859943389893
0.0095877554267644882 0.36463496088981628 0.5486522912979126
0.17024435102939606 0.36750510334968567 0.55376249551773071
0.40582087635993958 0.36562079191207886 0.56197923421859741
0.61480224132537842 0.37293478846549988 0.57206541299819946
0.79260480403900146 0.36910563707351685 0.56256699562072754
0.95290398597717285 0.37217643857002258 0.54839503765106201
0.99998635053634644 0.40249186754226685 0.53880655765533447
0.13856318593025208 0.5368238091468811 0.53755801916122437
0.26198551058769226 0.54007411003112793 0.5419917106628418
0.41685500741004944 0.54095172882080078 0.5414355993270874
0.57893115282058716 0.54660838842391968 0.54619753360748291
0.7524644136428833 0.55748879909515381 0.54373431205749512
0.91596454381942749 0.57398289442062378 0.54574263095855713
0.9961358904838562 0.59709304571151733 0.54057854413986206
0.28686770796775818 0.67654061317443848 0.5523032546043396
0.34445992112159729 0.67671114206314087 0.5546608567237854
0.43427881598472595 0.67487025260925293 0.5457337498664856
0.5261542797088623 0.6649477481842041 0.52347308397293091
0.69707363843917847 0.69755274057388306 0.51847130060195923
0.87894809246063232 0.72607648372650146 0.52284270524978638
0.99361872673034668 0.738006591796875 0.52242541313171387
0.34156957268714905 0.80080097913742065 0.57631123065948486
0.36906623840332031 0.80015528202056885 0.57243150472640991
0.40305635333061218 0.79568952322006226 0.54567307233810425
0.48474085330963135 0.7834441065788269 0.51739859580993652
0.62838882207870483 0.79242998361587524 0.50127613544464111
0.82488894462585449 0.8377920389175415 0.50259971618652344
0.98670226335525513 0.86602771282196045 0.49187123775482178
0.40019255876541138 0.93628048896789551 0.62748926877975464
0.40644362568855286 0.9377448558807373 0.61650806665420532
0.44924896955490112 0.93485432863235474 0.60258513689041138
0.53812426328659058 0.92984390258789062 0.59396141767501831
0.65226393938064575 0.93114966154098511 0.58018964529037476
0.80091804265975952 0.95195299386978149 0.57213866710662842
0.94943845272064209 0.96850311756134033 0.53332209587097168
0.049269583076238632 0.026521166786551476 0.74079442024230957
0.24848076701164246 0.018241703510284424 0.74012267589569092
0.45656880736351013 0.0073006721213459969 0.7528756856918335
0.65811794996261597 0.01002578716725111 0.76423901319503784
0.83230125904083252 0.0050803092308342457 0.76539802551269531
0.96555089950561523 0.0063607008196413517 0.75032716989517212
0.99898844957351685 0.0054295859299600124 0.73204666376113892
0.10400594025850296 0.1939401775598526 0.73658192157745361
0.26412317156791687 0.19007733464241028 0.74131017923355103
0.46509945392608643 0.17428095638751984 0.74710351228713989
0.65682166814804077 0.17288325726985931 0.75535827875137329
0.82397234439849854 0.16096982359886169 0.76384943723678589
0.96004325151443481 0.11978602409362793 0.74948984384536743
1 0.15412150323390961 0.73341286182403564
0.034430455416440964 0.36177074909210205 0.7234465479850769
0.23357224464416504 0.36960312724113464 0.72647160291671753
0.4303562343120575 0.36436402797698975 0.72614377737045288
0.63370239734649658 0.38099223375320435 0.74041658639907837
0.80622249841690063 0.40018373727798462 0.75156486034393311
0.94542497396469116 0.38758188486099243 0.73841261863708496
0.99642068147659302 0.39302483201026917 0.72338199615478516
0.021413182839751244 0.533500075340271 0.69616889953613281
0.19028940796852112 0.53290945291519165 0.69695097208023071
0.38352522253990173 0.53530681133270264 0.69793301820755005
0.58549219369888306 0.55046433210372925 0.71173697710037231
0.77016419172286987 0.57007861137390137 0.73111790418624878
0.91832304000854492 0.57615113258361816 0.73087149858474731
0.99334406852722168 0.58816176652908325 0.72303920984268188
0.25514137744903564 0.6898694634437561 0.69976514577865601
0.32985472679138184 0.68970072269439697 0.69950109720230103
0.44633561372756958 0.69316083192825317 0.69872045516967773
0.58353972434997559 0.69422996044158936 0.69988745450973511
0.72557985782623291 0.70567554235458374 0.70346915721893311
0.88674801588058472 0.72664815187454224 0.71452021598815918
0.99539482593536377 0.74230700731277466 0.72344666719436646
0.42017295956611633 0.81956619024276733 0.71867251396179199
0.45693632960319519 0.82370024919509888 0.72122681140899658
0.52103632688522339 0.82044023275375366 0.71563059091567993
0.60354357957839966 0.8171919584274292 0.70949310064315796
0.67776006460189819 0.80839246511459351 0.6815650463104248
0.83706527948379517 0.8395153284072876 0.68293923139572144
0.98604446649551392 0.86608445644378662 0.70003050565719604
0.52934980392456055 0.9418758749961853 0.77006280422210693
0.54573005437850952 0.94204831123352051 0.76681172847747803
0.58733433485031128 0.94054752588272095 0.7626577615737915
0.61872243881225586 0.94050872325897217 0.73671072721481323
0.68373900651931763 0.93633532524108887 0.71161603927612305
0.80470293760299683 0.94451123476028442 0.69915449619293213
0.94944995641708374 0.96757215261459351 0.69587332010269165
0.27178525924682617 0.043285101652145386 0.88363111019134521
0.36423623561859131 0.036300133913755417 0.88250511884689331
0.5142027735710144 0.01471373625099659 0.88737189769744873
0.68101292848587036 0.013257913291454315 0.89303839206695557
0.84184318780899048 0.034407701343297958 0.8999364972114563
0.97332143783569336 0.049947071820497513 0.90385150909423828
1 0.026462629437446594 0.89067822694778442
0.28421580791473389 0.21303658187389374 0.87809717655181885
0.37056192755699158 0.2103712409734726 0.88134145736694336
0.51152271032333374 0.20519520342350006 0.8768622875213623
0.67340517044067383 0.21276219189167023 0.88332796096801758
0.83177369832992554 0.22932446002960205 0.8949505090713501
0.96524727344512939 0.23452487587928772 0.90108084678649902
0.99799579381942749 0.22634738683700562 0.88817185163497925
0.24948221445083618 0.37835982441902161 0.87155312299728394
0.33791857957839966 0.38328632712364197 0.86886346340179443
0.48710435628890991 0.38056766986846924 0.86914831399917603
0.65374994277954102 0.39377796649932861 0.87679445743560791
0.81781470775604248 0.4218166172504425 0.88837015628814697
0.94976842403411865 0.43016716837882996 0.89371407032012939
0.99607843160629272 0.4215979278087616 0.88965827226638794
0.038795754313468933 0.52918034791946411 0.85178577899932861
0.21924097836017609 0.53532344102859497 0.85046815872192383
0.41417336463928223 0.53832131624221802 0.85017287731170654
0.61089599132537842 0.55249691009521484 0.86059087514877319
0.78796899318695068 0.58210057020187378 0.87675493955612183
0.92630940675735474 0.59828376770019531 0.88030463457107544
0.99558883905410767 0.5915643572807312 0.87659174203872681
0.1298367977142334 0.69109123945236206 0.83910715579986572
0.2463136613368988 0.69203215837478638 0.83958059549331665
0.39288222789764404 0.6885191798210144 0.83977055549621582
0.54946529865264893 0.69027537107467651 0.84260404109954834
0.73423141241073608 0.71220165491104126 0.85192859172821045
0.89868080615997314 0.73612689971923828 0.87231004238128662
0.99359571933746338 0.73761141300201416 0.86944937705993652
0.38435471057891846 0.83066487312316895 0.8492085337638855
0.42217132449150085 0.83184945583343506 0.84166240692138672
0.51026397943496704 0.83009594678878784 0.84799808263778687
0.61909878253936768 0.8344186544418335 0.84819382429122925
0.7367517352104187 0.83613455295562744 0.85100948810577393
0.85780173540115356 0.84735703468322754 0.85190379619598389
0.98035949468612671 0.87036591768264771 0.86480820178985596
0.59089267253875732 0.95053791999816895 0.87372642755508423
0.60726749897003174 0.94788169860839844 0.87153095006942749
0.64950305223464966 0.94769704341888428 0.87263256311416626
0.7119593620300293 0.94968551397323608 0.86911803483963013
0.77820461988449097 0.9505842924118042 0.86925047636032104
0.84027057886123657 0.94843959808349609 0.84547477960586548
0.95670896768569946 0.96637165546417236 0.84932303428649902
0.44788017868995667 0.14635787904262543 0.98757022619247437
0.50051438808441162 0.1473260223865509 0.98365044593811035
0.59548532962799072 0.14510360360145569 0.98354816436767578
0.71709072589874268 0.15211151540279388 0.98488903045654297
0.84797680377960205 0.19368425011634827 0.99024361371994019
0.97019225358963013 0.25506049394607544 0.98942559957504272
1 0.26019388437271118 0.98548877239227295
0.44436490535736084 0.26885819435119629 0.98102343082427979
0.49889114499092102 0.26659125089645386 0.98645293712615967
0.59366250038146973 0.27062952518463135 0.98251563310623169
0.71302980184555054 0.28117451071739197 0.98705637454986572
0.84091025590896606 0.29949501156806946 0.98636782169342041
0.9609076976776123 0.34493696689605713 0.98624944686889648
0.99973577260971069 0.35518640279769897 0.98391139507293701
0.42322686314582825 0.41521230340003967 0.97764647006988525
0.47479820251464844 0.41686797142028809 0.97983729839324951
0.57762551307678223 0.41780048608779907 0.97492480278015137
0.70307964086532593 0.43348497152328491 0.97879528999328613
0.82561522722244263 0.45311376452445984 0.97854459285736084
0.94939035177230835 0.48367998003959656 0.98562413454055786
0.99665337800979614 0.50132811069488525 0.98174041509628296
0.32803303003311157 0.55905777215957642 0.97724127769470215
0.40219053626060486 0.56194001436233521 0.97732990980148315
0.52560293674468994 0.56467103958129883 0.97682040929794312
0.66146695613861084 0.57588887214660645 0.97511601448059082
0.798503577709198 0.6015770435333252 0.97442132234573364
0.92929744720458984 0.62380528450012207 0.98172831535339355
0.99903196096420288 0.64195597171783447 0.98224496841430664
0.19794425368309021 0.69931066036224365 0.97265273332595825
0.28811419010162354 0.69846212863922119 0.97334522008895874
0.42588937282562256 0.69606941938400269 0.97179800271987915
0.59493541717529297 0.70592617988586426 0.97076565027236938
0.76090580224990845 0.72494691610336304 0.97290778160095215
0.90254348516464233 0.75094115734100342 0.97516840696334839
0.99498832225799561 0.77133834362030029 0.97726291418075562
0.37831869721412659 0.84503108263015747 0.96434056758880615
0.41730692982673645 0.84427160024642944 0.9637216329574585
0.49039605259895325 0.83975553512573242 0.96418613195419312
0.59697455167770386 0.83621597290039062 0.96315836906433105
0.72420823574066162 0.83767044544219971 0.96330970525741577
0.87122267484664917 0.85551571846008301 0.97006905078887939
0.98490643501281738 0.88457649946212769 0.97243040800094604
0.57018673419952393 0.95997345447540283 0.96442139148712158
0.59248203039169312 0.95708650350570679 0.96299093961715698
0.64367467164993286 0.95848202705383301 0.96589750051498413
0.71590238809585571 0.9584118127822876 0.96767628192901611
0.8041871190071106 0.95772802829742432 0.96633291244506836
0.88709640502929688 0.96320527791976929 0.97078919410705566
0.9709962010383606 0.97099626064300537 0.97018253803253174
