luts/negative_new/kodak_portra_400_+.cube
# Created by: G'MIC (https://gmic.eu)
TITLE "kodak_portra_400_+"
# LUT size
LUT_3D_SIZE 7
# Data domain
DOMAIN_MIN 0.0 0.0 0.0
DOMAIN_MAX 1.0 1.0 1.0
# LUT data points
0.064967691898345947 0.067169517278671265 0.060739226639270782
0.18877294659614563 0.059787392616271973 0.058854661881923676
0.40729433298110962 0.01571248285472393 0.045181844383478165
0.64068704843521118 0.0068087261170148849 0.018793247640132904
0.8342779278755188 0.010095005854964256 0.0019501181086525321
0.96469926834106445 0.10961387306451797 0.0018951415549963713
0.99530190229415894 0.21854096651077271 0.0011096580419689417
0.036108624190092087 0.16594921052455902 0.071294166147708893
0.16965223848819733 0.17311348021030426 0.057932596653699875
0.39738452434539795 0.18564283847808838 0.017865722998976707
0.63858979940414429 0.18151645362377167 0.0061938567087054253
0.82532697916030884 0.20815552771091461 0.0051801195368170738
0.95110577344894409 0.26659002900123596 0.010978833772242069
0.99924999475479126 0.31963208317756653 0.0090805655345320702
0.0039987005293369293 0.32436510920524597 0.10603202134370804
0.10816698521375656 0.32073348760604858 0.10971076786518097
0.34028327465057373 0.36149081587791443 0.037397213280200958
0.59855180978775024 0.39552846550941467 0.0047944909892976284
0.79445928335189819 0.41143503785133362 0.0055165309458971024
0.93299537897109985 0.43152406811714172 0.013508112169802189
0.99537116289138794 0.45319542288780212 0.0092754289507865906
0.0022992601152509451 0.48314490914344788 0.16310608386993408
0.039484795182943344 0.47464987635612488 0.17255593836307526
0.26805934309959412 0.4898865818977356 0.14766520261764526
0.51400130987167358 0.53775125741958618 0.044773701578378677
0.74132680892944336 0.57150781154632568 0.0049575208686292171
0.88904678821563721 0.58026516437530518 0.0094873765483498573
0.99058037996292114 0.58475619554519653 0.0040230844169855118
0.0034814721439033747 0.63070303201675415 0.23771354556083679
0.031491387635469437 0.6217074990272522 0.24503675103187561
0.26309484243392944 0.61015909910202026 0.24859218299388885
0.46773639321327209 0.63758587837219238 0.21587672829627991
0.67259585857391357 0.67765063047409058 0.12217672169208527
0.8542291522026062 0.70538890361785889 0.01599445752799511
0.98057860136032104 0.71350264549255371 0.002311512129381299
0.14696840941905975 0.76612085103988647 0.36773887276649475
0.23783197999000549 0.75787383317947388 0.3785490095615387
0.3569948673248291 0.74310034513473511 0.38502916693687439
0.48256981372833252 0.74501579999923706 0.37931302189826965
0.63676309585571289 0.77310359477996826 0.34680467844009399
0.80104774236679077 0.80339288711547852 0.28846496343612671
0.96151018142700195 0.82815629243850708 0.19775490462779999
0.47037628293037415 0.90168899297714233 0.58302140235900879
0.49885675311088562 0.89940446615219116 0.58847033977508545
0.55139237642288208 0.89047336578369141 0.6021849513053894
0.62126994132995605 0.88791996240615845 0.61689037084579468
0.70239472389221191 0.90318953990936279 0.60895013809204102
0.80077087879180908 0.92223936319351196 0.58933901786804199
0.92309033870697021 0.93995434045791626 0.551166832447052
0.064349889755249023 0.075551904737949371 0.17784683406352997
0.2175191193819046 0.04664510115981102 0.19310693442821503
0.42502602934837341 0.0091465217992663383 0.19168631732463837
0.66479587554931641 0.007278053555637598 0.18559093773365021
0.84857380390167236 0.0049164416268467903 0.1607920378446579
0.96733301877975464 0.094279393553733826 0.13586385548114777
1 0.23018470406532288 0.10108651220798492
0.023712337017059326 0.20180334150791168 0.18477176129817963
0.20047184824943542 0.19938233494758606 0.18890856206417084
0.42428413033485413 0.18459947407245636 0.18734028935432434
0.65509998798370361 0.17595131695270538 0.16267228126525879
0.83250719308853149 0.20352402329444885 0.13374081254005432
0.95655727386474609 0.26522552967071533 0.1070881262421608
1 0.32301223278045654 0.074342735111713409
0.0073049655184149742 0.38618174195289612 0.22221451997756958
0.16809868812561035 0.36503204703330994 0.22398971021175385
0.37541133165359497 0.37521350383758545 0.19629576802253723
0.62123507261276245 0.40246191620826721 0.11945679783821106
0.80220592021942139 0.4139653742313385 0.066765621304512024
0.93751704692840576 0.43585002422332764 0.049162607640028
0.99961555004119873 0.4584021270275116 0.029945703223347664
0.0031949211843311787 0.53549551963806152 0.25732949376106262
0.098844550549983978 0.52020847797393799 0.25931113958358765
0.31841999292373657 0.50927633047103882 0.25695604085922241
0.54019522666931152 0.54585069417953491 0.20010589063167572
0.75014227628707886 0.57763409614562988 0.10273398458957672
0.89932280778884888 0.58395916223526001 0.019664330407977104
0.99294275045394897 0.58782732486724854 0.0065534701570868492
0.0076029160991311073 0.65696930885314941 0.3090921938419342
0.12078167498111725 0.64670544862747192 0.31595879793167114
0.30629017949104309 0.62512588500976562 0.32867404818534851
0.47802445292472839 0.64558058977127075 0.30742904543876648
0.67603504657745361 0.6816214919090271 0.24738389253616333
0.85622340440750122 0.7083284854888916 0.15650060772895813
0.98567456007003784 0.71359443664550781 0.032203793525695801
0.19365023076534271 0.77572715282440186 0.41315743327140808
0.27087128162384033 0.76851350069046021 0.42075759172439575
0.37899821996688843 0.75199079513549805 0.42695307731628418
0.49648129940032959 0.74982237815856934 0.42983770370483398
0.64107257127761841 0.7757384181022644 0.40422394871711731
0.80327898263931274 0.80323761701583862 0.35508552193641663
0.96146947145462036 0.82811623811721802 0.30015012621879578
0.47732165455818176 0.90651196241378784 0.60201692581176758
0.50584560632705688 0.90262013673782349 0.6068950891494751
0.55628615617752075 0.89592254161834717 0.61922186613082886
0.62505733966827393 0.89034938812255859 0.63375973701477051
0.70226818323135376 0.9032827615737915 0.63030165433883667
0.80231767892837524 0.92157220840454102 0.61006802320480347
0.92480689287185669 0.93829905986785889 0.57616817951202393
0.028619429096579552 0.080006934702396393 0.3807867169380188
0.24616241455078125 0.044644210487604141 0.40867862105369568
0.50166082382202148 0.0078893620520830154 0.449949711561203
0.6906159520149231 0.002214828273281455 0.44780644774436951
0.86051791906356812 0.0043630264699459076 0.42918655276298523
0.97838443517684937 0.016687192022800446 0.38908284902572632
1 0.22307781875133514 0.38555991649627686
0.010008284822106361 0.20869076251983643 0.36441454291343689
0.21330948173999786 0.21239429712295532 0.39651075005531311
0.48144257068634033 0.20687001943588257 0.43895617127418518
0.6800849437713623 0.16552166640758514 0.43644940853118896
0.84683740139007568 0.18195642530918121 0.41613948345184326
0.96459823846817017 0.26056861877441406 0.39392095804214478
1 0.34788927435874939 0.38659632205963135
0.0033595964778214693 0.43369764089584351 0.41348379850387573
0.13137920200824738 0.42920729517936707 0.41599312424659729
0.42853042483329773 0.42421850562095642 0.42018863558769226
0.64504605531692505 0.42306342720985413 0.40543356537818909
0.80637723207473755 0.43197387456893921 0.38515982031822205
0.93257051706314087 0.46147483587265015 0.36996173858642578
0.99840372800827026 0.48054054379463196 0.36240550875663757
0.036833278834819794 0.61065590381622314 0.44957515597343445
0.22791676223278046 0.60226094722747803 0.44886329770088196
0.4020920991897583 0.5663992166519165 0.43718332052230835
0.57508242130279541 0.57089364528656006 0.41770607233047485
0.75830739736557007 0.588398277759552 0.37323325872421265
0.90005850791931152 0.5932963490486145 0.32964232563972473
0.99396389722824097 0.59285253286361694 0.30457279086112976
0.23684564232826233 0.70740258693695068 0.47491607069969177
0.29180920124053955 0.69690513610839844 0.46760120987892151
0.3952350914478302 0.67179340124130249 0.46220165491104126
0.51590025424957275 0.65911340713500977 0.44905570149421692
0.68784511089324951 0.69114357233047485 0.42137733101844788
0.85818600654602051 0.71148574352264404 0.36932471394538879
0.98287868499755859 0.71210390329360962 0.3045160174369812
0.29568910598754883 0.79869377613067627 0.5106549859046936
0.34253668785095215 0.79358220100402832 0.5103839635848999
0.42872583866119385 0.77699905633926392 0.51174086332321167
0.51942712068557739 0.75496357679367065 0.51183134317398071
0.6451231837272644 0.77744114398956299 0.5003630518913269
0.80132043361663818 0.80513793230056763 0.47572517395019531
0.95502465963363647 0.82597941160202026 0.44005730748176575
0.48589131236076355 0.91438156366348267 0.63669890165328979
0.51363521814346313 0.9106210470199585 0.64009523391723633
0.56555074453353882 0.9023364782333374 0.64887315034866333
0.63480633497238159 0.89494431018829346 0.66354811191558838
0.70765912532806396 0.90056270360946655 0.66262495517730713
0.80861926078796387 0.92352581024169922 0.65895628929138184
0.92710202932357788 0.94092822074890137 0.62970542907714844
0.029993394389748573 0.091854661703109741 0.58936911821365356
0.27465847134590149 0.059798087924718857 0.61053228378295898
0.54327917098999023 0.010773543268442154 0.65337508916854858
0.76170915365219116 0.0053917081095278263 0.68068653345108032
0.86870366334915161 0.0089147975668311119 0.65817362070083618
0.97697204351425171 0.087906226515769958 0.64237350225448608
1 0.23106773197650909 0.60258561372756958
0.012499161995947361 0.22455507516860962 0.57388055324554443
0.24162359535694122 0.22502356767654419 0.59834951162338257
0.51917940378189087 0.22443172335624695 0.63590949773788452
0.74368250370025635 0.23128043115139008 0.67278587818145752
0.86283451318740845 0.24040494859218597 0.65300965309143066
0.96390855312347412 0.29124319553375244 0.63059031963348389
0.99986869096755981 0.35494831204414368 0.599415123462677
0.0032864739187061787 0.40189749002456665 0.545970618724823
0.17249736189842224 0.40674090385437012 0.55603379011154175
0.45187515020370483 0.43473315238952637 0.59410649538040161
0.69154113531112671 0.4662233293056488 0.64681130647659302
0.82341164350509644 0.46636775135993958 0.63733243942260742
0.93270403146743774 0.48613831400871277 0.61534255743026733
0.99497056007385254 0.51387137174606323 0.60883176326751709
0.0014418208738788962 0.6261293888092041 0.61350852251052856
0.14727374911308289 0.62451982498168945 0.61236345767974854
0.42587131261825562 0.62406951189041138 0.61358916759490967
0.62404114007949829 0.61729317903518677 0.61363106966018677
0.77553290128707886 0.61871004104614258 0.59833025932312012
0.89898645877838135 0.61945676803588867 0.58742165565490723
0.99178671836853027 0.61629337072372437 0.57784414291381836
0.23734463751316071 0.76482099294662476 0.64112591743469238
0.34486165642738342 0.75606703758239746 0.64106065034866333
0.49101859331130981 0.73492991924285889 0.63271558284759521
0.5860602855682373 0.7047659158706665 0.61233425140380859
0.7183842658996582 0.71045953035354614 0.59409677982330322
0.86683934926986694 0.7223585844039917 0.56820833683013916
0.98293900489807129 0.71560859680175781 0.52711302042007446
0.43732818961143494 0.83460241556167603 0.6642271876335144
0.47351792454719543 0.83069115877151489 0.65655219554901123
0.51648175716400146 0.81632095575332642 0.63818919658660889
0.57610601186752319 0.79178780317306519 0.62467372417449951
0.67022991180419922 0.78385084867477417 0.61351507902145386
0.8079148530960083 0.80974805355072021 0.60332858562469482
0.95641481876373291 0.82629835605621338 0.58030486106872559
0.54159581661224365 0.93086546659469604 0.71416807174682617
0.55020290613174438 0.92809045314788818 0.70868188142776489
0.57859408855438232 0.92230582237243652 0.70178353786468506
0.6435844898223877 0.90883088111877441 0.70860069990158081
0.7173951268196106 0.9015924334526062 0.71802741289138794
0.80991744995117188 0.92006653547286987 0.71087563037872314
0.92592918872833252 0.93850201368331909 0.69839465618133545
0.2095356285572052 0.13444818556308746 0.7426217794418335
0.35409587621688843 0.12575758993625641 0.75264424085617065
0.563679039478302 0.089514665305614471 0.77691173553466797
0.76795321702957153 0.11087565869092941 0.81021040678024292
0.90524089336395264 0.18875737488269806 0.81999373435974121
0.9776955246925354 0.24681910872459412 0.80121159553527832
0.99998277425765991 0.32563045620918274 0.78281950950622559
0.17619204521179199 0.25638571381568909 0.73425382375717163
0.33256876468658447 0.2624204158782959 0.74261021614074707
0.54201960563659668 0.27243998646736145 0.76294803619384766
0.74622935056686401 0.31491819024085999 0.80002087354660034
0.88764387369155884 0.35468688607215881 0.81333017349243164
0.9694373607635498 0.37535902857780457 0.79594725370407104
0.99628657102584839 0.4141591489315033 0.77091801166534424
0.068814881145954132 0.41506749391555786 0.70172721147537231
0.25033700466156006 0.41810297966003418 0.71217024326324463
0.4800473153591156 0.44464355707168579 0.73327839374542236
0.69520539045333862 0.49119538068771362 0.77577322721481323
0.85136908292770386 0.51968836784362793 0.79674911499023438
0.94713854789733887 0.53306812047958374 0.78735923767089844
0.98394125699996948 0.54141205549240112 0.7728651762008667
0.0037819806020706892 0.56997334957122803 0.68885105848312378
0.17917165160179138 0.57289576530456543 0.68868023157119751
0.40676048398017883 0.58451801538467407 0.70203834772109985
0.62769681215286255 0.61505097150802612 0.74266523122787476
0.80926722288131714 0.66076642274856567 0.77636903524398804
0.91406899690628052 0.65975987911224365 0.76969951391220093
0.99041658639907837 0.65550154447555542 0.75946509838104248
0.2131064385175705 0.74979150295257568 0.74396431446075439
0.31566047668457031 0.75625699758529663 0.74500322341918945
0.46137654781341553 0.75079131126403809 0.74563944339752197
0.6145857572555542 0.74969851970672607 0.74990665912628174
0.75536870956420898 0.74819982051849365 0.75061219930648804
0.87969815731048584 0.74925726652145386 0.73671555519104004
0.98162364959716797 0.74303781986236572 0.72983282804489136
0.41477960348129272 0.87921643257141113 0.78231340646743774
0.4683128297328949 0.86937820911407471 0.77184319496154785
0.55300575494766235 0.8647494912147522 0.77232414484024048
0.64743047952651978 0.847126305103302 0.76342231035232544
0.71414792537689209 0.81470823287963867 0.74057799577713013
0.83762991428375244 0.82520490884780884 0.72921144962310791
0.96264374256134033 0.83979743719100952 0.72144466638565063
0.55202919244766235 0.9520079493522644 0.80431938171386719
0.57866281270980835 0.94919496774673462 0.79934775829315186
0.62897783517837524 0.94522315263748169 0.79727214574813843
0.68145722150802612 0.93376350402832031 0.78752470016479492
0.73910820484161377 0.91679590940475464 0.78127205371856689
0.81857621669769287 0.92044913768768311 0.77971410751342773
0.93659591674804688 0.94012385606765747 0.78268915414810181
0.38081425428390503 0.21820370852947235 0.8621106743812561
0.46311822533607483 0.22808851301670074 0.86678934097290039
0.5965883731842041 0.22691400349140167 0.87921440601348877
0.74371063709259033 0.26602673530578613 0.89342254400253296
0.89225280284881592 0.35563445091247559 0.90987390279769897
0.98242855072021484 0.40418881177902222 0.91175824403762817
0.99994903802871704 0.4244266152381897 0.9035915732383728
0.36187934875488281 0.31827864050865173 0.85520017147064209
0.44599816203117371 0.32193711400032043 0.8613094687461853
0.57980477809906006 0.34108582139015198 0.87093847990036011
0.73154318332672119 0.37611448764801025 0.88732749223709106
0.88066500425338745 0.44793805480003357 0.90817493200302124
0.97574436664581299 0.4771430492401123 0.90858769416809082
0.99590682983398438 0.49824854731559753 0.8973991870880127
0.28902584314346313 0.45671370625495911 0.83592897653579712
0.38458222150802612 0.45889949798583984 0.8431704044342041
0.53964608907699585 0.47393834590911865 0.85450905561447144
0.69801300764083862 0.50790548324584961 0.87339216470718384
0.85100287199020386 0.57038456201553345 0.89856529235839844
0.95857781171798706 0.59601074457168579 0.9029548168182373
0.99591976404190063 0.59882360696792603 0.89345979690551758
0.10203034430742264 0.57437396049499512 0.79675096273422241
0.25763103365898132 0.57740944623947144 0.80451291799545288
0.44980531930923462 0.58817952871322632 0.82071554660797119
0.64152306318283081 0.61673223972320557 0.8500245213508606
0.81275743246078491 0.67572754621505737 0.8833853006362915
0.93491542339324951 0.70598351955413818 0.89341717958450317
0.99454152584075928 0.69643735885620117 0.88527172803878784
0.14954142272472382 0.70769071578979492 0.81036984920501709
0.26516816020011902 0.7096555233001709 0.81199949979782104
0.40069204568862915 0.7036857008934021 0.81147372722625732
0.5593407154083252 0.70366132259368896 0.81194144487380981
0.73795443773269653 0.74218904972076416 0.84083443880081177
0.90294945240020752 0.78785926103591919 0.87879747152328491
0.98184335231781006 0.78183919191360474 0.87447291612625122
0.3633098304271698 0.85447323322296143 0.85446429252624512
0.4164542555809021 0.85707902908325195 0.85624611377716064
0.51218235492706299 0.85843205451965332 0.85968869924545288
0.62779527902603149 0.85870122909545898 0.86184501647949219
0.74197447299957275 0.8568158745765686 0.85987460613250732
0.86538463830947876 0.86286181211471558 0.86239653825759888
0.97423499822616577 0.86114156246185303 0.85755950212478638
0.51422625780105591 0.97114616632461548 0.88475847244262695
0.54453521966934204 0.97171622514724731 0.88075339794158936
0.6074068546295166 0.97034710645675659 0.88229072093963623
0.69267183542251587 0.96204382181167603 0.88485103845596313
0.7810899019241333 0.9517204761505127 0.88014668226242065
0.84430193901062012 0.93536376953125 0.86548280715942383
0.94683623313903809 0.94691228866577148 0.86761051416397095
0.53747379779815674 0.39232110977172852 0.96419328451156616
0.57254844903945923 0.39580222964286804 0.96568375825881958
0.65189158916473389 0.41026356816291809 0.96809244155883789
0.75274068117141724 0.43622258305549622 0.97279244661331177
0.86313712596893311 0.47658932209014893 0.97812294960021973
0.9698900580406189 0.5286940336227417 0.98328244686126709
0.99961495399475098 0.55086034536361694 0.98522078990936279
0.52581453323364258 0.45981696248054504 0.96246123313903809
0.56813639402389526 0.46221378445625305 0.96537071466445923
0.64274948835372925 0.47184562683105469 0.96614664793014526
0.73953050374984741 0.49093830585479736 0.96612393856048584
0.85352152585983276 0.53843522071838379 0.9762570858001709
0.96399015188217163 0.580974280834198 0.98385918140411377
0.99974775314331055 0.59784126281738281 0.98080629110336304
0.49622157216072083 0.55540704727172852 0.95478254556655884
0.5419430136680603 0.55835103988647461 0.95566827058792114
0.62208765745162964 0.56633633375167847 0.9575926661491394
0.72700566053390503 0.57874017953872681 0.96137434244155884
0.83886146545410156 0.61823081970214844 0.96905672550201416
0.95032542943954468 0.65709227323532104 0.97692859172821045
0.99607843160629272 0.66938537359237671 0.97266256809234619
0.44444194436073303 0.64901423454284668 0.94061779975891113
0.4884713888168335 0.64733672142028809 0.9423682689666748
0.57562255859375 0.65162652730941772 0.94786518812179565
0.69412147998809814 0.66561275720596313 0.95498001575469971
0.82046234607696533 0.70336669683456421 0.96397525072097778
0.93099838495254517 0.73365861177444458 0.97114807367324829
0.99527031183242798 0.74463415145874023 0.96658992767333984
0.33767285943031311 0.73567056655883789 0.92606472969055176
0.38789018988609314 0.73385798931121826 0.92627489566802979
0.48459616303443909 0.73251229524612427 0.92914694547653198
0.61715340614318848 0.73536688089370728 0.937328040599823
0.76797682046890259 0.76573044061660767 0.94846314191818237
0.90788030624389648 0.80148959159851074 0.9657362699508667
0.99344867467880249 0.82889020442962646 0.96954697370529175
0.39691826701164246 0.8447040319442749 0.94273597002029419
0.42848452925682068 0.84356921911239624 0.94328302145004272
0.49679616093635559 0.84161281585693359 0.94040888547897339
0.58826941251754761 0.83636796474456787 0.93903988599777222
0.69736874103546143 0.83192354440689087 0.9370349645614624
0.85653269290924072 0.86167758703231812 0.95354801416397095
0.97682052850723267 0.90130710601806641 0.96595805883407593
0.48921364545822144 0.96306341886520386 0.95533901453018188
0.51087874174118042 0.96344971656799316 0.96161872148513794
0.57232314348220825 0.96075308322906494 0.96150022745132446
0.6594434380531311 0.96058470010757446 0.96228182315826416
0.75789755582809448 0.95943546295166016 0.96354043483734131
0.85800105333328247 0.95675283670425415 0.96183609962463379
0.96274363994598389 0.96591615676879883 0.96390485763549805
