luts/negative_new/kodak_tri-x_400_++.cube
# Created by: G'MIC (https://gmic.eu)
TITLE "kodak_tri-x_400_++"
# LUT size
LUT_3D_SIZE 7
# Data domain
DOMAIN_MIN 0.0 0.0 0.0
DOMAIN_MAX 1.0 1.0 1.0
# LUT data points
0.1357308030128479 0.1357308030128479 0.1357308030128479
0.14805586636066437 0.14805586636066437 0.14805586636066437
0.16613240540027618 0.16613240540027618 0.16613240540027618
0.18463294208049774 0.18463294208049774 0.18463294208049774
0.22068686783313751 0.22068686783313751 0.22068686783313751
0.2828274667263031 0.2828274667263031 0.2828274667263031
0.3946625292301178 0.3946625292301178 0.3946625292301178
0.16283135116100311 0.16283135116100311 0.16283135116100311
0.17126892507076263 0.17126892507076263 0.17126892507076263
0.19639970362186432 0.19639970362186432 0.19639970362186432
0.22834829986095428 0.22834829986095428 0.22834829986095428
0.26697883009910583 0.26697883009910583 0.26697883009910583
0.32934784889221191 0.32934784889221191 0.32934784889221191
0.44229599833488464 0.44229599833488464 0.44229599833488464
0.22366915643215179 0.22366915643215179 0.22366915643215179
0.2209172397851944 0.2209172397851944 0.2209172397851944
0.264728844165802 0.264728844165802 0.264728844165802
0.34494754672050476 0.34494754672050476 0.34494754672050476
0.39748203754425049 0.39748203754425049 0.39748203754425049
0.46052342653274536 0.46052342653274536 0.46052342653274536
0.57315152883529663 0.57315152883529663 0.57315152883529663
0.32244610786437988 0.32244610786437988 0.32244610786437988
0.29899188876152039 0.29899188876152039 0.29899188876152039
0.33154216408729553 0.33154216408729553 0.33154216408729553
0.4490199089050293 0.4490199089050293 0.4490199089050293
0.55442172288894653 0.55442172288894653 0.55442172288894653
0.63049024343490601 0.63049024343490601 0.63049024343490601
0.73145461082458496 0.73145461082458496 0.73145461082458496
0.48409765958786011 0.48409765958786011 0.48409765958786011
0.453482985496521 0.453482985496521 0.453482985496521
0.45017406344413757 0.45017406344413757 0.45017406344413757
0.54144442081451416 0.54144442081451416 0.54144442081451416
0.64547675848007202 0.64547675848007202 0.64547675848007202
0.76036620140075684 0.76036620140075684 0.76036620140075684
0.84602999687194824 0.84602999687194824 0.84602999687194824
0.69603437185287476 0.69603437185287476 0.69603437185287476
0.68773567676544189 0.68773567676544189 0.68773567676544189
0.66993921995162964 0.66993921995162964 0.66993921995162964
0.70079326629638672 0.70079326629638672 0.70079326629638672
0.76412773132324219 0.76412773132324219 0.76412773132324219
0.84321582317352295 0.84321582317352295 0.84321582317352295
0.90930193662643433 0.90930193662643433 0.90930193662643433
0.89354658126831055 0.89354658126831055 0.89354658126831055
0.89272892475128174 0.89272892475128174 0.89272892475128174
0.88505655527114868 0.88505655527114868 0.88505655527114868
0.88926500082015991 0.88926500082015991 0.88926500082015991
0.91901803016662598 0.91901803016662598 0.91901803016662598
0.94688636064529419 0.94688636064529419 0.94688636064529419
0.96664232015609741 0.96664232015609741 0.96664232015609741
0.13315494358539581 0.13315494358539581 0.13315494358539581
0.15829579532146454 0.15829579532146454 0.15829579532146454
0.18940840661525726 0.18940840661525726 0.18940840661525726
0.20685194432735443 0.20685194432735443 0.20685194432735443
0.2289046049118042 0.2289046049118042 0.2289046049118042
0.27945494651794434 0.27945494651794434 0.27945494651794434
0.39233839511871338 0.39233839511871338 0.39233839511871338
0.163253054022789 0.163253054022789 0.163253054022789
0.17859357595443726 0.17859357595443726 0.17859357595443726
0.20140750706195831 0.20140750706195831 0.20140750706195831
0.2199435830116272 0.2199435830116272 0.2199435830116272
0.26176744699478149 0.26176744699478149 0.26176744699478149
0.34159961342811584 0.34159961342811584 0.34159961342811584
0.45914390683174133 0.45914390683174133 0.45914390683174133
0.25151562690734863 0.25151562690734863 0.25151562690734863
0.24332502484321594 0.24332502484321594 0.24332502484321594
0.26060190796852112 0.26060190796852112 0.26060190796852112
0.33571368455886841 0.33571368455886841 0.33571368455886841
0.38461577892303467 0.38461577892303467 0.38461577892303467
0.46521884202957153 0.46521884202957153 0.46521884202957153
0.58608973026275635 0.58608973026275635 0.58608973026275635
0.3641640841960907 0.3641640841960907 0.3641640841960907
0.34381216764450073 0.34381216764450073 0.34381216764450073
0.34735852479934692 0.34735852479934692 0.34735852479934692
0.4610913097858429 0.4610913097858429 0.4610913097858429
0.56215101480484009 0.56215101480484009 0.56215101480484009
0.63975065946578979 0.63975065946578979 0.63975065946578979
0.74112778902053833 0.74112778902053833 0.74112778902053833
0.51216787099838257 0.51216787099838257 0.51216787099838257
0.49349322915077209 0.49349322915077209 0.49349322915077209
0.47891470789909363 0.47891470789909363 0.47891470789909363
0.54768532514572144 0.54768532514572144 0.54768532514572144
0.65142858028411865 0.65142858028411865 0.65142858028411865
0.75967979431152344 0.75967979431152344 0.75967979431152344
0.85460120439529419 0.85460120439529419 0.85460120439529419
0.7140192985534668 0.7140192985534668 0.7140192985534668
0.70771932601928711 0.70771932601928711 0.70771932601928711
0.68846315145492554 0.68846315145492554 0.68846315145492554
0.70427083969116211 0.70427083969116211 0.70427083969116211
0.76770025491714478 0.76770025491714478 0.76770025491714478
0.84978938102722168 0.84978938102722168 0.84978938102722168
0.91797387599945068 0.91797387599945068 0.91797387599945068
0.90131479501724243 0.90131479501724243 0.90131479501724243
0.90466880798339844 0.90466880798339844 0.90466880798339844
0.89615076780319214 0.89615076780319214 0.89615076780319214
0.89271152019500732 0.89271152019500732 0.89271152019500732
0.91584783792495728 0.91584783792495728 0.91584783792495728
0.94566267728805542 0.94566267728805542 0.94566267728805542
0.97092467546463013 0.97092467546463013 0.97092467546463013
0.15262907743453979 0.15262907743453979 0.15262907743453979
0.1873343288898468 0.1873343288898468 0.1873343288898468
0.2309519350528717 0.2309519350528717 0.2309519350528717
0.28500473499298096 0.28500473499298096 0.28500473499298096
0.35110655426979065 0.35110655426979065 0.35110655426979065
0.36726343631744385 0.36726343631744385 0.36726343631744385
0.41527014970779419 0.41527014970779419 0.41527014970779419
0.17665030062198639 0.17665030062198639 0.17665030062198639
0.21091723442077637 0.21091723442077637 0.21091723442077637
0.25428125262260437 0.25428125262260437 0.25428125262260437
0.31448030471801758 0.31448030471801758 0.31448030471801758
0.34621426463127136 0.34621426463127136 0.34621426463127136
0.38635644316673279 0.38635644316673279 0.38635644316673279
0.45092016458511353 0.45092016458511353 0.45092016458511353
0.27824416756629944 0.27824416756629944 0.27824416756629944
0.29733079671859741 0.29733079671859741 0.29733079671859741
0.31109878420829773 0.31109878420829773 0.31109878420829773
0.34919571876525879 0.34919571876525879 0.34919571876525879
0.37826269865036011 0.37826269865036011 0.37826269865036011
0.44912886619567871 0.44912886619567871 0.44912886619567871
0.57212615013122559 0.57212615013122559 0.57212615013122559
0.45247694849967957 0.45247694849967957 0.45247694849967957
0.44872671365737915 0.44872671365737915 0.44872671365737915
0.41462889313697815 0.41462889313697815 0.41462889313697815
0.46374255418777466 0.46374255418777466 0.46374255418777466
0.56314295530319214 0.56314295530319214 0.56314295530319214
0.63940691947937012 0.63940691947937012 0.63940691947937012
0.73525393009185791 0.73525393009185791 0.73525393009185791
0.59167647361755371 0.59167647361755371 0.59167647361755371
0.58986973762512207 0.58986973762512207 0.58986973762512207
0.5587729811668396 0.5587729811668396 0.5587729811668396
0.56523007154464722 0.56523007154464722 0.56523007154464722
0.67365097999572754 0.67365097999572754 0.67365097999572754
0.78085619211196899 0.78085619211196899 0.78085619211196899
0.86357200145721436 0.86357200145721436 0.86357200145721436
0.75786614418029785 0.75786614418029785 0.75786614418029785
0.75929927825927734 0.75929927825927734 0.75929927825927734
0.73862069845199585 0.73862069845199585 0.73862069845199585
0.720814049243927 0.720814049243927 0.720814049243927
0.78047448396682739 0.78047448396682739 0.78047448396682739
0.86724448204040527 0.86724448204040527 0.86724448204040527
0.92844033241271973 0.92844033241271973 0.92844033241271973
0.91569918394088745 0.91569918394088745 0.91569918394088745
0.92337679862976074 0.92337679862976074 0.92337679862976074
0.91730862855911255 0.91730862855911255 0.91730862855911255
0.90228211879730225 0.90228211879730225 0.90228211879730225
0.92036610841751099 0.92036610841751099 0.92036610841751099
0.9498022198677063 0.9498022198677063 0.9498022198677063
0.97124236822128296 0.97124236822128296 0.97124236822128296
0.21197324991226196 0.21197324991226196 0.21197324991226196
0.24742712080478668 0.24742712080478668 0.24742712080478668
0.29735010862350464 0.29735010862350464 0.29735010862350464
0.34121641516685486 0.34121641516685486 0.34121641516685486
0.44930741190910339 0.44930741190910339 0.44930741190910339
0.58022052049636841 0.58022052049636841 0.58022052049636841
0.63770186901092529 0.63770186901092529 0.63770186901092529
0.24820403754711151 0.24820403754711151 0.24820403754711151
0.27705711126327515 0.27705711126327515 0.27705711126327515
0.32602220773696899 0.32602220773696899 0.32602220773696899
0.37242776155471802 0.37242776155471802 0.37242776155471802
0.4750751256942749 0.4750751256942749 0.4750751256942749
0.59228295087814331 0.59228295087814331 0.59228295087814331
0.6355818510055542 0.6355818510055542 0.6355818510055542
0.2934127151966095 0.2934127151966095 0.2934127151966095
0.31969955563545227 0.31969955563545227 0.31969955563545227
0.37245282530784607 0.37245282530784607 0.37245282530784607
0.42649188637733459 0.42649188637733459 0.42649188637733459
0.52908861637115479 0.52908861637115479 0.52908861637115479
0.57533103227615356 0.57533103227615356 0.57533103227615356
0.6099926233291626 0.6099926233291626 0.6099926233291626
0.46290862560272217 0.46290862560272217 0.46290862560272217
0.47579151391983032 0.47579151391983032 0.47579151391983032
0.49506676197052002 0.49506676197052002 0.49506676197052002
0.52266836166381836 0.52266836166381836 0.52266836166381836
0.56325298547744751 0.56325298547744751 0.56325298547744751
0.61492025852203369 0.61492025852203369 0.61492025852203369
0.69416540861129761 0.69416540861129761 0.69416540861129761
0.6969032883644104 0.6969032883644104 0.6969032883644104
0.69736409187316895 0.69736409187316895 0.69736409187316895
0.6909106969833374 0.6909106969833374 0.6909106969833374
0.6433330774307251 0.6433330774307251 0.6433330774307251
0.69687271118164062 0.69687271118164062 0.69687271118164062
0.7854316234588623 0.7854316234588623 0.7854316234588623
0.85049295425415039 0.85049295425415039 0.85049295425415039
0.82583367824554443 0.82583367824554443 0.82583367824554443
0.83741277456283569 0.83741277456283569 0.83741277456283569
0.82617223262786865 0.82617223262786865 0.82617223262786865
0.77943068742752075 0.77943068742752075 0.77943068742752075
0.78972083330154419 0.78972083330154419 0.78972083330154419
0.87629598379135132 0.87629598379135132 0.87629598379135132
0.93407243490219116 0.93407243490219116 0.93407243490219116
0.94154995679855347 0.94154995679855347 0.94154995679855347
0.95343309640884399 0.95343309640884399 0.95343309640884399
0.94984549283981323 0.94984549283981323 0.94984549283981323
0.92531174421310425 0.92531174421310425 0.92531174421310425
0.92295539379119873 0.92295539379119873 0.92295539379119873
0.95304173231124878 0.95304173231124878 0.95304173231124878
0.97830057144165039 0.97830057144165039 0.97830057144165039
0.31456443667411804 0.31456443667411804 0.31456443667411804
0.34938192367553711 0.34938192367553711 0.34938192367553711
0.39953958988189697 0.39953958988189697 0.39953958988189697
0.46816617250442505 0.46816617250442505 0.46816617250442505
0.5182526707649231 0.5182526707649231 0.5182526707649231
0.61444234848022461 0.61444234848022461 0.61444234848022461
0.78412777185440063 0.78412777185440063 0.78412777185440063
0.36133638024330139 0.36133638024330139 0.36133638024330139
0.38572067022323608 0.38572067022323608 0.38572067022323608
0.42025041580200195 0.42025041580200195 0.42025041580200195
0.49486193060874939 0.49486193060874939 0.49486193060874939
0.54776757955551147 0.54776757955551147 0.54776757955551147
0.63559532165527344 0.63559532165527344 0.63559532165527344
0.79016518592834473 0.79016518592834473 0.79016518592834473
0.3970966637134552 0.3970966637134552 0.3970966637134552
0.42368239164352417 0.42368239164352417 0.42368239164352417
0.48245018720626831 0.48245018720626831 0.48245018720626831
0.55061715841293335 0.55061715841293335 0.55061715841293335
0.60800415277481079 0.60800415277481079 0.60800415277481079
0.70371192693710327 0.70371192693710327 0.70371192693710327
0.80694305896759033 0.80694305896759033 0.80694305896759033
0.46496838331222534 0.46496838331222534 0.46496838331222534
0.48170867562294006 0.48170867562294006 0.48170867562294006
0.52120780944824219 0.52120780944824219 0.52120780944824219
0.58928006887435913 0.58928006887435913 0.58928006887435913
0.65742021799087524 0.65742021799087524 0.65742021799087524
0.74427449703216553 0.74427449703216553 0.74427449703216553
0.79604387283325195 0.79604387283325195 0.79604387283325195
0.68240571022033691 0.68240571022033691 0.68240571022033691
0.69396007061004639 0.69396007061004639 0.69396007061004639
0.71029096841812134 0.71029096841812134 0.71029096841812134
0.72389316558837891 0.72389316558837891 0.72389316558837891
0.74114537239074707 0.74114537239074707 0.74114537239074707
0.77517050504684448 0.77517050504684448 0.77517050504684448
0.8185126781463623 0.8185126781463623 0.8185126781463623
0.88365113735198975 0.88365113735198975 0.88365113735198975
0.8790203332901001 0.8790203332901001 0.8790203332901001
0.88314354419708252 0.88314354419708252 0.88314354419708252
0.87072306871414185 0.87072306871414185 0.87072306871414185
0.84079194068908691 0.84079194068908691 0.84079194068908691
0.87842059135437012 0.87842059135437012 0.87842059135437012
0.93226850032806396 0.93226850032806396 0.93226850032806396
0.97369801998138428 0.97369801998138428 0.97369801998138428
0.9756743311882019 0.9756743311882019 0.9756743311882019
0.97656899690628052 0.97656899690628052 0.97656899690628052
0.96118223667144775 0.96118223667144775 0.96118223667144775
0.94764029979705811 0.94764029979705811 0.94764029979705811
0.96718901395797729 0.96718901395797729 0.96718901395797729
0.993236243724823 0.993236243724823 0.993236243724823
0.5023006796836853 0.5023006796836853 0.5023006796836853
0.52361774444580078 0.52361774444580078 0.52361774444580078
0.5584416389465332 0.5584416389465332 0.5584416389465332
0.63692605495452881 0.63692605495452881 0.63692605495452881
0.70911425352096558 0.70911425352096558 0.70911425352096558
0.73486649990081787 0.73486649990081787 0.73486649990081787
0.81172412633895874 0.81172412633895874 0.81172412633895874
0.53202426433563232 0.53202426433563232 0.53202426433563232
0.56207728385925293 0.56207728385925293 0.56207728385925293
0.58644050359725952 0.58644050359725952 0.58644050359725952
0.6526450514793396 0.6526450514793396 0.6526450514793396
0.724254310131073 0.724254310131073 0.724254310131073
0.74715328216552734 0.74715328216552734 0.74715328216552734
0.8126683235168457 0.8126683235168457 0.8126683235168457
0.59166437387466431 0.59166437387466431 0.59166437387466431
0.6176561713218689 0.6176561713218689 0.6176561713218689
0.64366960525512695 0.64366960525512695 0.64366960525512695
0.6911434531211853 0.6911434531211853 0.6911434531211853
0.74900728464126587 0.74900728464126587 0.74900728464126587
0.77512586116790771 0.77512586116790771 0.77512586116790771
0.83721065521240234 0.83721065521240234 0.83721065521240234
0.5741695761680603 0.5741695761680603 0.5741695761680603
0.59700137376785278 0.59700137376785278 0.59700137376785278
0.65868198871612549 0.65868198871612549 0.65868198871612549
0.71653592586517334 0.71653592586517334 0.71653592586517334
0.76595008373260498 0.76595008373260498 0.76595008373260498
0.79538631439208984 0.79538631439208984 0.79538631439208984
0.87233275175094604 0.87233275175094604 0.87233275175094604
0.71216845512390137 0.71216845512390137 0.71216845512390137
0.7137567400932312 0.7137567400932312 0.7137567400932312
0.71348625421524048 0.71348625421524048 0.71348625421524048
0.75124043226242065 0.75124043226242065 0.75124043226242065
0.80323940515518188 0.80323940515518188 0.80323940515518188
0.84615224599838257 0.84615224599838257 0.84615224599838257
0.90662449598312378 0.90662449598312378 0.90662449598312378
0.87507396936416626 0.87507396936416626 0.87507396936416626
0.86560052633285522 0.86560052633285522 0.86560052633285522
0.87139731645584106 0.87139731645584106 0.87139731645584106
0.87332117557525635 0.87332117557525635 0.87332117557525635
0.88882845640182495 0.88882845640182495 0.88882845640182495
0.91281473636627197 0.91281473636627197 0.91281473636627197
0.93896913528442383 0.93896913528442383 0.93896913528442383
0.9734957218170166 0.9734957218170166 0.9734957218170166
0.96840566396713257 0.96840566396713257 0.96840566396713257
0.97240054607391357 0.97240054607391357 0.97240054607391357
0.96953409910202026 0.96953409910202026 0.96953409910202026
0.97753584384918213 0.97753584384918213 0.97753584384918213
0.98362940549850464 0.98362940549850464 0.98362940549850464
0.99059313535690308 0.99059313535690308 0.99059313535690308
0.75504404306411743 0.75504404306411743 0.75504404306411743
0.75557786226272583 0.75557786226272583 0.75557786226272583
0.77079975605010986 0.77079975605010986 0.77079975605010986
0.81784188747406006 0.81784188747406006 0.81784188747406006
0.87847954034805298 0.87847954034805298 0.87847954034805298
0.90723872184753418 0.90723872184753418 0.90723872184753418
0.91423827409744263 0.91423827409744263 0.91423827409744263
0.76657265424728394 0.76657265424728394 0.76657265424728394
0.77956950664520264 0.77956950664520264 0.77956950664520264
0.78971076011657715 0.78971076011657715 0.78971076011657715
0.82167911529541016 0.82167911529541016 0.82167911529541016
0.88134598731994629 0.88134598731994629 0.88134598731994629
0.90771526098251343 0.90771526098251343 0.90771526098251343
0.90703535079956055 0.90703535079956055 0.90703535079956055
0.79175233840942383 0.79175233840942383 0.79175233840942383
0.80828225612640381 0.80828225612640381 0.80828225612640381
0.82004076242446899 0.82004076242446899 0.82004076242446899
0.84057682752609253 0.84057682752609253 0.84057682752609253
0.8811643123626709 0.8811643123626709 0.8811643123626709
0.9082673192024231 0.9082673192024231 0.9082673192024231
0.91185951232910156 0.91185951232910156 0.91185951232910156
0.78677290678024292 0.78677290678024292 0.78677290678024292
0.8020251989364624 0.8020251989364624 0.8020251989364624
0.82190805673599243 0.82190805673599243 0.82190805673599243
0.85808628797531128 0.85808628797531128 0.85808628797531128
0.89394587278366089 0.89394587278366089 0.89394587278366089
0.92921358346939087 0.92921358346939087 0.92921358346939087
0.93314379453659058 0.93314379453659058 0.93314379453659058
0.79310518503189087 0.79310518503189087 0.79310518503189087
0.79257428646087646 0.79257428646087646 0.79257428646087646
0.81813555955886841 0.81813555955886841 0.81813555955886841
0.86174780130386353 0.86174780130386353 0.86174780130386353
0.90127694606781006 0.90127694606781006 0.90127694606781006
0.93135881423950195 0.93135881423950195 0.93135881423950195
0.94584304094314575 0.94584304094314575 0.94584304094314575
0.9116472601890564 0.9116472601890564 0.9116472601890564
0.90351337194442749 0.90351337194442749 0.90351337194442749
0.90676522254943848 0.90676522254943848 0.90676522254943848
0.90487170219421387 0.90487170219421387 0.90487170219421387
0.92805719375610352 0.92805719375610352 0.92805719375610352
0.95304828882217407 0.95304828882217407 0.95304828882217407
0.96845507621765137 0.96845507621765137 0.96845507621765137
0.97379899024963379 0.97379899024963379 0.97379899024963379
0.98316347599029541 0.98316347599029541 0.98316347599029541
0.98296123743057251 0.98296123743057251 0.98296123743057251
0.97241437435150146 0.97241437435150146 0.97241437435150146
0.98431473970413208 0.98431473970413208 0.98431473970413208
0.98756170272827148 0.98756170272827148 0.98756170272827148
0.98391044139862061 0.98391044139862061 0.98391044139862061
