luts/negative_new/kodak_tri-x_400_-.cube
# Created by: G'MIC (https://gmic.eu)
TITLE "kodak_tri-x_400_-"
# LUT size
LUT_3D_SIZE 5
# Data domain
DOMAIN_MIN 0.0 0.0 0.0
DOMAIN_MAX 1.0 1.0 1.0
# LUT data points
0.0064607206732034683 0.0064607206732034683 0.0064607206732034683
0.066556744277477264 0.066556744277477264 0.066556744277477264
0.16266025602817535 0.16266025602817535 0.16266025602817535
0.30791977047920227 0.30791977047920227 0.30791977047920227
0.45451480150222778 0.45451480150222778 0.45451480150222778
0.16652311384677887 0.16652311384677887 0.16652311384677887
0.23988324403762817 0.23988324403762817 0.23988324403762817
0.34362199902534485 0.34362199902534485 0.34362199902534485
0.43786230683326721 0.43786230683326721 0.43786230683326721
0.55433642864227295 0.55433642864227295 0.55433642864227295
0.39854905009269714 0.39854905009269714 0.39854905009269714
0.3854515552520752 0.3854515552520752 0.3854515552520752
0.51309555768966675 0.51309555768966675 0.51309555768966675
0.62021708488464355 0.62021708488464355 0.62021708488464355
0.73103904724121094 0.73103904724121094 0.73103904724121094
0.62497472763061523 0.62497472763061523 0.62497472763061523
0.58913701772689819 0.58913701772689819 0.58913701772689819
0.62560755014419556 0.62560755014419556 0.62560755014419556
0.75680524110794067 0.75680524110794067 0.75680524110794067
0.88242232799530029 0.88242232799530029 0.88242232799530029
0.89139413833618164 0.89139413833618164 0.89139413833618164
0.88696300983428955 0.88696300983428955 0.88696300983428955
0.86782634258270264 0.86782634258270264 0.86782634258270264
0.91997677087783813 0.91997677087783813 0.91997677087783813
0.97489583492279053 0.97489583492279053 0.97489583492279053
0.09648788720369339 0.09648788720369339 0.09648788720369339
0.17960666120052338 0.17960666120052338 0.17960666120052338
0.31265673041343689 0.31265673041343689 0.31265673041343689
0.35592818260192871 0.35592818260192871 0.35592818260192871
0.4691736102104187 0.4691736102104187 0.4691736102104187
0.2494303435087204 0.2494303435087204 0.2494303435087204
0.28625890612602234 0.28625890612602234 0.28625890612602234
0.35426038503646851 0.35426038503646851 0.35426038503646851
0.42120844125747681 0.42120844125747681 0.42120844125747681
0.564136803150177 0.564136803150177 0.564136803150177
0.47703978419303894 0.47703978419303894 0.47703978419303894
0.44238144159317017 0.44238144159317017 0.44238144159317017
0.52782368659973145 0.52782368659973145 0.52782368659973145
0.63042068481445312 0.63042068481445312 0.63042068481445312
0.73854809999465942 0.73854809999465942 0.73854809999465942
0.66296422481536865 0.66296422481536865 0.66296422481536865
0.63828545808792114 0.63828545808792114 0.63828545808792114
0.66091263294219971 0.66091263294219971 0.66091263294219971
0.76589095592498779 0.76589095592498779 0.76589095592498779
0.88363903760910034 0.88363903760910034 0.88363903760910034
0.89933443069458008 0.89933443069458008 0.89933443069458008
0.8918641209602356 0.8918641209602356 0.8918641209602356
0.88509589433670044 0.88509589433670044 0.88509589433670044
0.9303818941116333 0.9303818941116333 0.9303818941116333
0.97694343328475952 0.97694343328475952 0.97694343328475952
0.27029404044151306 0.27029404044151306 0.27029404044151306
0.32373499870300293 0.32373499870300293 0.32373499870300293
0.40718737244606018 0.40718737244606018 0.40718737244606018
0.56645733118057251 0.56645733118057251 0.56645733118057251
0.67277997732162476 0.67277997732162476 0.67277997732162476
0.32606843113899231 0.32606843113899231 0.32606843113899231
0.39096346497535706 0.39096346497535706 0.39096346497535706
0.47196072340011597 0.47196072340011597 0.47196072340011597
0.59420078992843628 0.59420078992843628 0.59420078992843628
0.63976311683654785 0.63976311683654785 0.63976311683654785
0.52464288473129272 0.52464288473129272 0.52464288473129272
0.54840975999832153 0.54840975999832153 0.54840975999832153
0.5679207444190979 0.5679207444190979 0.5679207444190979
0.63094127178192139 0.63094127178192139 0.63094127178192139
0.69882631301879883 0.69882631301879883 0.69882631301879883
0.75955003499984741 0.75955003499984741 0.75955003499984741
0.76157212257385254 0.76157212257385254 0.76157212257385254
0.71995627880096436 0.71995627880096436 0.71995627880096436
0.79076731204986572 0.79076731204986572 0.79076731204986572
0.90364247560501099 0.90364247560501099 0.90364247560501099
0.93336135149002075 0.93336135149002075 0.93336135149002075
0.93248623609542847 0.93248623609542847 0.93248623609542847
0.9119950532913208 0.9119950532913208 0.9119950532913208
0.91808855533599854 0.91808855533599854 0.91808855533599854
0.98318588733673096 0.98318588733673096 0.98318588733673096
0.47127535939216614 0.47127535939216614 0.47127535939216614
0.49535712599754333 0.49535712599754333 0.49535712599754333
0.58285617828369141 0.58285617828369141 0.58285617828369141
0.64407455921173096 0.64407455921173096 0.64407455921173096
0.79312384128570557 0.79312384128570557 0.79312384128570557
0.52863591909408569 0.52863591909408569 0.52863591909408569
0.55759358406066895 0.55759358406066895 0.55759358406066895
0.62984585762023926 0.62984585762023926 0.62984585762023926
0.68376320600509644 0.68376320600509644 0.68376320600509644
0.8164631724357605 0.8164631724357605 0.8164631724357605
0.56542974710464478 0.56542974710464478 0.56542974710464478
0.58743637800216675 0.58743637800216675 0.58743637800216675
0.66057461500167847 0.66057461500167847 0.66057461500167847
0.73051875829696655 0.73051875829696655 0.73051875829696655
0.85931885242462158 0.85931885242462158 0.85931885242462158
0.77727055549621582 0.77727055549621582 0.77727055549621582
0.78797399997711182 0.78797399997711182 0.78797399997711182
0.80206245183944702 0.80206245183944702 0.80206245183944702
0.83115726709365845 0.83115726709365845 0.83115726709365845
0.88080078363418579 0.88080078363418579 0.88080078363418579
0.97943729162216187 0.97943729162216187 0.97943729162216187
0.96907228231430054 0.96907228231430054 0.96907228231430054
0.97060680389404297 0.97060680389404297 0.97060680389404297
0.96139031648635864 0.96139031648635864 0.96139031648635864
0.9964977502822876 0.9964977502822876 0.9964977502822876
0.76017886400222778 0.76017886400222778 0.76017886400222778
0.7655409574508667 0.7655409574508667 0.7655409574508667
0.81836128234863281 0.81836128234863281 0.81836128234863281
0.88509482145309448 0.88509482145309448 0.88509482145309448
0.90996408462524414 0.90996408462524414 0.90996408462524414
0.77786123752593994 0.77786123752593994 0.77786123752593994
0.80538147687911987 0.80538147687911987 0.80538147687911987
0.84126639366149902 0.84126639366149902 0.84126639366149902
0.89102625846862793 0.89102625846862793 0.89102625846862793
0.90758675336837769 0.90758675336837769 0.90758675336837769
0.78167241811752319 0.78167241811752319 0.78167241811752319
0.81045383214950562 0.81045383214950562 0.81045383214950562
0.85966765880584717 0.85966765880584717 0.85966765880584717
0.91023266315460205 0.91023266315460205 0.91023266315460205
0.9305570125579834 0.9305570125579834 0.9305570125579834
0.84812986850738525 0.84812986850738525 0.84812986850738525
0.83788114786148071 0.83788114786148071 0.83788114786148071
0.85696184635162354 0.85696184635162354 0.85696184635162354
0.92566865682601929 0.92566865682601929 0.92566865682601929
0.95112943649291992 0.95112943649291992 0.95112943649291992
0.97649717330932617 0.97649717330932617 0.97649717330932617
0.98793506622314453 0.98793506622314453 0.98793506622314453
0.98236662149429321 0.98236662149429321 0.98236662149429321
0.99319696426391602 0.99319696426391602 0.99319696426391602
0.99002718925476074 0.99002718925476074 0.99002718925476074
