luts/negative_new/kodak_portra_800_-.cube
# Created by: G'MIC (https://gmic.eu)
TITLE "kodak_portra_800_-"
# LUT size
LUT_3D_SIZE 5
# Data domain
DOMAIN_MIN 0.0 0.0 0.0
DOMAIN_MAX 1.0 1.0 1.0
# LUT data points
0.028568746522068977 0.031116141006350517 0.033333137631416321
0.27381807565689087 0.025398852303624153 0.02268199622631073
0.63129490613937378 0.0063689285889267921 0.0077936062589287758
0.91533303260803223 0.0034071230329573154 0.0035206363536417484
1 0.079137913882732391 0
0.0046191494911909103 0.22765997052192688 0.058739233762025833
0.22496294975280762 0.26217424869537354 0.012975715100765228
0.61381715536117554 0.27463886141777039 0.0051521752029657364
0.89118480682373047 0.28993156552314758 0.0051097944378852844
0.99618285894393921 0.33900010585784912 0.010751297697424889
0 0.46340307593345642 0.10084092617034912
0.042564436793327332 0.46335288882255554 0.081906259059906006
0.49276444315910339 0.53522425889968872 0.0052808872424066067
0.83068621158599854 0.57579189538955688 0.0049632652662694454
0.99221521615982056 0.58276796340942383 0.0037275725044310093
0 0.68002688884735107 0.17978931963443756
0.0072460547089576721 0.67294502258300781 0.16684174537658691
0.38725465536117554 0.69919866323471069 0.088398084044456482
0.73742371797561646 0.76392269134521484 0.0070449677295982838
0.99278610944747925 0.81071752309799194 0
0.18806478381156921 0.92797714471817017 0.38495954871177673
0.31242433190345764 0.9246630072593689 0.38511607050895691
0.49707457423210144 0.92370116710662842 0.37950292229652405
0.72353452444076538 0.94604212045669556 0.31441408395767212
0.94956034421920776 0.96875631809234619 0.088936209678649902
0.017647223547101021 0.034976840019226074 0.27454248070716858
0.29299101233482361 0.013386535458266735 0.28512728214263916
0.62719917297363281 0.010115155950188637 0.2597292959690094
0.91274464130401611 0.0044191698543727398 0.24330903589725494
1 0.11923894286155701 0.23056104779243469
0.018775191158056259 0.26398441195487976 0.26931330561637878
0.27760723233222961 0.26976880431175232 0.27469661831855774
0.61852020025253296 0.27411767840385437 0.26541993021965027
0.88834989070892334 0.29101711511611938 0.24610172212123871
1 0.34824854135513306 0.21103407442569733
0.080810949206352234 0.49985414743423462 0.29943227767944336
0.21733514964580536 0.49418866634368896 0.28213346004486084
0.52527177333831787 0.53727680444717407 0.23778793215751648
0.83666086196899414 0.57400232553482056 0.21248942613601685
0.99780011177062988 0.59062904119491577 0.19024486839771271
0.0039262361824512482 0.70217067003250122 0.31806987524032593
0.116457499563694 0.69225901365280151 0.3003082275390625
0.42381998896598816 0.7013736367225647 0.27237412333488464
0.73939973115921021 0.76145857572555542 0.204453244805336
0.99212741851806641 0.81054860353469849 0.10790359228849411
0.23829346895217896 0.92997276782989502 0.45618951320648193
0.3402249813079834 0.92512005567550659 0.45536145567893982
0.50840485095977783 0.92422938346862793 0.45120567083358765
0.72233313322067261 0.94419479370117188 0.41122180223464966
0.9509006142616272 0.96768242120742798 0.28092297911643982
0.0084495097398757935 0.033882740885019302 0.56700330972671509
0.30694371461868286 0.014815955422818661 0.58465576171875
0.64801174402236938 0.0060550915077328682 0.59319639205932617
0.89929604530334473 0.0042751384899020195 0.56440073251724243
0.99993103742599487 0.003940328024327755 0.5330272912979126
0.0076381457038223743 0.27535361051559448 0.56008601188659668
0.30747559666633606 0.27495750784873962 0.56833398342132568
0.63209009170532227 0.27000558376312256 0.58628803491592407
0.88640624284744263 0.24137406051158905 0.56022638082504272
0.99985259771347046 0.28078296780586243 0.53233569860458374
0.13856318593025208 0.5368238091468811 0.53755801916122437
0.33238723874092102 0.53976309299468994 0.54125559329986572
0.57893115282058716 0.54660838842391968 0.54619753360748291
0.83901846408843994 0.56604987382888794 0.54378938674926758
0.9961358904838562 0.59709304571151733 0.54057854413986206
0.31284001469612122 0.73768007755279541 0.56188863515853882
0.39097565412521362 0.736980140209198 0.55690056085586548
0.50099676847457886 0.72223401069641113 0.51726245880126953
0.7619968056678772 0.76961690187454224 0.51114189624786377
0.99214226007461548 0.80467051267623901 0.51057428121566772
0.40019255876541138 0.93628048896789551 0.62748926877975464
0.42104089260101318 0.93756580352783203 0.60893476009368896
0.53812426328659058 0.92984390258789062 0.59396141767501831
0.72418618202209473 0.94041889905929565 0.57967090606689453
0.94943845272064209 0.96850311756134033 0.53332209587097168
0.17219501733779907 0.031497295945882797 0.81667935848236084
0.38804644346237183 0.013183040544390678 0.81871509552001953
0.66693538427352905 0.0097969500347971916 0.83147764205932617
0.90941101312637329 0.0079053696244955063 0.83840394020080566
0.99993699789047241 0.0083138113841414452 0.8140568733215332
0.19086243212223053 0.28805619478225708 0.80712461471557617
0.3853626549243927 0.28354969620704651 0.81072139739990234
0.65342360734939575 0.2894861102104187 0.81889975070953369
0.89457035064697266 0.31120395660400391 0.83218634128570557
0.9964185357093811 0.30206030607223511 0.8150826096534729
0.010050665587186813 0.53049224615097046 0.77498257160186768
0.28628692030906677 0.53220415115356445 0.77317243814468384
0.59918302297592163 0.5514330267906189 0.78731691837310791
0.85461366176605225 0.58330845832824707 0.81532531976699829
0.99299448728561401 0.58218145370483398 0.80024510622024536
0.30562332272529602 0.75737279653549194 0.77741587162017822
0.42156803607940674 0.76370823383331299 0.77698397636413574
0.59922808408737183 0.76581907272338867 0.77745556831359863
0.79574042558670044 0.78073310852050781 0.78179621696472168
0.98962259292602539 0.80762600898742676 0.79955559968948364
0.56016874313354492 0.9440305233001709 0.82198119163513184
0.59844362735748291 0.94281059503555298 0.82419270277023315
0.67917895317077637 0.94658178091049194 0.81474286317825317
0.76183062791824341 0.93960857391357422 0.77716392278671265
0.95446372032165527 0.96784937381744385 0.77473288774490356
0.44788017868995667 0.14635787904262543 0.98757022619247437
0.54451590776443481 0.14004224538803101 0.98277121782302856
0.71709072589874268 0.15211151540279388 0.98488903045654297
0.9119797945022583 0.22324320673942566 0.98698139190673828
1 0.26019388437271118 0.98548877239227295
0.43804445862770081 0.34077483415603638 0.97903871536254883
0.53610247373580933 0.34089228510856628 0.97873002290725708
0.70871901512145996 0.35701683163642883 0.98155033588409424
0.89478272199630737 0.38632524013519287 0.98460626602172852
0.99866336584091187 0.4274640679359436 0.98211395740509033
0.32803303003311157 0.55905777215957642 0.97724127769470215
0.45910117030143738 0.56146907806396484 0.9783322811126709
0.66146695613861084 0.57588887214660645 0.97511601448059082
0.86515331268310547 0.61308419704437256 0.97744542360305786
0.99903196096420288 0.64195597171783447 0.98224496841430664
0.28110846877098083 0.77539068460464478 0.96678292751312256
0.37613824009895325 0.77078580856323242 0.96445369720458984
0.56471884250640869 0.7669370174407959 0.96808409690856934
0.81521689891815186 0.78994238376617432 0.96909093856811523
0.98902612924575806 0.82760995626449585 0.97379159927368164
0.57018673419952393 0.95997345447540283 0.96442139148712158
0.61498147249221802 0.95878267288208008 0.96425533294677734
0.71590238809585571 0.9584118127822876 0.96767628192901611
0.84843945503234863 0.95977127552032471 0.96795660257339478
0.9709962010383606 0.97099626064300537 0.97018253803253174
