luts/negative_new/kodak_tri-x_400_+.cube
# Created by: G'MIC (https://gmic.eu)
TITLE "kodak_tri-x_400_+"
# LUT size
LUT_3D_SIZE 5
# Data domain
DOMAIN_MIN 0.0 0.0 0.0
DOMAIN_MAX 1.0 1.0 1.0
# LUT data points
0.058792788535356522 0.058792788535356522 0.058792788535356522
0.081545419991016388 0.081545419991016388 0.081545419991016388
0.12476145476102829 0.12476145476102829 0.12476145476102829
0.22784683108329773 0.22784683108329773 0.22784683108329773
0.39223021268844604 0.39223021268844604 0.39223021268844604
0.12863762676715851 0.12863762676715851 0.12863762676715851
0.17105799913406372 0.17105799913406372 0.17105799913406372
0.26538565754890442 0.26538565754890442 0.26538565754890442
0.35395848751068115 0.35395848751068115 0.35395848751068115
0.51024436950683594 0.51024436950683594 0.51024436950683594
0.29660508036613464 0.29660508036613464 0.29660508036613464
0.29291430115699768 0.29291430115699768 0.29291430115699768
0.43266206979751587 0.43266206979751587 0.43266206979751587
0.61192500591278076 0.61192500591278076 0.61192500591278076
0.7231442928314209 0.7231442928314209 0.7231442928314209
0.59073907136917114 0.59073907136917114 0.59073907136917114
0.55452322959899902 0.55452322959899902 0.55452322959899902
0.61159974336624146 0.61159974336624146 0.61159974336624146
0.76337021589279175 0.76337021589279175 0.76337021589279175
0.88160014152526855 0.88160014152526855 0.88160014152526855
0.87049150466918945 0.87049150466918945 0.87049150466918945
0.87755966186523438 0.87755966186523438 0.87755966186523438
0.87703907489776611 0.87703907489776611 0.87703907489776611
0.9270368218421936 0.9270368218421936 0.9270368218421936
0.96877121925354004 0.96877121925354004 0.96877121925354004
0.085307911038398743 0.085307911038398743 0.085307911038398743
0.14528550207614899 0.14528550207614899 0.14528550207614899
0.24436341226100922 0.24436341226100922 0.24436341226100922
0.26856592297554016 0.26856592297554016 0.26856592297554016
0.39698490500450134 0.39698490500450134 0.39698490500450134
0.18996857106685638 0.18996857106685638 0.18996857106685638
0.20942865312099457 0.20942865312099457 0.20942865312099457
0.27234938740730286 0.27234938740730286 0.27234938740730286
0.34985759854316711 0.34985759854316711 0.34985759854316711
0.51718389987945557 0.51718389987945557 0.51718389987945557
0.42763394117355347 0.42763394117355347 0.42763394117355347
0.38116180896759033 0.38116180896759033 0.38116180896759033
0.46840634942054749 0.46840634942054749 0.46840634942054749
0.60228800773620605 0.60228800773620605 0.60228800773620605
0.73680692911148071 0.73680692911148071 0.73680692911148071
0.64917975664138794 0.64917975664138794 0.64917975664138794
0.63036102056503296 0.63036102056503296 0.63036102056503296
0.62282299995422363 0.62282299995422363 0.62282299995422363
0.7571294903755188 0.7571294903755188 0.7571294903755188
0.88526684045791626 0.88526684045791626 0.88526684045791626
0.89201581478118896 0.89201581478118896 0.89201581478118896
0.8934025764465332 0.8934025764465332 0.8934025764465332
0.89082628488540649 0.89082628488540649 0.89082628488540649
0.92710453271865845 0.92710453271865845 0.92710453271865845
0.97329938411712646 0.97329938411712646 0.97329938411712646
0.20352226495742798 0.20352226495742798 0.20352226495742798
0.24700669944286346 0.24700669944286346 0.24700669944286346
0.34429115056991577 0.34429115056991577 0.34429115056991577
0.53215235471725464 0.53215235471725464 0.53215235471725464
0.64807558059692383 0.64807558059692383 0.64807558059692383
0.25602197647094727 0.25602197647094727 0.25602197647094727
0.29977330565452576 0.29977330565452576 0.29977330565452576
0.40665414929389954 0.40665414929389954 0.40665414929389954
0.5637168288230896 0.5637168288230896 0.5637168288230896
0.62012141942977905 0.62012141942977905 0.62012141942977905
0.47810342907905579 0.47810342907905579 0.47810342907905579
0.49227768182754517 0.49227768182754517 0.49227768182754517
0.53084176778793335 0.53084176778793335 0.53084176778793335
0.59783321619033813 0.59783321619033813 0.59783321619033813
0.68432736396789551 0.68432736396789551 0.68432736396789551
0.76058048009872437 0.76058048009872437 0.76058048009872437
0.75851607322692871 0.75851607322692871 0.75851607322692871
0.71808642148971558 0.71808642148971558 0.71808642148971558
0.78991824388504028 0.78991824388504028 0.78991824388504028
0.89330011606216431 0.89330011606216431 0.89330011606216431
0.93571978807449341 0.93571978807449341 0.93571978807449341
0.93315154314041138 0.93315154314041138 0.93315154314041138
0.91382038593292236 0.91382038593292236 0.91382038593292236
0.91414868831634521 0.91414868831634521 0.91414868831634521
0.97023230791091919 0.97023230791091919 0.97023230791091919
0.40133863687515259 0.40133863687515259 0.40133863687515259
0.44560632109642029 0.44560632109642029 0.44560632109642029
0.56145608425140381 0.56145608425140381 0.56145608425140381
0.63060808181762695 0.63060808181762695 0.63060808181762695
0.78446978330612183 0.78446978330612183 0.78446978330612183
0.47832587361335754 0.47832587361335754 0.47832587361335754
0.521068274974823 0.521068274974823 0.521068274974823
0.60048156976699829 0.60048156976699829 0.60048156976699829
0.6772688627243042 0.6772688627243042 0.6772688627243042
0.81167811155319214 0.81167811155319214 0.81167811155319214
0.51245588064193726 0.51245588064193726 0.51245588064193726
0.56465440988540649 0.56465440988540649 0.56465440988540649
0.65931588411331177 0.65931588411331177 0.65931588411331177
0.73545897006988525 0.73545897006988525 0.73545897006988525
0.85051250457763672 0.85051250457763672 0.85051250457763672
0.77776217460632324 0.77776217460632324 0.77776217460632324
0.79344803094863892 0.79344803094863892 0.79344803094863892
0.80232876539230347 0.80232876539230347 0.80232876539230347
0.82392209768295288 0.82392209768295288 0.82392209768295288
0.87891954183578491 0.87891954183578491 0.87891954183578491
0.97958004474639893 0.97958004474639893 0.97958004474639893
0.9801596999168396 0.9801596999168396 0.9801596999168396
0.97219902276992798 0.97219902276992798 0.97219902276992798
0.95190483331680298 0.95190483331680298 0.95190483331680298
0.97500044107437134 0.97500044107437134 0.97500044107437134
0.7517591118812561 0.7517591118812561 0.7517591118812561
0.75958967208862305 0.75958967208862305 0.75958967208862305
0.81678420305252075 0.81678420305252075 0.81678420305252075
0.88771569728851318 0.88771569728851318 0.88771569728851318
0.90802574157714844 0.90802574157714844 0.90802574157714844
0.78142058849334717 0.78142058849334717 0.78142058849334717
0.79727864265441895 0.79727864265441895 0.79727864265441895
0.82514804601669312 0.82514804601669312 0.82514804601669312
0.8782692551612854 0.8782692551612854 0.8782692551612854
0.89781135320663452 0.89781135320663452 0.89781135320663452
0.78730714321136475 0.78730714321136475 0.78730714321136475
0.8142433762550354 0.8142433762550354 0.8142433762550354
0.85435265302658081 0.85435265302658081 0.85435265302658081
0.89331084489822388 0.89331084489822388 0.89331084489822388
0.93073755502700806 0.93073755502700806 0.93073755502700806
0.83925986289978027 0.83925986289978027 0.83925986289978027
0.8476366400718689 0.8476366400718689 0.8476366400718689
0.85342580080032349 0.85342580080032349 0.85342580080032349
0.90298795700073242 0.90298795700073242 0.90298795700073242
0.95245069265365601 0.95245069265365601 0.95245069265365601
0.97426211833953857 0.97426211833953857 0.97426211833953857
0.97586703300476074 0.97586703300476074 0.97586703300476074
0.97471886873245239 0.97471886873245239 0.97471886873245239
0.97825217247009277 0.97825217247009277 0.97825217247009277
0.97681510448455811 0.97681510448455811 0.97681510448455811
