luts/negative_new/kodak_tmax_3200.cube
# Created by: G'MIC (https://gmic.eu)
TITLE "kodak_tmax_3200"
# LUT size
LUT_3D_SIZE 13
# Data domain
DOMAIN_MIN 0.0 0.0 0.0
DOMAIN_MAX 1.0 1.0 1.0
# LUT data points
0.11348158866167068 0.11348158866167068 0.11348158866167068
0.1136266365647316 0.1136266365647316 0.1136266365647316
0.11521196365356445 0.11521196365356445 0.11521196365356445
0.12015775591135025 0.12015775591135025 0.12015775591135025
0.12822191417217255 0.12822191417217255 0.12822191417217255
0.14091645181179047 0.14091645181179047 0.14091645181179047
0.16053396463394165 0.16053396463394165 0.16053396463394165
0.18632452189922333 0.18632452189922333 0.18632452189922333
0.21327826380729675 0.21327826380729675 0.21327826380729675
0.2383052259683609 0.2383052259683609 0.2383052259683609
0.26416730880737305 0.26416730880737305 0.26416730880737305
0.29520627856254578 0.29520627856254578 0.29520627856254578
0.33343350887298584 0.33343350887298584 0.33343350887298584
0.13368500769138336 0.13368500769138336 0.13368500769138336
0.13640250265598297 0.13640250265598297 0.13640250265598297
0.14116023480892181 0.14116023480892181 0.14116023480892181
0.14846748113632202 0.14846748113632202 0.14846748113632202
0.15868940949440002 0.15868940949440002 0.15868940949440002
0.17290361225605011 0.17290361225605011 0.17290361225605011
0.19396466016769409 0.19396466016769409 0.19396466016769409
0.22037115693092346 0.22037115693092346 0.22037115693092346
0.24555204808712006 0.24555204808712006 0.24555204808712006
0.26756012439727783 0.26756012439727783 0.26756012439727783
0.29072415828704834 0.29072415828704834 0.29072415828704834
0.32258713245391846 0.32258713245391846 0.32258713245391846
0.36460542678833008 0.36460542678833008 0.36460542678833008
0.1609661877155304 0.1609661877155304 0.1609661877155304
0.16663137078285217 0.16663137078285217 0.16663137078285217
0.1747734546661377 0.1747734546661377 0.1747734546661377
0.18537580966949463 0.18537580966949463 0.18537580966949463
0.19940990209579468 0.19940990209579468 0.19940990209579468
0.21819211542606354 0.21819211542606354 0.21819211542606354
0.24236907064914703 0.24236907064914703 0.24236907064914703
0.26897895336151123 0.26897895336151123 0.26897895336151123
0.29223930835723877 0.29223930835723877 0.29223930835723877
0.31019055843353271 0.31019055843353271 0.31019055843353271
0.32958710193634033 0.32958710193634033 0.32958710193634033
0.36229509115219116 0.36229509115219116 0.36229509115219116
0.40895277261734009 0.40895277261734009 0.40895277261734009
0.19895172119140625 0.19895172119140625 0.19895172119140625
0.20667821168899536 0.20667821168899536 0.20667821168899536
0.21721132099628448 0.21721132099628448 0.21721132099628448
0.23032577335834503 0.23032577335834503 0.23032577335834503
0.24782165884971619 0.24782165884971619 0.24782165884971619
0.27090597152709961 0.27090597152709961 0.27090597152709961
0.29956707358360291 0.29956707358360291 0.29956707358360291
0.32965657114982605 0.32965657114982605 0.32965657114982605
0.35350850224494934 0.35350850224494934 0.35350850224494934
0.37036126852035522 0.37036126852035522 0.37036126852035522
0.38934415578842163 0.38934415578842163 0.38934415578842163
0.42338335514068604 0.42338335514068604 0.42338335514068604
0.47149479389190674 0.47149479389190674 0.47149479389190674
0.2508828341960907 0.2508828341960907 0.2508828341960907
0.25846683979034424 0.25846683979034424 0.25846683979034424
0.2684224545955658 0.2684224545955658 0.2684224545955658
0.28150874376296997 0.28150874376296997 0.28150874376296997
0.3002626895904541 0.3002626895904541 0.3002626895904541
0.32583793997764587 0.32583793997764587 0.32583793997764587
0.35775840282440186 0.35775840282440186 0.35775840282440186
0.39263209700584412 0.39263209700584412 0.39263209700584412
0.42024266719818115 0.42024266719818115 0.42024266719818115
0.44155433773994446 0.44155433773994446 0.44155433773994446
0.46730497479438782 0.46730497479438782 0.46730497479438782
0.50428414344787598 0.50428414344787598 0.50428414344787598
0.55031847953796387 0.55031847953796387 0.55031847953796387
0.31414645910263062 0.31414645910263062 0.31414645910263062
0.31944173574447632 0.31944173574447632 0.31944173574447632
0.32691758871078491 0.32691758871078491 0.32691758871078491
0.33775079250335693 0.33775079250335693 0.33775079250335693
0.35547921061515808 0.35547921061515808 0.35547921061515808
0.38086071610450745 0.38086071610450745 0.38086071610450745
0.41260537505149841 0.41260537505149841 0.41260537505149841
0.44720649719238281 0.44720649719238281 0.44720649719238281
0.48031780123710632 0.48031780123710632 0.48031780123710632
0.51179498434066772 0.51179498434066772 0.51179498434066772
0.54763686656951904 0.54763686656951904 0.54763686656951904
0.59005212783813477 0.59005212783813477 0.59005212783813477
0.63597196340560913 0.63597196340560913 0.63597196340560913
0.38367387652397156 0.38367387652397156 0.38367387652397156
0.38751861453056335 0.38751861453056335 0.38751861453056335
0.39281973242759705 0.39281973242759705 0.39281973242759705
0.40092048048973083 0.40092048048973083 0.40092048048973083
0.41589576005935669 0.41589576005935669 0.41589576005935669
0.43941333889961243 0.43941333889961243 0.43941333889961243
0.46804249286651611 0.46804249286651611 0.46804249286651611
0.50049376487731934 0.50049376487731934 0.50049376487731934
0.53674972057342529 0.53674972057342529 0.53674972057342529
0.57707506418228149 0.57707506418228149 0.57707506418228149
0.62127542495727539 0.62127542495727539 0.62127542495727539
0.66938269138336182 0.66938269138336182 0.66938269138336182
0.7170986533164978 0.7170986533164978 0.7170986533164978
0.45920476317405701 0.45920476317405701 0.45920476317405701
0.46247321367263794 0.46247321367263794 0.46247321367263794
0.46739482879638672 0.46739482879638672 0.46739482879638672
0.47447395324707031 0.47447395324707031 0.47447395324707031
0.48739370703697205 0.48739370703697205 0.48739370703697205
0.50668495893478394 0.50668495893478394 0.50668495893478394
0.53106856346130371 0.53106856346130371 0.53106856346130371
0.56002944707870483 0.56002944707870483 0.56002944707870483
0.59599268436431885 0.59599268436431885 0.59599268436431885
0.63822257518768311 0.63822257518768311 0.63822257518768311
0.68474805355072021 0.68474805355072021 0.68474805355072021
0.73418313264846802 0.73418313264846802 0.73418313264846802
0.78155028820037842 0.78155028820037842 0.78155028820037842
0.54186093807220459 0.54186093807220459 0.54186093807220459
0.5450291633605957 0.5450291633605957 0.5450291633605957
0.54984325170516968 0.54984325170516968 0.54984325170516968
0.55671608448028564 0.55671608448028564 0.55671608448028564
0.56762677431106567 0.56762677431106567 0.56762677431106567
0.58318996429443359 0.58318996429443359 0.58318996429443359
0.60358601808547974 0.60358601808547974 0.60358601808547974
0.62833213806152344 0.62833213806152344 0.62833213806152344
0.65963202714920044 0.65963202714920044 0.65963202714920044
0.69691503047943115 0.69691503047943115 0.69691503047943115
0.73881679773330688 0.73881679773330688 0.73881679773330688
0.78349155187606812 0.78349155187606812 0.78349155187606812
0.82561272382736206 0.82561272382736206 0.82561272382736206
0.63044512271881104 0.63044512271881104 0.63044512271881104
0.63314282894134521 0.63314282894134521 0.63314282894134521
0.63725537061691284 0.63725537061691284 0.63725537061691284
0.64324921369552612 0.64324921369552612 0.64324921369552612
0.65239357948303223 0.65239357948303223 0.65239357948303223
0.66520386934280396 0.66520386934280396 0.66520386934280396
0.68126749992370605 0.68126749992370605 0.68126749992370605
0.70160585641860962 0.70160585641860962 0.70160585641860962
0.72612875699996948 0.72612875699996948 0.72612875699996948
0.75448429584503174 0.75448429584503174 0.75448429584503174
0.78723692893981934 0.78723692893981934 0.78723692893981934
0.82337474822998047 0.82337474822998047 0.82337474822998047
0.85906004905700684 0.85906004905700684 0.85906004905700684
0.72132444381713867 0.72132444381713867 0.72132444381713867
0.7231709361076355 0.7231709361076355 0.7231709361076355
0.72612696886062622 0.72612696886062622 0.72612696886062622
0.73058658838272095 0.73058658838272095 0.73058658838272095
0.73789197206497192 0.73789197206497192 0.73789197206497192
0.74808984994888306 0.74808984994888306 0.74808984994888306
0.76159250736236572 0.76159250736236572 0.76159250736236572
0.77678811550140381 0.77678811550140381 0.77678811550140381
0.79370218515396118 0.79370218515396118 0.79370218515396118
0.81200981140136719 0.81200981140136719 0.81200981140136719
0.83394467830657959 0.83394467830657959 0.83394467830657959
0.85988849401473999 0.85988849401473999 0.85988849401473999
0.88809299468994141 0.88809299468994141 0.88809299468994141
0.81060802936553955 0.81060802936553955 0.81060802936553955
0.811512291431427 0.811512291431427 0.811512291431427
0.81272298097610474 0.81272298097610474 0.81272298097610474
0.81540054082870483 0.81540054082870483 0.81540054082870483
0.82045286893844604 0.82045286893844604 0.82045286893844604
0.82818597555160522 0.82818597555160522 0.82818597555160522
0.83865994215011597 0.83865994215011597 0.83865994215011597
0.85023039579391479 0.85023039579391479 0.85023039579391479
0.86022365093231201 0.86022365093231201 0.86022365093231201
0.86897504329681396 0.86897504329681396 0.86897504329681396
0.88062632083892822 0.88062632083892822 0.88062632083892822
0.89658331871032715 0.89658331871032715 0.89658331871032715
0.91713541746139526 0.91713541746139526 0.91713541746139526
0.89582055807113647 0.89582055807113647 0.89582055807113647
0.8952871561050415 0.8952871561050415 0.8952871561050415
0.89448314905166626 0.89448314905166626 0.89448314905166626
0.89516305923461914 0.89516305923461914 0.89516305923461914
0.8978201150894165 0.8978201150894165 0.8978201150894165
0.90288519859313965 0.90288519859313965 0.90288519859313965
0.90975445508956909 0.90975445508956909 0.90975445508956909
0.91698235273361206 0.91698235273361206 0.91698235273361206
0.92127633094787598 0.92127633094787598 0.92127633094787598
0.92343461513519287 0.92343461513519287 0.92343461513519287
0.92758285999298096 0.92758285999298096 0.92758285999298096
0.9358217716217041 0.9358217716217041 0.9358217716217041
0.94928127527236938 0.94928127527236938 0.94928127527236938
0.11099950969219208 0.11099950969219208 0.11099950969219208
0.11461314558982849 0.11461314558982849 0.11461314558982849
0.11973921954631805 0.11973921954631805 0.11973921954631805
0.12694719433784485 0.12694719433784485 0.12694719433784485
0.13703237473964691 0.13703237473964691 0.13703237473964691
0.15102653205394745 0.15102653205394745 0.15102653205394745
0.17029808461666107 0.17029808461666107 0.17029808461666107
0.19446016848087311 0.19446016848087311 0.19446016848087311
0.22042374312877655 0.22042374312877655 0.22042374312877655
0.24449443817138672 0.24449443817138672 0.24449443817138672
0.26807096600532532 0.26807096600532532 0.26807096600532532
0.2976607084274292 0.2976607084274292 0.2976607084274292
0.33450096845626831 0.33450096845626831 0.33450096845626831
0.13464215397834778 0.13464215397834778 0.13464215397834778
0.13986305892467499 0.13986305892467499 0.13986305892467499
0.14713217318058014 0.14713217318058014 0.14713217318058014
0.15631894767284393 0.15631894767284393 0.15631894767284393
0.16812531650066376 0.16812531650066376 0.16812531650066376
0.18294794857501984 0.18294794857501984 0.18294794857501984
0.20263543725013733 0.20263543725013733 0.20263543725013733
0.22571550309658051 0.22571550309658051 0.22571550309658051
0.24881713092327118 0.24881713092327118 0.24881713092327118
0.2698211669921875 0.2698211669921875 0.2698211669921875
0.29240515828132629 0.29240515828132629 0.29240515828132629
0.32315629720687866 0.32315629720687866 0.32315629720687866
0.36375093460083008 0.36375093460083008 0.36375093460083008
0.16644589602947235 0.16644589602947235 0.16644589602947235
0.17382258176803589 0.17382258176803589 0.17382258176803589
0.18366760015487671 0.18366760015487671 0.18366760015487671
0.19535863399505615 0.19535863399505615 0.19535863399505615
0.20963184535503387 0.20963184535503387 0.20963184535503387
0.22718545794487 0.22718545794487 0.22718545794487
0.24838516116142273 0.24838516116142273 0.24838516116142273
0.2711520791053772 0.2711520791053772 0.2711520791053772
0.29177826642990112 0.29177826642990112 0.29177826642990112
0.31006371974945068 0.31006371974945068 0.31006371974945068
0.33030813932418823 0.33030813932418823 0.33030813932418823
0.36238139867782593 0.36238139867782593 0.36238139867782593
0.40668579936027527 0.40668579936027527 0.40668579936027527
0.21036309003829956 0.21036309003829956 0.21036309003829956
0.21910279989242554 0.21910279989242554 0.21910279989242554
0.22994901239871979 0.22994901239871979 0.22994901239871979
0.24311518669128418 0.24311518669128418 0.24311518669128418
0.25962704420089722 0.25962704420089722 0.25962704420089722
0.2799127995967865 0.2799127995967865 0.2799127995967865
0.30379727482795715 0.30379727482795715 0.30379727482795715
0.32883000373840332 0.32883000373840332 0.32883000373840332
0.35016617178916931 0.35016617178916931 0.35016617178916931
0.36814039945602417 0.36814039945602417 0.36814039945602417
0.38901486992835999 0.38901486992835999 0.38901486992835999
0.42249181866645813 0.42249181866645813 0.42249181866645813
0.46811890602111816 0.46811890602111816 0.46811890602111816
0.26736485958099365 0.26736485958099365 0.26736485958099365
0.27523124217987061 0.27523124217987061 0.27523124217987061
0.28473684191703796 0.28473684191703796 0.28473684191703796
0.2976037859916687 0.2976037859916687 0.2976037859916687
0.31394544243812561 0.31394544243812561 0.31394544243812561
0.33562389016151428 0.33562389016151428 0.33562389016151428
0.36166837811470032 0.36166837811470032 0.36166837811470032
0.38965243101119995 0.38965243101119995 0.38965243101119995
0.41528087854385376 0.41528087854385376 0.41528087854385376
0.43823570013046265 0.43823570013046265 0.43823570013046265
0.46564158797264099 0.46564158797264099 0.46564158797264099
0.50205588340759277 0.50205588340759277 0.50205588340759277
0.54621076583862305 0.54621076583862305 0.54621076583862305
0.33236315846443176 0.33236315846443176 0.33236315846443176
0.33878540992736816 0.33878540992736816 0.33878540992736816
0.34586241841316223 0.34586241841316223 0.34586241841316223
0.35619381070137024 0.35619381070137024 0.35619381070137024
0.37046077847480774 0.37046077847480774 0.37046077847480774
0.39160630106925964 0.39160630106925964 0.39160630106925964
0.41701415181159973 0.41701415181159973 0.41701415181159973
0.44562390446662903 0.44562390446662903 0.44562390446662903
0.47687491774559021 0.47687491774559021 0.47687491774559021
0.50953000783920288 0.50953000783920288 0.50953000783920288
0.54624611139297485 0.54624611139297485 0.54624611139297485
0.58732640743255615 0.58732640743255615 0.58732640743255615
0.63112878799438477 0.63112878799438477 0.63112878799438477
0.40046489238739014 0.40046489238739014 0.40046489238739014
0.40620842576026917 0.40620842576026917 0.40620842576026917
0.41226586699485779 0.41226586699485779 0.41226586699485779
0.42040362954139709 0.42040362954139709 0.42040362954139709
0.43318727612495422 0.43318727612495422 0.43318727612495422
0.45088380575180054 0.45088380575180054 0.45088380575180054
0.47255679965019226 0.47255679965019226 0.47255679965019226
0.49891388416290283 0.49891388416290283 0.49891388416290283
0.53411072492599487 0.53411072492599487 0.53411072492599487
0.57540148496627808 0.57540148496627808 0.57540148496627808
0.62003451585769653 0.62003451585769653 0.62003451585769653
0.66632086038589478 0.66632086038589478 0.66632086038589478
0.71072202920913696 0.71072202920913696 0.71072202920913696
0.47364592552185059 0.47364592552185059 0.47364592552185059
0.47921448945999146 0.47921448945999146 0.47921448945999146
0.48547092080116272 0.48547092080116272 0.48547092080116272
0.4925629198551178 0.4925629198551178 0.4925629198551178
0.50317394733428955 0.50317394733428955 0.50317394733428955
0.51768559217453003 0.51768559217453003 0.51768559217453003
0.53514564037322998 0.53514564037322998 0.53514564037322998
0.55832433700561523 0.55832433700561523 0.55832433700561523
0.59309226274490356 0.59309226274490356 0.59309226274490356
0.63619744777679443 0.63619744777679443 0.63619744777679443
0.68257778882980347 0.68257778882980347 0.68257778882980347
0.73040771484375 0.73040771484375 0.73040771484375
0.77497786283493042 0.77497786283493042 0.77497786283493042
0.55498909950256348 0.55498909950256348 0.55498909950256348
0.56016719341278076 0.56016719341278076 0.56016719341278076
0.56609523296356201 0.56609523296356201 0.56609523296356201
0.5727386474609375 0.5727386474609375 0.5727386474609375
0.58135735988616943 0.58135735988616943 0.58135735988616943
0.59304201602935791 0.59304201602935791 0.59304201602935791
0.60785526037216187 0.60785526037216187 0.60785526037216187
0.62808632850646973 0.62808632850646973 0.62808632850646973
0.65673619508743286 0.65673619508743286 0.65673619508743286
0.69292408227920532 0.69292408227920532 0.69292408227920532
0.73461335897445679 0.73461335897445679 0.73461335897445679
0.77861905097961426 0.77861905097961426 0.77861905097961426
0.82051175832748413 0.82051175832748413 0.82051175832748413
0.64325213432312012 0.64325213432312012 0.64325213432312012
0.6471865177154541 0.6471865177154541 0.6471865177154541
0.65194964408874512 0.65194964408874512 0.65194964408874512
0.65726131200790405 0.65726131200790405 0.65726131200790405
0.66419684886932373 0.66419684886932373 0.66419684886932373
0.67352038621902466 0.67352038621902466 0.67352038621902466
0.68574631214141846 0.68574631214141846 0.68574631214141846
0.70156484842300415 0.70156484842300415 0.70156484842300415
0.72256970405578613 0.72256970405578613 0.72256970405578613
0.74868756532669067 0.74868756532669067 0.74868756532669067
0.78035426139831543 0.78035426139831543 0.78035426139831543
0.8169824481010437 0.8169824481010437 0.8169824481010437
0.85407674312591553 0.85407674312591553 0.85407674312591553
0.73328804969787598 0.73328804969787598 0.73328804969787598
0.73589539527893066 0.73589539527893066 0.73589539527893066
0.73875075578689575 0.73875075578689575 0.73875075578689575
0.74228572845458984 0.74228572845458984 0.74228572845458984
0.74748843908309937 0.74748843908309937 0.74748843908309937
0.7545936107635498 0.7545936107635498 0.7545936107635498
0.76408964395523071 0.76408964395523071 0.76408964395523071
0.77542281150817871 0.77542281150817871 0.77542281150817871
0.78867137432098389 0.78867137432098389 0.78867137432098389
0.80483680963516235 0.80483680963516235 0.80483680963516235
0.82593238353729248 0.82593238353729248 0.82593238353729248
0.8529323935508728 0.8529323935508728 0.8529323935508728
0.88296341896057129 0.88296341896057129 0.88296341896057129
0.8208884596824646 0.8208884596824646 0.8208884596824646
0.82213503122329712 0.82213503122329712 0.82213503122329712
0.82290029525756836 0.82290029525756836 0.82290029525756836
0.82464885711669922 0.82464885711669922 0.82464885711669922
0.82774859666824341 0.82774859666824341 0.82774859666824341
0.83249920606613159 0.83249920606613159 0.83249920606613159
0.83913803100585938 0.83913803100585938 0.83913803100585938
0.84649276733398438 0.84649276733398438 0.84649276733398438
0.85342270135879517 0.85342270135879517 0.85342270135879517
0.86122918128967285 0.86122918128967285 0.86122918128967285
0.87285536527633667 0.87285536527633667 0.87285536527633667
0.88987523317337036 0.88987523317337036 0.88987523317337036
0.91206198930740356 0.91206198930740356 0.91206198930740356
0.9033014178276062 0.9033014178276062 0.9033014178276062
0.90317493677139282 0.90317493677139282 0.90317493677139282
0.90227377414703369 0.90227377414703369 0.90227377414703369
0.90178757905960083 0.90178757905960083 0.90178757905960083
0.90269142389297485 0.90269142389297485 0.90269142389297485
0.90516185760498047 0.90516185760498047 0.90516185760498047
0.90851742029190063 0.90851742029190063 0.90851742029190063
0.91205769777297974 0.91205769777297974 0.91205769777297974
0.91416579484939575 0.91416579484939575 0.91416579484939575
0.91575241088867188 0.91575241088867188 0.91575241088867188
0.92010295391082764 0.92010295391082764 0.92010295391082764
0.92945569753646851 0.92945569753646851 0.92945569753646851
0.94462907314300537 0.94462907314300537 0.94462907314300537
0.10985385626554489 0.10985385626554489 0.10985385626554489
0.11669240891933441 0.11669240891933441 0.11669240891933441
0.12561263144016266 0.12561263144016266 0.12561263144016266
0.13653437793254852 0.13653437793254852 0.13653437793254852
0.1491895467042923 0.1491895467042923 0.1491895467042923
0.16414512693881989 0.16414512693881989 0.16414512693881989
0.18202218413352966 0.18202218413352966 0.18202218413352966
0.20333904027938843 0.20333904027938843 0.20333904027938843
0.22721059620380402 0.22721059620380402 0.22721059620380402
0.2501986026763916 0.2501986026763916 0.2501986026763916
0.27394691109657288 0.27394691109657288 0.27394691109657288
0.30305317044258118 0.30305317044258118 0.30305317044258118
0.33918038010597229 0.33918038010597229 0.33918038010597229
0.13550789654254913 0.13550789654254913 0.13550789654254913
0.14376312494277954 0.14376312494277954 0.14376312494277954
0.1544976532459259 0.1544976532459259 0.1544976532459259
0.16687820851802826 0.16687820851802826 0.16687820851802826
0.18050506711006165 0.18050506711006165 0.18050506711006165
0.195423424243927 0.195423424243927 0.195423424243927
0.2124345600605011 0.2124345600605011 0.2124345600605011
0.23177453875541687 0.23177453875541687 0.23177453875541687
0.25268140435218811 0.25268140435218811 0.25268140435218811
0.27372178435325623 0.27372178435325623 0.27372178435325623
0.29741647839546204 0.29741647839546204 0.29741647839546204
0.32820931077003479 0.32820931077003479 0.32820931077003479
0.36703506112098694 0.36703506112098694 0.36703506112098694
0.17092703282833099 0.17092703282833099 0.17092703282833099
0.18102654814720154 0.18102654814720154 0.18102654814720154
0.19356004893779755 0.19356004893779755 0.19356004893779755
0.20770134031772614 0.20770134031772614 0.20770134031772614
0.22299277782440186 0.22299277782440186 0.22299277782440186
0.23896878957748413 0.23896878957748413 0.23896878957748413
0.25594806671142578 0.25594806671142578 0.25594806671142578
0.27422371506690979 0.27422371506690979 0.27422371506690979
0.29288506507873535 0.29288506507873535 0.29288506507873535
0.31229779124259949 0.31229779124259949 0.31229779124259949
0.33582642674446106 0.33582642674446106 0.33582642674446106
0.36801046133041382 0.36801046133041382 0.36801046133041382
0.40896937251091003 0.40896937251091003 0.40896937251091003
0.22044982016086578 0.22044982016086578 0.22044982016086578
0.23100548982620239 0.23100548982620239 0.23100548982620239
0.24369178712368011 0.24369178712368011 0.24369178712368011
0.25863167643547058 0.25863167643547058 0.25863167643547058
0.27478235960006714 0.27478235960006714 0.27478235960006714
0.29214093089103699 0.29214093089103699 0.29214093089103699
0.31049931049346924 0.31049931049346924 0.31049931049346924
0.32935404777526855 0.32935404777526855 0.32935404777526855
0.34861361980438232 0.34861361980438232 0.34861361980438232
0.36904123425483704 0.36904123425483704 0.36904123425483704
0.39385679364204407 0.39385679364204407 0.39385679364204407
0.42694929242134094 0.42694929242134094 0.42694929242134094
0.46850097179412842 0.46850097179412842 0.46850097179412842
0.28380337357521057 0.28380337357521057 0.28380337357521057
0.29301318526268005 0.29301318526268005 0.29301318526268005
0.30301928520202637 0.30301928520202637 0.30301928520202637
0.31641697883605957 0.31641697883605957 0.31641697883605957
0.33183884620666504 0.33183884620666504 0.33183884620666504
0.35011103749275208 0.35011103749275208 0.35011103749275208
0.36927744746208191 0.36927744746208191 0.36927744746208191
0.39077001810073853 0.39077001810073853 0.39077001810073853
0.41399964690208435 0.41399964690208435 0.41399964690208435
