luts/negative_new/kodak_portra_400.cube
# Created by: G'MIC (https://gmic.eu)
TITLE "kodak_portra_400"
# LUT size
LUT_3D_SIZE 7
# Data domain
DOMAIN_MIN 0.0 0.0 0.0
DOMAIN_MAX 1.0 1.0 1.0
# LUT data points
0.028550285845994949 0.036040645092725754 0.035365428775548935
0.14938101172447205 0.034317344427108765 0.033913511782884598
0.37413901090621948 0.013312949799001217 0.021655034273862839
0.62135756015777588 0.0053300447762012482 0.0081985173746943474
0.83053606748580933 0.0069123213179409504 0.0012514301342889667
0.97330331802368164 0.067435413599014282 0.0010585112031549215
1 0.20488640666007996 0.0014130386989563704
0.0075990264303982258 0.13094277679920197 0.052035853266716003
0.12615817785263062 0.14431069791316986 0.036618057638406754
0.374482661485672 0.16725626587867737 0.01087290421128273
0.6240619421005249 0.16588637232780457 0.0029860553331673145
0.82432806491851807 0.19209513068199158 0.0017611484508961439
0.95853781700134277 0.24878831207752228 0.0011147742625325918
0.99946969747543335 0.31319254636764526 0.00028294580988585949
0 0.29933011531829834 0.083783529698848724
0.041538506746292114 0.29657113552093506 0.087516650557518005
0.3004564642906189 0.34223714470863342 0.019625989720225334
0.58437490463256836 0.38596546649932861 0.0059245838783681393
0.78688144683837891 0.40254008769989014 0.0015355577925220132
0.92862868309020996 0.42698660492897034 0.0015318627702072263
0.99607843160629272 0.45095053315162659 0.0016314338427037001
0 0.48163416981697083 0.14827162027359009
0.0069209379144012928 0.46570998430252075 0.15608817338943481
0.20268787443637848 0.48197022080421448 0.11802716553211212
0.49346336722373962 0.53241950273513794 0.022230589762330055
0.73766279220581055 0.56950986385345459 0.0027067447081208229
0.89580816030502319 0.58426105976104736 0.003011426655575633
0.99184787273406982 0.58906704187393188 0.0026520374231040478
0.001913227722980082 0.63496178388595581 0.23535846173763275
0.0052963555790483952 0.62232893705368042 0.24666178226470947
0.18343724310398102 0.61344760656356812 0.24124820530414581
0.43340951204299927 0.63982701301574707 0.2040695995092392
0.66481232643127441 0.6792106032371521 0.10150523483753204
0.8584253191947937 0.70814520120620728 0.0077771502546966076
0.98190522193908691 0.71765291690826416 0.0026839312631636858
0.031500108540058136 0.77195268869400024 0.36437094211578369
0.12527695298194885 0.76417440176010132 0.3713938295841217
0.30133906006813049 0.7501835823059082 0.390522301197052
0.46113094687461853 0.75296086072921753 0.37709647417068481
0.62723076343536377 0.78044325113296509 0.34703829884529114
0.80665367841720581 0.80897337198257446 0.27362054586410522
0.97009772062301636 0.83282655477523804 0.17850179970264435
0.44548502564430237 0.91067296266555786 0.58915048837661743
0.47645938396453857 0.90743571519851685 0.5945320725440979
0.5410621166229248 0.90143966674804688 0.61085206270217896
0.619914710521698 0.89589571952819824 0.62077176570892334
0.70312958955764771 0.91095000505447388 0.61285394430160522
0.81289863586425781 0.92971521615982056 0.58954393863677979
0.93581801652908325 0.94865447282791138 0.55450928211212158
0.02361571416258812 0.039826039224863052 0.16115544736385345
0.17065981030464172 0.021285112947225571 0.17530694603919983
0.40117129683494568 0.0087150121107697487 0.18189775943756104
0.64594858884811401 0.0092082452028989792 0.16481253504753113
0.84720486402511597 0.0068033556453883648 0.13457208871841431
0.97822338342666626 0.023589683696627617 0.10956139862537384
1 0.18248997628688812 0.077460162341594696
0.005742046982049942 0.170329749584198 0.17212346196174622
0.1554986834526062 0.17058277130126953 0.17913486063480377
0.39919257164001465 0.1586967408657074 0.16525420546531677
0.64574652910232544 0.14104722440242767 0.14427709579467773
0.83709448575973511 0.16474178433418274 0.11429782956838608
0.96440935134887695 0.22767123579978943 0.084604822099208832
1 0.30135047435760498 0.057223241776227951
0.003743399865925312 0.36704555153846741 0.21282944083213806
0.092907972633838654 0.34901759028434753 0.20870159566402435
0.34415364265441895 0.36393067240715027 0.18544045090675354
0.60913890600204468 0.3918253481388092 0.095974430441856384
0.80169105529785156 0.40243682265281677 0.051952391862869263
0.94182401895523071 0.42426767945289612 0.03188202902674675
0.99962371587753296 0.4490666389465332 0.023775152862071991
0.00089154712622985244 0.52754652500152588 0.24226623773574829
0.015302411280572414 0.51221591234207153 0.25103220343589783
0.26489138603210449 0.50824546813964844 0.24672463536262512
0.5191529393196106 0.5430595874786377 0.18488478660583496
0.75057494640350342 0.57758975028991699 0.071820266544818878
0.90740251541137695 0.58201175928115845 0.010635689832270145
0.99447131156921387 0.58439499139785767 0.0078998785465955734
0.0016476050950586796 0.66148370504379272 0.30978298187255859
0.012399755418300629 0.64804953336715698 0.3147103488445282
0.23908822238445282 0.62474209070205688 0.31783199310302734
0.4523388147354126 0.64514505863189697 0.29644957184791565
0.67657279968261719 0.68393069505691528 0.23840351402759552
0.86717039346694946 0.71114623546600342 0.135708287358284
0.98934483528137207 0.71569734811782837 0.022211665287613869
0.074777089059352875 0.78294658660888672 0.41128978133201599
0.18649287521839142 0.77579879760742188 0.42027303576469421
0.32406952977180481 0.75541573762893677 0.42821776866912842
0.47795969247817993 0.75543957948684692 0.42613571882247925
0.63313716650009155 0.78253412246704102 0.408183753490448
0.80996257066726685 0.81012320518493652 0.35283872485160828
0.97105997800827026 0.83355653285980225 0.29408648610115051
0.45468452572822571 0.91513705253601074 0.60808753967285156
0.48499435186386108 0.91149812936782837 0.613006591796875
0.5468783974647522 0.90666431188583374 0.62383854389190674
0.62309932708740234 0.89804363250732422 0.63916867971420288
0.70419389009475708 0.9107663631439209 0.63068979978561401
0.8102601170539856 0.93002700805664062 0.61526036262512207
0.93579649925231934 0.94754016399383545 0.57789784669876099
0.0095653906464576721 0.041702345013618469 0.382099449634552
0.19198070466518402 0.024629885330796242 0.41480886936187744
0.47402563691139221 0.0033365136478096247 0.44726866483688354
0.68189013004302979 0.0038628971669822931 0.44679984450340271
0.86357516050338745 0.0033939734566956758 0.42861843109130859
0.97838699817657471 0.0084464726969599724 0.39265134930610657
1 0.16837945580482483 0.38399448990821838
0.0061144209466874599 0.18325050175189972 0.35983732342720032
0.14772969484329224 0.18581297993659973 0.39447158575057983
0.45907622575759888 0.17393100261688232 0.44277703762054443
0.67409610748291016 0.12006596475839615 0.44019126892089844
0.85348021984100342 0.11279057711362839 0.41658884286880493
0.97393983602523804 0.21495074033737183 0.39504724740982056
1 0.32550778985023499 0.38856831192970276
0.0028976141475141048 0.4215395450592041 0.41050994396209717
0.048729512840509415 0.41823843121528625 0.41514307260513306
0.40288862586021423 0.41489195823669434 0.4232313334941864
0.63541716337203979 0.40851256251335144 0.4145047664642334
0.8114132285118103 0.41632312536239624 0.38897117972373962
0.94224900007247925 0.4372718334197998 0.36596447229385376
0.99948596954345703 0.46844238042831421 0.34996429085731506
0.0047485949471592903 0.60926318168640137 0.45760554075241089
0.14405229687690735 0.60163086652755737 0.4518219530582428
0.36919185519218445 0.57169854640960693 0.4422697126865387
0.56969839334487915 0.57525098323822021 0.41771727800369263
0.75907814502716064 0.5857384204864502 0.36704081296920776
0.90764576196670532 0.58912235498428345 0.31683799624443054
0.9960026741027832 0.58947879076004028 0.29807677865028381
0.14575466513633728 0.71145939826965332 0.48004454374313354
0.21539990603923798 0.70175004005432129 0.47084271907806396
0.35388469696044922 0.67529714107513428 0.46386626362800598
0.50372940301895142 0.66297024488449097 0.44733378291130066
0.69454526901245117 0.69553911685943604 0.42485883831977844
0.86826014518737793 0.71664172410964966 0.37870544195175171
0.98849606513977051 0.71255362033843994 0.29606294631958008
0.22963815927505493 0.807422935962677 0.51586097478866577
0.28795009851455688 0.79852515459060669 0.5152965784072876
0.40505418181419373 0.77898389101028442 0.51719063520431519
0.50337725877761841 0.7591482400894165 0.5132632851600647
0.6443943977355957 0.78596872091293335 0.5060240626335144
0.81779485940933228 0.81512945890426636 0.48170384764671326
0.9660753607749939 0.83553034067153931 0.44696429371833801
0.4686102569103241 0.92329710721969604 0.64090794324874878
0.50016993284225464 0.92059588432312012 0.64601480960845947
0.55713248252868652 0.91443568468093872 0.65274333953857422
0.63096237182617188 0.90291678905487061 0.6681855320930481
0.70842766761779785 0.90704250335693359 0.66862255334854126
0.81247740983963013 0.92833399772644043 0.65698951482772827
0.93551665544509888 0.94906485080718994 0.63293975591659546
0.010351173579692841 0.046126902103424072 0.59890973567962646
0.21405570209026337 0.024519752711057663 0.61501848697662354
0.52537447214126587 0.0051416284404695034 0.65986233949661255
0.7607734203338623 0.0029218187555670738 0.69056695699691772
0.88221520185470581 0.0051553761586546898 0.67179298400878906
0.98430496454238892 0.016371095553040504 0.6500626802444458
1 0.18886680901050568 0.61448961496353149
0.012315712869167328 0.19888092577457428 0.57007324695587158
0.16511131823062897 0.19717364013195038 0.60133975744247437
0.49887877702713013 0.18400676548480988 0.64946192502975464
0.73887652158737183 0.19295415282249451 0.67730385065078735
0.86208111047744751 0.19495368003845215 0.66154628992080688
0.97438859939575195 0.25532877445220947 0.64104348421096802
0.99858939647674561 0.33766505122184753 0.60924673080444336
0.0044313468970358372 0.38795989751815796 0.54764169454574585
0.062561020255088806 0.39504075050354004 0.56677734851837158
0.41945415735244751 0.41708481311798096 0.6080702543258667
0.68823671340942383 0.45397037267684937 0.65044999122619629
0.82822710275650024 0.44894915819168091 0.64553928375244141
0.94166690111160278 0.46596649289131165 0.63040411472320557
0.99632412195205688 0.49965786933898926 0.61001986265182495
0.0010963889071717858 0.6232793927192688 0.61417293548583984
0.047054395079612732 0.62215536832809448 0.61843544244766235
0.39482256770133972 0.61860829591751099 0.61784851551055908
0.62084841728210449 0.61920547485351562 0.62605398893356323
0.77773874998092651 0.62033885717391968 0.61428499221801758
0.9063534140586853 0.62195026874542236 0.59745299816131592
0.99220019578933716 0.62282043695449829 0.5791206955909729
0.14620877802371979 0.77269476652145386 0.64678966999053955
0.3045814037322998 0.76214784383773804 0.6437717080116272
0.47199094295501709 0.74355733394622803 0.64030212163925171
0.57731562852859497 0.70891398191452026 0.61928939819335938
0.7187197208404541 0.70702457427978516 0.59494858980178833
0.87063020467758179 0.72279292345046997 0.57167619466781616
0.9868776798248291 0.71499121189117432 0.5287100076675415
0.4073185920715332 0.84523493051528931 0.66511327028274536
0.44663903117179871 0.83560669422149658 0.65699368715286255
0.50204098224639893 0.82417881488800049 0.64346051216125488
0.56473666429519653 0.79688727855682373 0.62667471170425415
0.66611373424530029 0.79074174165725708 0.61903047561645508
0.8258051872253418 0.82183337211608887 0.61012917757034302
0.95908665657043457 0.83187597990036011 0.58194667100906372
0.52600550651550293 0.94047552347183228 0.71727126836776733
0.54943299293518066 0.93581843376159668 0.71465271711349487
0.57185500860214233 0.92795085906982422 0.70178437232971191
0.6443365216255188 0.91807085275650024 0.71497040987014771
0.72168064117431641 0.91071403026580811 0.72343724966049194
0.81721431016921997 0.9282270073890686 0.71529364585876465
0.93666213750839233 0.9490165114402771 0.70096278190612793
0.12623745203018188 0.082357458770275116 0.74883365631103516
0.31276980042457581 0.056525375694036484 0.75860369205474854
0.54296374320983887 0.025926267728209496 0.7828141450881958
0.76503127813339233 0.03781495988368988 0.81442743539810181
0.91640311479568481 0.12266389280557632 0.82876211404800415
0.98279494047164917 0.19580826163291931 0.80537998676300049
1 0.29799062013626099 0.78090125322341919
0.067927911877632141 0.22562181949615479 0.74014270305633545
0.27014106512069702 0.2257470041513443 0.7495540976524353
0.51377600431442261 0.21750126779079437 0.77313947677612305
0.74424135684967041 0.27708554267883301 0.80578762292861938
0.89420890808105469 0.3310716450214386 0.81873571872711182
0.97664332389831543 0.35698327422142029 0.80080121755599976
0.99783724546432495 0.4077489972114563 0.78431200981140137
0.0079123107716441154 0.39727628231048584 0.70305836200714111
0.1708746999502182 0.40996044874191284 0.71977275609970093
0.45857951045036316 0.43262946605682373 0.74541938304901123
0.69494491815567017 0.48132798075675964 0.78397005796432495
0.85604500770568848 0.52471888065338135 0.80575084686279297
0.9530949592590332 0.53080528974533081 0.78328680992126465
0.99561625719070435 0.54030215740203857 0.76868104934692383
0.0023770800326019526 0.56937187910079956 0.69509619474411011
0.05372944101691246 0.56941705942153931 0.69498640298843384
0.37409320473670959 0.579659104347229 0.70718789100646973
0.61697667837142944 0.61494332551956177 0.74577468633651733
0.81012827157974243 0.66378074884414673 0.78512775897979736
0.92366576194763184 0.66373729705810547 0.7701575756072998
0.99229222536087036 0.66153043508529663 0.76381450891494751
0.10710129141807556 0.75491154193878174 0.75010424852371216
0.25943848490715027 0.75293499231338501 0.75233691930770874
0.44028985500335693 0.75047141313552856 0.75256228446960449
0.6089709997177124 0.75279217958450317 0.75410693883895874
0.76347285509109497 0.75928235054016113 0.75798493623733521
0.88702970743179321 0.7597464919090271 0.75307518243789673
0.98105520009994507 0.75089967250823975 0.72782045602798462
0.39091694355010986 0.88898849487304688 0.7886970043182373
0.44721916317939758 0.88263523578643799 0.78631591796875
0.54642778635025024 0.87250036001205444 0.78097617626190186
0.64558553695678711 0.85688632726669312 0.77186524868011475
0.72139960527420044 0.8229215145111084 0.74596703052520752
0.8403896689414978 0.83357405662536621 0.73602592945098877
0.9635699987411499 0.83853083848953247 0.7184179425239563
0.54809600114822388 0.96417003870010376 0.80684912204742432
0.57566547393798828 0.96017283201217651 0.80367493629455566
0.63238853216171265 0.95436644554138184 0.80435043573379517
0.68403339385986328 0.94377732276916504 0.79253959655761719
0.7430453896522522 0.92732059955596924 0.78704619407653809
0.83184295892715454 0.9301300048828125 0.78776693344116211
0.94159442186355591 0.94856798648834229 0.78619444370269775
0.34807431697845459 0.1831861138343811 0.86991846561431885
0.43870711326599121 0.18197934329509735 0.87423241138458252
0.59487944841384888 0.1791667640209198 0.88601428270339966
0.74932408332824707 0.22581726312637329 0.89968115091323853
0.89797741174697876 0.32742086052894592 0.92023879289627075
0.98608440160751343 0.38120219111442566 0.91393816471099854
0.99994903802871704 0.40804564952850342 0.89931368827819824
0.32134690880775452 0.29505616426467896 0.86227869987487793
0.41552218794822693 0.29799014329910278 0.86732667684555054
0.57004839181900024 0.31307518482208252 0.87692058086395264
0.73133003711700439 0.36506935954093933 0.89406979084014893
0.88548624515533447 0.43551269173622131 0.91587179899215698
0.98295170068740845 0.48105895519256592 0.91447931528091431
0.99841129779815674 0.48886856436729431 0.89749038219451904
0.23036161065101624 0.43909251689910889 0.84400784969329834
0.35093298554420471 0.45180198550224304 0.84727805852890015
0.51735085248947144 0.46858194470405579 0.85913151502609253
0.69548255205154419 0.50980204343795776 0.87864536046981812
0.85366630554199219 0.57313776016235352 0.90372461080551147
0.97002553939819336 0.60197806358337402 0.91269367933273315
0.99809116125106812 0.60252261161804199 0.90677601099014282
0.036932460963726044 0.57288038730621338 0.8066442608833313
0.17681077122688293 0.57530409097671509 0.8105352520942688
0.4299742579460144 0.58836740255355835 0.82903623580932617
0.63031786680221558 0.62085127830505371 0.85320663452148438
0.81414902210235596 0.67632359266281128 0.88666164875030518
0.94524514675140381 0.70816302299499512 0.90294420719146729
0.99515694379806519 0.70748805999755859 0.89541703462600708
0.03233768418431282 0.71129631996154785 0.81773597002029419
0.17711678147315979 0.71099036931991577 0.81925588846206665
0.37207737565040588 0.7083781361579895 0.82062280178070068
0.54021728038787842 0.70586752891540527 0.81936484575271606
0.7442324161529541 0.74826562404632568 0.85213667154312134
0.9138023853302002 0.7984427809715271 0.88693654537200928
0.98858189582824707 0.79447323083877563 0.88589191436767578
0.33855944871902466 0.86492806673049927 0.86279511451721191
0.40012353658676147 0.86421579122543335 0.86561685800552368
0.50976622104644775 0.86527031660079956 0.86866813898086548
0.62140101194381714 0.859893798828125 0.86718910932540894
0.74342525005340576 0.85863602161407471 0.86507725715637207
0.87382984161376953 0.86870133876800537 0.8671795129776001
0.97684144973754883 0.86900073289871216 0.86242938041687012
0.51345032453536987 0.97902810573577881 0.89091891050338745
0.54971969127655029 0.97959625720977783 0.89044106006622314
0.61426341533660889 0.97510832548141479 0.89349591732025146
0.70066553354263306 0.96913212537765503 0.89291298389434814
0.78396564722061157 0.96282130479812622 0.885528564453125
0.85363280773162842 0.9442257285118103 0.87371397018432617
0.9538080096244812 0.95430952310562134 0.87049347162246704
0.52234721183776855 0.37856230139732361 0.97439175844192505
0.56546700000762939 0.38487043976783752 0.97438085079193115
0.64568841457366943 0.39088383316993713 0.97906202077865601
0.75001615285873413 0.41418397426605225 0.98022603988647461
0.866740882396698 0.46432501077651978 0.98490005731582642
0.97634351253509521 0.52299511432647705 0.98579269647598267
0.99985533952713013 0.5457758903503418 0.98629099130630493
0.50924807786941528 0.45116689801216125 0.96888136863708496
0.55785161256790161 0.45798021554946899 0.97203415632247925
0.63823390007019043 0.46254274249076843 0.97372448444366455
0.74287950992584229 0.49030008912086487 0.97634208202362061
0.86071610450744629 0.52109664678573608 0.98056089878082275
0.97184139490127563 0.57627969980239868 0.9856334924697876
0.99966377019882202 0.59166061878204346 0.98788410425186157
0.48174375295639038 0.55098897218704224 0.9614449143409729
0.53032124042510986 0.55493670701980591 0.96426987648010254
0.62001866102218628 0.56552219390869141 0.96729671955108643
0.73365265130996704 0.58482128381729126 0.97106754779815674
0.84784471988677979 0.61483049392700195 0.9757314920425415
0.95982688665390015 0.65772849321365356 0.98538535833358765
0.99656409025192261 0.66711443662643433 0.98117125034332275
0.42643868923187256 0.64859676361083984 0.9499509334564209
0.47175973653793335 0.65114074945449829 0.94999784231185913
0.57082641124725342 0.65554040670394897 0.9541890025138855
0.69461816549301147 0.67368566989898682 0.96170139312744141
0.82497316598892212 0.70288985967636108 0.96923625469207764
0.94033312797546387 0.73742282390594482 0.97951006889343262
0.99688059091567993 0.75428754091262817 0.98070818185806274
0.29108095169067383 0.73970931768417358 0.93528228998184204
0.35577476024627686 0.73821449279785156 0.93406951427459717
0.4684607982635498 0.7360004186630249 0.93727701902389526
0.61798107624053955 0.74474972486495972 0.9452822208404541
0.77088123559951782 0.7726818323135376 0.95805269479751587
0.91485106945037842 0.81094670295715332 0.97389000654220581
0.99250197410583496 0.83334231376647949 0.97360217571258545
0.37508204579353333 0.85389059782028198 0.95167446136474609
0.41940769553184509 0.85248911380767822 0.95114129781723022
0.49162009358406067 0.84860754013061523 0.94936060905456543
0.59828990697860718 0.8449556827545166 0.94810348749160767
0.71017885208129883 0.84178781509399414 0.94547408819198608
0.86896651983261108 0.86981189250946045 0.962912917137146
0.98581147193908691 0.90751665830612183 0.97611945867538452
0.47427418828010559 0.96925801038742065 0.96986186504364014
0.50827240943908691 0.97124630212783813 0.9696466326713562
0.57322871685028076 0.97116148471832275 0.96880704164505005
0.66662299633026123 0.96861475706100464 0.97184717655181885
0.77126502990722656 0.97002995014190674 0.9719659686088562
0.87000530958175659 0.96713912487030029 0.97251784801483154
0.97381061315536499 0.97582834959030151 0.97242790460586548
