luts/negative_new/kodak_portra_800_+.cube
# Created by: G'MIC (https://gmic.eu)
TITLE "kodak_portra_800_+"
# LUT size
LUT_3D_SIZE 13
# Data domain
DOMAIN_MIN 0.0 0.0 0.0
DOMAIN_MAX 1.0 1.0 1.0
# LUT data points
0.085555300116539001 0.10267872363328934 0.075848869979381561
0.12969954311847687 0.10387925058603287 0.078860893845558167
0.18753041326999664 0.10275337100028992 0.074048899114131927
0.27166315913200378 0.093556344509124756 0.068396098911762238
0.37608450651168823 0.069747775793075562 0.063117966055870056
0.48861736059188843 0.040680620819330215 0.051306106150150299
0.61618965864181519 0.015645390376448631 0.03747914731502533
0.73802483081817627 0.0078683290630578995 0.020340759307146072
0.84122425317764282 0.0098648965358734131 0.0084150424227118492
0.92610245943069458 0.0065061682835221291 0.0070688286796212196
0.98759561777114868 0.013297136873006821 0.0019227570155635476
0.99983739852905273 0.060663126409053802 0.001119770691730082
1 0.14081442356109619 0.0024071936495602131
0.084427595138549805 0.13597001135349274 0.080636836588382721
0.11497533321380615 0.13614079356193542 0.080005958676338196
0.1787489652633667 0.14252921938896179 0.075921885669231415
0.26618039608001709 0.14125533401966095 0.06966322660446167
0.36806711554527283 0.13196557760238647 0.064987868070602417
0.48236486315727234 0.10711093991994858 0.05287107452750206
0.60919332504272461 0.071814686059951782 0.036571770906448364
0.73139297962188721 0.051350418478250504 0.016438532620668411
0.83892011642456055 0.049222413450479507 0.00521062221378088
0.92477530241012573 0.065005987882614136 0.0028556524775922298
0.983539879322052 0.098831087350845337 0.0017942092381417751
0.99927139282226562 0.15050205588340759 0.002217969624325633
1 0.20069040358066559 0.0023284314665943384
0.063164696097373962 0.1824137419462204 0.088415734469890594
0.099366508424282074 0.18634448945522308 0.083081670105457306
0.16306310892105103 0.1907678097486496 0.073318004608154297
0.25746896862983704 0.19680319726467133 0.062672197818756104
0.35893100500106812 0.19816750288009644 0.055844727903604507
0.46649888157844543 0.1846984475851059 0.048887096345424652
0.59243679046630859 0.17867569625377655 0.030631719157099724
0.71495258808135986 0.17873550951480865 0.012382566928863525
0.82187515497207642 0.18169917166233063 0.0081044668331742287
0.91075307130813599 0.19451296329498291 0.0057450388558208942
0.97934430837631226 0.21565306186676025 0.0027483622543513775
0.99897092580795288 0.24628378450870514 0.0023070392198860645
1 0.27669492363929749 0.0023284314665943384
0.026735223829746246 0.23910495638847351 0.097627557814121246
0.063480958342552185 0.24552084505558014 0.093562200665473938
0.13063226640224457 0.25130727887153625 0.079215347766876221
0.23475465178489685 0.26724788546562195 0.056078534573316574
0.3551352322101593 0.28383204340934753 0.030022431164979935
0.46403667330741882 0.28564292192459106 0.025673257187008858
0.57709121704101562 0.28123217821121216 0.015323474071919918
0.6880456805229187 0.28178399801254272 0.0085314884781837463
0.79713684320449829 0.28539040684700012 0.011154698207974434
0.89077967405319214 0.29682904481887817 0.0095933647826313972
0.96491646766662598 0.31214520335197449 0.0042414348572492599
0.99447387456893921 0.33221203088760376 0.0035876554902642965
0.99645185470581055 0.35496711730957031 0.0037482916377484798
0.0082006864249706268 0.31261155009269714 0.10883461683988571
0.020801844075322151 0.31047841906547546 0.10450092703104019
0.080252237617969513 0.3191758394241333 0.089618295431137085
0.18429438769817352 0.33757001161575317 0.066061906516551971
0.31672266125679016 0.36204063892364502 0.032154623419046402
0.45791620016098022 0.38468623161315918 0.0083938902243971825
0.57290911674499512 0.38750237226486206 0.0043829823844134808
0.67440438270568848 0.38532724976539612 0.0063015958294272423
0.7767796516418457 0.38540428876876831 0.0083071989938616753
0.86985540390014648 0.38991346955299377 0.0077255996875464916
0.94591218233108521 0.40061584115028381 0.0042152106761932373
0.98663514852523804 0.41602656245231628 0.0039215688593685627
0.99464678764343262 0.43160256743431091 0.0039215688593685627
0.0050303442403674126 0.39076849818229675 0.11530079692602158
0.0080238040536642075 0.38836076855659485 0.11228338629007339
0.024152284488081932 0.38876110315322876 0.1030811220407486
0.11737970262765884 0.40457722544670105 0.082267984747886658
0.25599572062492371 0.42782747745513916 0.042982857674360275
0.40740609169006348 0.45678645372390747 0.0075231515802443027
0.55973422527313232 0.48976057767868042 0.001989895710721612
0.67493522167205811 0.49731847643852234 0.0030246211681514978
0.76565021276473999 0.49026763439178467 0.0043009738437831402
0.85096120834350586 0.48587581515312195 0.0040771486237645149
0.92534142732620239 0.48894941806793213 0.0039215688593685627
0.97749811410903931 0.50043487548828125 0.0039215688593685627
0.99204123020172119 0.51224380731582642 0.0039215688593685627
0.0031275281216949224 0.46609753370285034 0.11562991887331009
0.0042146272026002407 0.46720424294471741 0.11491759121417999
0.0063923257403075695 0.46549895405769348 0.11096348613500595
0.050720978528261185 0.46977952122688293 0.096570692956447601
0.19120271503925323 0.48986101150512695 0.056366819888353348
0.34768334031105042 0.51814299821853638 0.016714373603463173
0.50434339046478271 0.55688989162445068 0.0050591412000358105
0.65437781810760498 0.58870142698287964 0.00049211090663447976
0.76069563627243042 0.59205394983291626 0.0021329245064407587
0.84214985370635986 0.58309030532836914 0.0039215688593685627
0.91027683019638062 0.58239364624023438 0.0039169010706245899
0.97061419486999512 0.58503729104995728 0.0032477136701345444
0.99385964870452881 0.59192454814910889 0.0022741728462278843
0.0013585857814177871 0.54447585344314575 0.11877978593111038
0.0048075658269226551 0.5473436713218689 0.12119924277067184
0.0086544407531619072 0.54651743173599243 0.11776027083396912
0.013952771201729774 0.54172569513320923 0.10759861022233963
0.12830780446529388 0.55363130569458008 0.078662648797035217
0.29570102691650391 0.58132535219192505 0.035258408635854721
0.44766971468925476 0.61286085844039917 0.0070560229942202568
0.59689962863922119 0.64419478178024292 0.0033564248587936163
0.73255282640457153 0.67064261436462402 0.0011352987494319677
0.83148133754730225 0.67944973707199097 0.0012324913404881954
0.89774537086486816 0.6767432689666748 0.001157035119831562
0.96145737171173096 0.67184191942214966 0.00065334542887285352
0.99374186992645264 0.67021018266677856 0.00015510110824834555
0.0011061574332416058 0.6282697319984436 0.12783063948154449
0.004121728241443634 0.62904679775238037 0.13248912990093231
0.0063018198125064373 0.62804305553436279 0.13103264570236206
0.0079869292676448822 0.62402468919754028 0.11938783526420593
0.070650853216648102 0.625244140625 0.096898339688777924
0.25288945436477661 0.64460474252700806 0.050526995211839676
0.40034282207489014 0.66742193698883057 0.012674698606133461
0.54489362239837646 0.69413453340530396 0.0054426603019237518
0.68576091527938843 0.72401297092437744 0.003651533043012023
0.80589187145233154 0.75062960386276245 0.0011929679894819856
0.88469499349594116 0.75878995656967163 6.8634632043540478e-05
0.94805371761322021 0.75400722026824951 0
0.98763775825500488 0.7503400444984436 0
0.00014073989586904645 0.71142768859863281 0.14105691015720367
0.0024760826490819454 0.71277511119842529 0.15221211314201355
0.0047225654125213623 0.7120586633682251 0.1520715206861496
0.0085428720340132713 0.70782226324081421 0.1410796046257019
0.037963926792144775 0.7040213942527771 0.12231319397687912
0.22160016000270844 0.71470969915390015 0.090897053480148315
0.37386798858642578 0.73246127367019653 0.039654631167650223
0.51541876792907715 0.75330871343612671 0.0086086047813296318
0.65042400360107422 0.77701395750045776 0.0058409147895872593
0.76369315385818481 0.79844373464584351 0.0043350071646273136
0.85779929161071777 0.81865471601486206 0.0030731500592082739
0.93607860803604126 0.82640111446380615 0.00026146383606828749
0.9838864803314209 0.8243337869644165 0
0 0.79384058713912964 0.18416959047317505
0.0004455117741599679 0.79486596584320068 0.18543486297130585
0.0052390904165804386 0.79332846403121948 0.19098077714443207
0.0097490651533007622 0.7900536060333252 0.1858183741569519
0.054994828999042511 0.78682541847229004 0.1675032377243042
0.23458871245384216 0.79016506671905518 0.15723977982997894
0.38281705975532532 0.80218422412872314 0.11983565986156464
0.50739729404449463 0.81558722257614136 0.065357014536857605
0.61754727363586426 0.83021348714828491 0.024462098255753517
0.72560083866119385 0.84679907560348511 0.0086854370310902596
0.82378298044204712 0.8646320104598999 0.0056077544577419758
0.91303414106369019 0.87984424829483032 0.0032272487878799438
0.98217159509658813 0.89028328657150269 0.00041717829299159348
0.0023645288310945034 0.8742060661315918 0.27438586950302124
0.0069239898584783077 0.87295365333557129 0.27200454473495483
0.016623253002762794 0.87230390310287476 0.26869937777519226
0.059109721332788467 0.87206566333770752 0.26249769330024719
0.18361559510231018 0.86898666620254517 0.26055741310119629
0.30872109532356262 0.86777031421661377 0.25492763519287109
0.42070379853248596 0.87222021818161011 0.23655571043491364
0.52512091398239136 0.87997192144393921 0.20722198486328125
0.62038558721542358 0.88849931955337524 0.16774566471576691
0.71359717845916748 0.89929032325744629 0.1076473742723465
0.79983532428741455 0.91201895475387573 0.054049935191869736
0.88333463668823242 0.92349505424499512 0.017251841723918915
0.95745426416397095 0.93279564380645752 0.0046795117668807507
0.19470414519309998 0.94765591621398926 0.40905338525772095
0.21721433103084564 0.94661581516265869 0.40857848525047302
0.26272329688072205 0.94499450922012329 0.40789279341697693
0.31892752647399902 0.94399386644363403 0.40745824575424194
0.37929487228393555 0.942047119140625 0.40982997417449951
0.44489780068397522 0.94025731086730957 0.40862035751342773
0.51027423143386841 0.94063276052474976 0.40095385909080505
0.58201318979263306 0.9449729323387146 0.38733765482902527
0.6541517972946167 0.95043623447418213 0.36625149846076965
0.72741597890853882 0.95708781480789185 0.3334711492061615
0.79640406370162964 0.96455061435699463 0.28781303763389587
0.86525964736938477 0.96929526329040527 0.20899578928947449
0.93327599763870239 0.97448199987411499 0.10772901028394699
0.088966324925422668 0.10354161262512207 0.12414239346981049
0.13236476480960846 0.10278993844985962 0.126355841755867
0.18979977071285248 0.10028408467769623 0.12363294512033463
0.27691036462783813 0.0876593217253685 0.12144775688648224
0.37529206275939941 0.0646485835313797 0.11297396570444107
0.49229735136032104 0.03280499204993248 0.10316605120897293
0.62108278274536133 0.01187368668615818 0.095131084322929382
0.74349069595336914 0.006712011992931366 0.083027660846710205
0.84519290924072266 0.0098249847069382668 0.063663214445114136
0.92709970474243164 0.011034318245947361 0.043063700199127197
0.98454833030700684 0.012185100466012955 0.022509181872010231
0.99975830316543579 0.043417267501354218 0.012980652041733265
1 0.1258663684129715 0.0082687074318528175
0.088540948927402496 0.13830941915512085 0.12462916970252991
0.12731721997261047 0.14262297749519348 0.12994436919689178
0.18355709314346313 0.14490561187267303 0.12740723788738251
0.26997992396354675 0.13523949682712555 0.12225144356489182
0.37029850482940674 0.12527671456336975 0.11342974007129669
0.48771601915359497 0.098726190626621246 0.10569227486848831
0.61679917573928833 0.061129536479711533 0.096253909170627594
0.73830288648605347 0.039328601211309433 0.078608207404613495
0.84254544973373413 0.037868320941925049 0.056799061596393585
0.92582863569259644 0.050560370087623596 0.03602161630988121
0.98637360334396362 0.078327462077140808 0.017422037199139595
0.9985191822052002 0.1310572475194931 0.0112712187692523
1 0.19112955033779144 0.0083671566098928452
0.078595690429210663 0.18573014438152313 0.12783138453960419
0.11777337640523911 0.19270540773868561 0.1300177276134491
0.16939587891101837 0.19521859288215637 0.1267973780632019
0.25881195068359375 0.19162173569202423 0.11889489740133286
0.36636298894882202 0.19204896688461304 0.11076516658067703
0.47932454943656921 0.18471823632717133 0.10286495834589005
0.60197138786315918 0.17212216556072235 0.086448684334754944
0.72216731309890747 0.16843579709529877 0.063789248466491699
0.82725369930267334 0.17234162986278534 0.038843642920255661
0.91465210914611816 0.18522055447101593 0.022385451942682266
0.978973388671875 0.20713132619857788 0.010896690189838409
0.99525022506713867 0.23750674724578857 0.0084239589050412178
1 0.26668265461921692 0.0081781120970845222
0.057174623012542725 0.24777165055274963 0.13746444880962372
0.095905885100364685 0.25305062532424927 0.13427847623825073
0.1471257358789444 0.2520480751991272 0.12676015496253967
0.24505184590816498 0.2636561393737793 0.11359531432390213
0.36132428050041199 0.28056398034095764 0.093253180384635925
0.47111994028091431 0.28383305668830872 0.079161368310451508
0.58341652154922485 0.27667704224586487 0.066328786313533783
0.69414263963699341 0.27954423427581787 0.04700203612446785
0.80198550224304199 0.28583955764770508 0.02648417092859745
0.89533019065856934 0.29615679383277893 0.013522069901227951
0.967620849609375 0.31025362014770508 0.0070534353144466877
0.99462693929672241 0.33114352822303772 0.0048480164259672165
0.99854874610900879 0.3492700457572937 0.0066665648482739925
0.011544710025191307 0.32042834162712097 0.14490881562232971
0.039810676127672195 0.32460606098175049 0.14389315247535706
0.10016660392284393 0.32475191354751587 0.13364993035793304
0.20557108521461487 0.34115409851074219 0.11635173857212067
0.32347717881202698 0.36088845133781433 0.089075081050395966
0.4601844847202301 0.38371026515960693 0.042980358004570007
0.57416278123855591 0.38473552465438843 0.031799584627151489
0.67685770988464355 0.38307934999465942 0.024649795144796371
0.77925485372543335 0.38534548878669739 0.013850761577486992
0.8705107569694519 0.39154630899429321 0.0095213344320654869
0.94887691736221313 0.4022122323513031 0.004767698235809803
0.98877990245819092 0.41695630550384521 0.0043286490254104137
0.99605494737625122 0.42932981252670288 0.005338751245290041
0.0050058551132678986 0.39911875128746033 0.15473392605781555
0.010778045281767845 0.39661818742752075 0.14873398840427399
0.036058314144611359 0.39649653434753418 0.14026978611946106
0.13853026926517487 0.41263470053672791 0.12445732206106186
0.26756212115287781 0.43068140745162964 0.097112543880939484
0.41509920358657837 0.45755738019943237 0.045955028384923935
0.56261777877807617 0.48843815922737122 0.0094922678545117378
0.67443615198135376 0.49198675155639648 0.0055983001366257668
0.76526474952697754 0.48539081215858459 0.0046541104093194008
0.85071223974227905 0.48433765769004822 0.0045071621425449848
0.92363244295120239 0.48952850699424744 0.0045924317091703415
0.97920131683349609 0.50098812580108643 0.0068831946700811386
0.99482572078704834 0.51135581731796265 0.0073664644733071327
0.0033243217039853334 0.47356975078582764 0.15241701900959015
0.0062264236621558666 0.47340601682662964 0.1505454033613205
0.010381616652011871 0.47258672118186951 0.14627319574356079
0.065371647477149963 0.47623378038406372 0.13466688990592957
0.20876334607601166 0.49422582983970642 0.1124279573559761
0.35722225904464722 0.51970207691192627 0.063539139926433563
0.50588738918304443 0.55321907997131348 0.015039511024951935
0.65417945384979248 0.58570748567581177 0.0039668362587690353
0.76034438610076904 0.59100157022476196 0.0047070072032511234
0.84051549434661865 0.58155769109725952 0.0054414635524153709
0.90955907106399536 0.58131682872772217 0.0050876992754638195
0.97020775079727173 0.58496665954589844 0.0068022934719920158
0.99458283185958862 0.5919349193572998 0.0045963660813868046
0.0015071644447743893 0.55199992656707764 0.15545229613780975
0.0054686754010617733 0.55228477716445923 0.15798726677894592
0.0095702679827809334 0.54943019151687622 0.15395897626876831
0.02144908532500267 0.54541856050491333 0.14470827579498291
0.15043361485004425 0.55717569589614868 0.12629488110542297
0.30489936470985413 0.58253210783004761 0.083935573697090149
0.44906511902809143 0.61030226945877075 0.033890217542648315
0.59596675634384155 0.6415066123008728 0.0087887337431311607
0.73382008075714111 0.6704908013343811 0.0030270146671682596
0.82997298240661621 0.67747902870178223 0.0024580713361501694
0.89646178483963013 0.67431837320327759 0.003757671220228076
0.95878046751022339 0.67096990346908569 0.0043901479803025723
0.992401123046875 0.66962653398513794 0.0027863148134201765
0.00088744820095598698 0.63386332988739014 0.16519160568714142
0.0040595261380076408 0.63342124223709106 0.17112620174884796
0.007542718667536974 0.62930643558502197 0.16807633638381958
0.0093419840559363365 0.62529271841049194 0.15638615190982819
0.085061244666576385 0.6280829906463623 0.13742218911647797
0.25985860824584961 0.64632701873779297 0.10535368323326111
0.40158006548881531 0.66794592142105103 0.054443135857582092
0.54290598630905151 0.69298511743545532 0.012971541844308376
0.68272101879119873 0.72263455390930176 0.0051674786955118179
0.80416923761367798 0.75012224912643433 0.0016750261420384049
0.88944524526596069 0.76009607315063477 0.00073183845961466432
0.94922947883605957 0.7541661262512207 0.0016031751874834299
0.98995935916900635 0.74970549345016479 0.00085060269339010119
0.00012763528502546251 0.71529430150985718 0.17822584509849548
0.003027298953384161 0.71499145030975342 0.18843984603881836
0.0063357334583997726 0.71239203214645386 0.1876942366361618
0.0085428124293684959 0.70944881439208984 0.17589324712753296
0.052432384341955185 0.70622849464416504 0.15708805620670319
0.22715085744857788 0.71478515863418579 0.13306824862957001
0.37532702088356018 0.7312694787979126 0.085970602929592133
0.51377177238464355 0.75055629014968872 0.041020799428224564
0.64089947938919067 0.7731897234916687 0.011175342835485935
0.75896978378295898 0.79768449068069458 0.0053647956810891628
0.86221563816070557 0.81943827867507935 0.0025078118778765202
0.94152712821960449 0.82736027240753174 0.00019954606250394136
0.9890822172164917 0.82457888126373291 1.7772001228877343e-05
0 0.79612272977828979 0.21823605895042419
0.00048499013064429164 0.79626166820526123 0.21614471077919006
0.0058102775365114212 0.79416203498840332 0.22050946950912476
0.011897996068000793 0.79195833206176758 0.21535034477710724
0.06954435259103775 0.78857254981994629 0.19884878396987915
0.24018310010433197 0.7893560528755188 0.19033092260360718
0.38586819171905518 0.79968953132629395 0.16562990844249725
0.51101833581924438 0.81384897232055664 0.12071111053228378
0.6181909441947937 0.82858896255493164 0.066645637154579163
0.72303140163421631 0.84529471397399902 0.021942228078842163
0.8241155743598938 0.86303144693374634 0.0076587903313338757
0.91595935821533203 0.87913602590560913 0.0029571682680398226
0.98102396726608276 0.88649857044219971 6.5762389567680657e-05
0.0042756772600114346 0.87595123052597046 0.29316383600234985
0.0058239055797457695 0.8751952052116394 0.29180380702018738
0.019335832446813583 0.87353944778442383 0.28872925043106079
0.070890180766582489 0.87228000164031982 0.2859097421169281
0.1944197416305542 0.8688775897026062 0.28639981150627136
0.31094115972518921 0.86665481328964233 0.28180429339408875
0.42328020930290222 0.87103021144866943 0.26565384864807129
0.52734506130218506 0.87845540046691895 0.23996803164482117
0.62545156478881836 0.88869541883468628 0.21665249764919281
0.71487230062484741 0.89922010898590088 0.15976271033287048
0.80155402421951294 0.91112911701202393 0.092175081372261047
0.88284856081008911 0.92152625322341919 0.033959109336137772
0.95802253484725952 0.93121886253356934 0.0057897530496120453
0.2077576220035553 0.94757968187332153 0.42357560992240906
0.23449277877807617 0.94718235731124878 0.42410612106323242
0.2708829939365387 0.94520771503448486 0.42344778776168823
0.32773765921592712 0.94391578435897827 0.42456647753715515
0.38636156916618347 0.94122970104217529 0.42740142345428467
0.44639262557029724 0.93973922729492188 0.4263002872467041
0.51457232236862183 0.9414781928062439 0.41836440563201904
0.58414244651794434 0.94411152601242065 0.40532711148262024
0.65797048807144165 0.95014280080795288 0.39180442690849304
0.72911918163299561 0.95706146955490112 0.36006584763526917
0.79770189523696899 0.9639856219291687 0.31659021973609924
0.86483168601989746 0.96819078922271729 0.24756209552288055
0.93427300453186035 0.97321349382400513 0.14013084769248962
0.081861205399036407 0.10556118190288544 0.19090813398361206
0.12793990969657898 0.10652635991573334 0.19542458653450012
0.18955628573894501 0.1025991216301918 0.19396261870861053
0.27268341183662415 0.090945348143577576 0.19149148464202881
0.37523120641708374 0.059153135865926743 0.18547244369983673
0.49523374438285828 0.015712244436144829 0.17440797388553619
0.6240236759185791 0.008080560714006424 0.16719084978103638
0.75027179718017578 0.0038769440725445747 0.15874399244785309
0.84997671842575073 0.0049307728186249733 0.14707258343696594
0.93073511123657227 0.0057410746812820435 0.13696454465389252
0.98561227321624756 0.0076165590435266495 0.12086588889360428
0.99852502346038818 0.031856149435043335 0.10296059399843216
1 0.11311362683773041 0.076827719807624817
0.081466808915138245 0.14265303313732147 0.1925901472568512
0.12820097804069519 0.14748774468898773 0.1962636411190033
0.18791036307811737 0.14671117067337036 0.19436061382293701
0.26894500851631165 0.13684529066085815 0.19098678231239319
0.37877115607261658 0.11629822850227356 0.18275904655456543
0.49876609444618225 0.074965506792068481 0.17428886890411377
0.62636452913284302 0.039124850183725357 0.17007489502429962
0.74758315086364746 0.021880803629755974 0.16406211256980896
0.84871768951416016 0.01950855553150177 0.15258821845054626
0.93213307857513428 0.028805676847696304 0.13897411525249481
0.98891532421112061 0.05726274847984314 0.11963557451963425
0.99839121103286743 0.11411704123020172 0.091501228511333466
1 0.17798933386802673 0.068531066179275513
0.083191543817520142 0.19122730195522308 0.1880488246679306
0.12492888420820236 0.19782274961471558 0.19100706279277802
0.17934475839138031 0.19861958920955658 0.192842036485672
0.26581820845603943 0.19629907608032227 0.18887528777122498
0.37821662425994873 0.18950361013412476 0.18033967912197113
0.49343901872634888 0.18131425976753235 0.17315427958965302
0.6177670955657959 0.16411355137825012 0.16812886297702789
0.73433619737625122 0.14553384482860565 0.1560661643743515
0.83590662479400635 0.14280615746974945 0.13895297050476074
0.91843944787979126 0.16205050051212311 0.12159972637891769
0.9837842583656311 0.1944790780544281 0.10324817895889282
0.99778199195861816 0.2263118177652359 0.077610433101654053
1 0.25898835062980652 0.05995604395866394
0.08495108038187027 0.25436952710151672 0.19367341697216034
0.1156654953956604 0.26006022095680237 0.19431288540363312
0.16623798012733459 0.26239120960235596 0.19499479234218597
0.2566203773021698 0.26832228899002075 0.18791665136814117
0.36899963021278381 0.27846774458885193 0.17534889280796051
0.481008380651474 0.27775576710700989 0.16260090470314026
0.59662944078445435 0.26920413970947266 0.15699242055416107
0.71035122871398926 0.26658719778060913 0.14385634660720825
0.81394970417022705 0.2718413770198822 0.12177184224128723
0.90038126707077026 0.28579267859458923 0.098905496299266815
0.97252506017684937 0.3036162257194519 0.074793614447116852
0.99751192331314087 0.32344835996627808 0.05447864904999733
1 0.34530141949653625 0.044660605490207672
0.052679877728223801 0.33361637592315674 0.20477984845638275
0.082369662821292877 0.337217777967453 0.20339006185531616
0.14471934735774994 0.33778604865074158 0.20178847014904022
0.22579166293144226 0.34184592962265015 0.18997909128665924
0.34132182598114014 0.3614523708820343 0.17048735916614532
