luts/negative_new/kodak_portra_800_-.cube
# Created by: G'MIC (https://gmic.eu)
TITLE "kodak_portra_800_-"
# LUT size
LUT_3D_SIZE 13
# Data domain
DOMAIN_MIN 0.0 0.0 0.0
DOMAIN_MAX 1.0 1.0 1.0
# LUT data points
0.028568746522068977 0.031116141006350517 0.033333137631416321
0.092880204319953918 0.032998852431774139 0.030588187277317047
0.17146165668964386 0.032173007726669312 0.025266984477639198
0.27381807565689087 0.025398852303624153 0.02268199622631073
0.39263036847114563 0.0095442524179816246 0.022361336275935173
0.51302129030227661 0.0042050229385495186 0.013926667161285877
0.63129490613937378 0.0063689285889267921 0.0077936062589287758
0.74292892217636108 0.0055791516788303852 0.0063124112784862518
0.83592039346694946 0.0047274571843445301 0.0077305212616920471
0.91533303260803223 0.0034071230329573154 0.0035206363536417484
0.97999668121337891 0.0035239276476204395 0.002644452964887023
0.99800276756286621 0.014038355089724064 0.0017763025825843215
1 0.079137913882732391 0
0.017622688785195351 0.089691430330276489 0.042474977672100067
0.072428293526172638 0.092219285666942596 0.036863215267658234
0.16506782174110413 0.10302719473838806 0.026536036282777786
0.27197253704071045 0.094171382486820221 0.022327063605189323
0.38973405957221985 0.074398383498191833 0.018296126276254654
0.50774431228637695 0.050694871693849564 0.0081640807911753654
0.62689900398254395 0.027969719842076302 0.0040103388018906116
0.73872935771942139 0.020299695432186127 0.0031102348584681749
0.8336261510848999 0.018026942387223244 0.0031964469235390425
0.91389024257659912 0.025061363354325294 0.0021047105547040701
0.97855395078659058 0.052257195115089417 0.002261921064928174
0.99751812219619751 0.099482879042625427 0.0027413163334131241
1 0.15937988460063934 0.0014937306987121701
0.0081260977312922478 0.1523849219083786 0.04720744863152504
0.046152930706739426 0.1568315178155899 0.041658036410808563
0.14454345405101776 0.17220599949359894 0.027297345921397209
0.26277878880500793 0.17994710803031921 0.013901669532060623
0.38088691234588623 0.17503473162651062 0.010865918360650539
0.50372004508972168 0.1685061901807785 0.0073238448239862919
0.62401217222213745 0.15666414797306061 0.0064334943890571594
0.73314613103866577 0.14982686936855316 0.0036669413093477488
0.82635515928268433 0.15201994776725769 0.0028065850492566824
0.90458029508590698 0.16518834233283997 0.0032834520097821951
0.9715346097946167 0.18915306031703949 0.003607641439884901
0.99587762355804443 0.22007681429386139 0.00590540561825037
0.99871635437011719 0.25507262349128723 0.0066771861165761948
0.0046191494911909103 0.22765997052192688 0.058739233762025833
0.014079554006457329 0.22910399734973907 0.054139185696840286
0.094355456531047821 0.24082730710506439 0.037780389189720154
0.22496294975280762 0.26217424869537354 0.012975715100765228
0.36861830949783325 0.28224441409111023 0.0054459366947412491
0.49702462553977966 0.28221753239631653 0.0059711979702115059
0.61381715536117554 0.27463886141777039 0.0051521752029657364
0.7182123064994812 0.2732703685760498 0.00386835727840662
0.81279975175857544 0.27831634879112244 0.0041619990952312946
0.89118480682373047 0.28993156552314758 0.0051097944378852844
0.95929837226867676 0.30523520708084106 0.0053766136988997459
0.99346047639846802 0.32062101364135742 0.0092978235334157944
0.99618285894393921 0.33900010585784912 0.010751297697424889
0.0026479533407837152 0.30552318692207336 0.070188499987125397
0.0080544864758849144 0.30769798159599304 0.067978590726852417
0.035402394831180573 0.3150295615196228 0.054193131625652313
0.16605935990810394 0.33464840054512024 0.027516068890690804
0.32324132323265076 0.36223873496055603 0.0059074698947370052
0.4691203236579895 0.38318714499473572 0.0048840241506695747
0.59014666080474854 0.38414144515991211 0.0037465414498001337
0.69483494758605957 0.38400489091873169 0.0028237586375325918
0.79194247722625732 0.38601812720298767 0.0061870650388300419
0.87641352415084839 0.39581090211868286 0.0079423198476433754
0.94495517015457153 0.40777298808097839 0.0076299929060041904
0.98671889305114746 0.41298386454582214 0.010127258487045765
0.99544531106948853 0.41853547096252441 0.011764706112444401
0.00092052383115515113 0.38580885529518127 0.084684275090694427
0.0042757671326398849 0.3875674307346344 0.084630824625492096
0.0091315777972340584 0.38974672555923462 0.075837545096874237
0.094303354620933533 0.40122410655021667 0.050704687833786011
0.25988194346427917 0.42371639609336853 0.018878636881709099
0.4106784462928772 0.45250391960144043 0.0063958410173654556
0.5563199520111084 0.47900885343551636 0.0028819064609706402
0.66749590635299683 0.48420050740242004 0.002180376322939992
0.76640713214874268 0.48275104165077209 0.0047324537299573421
0.8550182580947876 0.48794969916343689 0.0081190969794988632
0.93054866790771484 0.4951324462890625 0.0073905945755541325
0.98177295923233032 0.4990883469581604 0.0073308157734572887
0.99258780479431152 0.50097978115081787 0.0084875067695975304
0 0.46340307593345642 0.10084092617034912
0.0028173259925097227 0.46322903037071228 0.10254375636577606
0.0059602772817015648 0.46218037605285645 0.097381919622421265
0.042564436793327332 0.46335288882255554 0.081906259059906006
0.19867362082004547 0.48220255970954895 0.046187754720449448
0.34629404544830322 0.50591999292373657 0.013656017370522022
0.49276444315910339 0.53522425889968872 0.0052808872424066067
0.63270527124404907 0.56245160102844238 0.0024064905010163784
0.74250680208206177 0.57304495573043823 0.0023118113167583942
0.83068621158599854 0.57579189538955688 0.0049632652662694454
0.91261577606201172 0.5795440673828125 0.0041902279481291771
0.98020744323730469 0.58389222621917725 0.0026725470088422298
0.99221521615982056 0.58276796340942383 0.0037275725044310093
0 0.53253006935119629 0.12421506643295288
0.0020999086555093527 0.53303974866867065 0.12605150043964386
0.0052361730486154556 0.53103244304656982 0.12215003371238708
0.017203357070684433 0.52689355611801147 0.11176766455173492
0.15093202888965607 0.5382722020149231 0.085768364369869232
0.30096885561943054 0.55992275476455688 0.039148159325122833
0.43868917226791382 0.58585220575332642 0.013867786154150963
0.57779264450073242 0.61492717266082764 0.006093896459788084
0.70521086454391479 0.64249807596206665 0.002766837365925312
0.81202143430709839 0.65730255842208862 0.0011394425528123975
0.89398950338363647 0.65800720453262329 0.00036668963730335236
0.96881437301635742 0.66110247373580933 0.00034704769495874643
0.99334859848022461 0.66215497255325317 0.0010150684975087643
0 0.6047976016998291 0.14953316748142242
0.0015234854072332382 0.60389548540115356 0.15134450793266296
0.0042007896117866039 0.59989237785339355 0.14737069606781006
0.0076635470613837242 0.59551608562469482 0.1392022967338562
0.11240063607692719 0.60095208883285522 0.12144075334072113
0.2742479145526886 0.61916428804397583 0.084625765681266785
0.403768390417099 0.63956916332244873 0.034293141216039658
0.52906805276870728 0.66350275278091431 0.0084922639653086662
0.65922349691390991 0.69232857227325439 0.0063262190669775009
0.7794685959815979 0.7169758677482605 0.003742472268640995
0.87484687566757202 0.7287256121635437 0.00054859835654497147
0.95565170049667358 0.73712563514709473 0
0.99642479419708252 0.74236607551574707 0
0 0.68002688884735107 0.17978931963443756
0.00098265102133154869 0.67841482162475586 0.18045499920845032
0.003480066079646349 0.67657297849655151 0.17604893445968628
0.0072460547089576721 0.67294502258300781 0.16684174537658691
0.10245126485824585 0.67278045415878296 0.15553045272827148
0.26249450445175171 0.68151801824569702 0.13611979782581329
0.38725465536117554 0.69919866323471069 0.088398084044456482
0.50366413593292236 0.71839529275894165 0.039014942944049835
0.62234586477279663 0.74118196964263916 0.015480370260775089
0.73742371797561646 0.76392269134521484 0.0070449677295982838
0.84387892484664917 0.78511190414428711 0.0034033681731671095
0.93555301427841187 0.80104100704193115 0.00042385025881230831
0.99278610944747925 0.81071752309799194 0
0.0006581325433216989 0.75734084844589233 0.21926520764827728
0.0024186228401958942 0.75856590270996094 0.22396540641784668
0.0047333510592579842 0.75862276554107666 0.2186560183763504
0.019360724836587906 0.75549739599227905 0.20525108277797699
0.14106851816177368 0.75302690267562866 0.20091469585895538
0.28105366230010986 0.75577723979949951 0.19628281891345978
0.39414551854133606 0.76832348108291626 0.16771069169044495
0.49654051661491394 0.78235006332397461 0.12993374466896057
0.59995478391647339 0.79754000902175903 0.06580759584903717
0.70541173219680786 0.8156287670135498 0.017548564821481705
0.8090893030166626 0.83492922782897949 0.0053595448844134808
0.90742909908294678 0.85425376892089844 0.0027258929330855608
0.98418927192687988 0.87061303853988647 1.3643152669828851e-05
0.0046326429583132267 0.84137994050979614 0.28096047043800354
0.011651326902210712 0.84175288677215576 0.27957078814506531
0.035416442900896072 0.84149813652038574 0.2739834189414978
0.12218920886516571 0.83946835994720459 0.27130928635597229
0.2371504157781601 0.83753997087478638 0.27199605107307434
0.32951965928077698 0.83722394704818726 0.26598849892616272
0.4208214282989502 0.84244883060455322 0.25360208749771118
0.51600199937820435 0.85331541299819946 0.23162239789962769
0.61249983310699463 0.86401897668838501 0.19717548787593842
0.70370912551879883 0.8779526948928833 0.14167399704456329
0.79223257303237915 0.89100795984268188 0.069078214466571808
0.88297146558761597 0.90503937005996704 0.015041381120681763
0.96258825063705444 0.91983908414840698 0.002504625590518117
0.18806478381156921 0.92797714471817017 0.38495954871177673
0.21851535141468048 0.92796844244003296 0.38454806804656982
0.26028376817703247 0.92659902572631836 0.38406229019165039
0.31242433190345764 0.9246630072593689 0.38511607050895691
0.37240102887153625 0.92299699783325195 0.3878471851348877
0.43350309133529663 0.92205381393432617 0.38473114371299744
0.49707457423210144 0.92370116710662842 0.37950292229652405
0.57015830278396606 0.92963629961013794 0.3655337393283844
0.64790964126586914 0.93627798557281494 0.34517759084701538
0.72353452444076538 0.94604212045669556 0.31441408395767212
0.79966938495635986 0.95398330688476562 0.26968258619308472
0.87595748901367188 0.96230602264404297 0.19651037454605103
0.94956034421920776 0.96875631809234619 0.088936209678649902
0.032266266644001007 0.030501376837491989 0.092475131154060364
0.098282292485237122 0.032516390085220337 0.09415021538734436
0.17464186251163483 0.02397257462143898 0.092301055788993835
0.27499803900718689 0.012200000695884228 0.086889423429965973
0.39441412687301636 0.0089243724942207336 0.085989966988563538
0.51322346925735474 0.0071751764044165611 0.080877892673015594
0.62756001949310303 0.0074000488966703415 0.070365548133850098
0.73787277936935425 0.0042287637479603291 0.059766329824924469
0.83050256967544556 0.0051225847564637661 0.048203501850366592
0.91088688373565674 0.0036972793750464916 0.030431276187300682
0.97965157032012939 0.0032387678511440754 0.017004020512104034
0.99907451868057251 0.014255314134061337 0.0087513942271471024
1 0.079754725098609924 0.0027412264607846737
0.023594934493303299 0.092008762061595917 0.096723400056362152
0.087757274508476257 0.096199870109558105 0.097588948905467987
0.16860616207122803 0.091256923973560333 0.094643160700798035
0.27326545119285583 0.075671225786209106 0.087044596672058105
0.39108672738075256 0.057235375046730042 0.081004321575164795
0.50792896747589111 0.041404858231544495 0.074323587119579315
0.62427538633346558 0.026711288839578629 0.063295267522335052
0.73647761344909668 0.016981102526187897 0.051215346902608871
0.83121395111083984 0.01636422798037529 0.037154342979192734
0.91134357452392578 0.022637819871306419 0.024147782474756241
0.9781990647315979 0.047427009791135788 0.013797895051538944
0.99885833263397217 0.10145500302314758 0.0084532648324966431
1 0.16235852241516113 0.0051077599637210369
0.018363712355494499 0.16176928579807281 0.10370749980211258
0.068683326244354248 0.16345027089118958 0.10242551565170288
0.15099261701107025 0.16614864766597748 0.09608757495880127
0.26850482821464539 0.17314757406711578 0.078577987849712372
0.38507738709449768 0.16919748485088348 0.071326881647109985
0.50418967008590698 0.16271843016147614 0.066446907818317413
0.62262243032455444 0.15148364007472992 0.052675854414701462
0.73247849941253662 0.14846262335777283 0.037991959601640701
0.82581019401550293 0.15018568933010101 0.026769930496811867
0.90574526786804199 0.16272866725921631 0.017061434686183929
0.97258591651916504 0.18931154906749725 0.011072420515120029
0.99856936931610107 0.2210673987865448 0.010614058934152126
0.99997055530548096 0.25399488210678101 0.010646685026586056
0.0083681447431445122 0.23854878544807434 0.11773879081010818
0.032439377158880234 0.2385392040014267 0.11112546920776367
0.12032382190227509 0.24637134373188019 0.10077707469463348
0.24783207476139069 0.26689457893371582 0.075951248407363892
0.37480151653289795 0.27807453274726868 0.052796754986047745
0.49744173884391785 0.27717882394790649 0.045965604484081268
0.61313456296920776 0.27445641160011292 0.037616699934005737
0.71917200088500977 0.27643665671348572 0.026582023128867149
0.81310778856277466 0.28135675191879272 0.016669388860464096
0.89347594976425171 0.29158613085746765 0.011554747819900513
0.96428906917572021 0.30542021989822388 0.011770988814532757
0.99640697240829468 0.32220715284347534 0.010075049474835396
0.99895530939102173 0.34069865942001343 0.0089580761268734932
0.0045778462663292885 0.31876081228256226 0.13124731183052063
0.011637953110039234 0.31888934969902039 0.12374036014080048
0.062069747596979141 0.32334959506988525 0.11410821974277496
0.19224743545055389 0.34051766991615295 0.09310448169708252
0.32970604300498962 0.3623659610748291 0.056497011333703995
0.47596853971481323 0.38210493326187134 0.027295999228954315
0.59391462802886963 0.38434934616088867 0.020825419574975967
0.69869047403335571 0.38360026478767395 0.01724599115550518
0.79320794343948364 0.38776847720146179 0.014242972247302532
0.87735366821289062 0.39735382795333862 0.011238517239689827
0.94901508092880249 0.40713003277778625 0.0091354371979832649
0.99005693197250366 0.41329789161682129 0.011005954816937447
0.99690693616867065 0.42070719599723816 0.010169893503189087
0.0021896811667829752 0.39529305696487427 0.13642822206020355
0.0050510629080235958 0.39670339226722717 0.13775026798248291
0.020045500248670578 0.39651244878768921 0.129206582903862
0.12580861151218414 0.40705543756484985 0.11331591010093689
0.27215594053268433 0.42522883415222168 0.083473041653633118
0.41615134477615356 0.45086070895195007 0.035893905907869339
0.55973082780838013 0.47762537002563477 0.0098504461348056793
0.67371457815170288 0.48402366042137146 0.0064346161670982838
0.76988869905471802 0.48406586050987244 0.0079793296754360199
0.85743129253387451 0.48979276418685913 0.011597397737205029
0.93260365724563599 0.4964618980884552 0.0094479583203792572
0.98477810621261597 0.50021964311599731 0.0091480929404497147
0.9957585334777832 0.50467181205749512 0.0085472110658884048
0.00020787856192328036 0.46751457452774048 0.14705801010131836
0.0036401336546987295 0.46890509128570557 0.15062099695205688
0.0070066265761852264 0.4670509397983551 0.14469911158084869
0.073227599263191223 0.46847736835479736 0.13391663134098053
0.22096754610538483 0.48371264338493347 0.1105865016579628
0.35496437549591064 0.50565415620803833 0.067044876515865326
0.49662771821022034 0.53466635942459106 0.022535031661391258
0.63734495639801025 0.56283414363861084 0.0052918829023838043
0.7447359561920166 0.57298785448074341 0.004791648592799902
0.83266192674636841 0.57635629177093506 0.0061991075053811073
0.91595584154129028 0.57942235469818115 0.0060537299141287804
0.98052161931991577 0.58378392457962036 0.0052812313660979271
0.99581998586654663 0.58588337898254395 0.0067178164608776569
0 0.53756129741668701 0.16383039951324463
0.0032836764585226774 0.53984743356704712 0.16979913413524628
0.0072953468188643456 0.53752177953720093 0.16590018570423126
0.038438387215137482 0.53193926811218262 0.15308327972888947
0.17980551719665527 0.54134112596511841 0.13594351708889008
0.31345203518867493 0.56171375513076782 0.10355359315872192
0.44396135210990906 0.58518648147583008 0.051096193492412567
0.57753592729568481 0.61178344488143921 0.014007224701344967
0.70682555437088013 0.63927680253982544 0.0058319689705967903
0.81171929836273193 0.65420264005661011 0.0028980779461562634
0.8974035382270813 0.65747225284576416 0.00318171177059412
0.96996748447418213 0.66170525550842285 0.004567254800349474
0.99565595388412476 0.66377139091491699 0.0052980910986661911
0 0.61197888851165771 0.18669028580188751
0.0023262770846486092 0.61068511009216309 0.19099083542823792
0.0064128055237233639 0.60665541887283325 0.1860988438129425
0.018646867945790291 0.60112541913986206 0.17304167151451111
0.14516983926296234 0.60351294279098511 0.16307230293750763
0.29034346342086792 0.62095433473587036 0.1417996734380722
0.41364738345146179 0.64129900932312012 0.096042171120643616
0.53151810169219971 0.66236668825149536 0.041648909449577332
0.65429127216339111 0.68768501281738281 0.0099977077916264534
0.7787129282951355 0.71648174524307251 0.0031655104830861092
0.87804967164993286 0.73062384128570557 0.002053937641903758
0.95739668607711792 0.73701763153076172 0.0031273635104298592
0.99717110395431519 0.74201869964599609 0.0034933651331812143
0 0.68501889705657959 0.21092705428600311
0.0028138253837823868 0.6842954158782959 0.21255536377429962
0.006253470666706562 0.67998534440994263 0.20677317678928375
0.014917156659066677 0.6763344407081604 0.19563964009284973
0.12768083810806274 0.67584872245788574 0.1893451064825058
0.27838295698165894 0.68269473314285278 0.17888346314430237
0.3971233069896698 0.70078927278518677 0.14658813178539276
0.50957727432250977 0.71944606304168701 0.096204794943332672
0.618305504322052 0.73883181810379028 0.042150862514972687
0.73258423805236816 0.76175898313522339 0.010046940296888351
0.84579294919967651 0.78738546371459961 0.0037302803248167038
0.94018954038619995 0.80308693647384644 0.00048907409654930234
0.99374562501907349 0.80982184410095215 0.00035421334905549884
0.0016406190115958452 0.76255637407302856 0.25100308656692505
0.0030794481281191111 0.76375663280487061 0.25047385692596436
0.0053237765096127987 0.76148682832717896 0.24192756414413452
0.029701666906476021 0.75667411088943481 0.2293674647808075
0.16801647841930389 0.75524252653121948 0.22506219148635864
0.28985154628753662 0.75711214542388916 0.22012609243392944
0.39808851480484009 0.76826709508895874 0.20342081785202026
0.50241822004318237 0.78292185068130493 0.17360730469226837
0.60395544767379761 0.79847151041030884 0.1235366091132164
0.70473861694335938 0.81537604331970215 0.057015258818864822
0.80874902009963989 0.83371645212173462 0.011861853301525116
0.90901535749435425 0.85338306427001953 0.0019362206803634763
0.98462831974029541 0.86936259269714355 0.00017175113316625357
0.007825903594493866 0.8448793888092041 0.30182170867919922
0.015649160370230675 0.84443968534469604 0.29742431640625
0.042097609490156174 0.8433724045753479 0.29277065396308899
0.13456550240516663 0.83974772691726685 0.29032528400421143
0.24506781995296478 0.83644199371337891 0.28710561990737915
0.33749458193778992 0.83745986223220825 0.28584545850753784
0.42355713248252869 0.84270519018173218 0.27718192338943481
0.51701176166534424 0.85344934463500977 0.2547086775302887
0.61173433065414429 0.86496222019195557 0.22655954957008362
0.70632481575012207 0.87825852632522583 0.18496769666671753
0.79418730735778809 0.89067518711090088 0.10916200280189514
0.88348853588104248 0.90357822179794312 0.034561231732368469
0.96601420640945435 0.91670757532119751 0.0039128921926021576
0.19932003319263458 0.92835080623626709 0.39719304442405701
0.22632680833339691 0.92807960510253906 0.39870136976242065
0.26820164918899536 0.9265899658203125 0.39847895503044128
0.31623688340187073 0.92383301258087158 0.39869749546051025
0.37428340315818787 0.92183029651641846 0.39681988954544067
0.43655955791473389 0.92216134071350098 0.39837956428527832
0.49946773052215576 0.92383772134780884 0.39554384350776672
0.57092863321304321 0.92928951978683472 0.38029384613037109
0.64491510391235352 0.9361463189125061 0.36256682872772217
0.72499734163284302 0.94580352306365967 0.3374626636505127
0.80112326145172119 0.95389139652252197 0.29289448261260986
0.8759874701499939 0.9608418345451355 0.23073023557662964
0.9507448673248291 0.96836525201797485 0.12162890285253525
0.029559865593910217 0.034461870789527893 0.17937029898166656
0.099632367491722107 0.035119704902172089 0.1824662983417511
0.1797473132610321 0.024202130734920502 0.18203592300415039
0.28064033389091492 0.013240350410342216 0.18106363713741302
0.39650645852088928 0.0085256984457373619 0.1747785359621048
0.51427984237670898 0.0088434554636478424 0.16710937023162842
0.62605184316635132 0.0075943740084767342 0.164152592420578
0.73272407054901123 0.0041333814151585102 0.15791003406047821
0.82922637462615967 0.0037909264210611582 0.15200062096118927
0.90999394655227661 0.0034677842631936073 0.14130149781703949
0.97701048851013184 0.004176450427621603 0.12326263636350632
0.99861186742782593 0.018442384898662567 0.10690505057573318
1 0.094047889113426208 0.083676658570766449
0.020535847172141075 0.094110853970050812 0.17418487370014191
0.08296559751033783 0.094018064439296722 0.17758777737617493
0.17526796460151672 0.090353377163410187 0.18409086763858795
0.28263550996780396 0.072674065828323364 0.17909333109855652
0.3967282772064209 0.042695228010416031 0.17023135721683502
0.51155346632003784 0.0283189807087183 0.16436803340911865
0.62768995761871338 0.022097703069448471 0.16258873045444489
0.73512500524520874 0.017632622271776199 0.15884044766426086
0.8288952112197876 0.020453972741961479 0.15037877857685089
0.90974754095077515 0.027234949171543121 0.13874880969524384
0.97376888990402222 0.0564689040184021 0.12139389663934708
0.99861735105514526 0.10708281397819519 0.10137709230184555
1 0.17049328982830048 0.076669968664646149
0.019817471504211426 0.17043380439281464 0.17803169786930084
0.082884632050991058 0.17115728557109833 0.18151929974555969
0.16799011826515198 0.17066006362438202 0.18512260913848877
0.27641433477401733 0.16802403330802917 0.17743586003780365
0.3940047025680542 0.15805140137672424 0.16951581835746765
0.51039069890975952 0.15680858492851257 0.16494624316692352
0.62404459714889526 0.15062823891639709 0.15896503627300262
0.73184370994567871 0.14759190380573273 0.15239731967449188
0.82288265228271484 0.15140825510025024 0.14067693054676056
0.90193963050842285 0.16463607549667358 0.12355393171310425
0.96808063983917236 0.191054567694664 0.10839606076478958
0.99640423059463501 0.22277654707431793 0.094242215156555176
1 0.25668904185295105 0.072941333055496216
0.022502090781927109 0.25285997986793518 0.19087988138198853
0.084603011608123779 0.2550070583820343 0.19005113840103149
0.16312406957149506 0.2577151358127594 0.18787184357643127
0.26108768582344055 0.26557737588882446 0.17516511678695679
0.38512331247329712 0.27405548095703125 0.16169826686382294
0.50321614742279053 0.2753426730632782 0.1567036509513855
0.61349952220916748 0.27358347177505493 0.15407092869281769
0.71766489744186401 0.27478635311126709 0.14136877655982971
0.81041419506072998 0.2807672917842865 0.13065990805625916
0.89140778779983521 0.29220989346504211 0.11596295237541199
0.96531957387924194 0.3056168258190155 0.09743441641330719
0.99711686372756958 0.32338228821754456 0.076505444943904877
1 0.34366455674171448 0.057768922299146652
0.024857869371771812 0.33722376823425293 0.20345887541770935
0.058295067399740219 0.33846917748451233 0.19828446209430695
0.12908530235290527 0.33879455924034119 0.19369405508041382
0.22399114072322845 0.34429752826690674 0.18118707835674286
0.35270732641220093 0.36675792932510376 0.16061839461326599
