luts/negative_new/kodak_tri-x_400_+.cube
# Created by: G'MIC (https://gmic.eu)
TITLE "kodak_tri-x_400_+"
# LUT size
LUT_3D_SIZE 13
# Data domain
DOMAIN_MIN 0.0 0.0 0.0
DOMAIN_MAX 1.0 1.0 1.0
# LUT data points
0.058792788535356522 0.058792788535356522 0.058792788535356522
0.06253458559513092 0.06253458559513092 0.06253458559513092
0.071080692112445831 0.071080692112445831 0.071080692112445831
0.081545419991016388 0.081545419991016388 0.081545419991016388
0.091208517551422119 0.091208517551422119 0.091208517551422119
0.10291429609060287 0.10291429609060287 0.10291429609060287
0.12476145476102829 0.12476145476102829 0.12476145476102829
0.15588173270225525 0.15588173270225525 0.15588173270225525
0.19126692414283752 0.19126692414283752 0.19126692414283752
0.22784683108329773 0.22784683108329773 0.22784683108329773
0.27175065875053406 0.27175065875053406 0.27175065875053406
0.32743290066719055 0.32743290066719055 0.32743290066719055
0.39223021268844604 0.39223021268844604 0.39223021268844604
0.071495920419692993 0.071495920419692993 0.071495920419692993
0.076154924929141998 0.076154924929141998 0.076154924929141998
0.088189110159873962 0.088189110159873962 0.088189110159873962
0.10577434301376343 0.10577434301376343 0.10577434301376343
0.12291618436574936 0.12291618436574936 0.12291618436574936
0.13823702931404114 0.13823702931404114 0.13823702931404114
0.15768380463123322 0.15768380463123322 0.15768380463123322
0.18513284623622894 0.18513284623622894 0.18513284623622894
0.21913065016269684 0.21913065016269684 0.21913065016269684
0.25559717416763306 0.25559717416763306 0.25559717416763306
0.29874879121780396 0.29874879121780396 0.29874879121780396
0.35282605886459351 0.35282605886459351 0.35282605886459351
0.41793489456176758 0.41793489456176758 0.41793489456176758
0.094872720539569855 0.094872720539569855 0.094872720539569855
0.09576810896396637 0.09576810896396637 0.09576810896396637
0.10949545353651047 0.10949545353651047 0.10949545353651047
0.13604816794395447 0.13604816794395447 0.13604816794395447
0.16485896706581116 0.16485896706581116 0.16485896706581116
0.18667303025722504 0.18667303025722504 0.18667303025722504
0.20527182519435883 0.20527182519435883 0.20527182519435883
0.22834357619285583 0.22834357619285583 0.22834357619285583
0.25885072350502014 0.25885072350502014 0.25885072350502014
0.29591947793960571 0.29591947793960571 0.29591947793960571
0.33968174457550049 0.33968174457550049 0.33968174457550049
0.39220473170280457 0.39220473170280457 0.39220473170280457
0.45534637570381165 0.45534637570381165 0.45534637570381165
0.12863762676715851 0.12863762676715851 0.12863762676715851
0.12292280048131943 0.12292280048131943 0.12292280048131943
0.1355786919593811 0.1355786919593811 0.1355786919593811
0.17105799913406372 0.17105799913406372 0.17105799913406372
0.21374930441379547 0.21374930441379547 0.21374930441379547
0.24417842924594879 0.24417842924594879 0.24417842924594879
0.26538565754890442 0.26538565754890442 0.26538565754890442
0.28859227895736694 0.28859227895736694 0.28859227895736694
0.31691417098045349 0.31691417098045349 0.31691417098045349
0.35395848751068115 0.35395848751068115 0.35395848751068115
0.39948281645774841 0.39948281645774841 0.39948281645774841
0.45086130499839783 0.45086130499839783 0.45086130499839783
0.51024436950683594 0.51024436950683594 0.51024436950683594
0.17286571860313416 0.17286571860313416 0.17286571860313416
0.16331115365028381 0.16331115365028381 0.16331115365028381
0.17170326411724091 0.17170326411724091 0.17170326411724091
0.20608414709568024 0.20608414709568024 0.20608414709568024
0.25474780797958374 0.25474780797958374 0.25474780797958374
0.29614561796188354 0.29614561796188354 0.29614561796188354
0.32937049865722656 0.32937049865722656 0.32937049865722656
0.36243310570716858 0.36243310570716858 0.36243310570716858
0.39565858244895935 0.39565858244895935 0.39565858244895935
0.43358489871025085 0.43358489871025085 0.43358489871025085
0.47828468680381775 0.47828468680381775 0.47828468680381775
0.52674692869186401 0.52674692869186401 0.52674692869186401
0.57964742183685303 0.57964742183685303 0.57964742183685303
0.22835415601730347 0.22835415601730347 0.22835415601730347
0.21832767128944397 0.21832767128944397 0.21832767128944397
0.22100253403186798 0.22100253403186798 0.22100253403186798
0.24463573098182678 0.24463573098182678 0.24463573098182678
0.28728419542312622 0.28728419542312622 0.28728419542312622
0.33641496300697327 0.33641496300697327 0.33641496300697327
0.38698610663414001 0.38698610663414001 0.38698610663414001
0.43896099925041199 0.43896099925041199 0.43896099925041199
0.48721963167190552 0.48721963167190552 0.48721963167190552
0.52716857194900513 0.52716857194900513 0.52716857194900513
0.5665971040725708 0.5665971040725708 0.5665971040725708
0.60847294330596924 0.60847294330596924 0.60847294330596924
0.65339410305023193 0.65339410305023193 0.65339410305023193
0.29660508036613464 0.29660508036613464 0.29660508036613464
0.28689789772033691 0.28689789772033691 0.28689789772033691
0.28269532322883606 0.28269532322883606 0.28269532322883606
0.29291430115699768 0.29291430115699768 0.29291430115699768
0.32403102517127991 0.32403102517127991 0.32403102517127991
0.37312957644462585 0.37312957644462585 0.37312957644462585
0.43266206979751587 0.43266206979751587 0.43266206979751587
0.50122320652008057 0.50122320652008057 0.50122320652008057
0.56853759288787842 0.56853759288787842 0.56853759288787842
0.61192500591278076 0.61192500591278076 0.61192500591278076
0.6475098729133606 0.6475098729133606 0.6475098729133606
0.68474811315536499 0.68474811315536499 0.68474811315536499
0.7231442928314209 0.7231442928314209 0.7231442928314209
0.38175824284553528 0.38175824284553528 0.38175824284553528
0.3723301887512207 0.3723301887512207 0.3723301887512207
0.36169153451919556 0.36169153451919556 0.36169153451919556
0.35746052861213684 0.35746052861213684 0.35746052861213684
0.37560588121414185 0.37560588121414185 0.37560588121414185
0.41848742961883545 0.41848742961883545 0.41848742961883545
0.47533181309700012 0.47533181309700012 0.47533181309700012
0.54142171144485474 0.54142171144485474 0.54142171144485474
0.6153867244720459 0.6153867244720459 0.6153867244720459
0.66940349340438843 0.66940349340438843 0.66940349340438843
0.71165764331817627 0.71165764331817627 0.71165764331817627
0.74996829032897949 0.74996829032897949 0.74996829032897949
0.78473818302154541 0.78473818302154541 0.78473818302154541
0.48291411995887756 0.48291411995887756 0.48291411995887756
0.47665709257125854 0.47665709257125854 0.47665709257125854
0.46225515007972717 0.46225515007972717 0.46225515007972717
0.44692832231521606 0.44692832231521606 0.44692832231521606
0.4512840211391449 0.4512840211391449 0.4512840211391449
0.48333919048309326 0.48333919048309326 0.48333919048309326
0.53431093692779541 0.53431093692779541 0.53431093692779541
0.59322327375411987 0.59322327375411987 0.59322327375411987
0.65623778104782104 0.65623778104782104 0.65623778104782104
0.71344059705734253 0.71344059705734253 0.71344059705734253
0.76261788606643677 0.76261788606643677 0.76261788606643677
0.80404490232467651 0.80404490232467651 0.80404490232467651
0.83745908737182617 0.83745908737182617 0.83745908737182617
0.59073907136917114 0.59073907136917114 0.59073907136917114
0.59086161851882935 0.59086161851882935 0.59086161851882935
0.57700300216674805 0.57700300216674805 0.57700300216674805
0.55452322959899902 0.55452322959899902 0.55452322959899902
0.54643160104751587 0.54643160104751587 0.54643160104751587
0.56607788801193237 0.56607788801193237 0.56607788801193237
0.61159974336624146 0.61159974336624146 0.61159974336624146
0.66316860914230347 0.66316860914230347 0.66316860914230347
0.71326488256454468 0.71326488256454468 0.71326488256454468
0.76337021589279175 0.76337021589279175 0.76337021589279175
0.81072056293487549 0.81072056293487549 0.81072056293487549
0.85144728422164917 0.85144728422164917 0.85144728422164917
0.88160014152526855 0.88160014152526855 0.88160014152526855
0.69353830814361572 0.69353830814361572 0.69353830814361572
0.69759482145309448 0.69759482145309448 0.69759482145309448
0.6867901086807251 0.6867901086807251 0.6867901086807251
0.6651376485824585 0.6651376485824585 0.6651376485824585
0.64968013763427734 0.64968013763427734 0.64968013763427734
0.65810656547546387 0.65810656547546387 0.65810656547546387
0.69516623020172119 0.69516623020172119 0.69516623020172119
0.73833853006362915 0.73833853006362915 0.73833853006362915
0.7783694863319397 0.7783694863319397 0.7783694863319397
0.81832438707351685 0.81832438707351685 0.81832438707351685
0.85682249069213867 0.85682249069213867 0.85682249069213867
0.89031720161437988 0.89031720161437988 0.89031720161437988
0.91566997766494751 0.91566997766494751 0.91566997766494751
0.78644800186157227 0.78644800186157227 0.78644800186157227
0.79146403074264526 0.79146403074264526 0.79146403074264526
0.78687417507171631 0.78687417507171631 0.78687417507171631
0.77391844987869263 0.77391844987869263 0.77391844987869263
0.76169687509536743 0.76169687509536743 0.76169687509536743
0.76303541660308838 0.76303541660308838 0.76303541660308838
0.78483116626739502 0.78483116626739502 0.78483116626739502
0.81469649076461792 0.81469649076461792 0.81469649076461792
0.84445780515670776 0.84445780515670776 0.84445780515670776
0.8736492395401001 0.8736492395401001 0.8736492395401001
0.90044295787811279 0.90044295787811279 0.90044295787811279
0.92356103658676147 0.92356103658676147 0.92356103658676147
0.94250297546386719 0.94250297546386719 0.94250297546386719
0.87049150466918945 0.87049150466918945 0.87049150466918945
0.87799859046936035 0.87799859046936035 0.87799859046936035
0.88003844022750854 0.88003844022750854 0.88003844022750854
0.87755966186523438 0.87755966186523438 0.87755966186523438
0.87325578927993774 0.87325578927993774 0.87325578927993774
0.87019890546798706 0.87019890546798706 0.87019890546798706
0.87703907489776611 0.87703907489776611 0.87703907489776611
0.89205938577651978 0.89205938577651978 0.89205938577651978
0.90969854593276978 0.90969854593276978 0.90969854593276978
0.9270368218421936 0.9270368218421936 0.9270368218421936
0.94326150417327881 0.94326150417327881 0.94326150417327881
0.95636439323425293 0.95636439323425293 0.95636439323425293
0.96877121925354004 0.96877121925354004 0.96877121925354004
0.058211471885442734 0.058211471885442734 0.058211471885442734
0.068142369389533997 0.068142369389533997 0.068142369389533997
0.082908511161804199 0.082908511161804199 0.082908511161804199
0.098341666162014008 0.098341666162014008 0.098341666162014008
0.10737664997577667 0.10737664997577667 0.10737664997577667
0.11587156355381012 0.11587156355381012 0.11587156355381012
0.13740120828151703 0.13740120828151703 0.13740120828151703
0.16519807279109955 0.16519807279109955 0.16519807279109955
0.19635249674320221 0.19635249674320221 0.19635249674320221
0.22855676710605621 0.22855676710605621 0.22855676710605621
0.27052026987075806 0.27052026987075806 0.27052026987075806
0.32924821972846985 0.32924821972846985 0.32924821972846985
0.40054944157600403 0.40054944157600403 0.40054944157600403
0.073286749422550201 0.073286749422550201 0.073286749422550201
0.082582749426364899 0.082582749426364899 0.082582749426364899
0.09866873174905777 0.09866873174905777 0.09866873174905777
0.11799180507659912 0.11799180507659912 0.11799180507659912
0.13252541422843933 0.13252541422843933 0.13252541422843933
0.14412051439285278 0.14412051439285278 0.14412051439285278
0.16003160178661346 0.16003160178661346 0.16003160178661346
0.18312332034111023 0.18312332034111023 0.18312332034111023
0.21670721471309662 0.21670721471309662 0.21670721471309662
0.25246432423591614 0.25246432423591614 0.25246432423591614
0.29585978388786316 0.29585978388786316 0.29585978388786316
0.35399669408798218 0.35399669408798218 0.35399669408798218
0.4246174693107605 0.4246174693107605 0.4246174693107605
0.10553282499313354 0.10553282499313354 0.10553282499313354
0.10768832266330719 0.10768832266330719 0.10768832266330719
0.11990654468536377 0.11990654468536377 0.11990654468536377
0.14235600829124451 0.14235600829124451 0.14235600829124451
0.16527369618415833 0.16527369618415833 0.16527369618415833
0.18269723653793335 0.18269723653793335 0.18269723653793335
0.19855716824531555 0.19855716824531555 0.19855716824531555
0.2195875495672226 0.2195875495672226 0.2195875495672226
0.25302907824516296 0.25302907824516296 0.25302907824516296
0.29398253560066223 0.29398253560066223 0.29398253560066223
0.33984172344207764 0.33984172344207764 0.33984172344207764
0.3966774046421051 0.3966774046421051 0.3966774046421051
0.46529921889305115 0.46529921889305115 0.46529921889305115
0.15089239180088043 0.15089239180088043 0.15089239180088043
0.14318099617958069 0.14318099617958069 0.14318099617958069
0.14827665686607361 0.14827665686607361 0.14827665686607361
0.17424577474594116 0.17424577474594116 0.17424577474594116
0.20958332717418671 0.20958332717418671 0.20958332717418671
0.2367590069770813 0.2367590069770813 0.2367590069770813
0.25748774409294128 0.25748774409294128 0.25748774409294128
0.28098294138908386 0.28098294138908386 0.28098294138908386
0.31460380554199219 0.31460380554199219 0.31460380554199219
0.3569759726524353 0.3569759726524353 0.3569759726524353
0.40341988205909729 0.40341988205909729 0.40341988205909729
0.45810273289680481 0.45810273289680481 0.45810273289680481
0.5229371190071106 0.5229371190071106 0.5229371190071106
0.20118840038776398 0.20118840038776398 0.20118840038776398
0.18835900723934174 0.18835900723934174 0.18835900723934174
0.1854061484336853 0.1854061484336853 0.1854061484336853
0.20913507044315338 0.20913507044315338 0.20913507044315338
0.2535758912563324 0.2535758912563324 0.2535758912563324
0.29479214549064636 0.29479214549064636 0.29479214549064636
0.32769414782524109 0.32769414782524109 0.32769414782524109
0.35963031649589539 0.35963031649589539 0.35963031649589539
0.39584088325500488 0.39584088325500488 0.39584088325500488
0.43730467557907104 0.43730467557907104 0.43730467557907104
0.4828258752822876 0.4828258752822876 0.4828258752822876
0.53388059139251709 0.53388059139251709 0.53388059139251709
0.59122133255004883 0.59122133255004883 0.59122133255004883
0.25665593147277832 0.25665593147277832 0.25665593147277832
0.24406993389129639 0.24406993389129639 0.24406993389129639
0.2367100864648819 0.2367100864648819 0.2367100864648819
0.2507280707359314 0.2507280707359314 0.2507280707359314
0.28993642330169678 0.28993642330169678 0.28993642330169678
0.34092515707015991 0.34092515707015991 0.34092515707015991
0.39166107773780823 0.39166107773780823 0.39166107773780823
0.43875473737716675 0.43875473737716675 0.43875473737716675
0.483907550573349 0.483907550573349 0.483907550573349
0.52649015188217163 0.52649015188217163 0.52649015188217163
0.56907492876052856 0.56907492876052856 0.56907492876052856
0.61447775363922119 0.61447775363922119 0.61447775363922119
0.66289854049682617 0.66289854049682617 0.66289854049682617
0.32043224573135376 0.32043224573135376 0.32043224573135376
0.31098920106887817 0.31098920106887817 0.31098920106887817
0.30157327651977539 0.30157327651977539 0.30157327651977539
0.30364719033241272 0.30364719033241272 0.30364719033241272
0.32954657077789307 0.32954657077789307 0.32954657077789307
0.37887313961982727 0.37887313961982727 0.37887313961982727
0.43915274739265442 0.43915274739265442 0.43915274739265442
0.50037634372711182 0.50037634372711182 0.50037634372711182
0.55791497230529785 0.55791497230529785 0.55791497230529785
0.60516858100891113 0.60516858100891113 0.60516858100891113
0.64720273017883301 0.64720273017883301 0.64720273017883301
0.68936049938201904 0.68936049938201904 0.68936049938201904
0.73061561584472656 0.73061561584472656 0.73061561584472656
0.40100565552711487 0.40100565552711487 0.40100565552711487
0.39342054724693298 0.39342054724693298 0.39342054724693298
0.3816336989402771 0.3816336989402771 0.3816336989402771
0.37350660562515259 0.37350660562515259 0.37350660562515259
0.38565295934677124 0.38565295934677124 0.38565295934677124
0.42475533485412598 0.42475533485412598 0.42475533485412598
0.48105132579803467 0.48105132579803467 0.48105132579803467
0.54389286041259766 0.54389286041259766 0.54389286041259766
0.60609626770019531 0.60609626770019531 0.60609626770019531
0.6604124903678894 0.6604124903678894 0.6604124903678894
0.70883917808532715 0.70883917808532715 0.70883917808532715
0.7513921856880188 0.7513921856880188 0.7513921856880188
0.78959304094314575 0.78959304094314575 0.78959304094314575
0.49912038445472717 0.49912038445472717 0.49912038445472717
0.49340623617172241 0.49340623617172241 0.49340623617172241
0.47970277070999146 0.47970277070999146 0.47970277070999146
0.46481442451477051 0.46481442451477051 0.46481442451477051
0.464957594871521 0.464957594871521 0.464957594871521
0.49068480730056763 0.49068480730056763 0.49068480730056763
0.53682512044906616 0.53682512044906616 0.53682512044906616
0.59199470281600952 0.59199470281600952 0.59199470281600952
0.64830917119979858 0.64830917119979858 0.64830917119979858
0.70415157079696655 0.70415157079696655 0.70415157079696655
0.75809645652770996 0.75809645652770996 0.75809645652770996
0.80365550518035889 0.80365550518035889 0.80365550518035889
0.8397294282913208 0.8397294282913208 0.8397294282913208
0.60362535715103149 0.60362535715103149 0.60362535715103149
0.60180902481079102 0.60180902481079102 0.60180902481079102
0.58903813362121582 0.58903813362121582 0.58903813362121582
0.5699000358581543 0.5699000358581543 0.5699000358581543
0.56097865104675293 0.56097865104675293 0.56097865104675293
0.57516968250274658 0.57516968250274658 0.57516968250274658
0.61185199022293091 0.61185199022293091 0.61185199022293091
0.65823876857757568 0.65823876857757568 0.65823876857757568
0.70588332414627075 0.70588332414627075 0.70588332414627075
0.75611835718154907 0.75611835718154907 0.75611835718154907
0.80604982376098633 0.80604982376098633 0.80604982376098633
0.84900796413421631 0.84900796413421631 0.84900796413421631
0.88159620761871338 0.88159620761871338 0.88159620761871338
0.70387560129165649 0.70387560129165649 0.70387560129165649
0.70540398359298706 0.70540398359298706 0.70540398359298706
0.6957085132598877 0.6957085132598877 0.6957085132598877
0.67768651247024536 0.67768651247024536 0.67768651247024536
0.66511136293411255 0.66511136293411255 0.66511136293411255
0.67070180177688599 0.67070180177688599 0.67070180177688599
0.69799941778182983 0.69799941778182983 0.69799941778182983
0.73505014181137085 0.73505014181137085 0.73505014181137085
0.77397805452346802 0.77397805452346802 0.77397805452346802
0.81446051597595215 0.81446051597595215 0.81446051597595215
0.85397934913635254 0.85397934913635254 0.85397934913635254
0.88855195045471191 0.88855195045471191 0.88855195045471191
0.91597199440002441 0.91597199440002441 0.91597199440002441
0.79542970657348633 0.79542970657348633 0.79542970657348633
0.79906600713729858 0.79906600713729858 0.79906600713729858
0.79447019100189209 0.79447019100189209 0.79447019100189209
0.7832452654838562 0.7832452654838562 0.7832452654838562
0.77296584844589233 0.77296584844589233 0.77296584844589233
0.77373939752578735 0.77373939752578735 0.77373939752578735
0.78984683752059937 0.78984683752059937 0.78984683752059937
0.81536418199539185 0.81536418199539185 0.81536418199539185
0.84379029273986816 0.84379029273986816 0.84379029273986816
0.87267237901687622 0.87267237901687622 0.87267237901687622
0.90018916130065918 0.90018916130065918 0.90018916130065918
0.92375797033309937 0.92375797033309937 0.92375797033309937
0.94421738386154175 0.94421738386154175 0.94421738386154175
0.87816810607910156 0.87816810607910156 0.87816810607910156
0.88451659679412842 0.88451659679412842 0.88451659679412842
0.88553649187088013 0.88553649187088013 0.88553649187088013
0.8821830153465271 0.8821830153465271 0.8821830153465271
0.87732493877410889 0.87732493877410889 0.87732493877410889
0.87549406290054321 0.87549406290054321 0.87549406290054321
0.88123852014541626 0.88123852014541626 0.88123852014541626
0.89442956447601318 0.89442956447601318 0.89442956447601318
0.91130369901657104 0.91130369901657104 0.91130369901657104
0.92867124080657959 0.92867124080657959 0.92867124080657959
0.94376581907272339 0.94376581907272339 0.94376581907272339
0.95779925584793091 0.95779925584793091 0.95779925584793091
0.9713779091835022 0.9713779091835022 0.9713779091835022
0.064423657953739166 0.064423657953739166 0.064423657953739166
0.079977251589298248 0.079977251589298248 0.079977251589298248
0.10085555166006088 0.10085555166006088 0.10085555166006088
0.12323120981454849 0.12323120981454849 0.12323120981454849
0.14086475968360901 0.14086475968360901 0.14086475968360901
0.15936315059661865 0.15936315059661865 0.15936315059661865
0.18041977286338806 0.18041977286338806 0.18041977286338806
0.19445949792861938 0.19445949792861938 0.19445949792861938
0.21145910024642944 0.21145910024642944 0.21145910024642944
0.23430082201957703 0.23430082201957703 0.23430082201957703
0.27093979716300964 0.27093979716300964 0.27093979716300964
0.32854527235031128 0.32854527235031128 0.32854527235031128
0.4035017192363739 0.4035017192363739 0.4035017192363739
0.078592516481876373 0.078592516481876373 0.078592516481876373
0.094590358436107635 0.094590358436107635 0.094590358436107635
0.11569255590438843 0.11569255590438843 0.11569255590438843
0.1374596506357193 0.1374596506357193 0.1374596506357193
0.15440337359905243 0.15440337359905243 0.15440337359905243
0.17049063742160797 0.17049063742160797 0.17049063742160797
0.18530340492725372 0.18530340492725372 0.18530340492725372
0.19307483732700348 0.19307483732700348 0.19307483732700348
0.21719002723693848 0.21719002723693848 0.21719002723693848
0.25129801034927368 0.25129801034927368 0.25129801034927368
0.29205089807510376 0.29205089807510376 0.29205089807510376
0.35010096430778503 0.35010096430778503 0.35010096430778503
0.42447742819786072 0.42447742819786072 0.42447742819786072
0.11916855722665787 0.11916855722665787 0.11916855722665787
0.12499839812517166 0.12499839812517166 0.12499839812517166
0.13718721270561218 0.13718721270561218 0.13718721270561218
0.15569129586219788 0.15569129586219788 0.15569129586219788
0.17274275422096252 0.17274275422096252 0.17274275422096252
0.18821004033088684 0.18821004033088684 0.18821004033088684
0.20503918826580048 0.20503918826580048 0.20503918826580048
0.21851949393749237 0.21851949393749237 0.21851949393749237
0.24993693828582764 0.24993693828582764 0.24993693828582764
0.29283380508422852 0.29283380508422852 0.29283380508422852
0.33595523238182068 0.33595523238182068 0.33595523238182068
0.39357948303222656 0.39357948303222656 0.39357948303222656
0.46835300326347351 0.46835300326347351 0.46835300326347351
0.17894318699836731 0.17894318699836731 0.17894318699836731
0.17037039995193481 0.17037039995193481 0.17037039995193481
0.17027613520622253 0.17027613520622253 0.17027613520622253
0.18836668133735657 0.18836668133735657 0.18836668133735657
0.21572457253932953 0.21572457253932953 0.21572457253932953
0.23624864220619202 0.23624864220619202 0.23624864220619202
0.25488832592964172 0.25488832592964172 0.25488832592964172
0.27491182088851929 0.27491182088851929 0.27491182088851929
0.31142103672027588 0.31142103672027588 0.31142103672027588
0.35798782110214233 0.35798782110214233 0.35798782110214233
0.40090519189834595 0.40090519189834595 0.40090519189834595
0.45689025521278381 0.45689025521278381 0.45689025521278381
0.52873271703720093 0.52873271703720093 0.52873271703720093
0.24050799012184143 0.24050799012184143 0.24050799012184143
0.22701212763786316 0.22701212763786316 0.22701212763786316
0.21480725705623627 0.21480725705623627 0.21480725705623627
0.22757935523986816 0.22757935523986816 0.22757935523986816
0.26673892140388489 0.26673892140388489 0.26673892140388489
0.30219799280166626 0.30219799280166626 0.30219799280166626
0.33001589775085449 0.33001589775085449 0.33001589775085449
0.35456815361976624 0.35456815361976624 0.35456815361976624
