luts/negative_new/kodak_portra_160_-.cube
# Created by: G'MIC (https://gmic.eu)
TITLE "kodak_portra_160_-"
# LUT size
LUT_3D_SIZE 5
# Data domain
DOMAIN_MIN 0.0 0.0 0.0
DOMAIN_MAX 1.0 1.0 1.0
# LUT data points
0.015113292261958122 0.0234540905803442 0.017801875248551369
0.26473364233970642 0.013693655841052532 0.014059417881071568
0.6136171817779541 0.003037680871784687 0.0018902648007497191
0.82051342725753784 0.0072562126442790031 0.00012368595344014466
0.97376102209091187 0.15183441340923309 0.0013175515923649073
0.0015843709697946906 0.25758445262908936 0.0067842821590602398
0.24294854700565338 0.28392350673675537 0.0043490240350365639
0.63397008180618286 0.31166991591453552 0.0019029205432161689
0.8191865086555481 0.29383307695388794 0.0056676077656447887
0.97520017623901367 0.33644372224807739 0.0021590439137071371
0.02143363282084465 0.51477688550949097 0.016215365380048752
0.23656466603279114 0.50175213813781738 0.0066691827960312366
0.51672399044036865 0.5390436053276062 0.0050508389249444008
0.77529633045196533 0.5636250376701355 0.00040525547228753567
0.97769486904144287 0.55382454395294189 0.00054665358038619161
0.27679705619812012 0.67609798908233643 0.1789819747209549
0.35052573680877686 0.66159838438034058 0.16466028988361359
0.49677830934524536 0.66762948036193848 0.16064360737800598
0.68542426824569702 0.70329654216766357 0.18745021522045135
0.92625463008880615 0.76099348068237305 0.14097453653812408
0.49065902829170227 0.87592571973800659 0.39986807107925415
0.52262800931930542 0.87291115522384644 0.39385011792182922
0.59665948152542114 0.86852347850799561 0.38332155346870422
0.73617154359817505 0.89260470867156982 0.40387260913848877
0.90641361474990845 0.92878550291061401 0.42995420098304749
0.0025954451411962509 0.040631942451000214 0.29399064183235168
0.2907545268535614 0.030430782586336136 0.30065011978149414
0.63000893592834473 0.021486887708306313 0.29822590947151184
0.80221325159072876 0.096450552344322205 0.27724766731262207
0.95694649219512939 0.23031476140022278 0.28150203824043274
0.00083148432895541191 0.31817644834518433 0.29198950529098511
0.31348031759262085 0.32199737429618835 0.31206402182579041
0.61373519897460938 0.32255038619041443 0.2902219295501709
0.79849964380264282 0.3282935619354248 0.27355825901031494
0.95955824851989746 0.36750200390815735 0.26895374059677124
0.22319884598255157 0.55379712581634521 0.32379767298698425
0.33401113748550415 0.53346598148345947 0.30895450711250305
0.54738539457321167 0.5533326268196106 0.30935746431350708
0.77516961097717285 0.56643122434616089 0.27489647269248962
0.96851223707199097 0.5634913444519043 0.24067571759223938
0.35463669896125793 0.6883203387260437 0.35491162538528442
0.40321990847587585 0.67937219142913818 0.34026500582695007
0.50796473026275635 0.66997611522674561 0.32346904277801514
0.69449061155319214 0.70958834886550903 0.35530826449394226
0.92859125137329102 0.757271409034729 0.34278324246406555
0.49564442038536072 0.88081640005111694 0.46644142270088196
0.52648419141769409 0.87801903486251831 0.46033880114555359
0.59773868322372437 0.87193435430526733 0.44478142261505127
0.73571759462356567 0.89286082983016968 0.46004864573478699
0.9052661657333374 0.92530667781829834 0.48493382334709167
0.0040471842512488365 0.12058915942907333 0.59829437732696533
0.32262375950813293 0.15545961260795593 0.60194218158721924
0.61341255903244019 0.22584782540798187 0.608440101146698
0.80955392122268677 0.32967698574066162 0.58955496549606323
0.95771700143814087 0.37732404470443726 0.56985950469970703
0.13827349245548248 0.35695981979370117 0.5891537070274353
0.37129318714141846 0.38234737515449524 0.58941376209259033
0.60441726446151733 0.42211440205574036 0.59419721364974976
0.78582745790481567 0.45167750120162964 0.58260655403137207
0.9412238597869873 0.44686746597290039 0.56038063764572144
0.27779415249824524 0.59645432233810425 0.5743706226348877
0.41425970196723938 0.59314584732055664 0.57875150442123413
0.57580298185348511 0.58098345994949341 0.57012844085693359
0.75534176826477051 0.57911783456802368 0.56114166975021362
0.93772202730178833 0.57067930698394775 0.5396193265914917
0.42723217606544495 0.73633337020874023 0.5627065896987915
0.47914966940879822 0.73047256469726562 0.5622870922088623
0.5572083592414856 0.69894891977310181 0.53806817531585693
0.70788323879241943 0.72170180082321167 0.55216735601425171
0.94249618053436279 0.75480562448501587 0.54620349407196045
0.50937366485595703 0.89510101079940796 0.59814125299453735
0.54020828008651733 0.89765995740890503 0.59071189165115356
0.60347026586532593 0.88930481672286987 0.57130366563796997
0.72699165344238281 0.89495599269866943 0.56289893388748169
0.91117137670516968 0.92848056554794312 0.59224361181259155
0.29790529608726501 0.28098964691162109 0.77831155061721802
0.42758485674858093 0.30928793549537659 0.78048485517501831
0.61472249031066895 0.37167292833328247 0.77980130910873413
0.79105198383331299 0.43567785620689392 0.7797045111656189
0.95741349458694458 0.49864807724952698 0.78047549724578857
0.36867871880531311 0.44176849722862244 0.76679146289825439
0.46134278178215027 0.45580568909645081 0.76888662576675415
0.62993323802947998 0.49166464805603027 0.77543193101882935
0.78527694940567017 0.52179998159408569 0.77675712108612061
0.95042997598648071 0.5654405951499939 0.78289312124252319
0.37356016039848328 0.59136813879013062 0.7425839900970459
0.45849642157554626 0.59796130657196045 0.74544847011566162
0.60320049524307251 0.61489170789718628 0.75133043527603149
0.77461016178131104 0.6428946852684021 0.76212942600250244
0.94857406616210938 0.66320961713790894 0.77578961849212646
0.44729393720626831 0.77483212947845459 0.75157052278518677
0.50192326307296753 0.77460384368896484 0.75228571891784668
0.61606097221374512 0.7643885612487793 0.75158888101577759
0.74857074022293091 0.75264519453048706 0.74488341808319092
0.9441075325012207 0.74462026357650757 0.73440629243850708
0.54530000686645508 0.93888050317764282 0.75577646493911743
0.57167214155197144 0.93705463409423828 0.75056344270706177
0.63754308223724365 0.93261021375656128 0.74938404560089111
0.737510085105896 0.90883529186248779 0.71666550636291504
0.92747628688812256 0.93803596496582031 0.73857277631759644
0.50878995656967163 0.48555076122283936 0.94869905710220337
0.56012570858001709 0.49825525283813477 0.94651281833648682
0.66866284608840942 0.52754610776901245 0.94730788469314575
0.80547875165939331 0.57119792699813843 0.94442659616470337
0.94967776536941528 0.60443699359893799 0.95021432638168335
0.52303904294967651 0.56279927492141724 0.94723910093307495
0.57319331169128418 0.56950289011001587 0.94586092233657837
0.67121362686157227 0.58684498071670532 0.93999791145324707
0.80516129732131958 0.62256723642349243 0.94609838724136353
0.95176446437835693 0.64417588710784912 0.94927114248275757
0.50895142555236816 0.65937501192092896 0.93805825710296631
0.56062620878219604 0.66529113054275513 0.93711358308792114
0.66599422693252563 0.67599737644195557 0.93910157680511475
0.80220359563827515 0.70105600357055664 0.94398397207260132
0.95184886455535889 0.72195190191268921 0.94829863309860229
0.47596344351768494 0.78866517543792725 0.93785935640335083
0.51870644092559814 0.78533792495727539 0.93795204162597656
0.62309354543685913 0.77806609869003296 0.94068169593811035
0.78814947605133057 0.79970484972000122 0.9424932599067688
0.95945519208908081 0.8316274881362915 0.95418614149093628
0.53807294368743896 0.96877902746200562 0.94886374473571777
0.5788036584854126 0.96686255931854248 0.94837033748626709
0.67052948474884033 0.96694672107696533 0.95296895503997803
0.81253927946090698 0.96061229705810547 0.95399284362792969
0.96515429019927979 0.96276324987411499 0.95565831661224365
