luts/negative_new/kodak_portra_160.cube
# Created by: G'MIC (https://gmic.eu)
TITLE "kodak_portra_160"
# LUT size
LUT_3D_SIZE 5
# Data domain
DOMAIN_MIN 0.0 0.0 0.0
DOMAIN_MAX 1.0 1.0 1.0
# LUT data points
0.019879883155226707 0.026109836995601654 0.021318009123206139
0.2259669303894043 0.024887040257453918 0.019296234473586082
0.58453422784805298 0.0025977788027375937 0.0045525343157351017
0.84192454814910889 0.012377451173961163 0.0003741096006706357
0.99640083312988281 0.15355515480041504 0.0015063865575939417
0.0072234957478940487 0.23243746161460876 0.013848278671503067
0.20985807478427887 0.24677428603172302 0.004843603353947401
0.62232571840286255 0.29846078157424927 0.0029490902088582516
0.84458404779434204 0.30104875564575195 0.0007522283704020083
0.99389916658401489 0.33796229958534241 0.0030404035933315754
0.0045399833470582962 0.49669122695922852 0.0022421893663704395
0.19894993305206299 0.48602563142776489 0.0020310794934630394
0.51749145984649658 0.53390985727310181 0.0023284314665943384
0.80502414703369141 0.57826483249664307 0.000759124755859375
0.99134272336959839 0.57271355390548706 0
0.25365415215492249 0.69354921579360962 0.063328325748443604
0.33516454696655273 0.68005424737930298 0.032462939620018005
0.50293827056884766 0.68767410516738892 0.025343097746372223
0.71759557723999023 0.72916638851165771 0.058713845908641815
0.96556097269058228 0.78160941600799561 0.036779966205358505
0.49756672978401184 0.90137356519699097 0.38343235850334167
0.5322386622428894 0.89921367168426514 0.37543162703514099
0.61425215005874634 0.89425504207611084 0.36619749665260315
0.75748825073242188 0.91411894559860229 0.39200261235237122
0.92601031064987183 0.94059962034225464 0.424864262342453
0.0070475856773555279 0.045271869748830795 0.25371599197387695
0.24665318429470062 0.030538043007254601 0.26414161920547485
0.60975819826126099 0.0033229752443730831 0.27215558290481567
0.83218175172805786 0.0039882287383079529 0.24709522724151611
0.99028885364532471 0.1488766223192215 0.24102051556110382
0.0033478531986474991 0.28219765424728394 0.25305479764938354
0.26736187934875488 0.28853011131286621 0.26583626866340637
0.61037224531173706 0.28068998456001282 0.25066265463829041
0.83020603656768799 0.2909604012966156 0.22932720184326172
0.9881395697593689 0.343802809715271 0.22217638790607452
0.11129741370677948 0.55292642116546631 0.27676361799240112
0.2924925684928894 0.53016930818557739 0.26136085391044617
0.54634922742843628 0.55026477575302124 0.25632557272911072
0.81464332342147827 0.57854992151260376 0.21065948903560638
0.99476343393325806 0.5685572624206543 0.16805829107761383
0.32185190916061401 0.71371471881866455 0.31255877017974854
0.38893139362335205 0.70166265964508057 0.29714056849479675
0.52481371164321899 0.69796466827392578 0.2759004533290863
0.72292423248291016 0.73442155122756958 0.31145668029785156
0.96375435590744019 0.77644675970077515 0.29847905039787292
0.50439691543579102 0.90391683578491211 0.46134200692176819
0.53865408897399902 0.90132629871368408 0.4544379711151123
0.61446207761764526 0.89419364929199219 0.43781870603561401
0.75868290662765503 0.91321641206741333 0.46333140134811401
0.9263603687286377 0.93897747993469238 0.49170580506324768
0.0046091265976428986 0.093102790415287018 0.59914028644561768
0.30419039726257324 0.10506388545036316 0.60246413946151733
0.62741184234619141 0.13517437875270844 0.61376410722732544
0.84943407773971558 0.26860380172729492 0.59839546680450439
0.99094140529632568 0.33596271276473999 0.57665896415710449
0.015666527673602104 0.32604190707206726 0.58791095018386841
0.32471245527267456 0.34288358688354492 0.59100419282913208
0.61904251575469971 0.38507175445556641 0.60224539041519165
0.8283998966217041 0.43117761611938477 0.59513211250305176
0.98110097646713257 0.4297269880771637 0.56202894449234009
0.15748162567615509 0.60841077566146851 0.58120405673980713
0.37812268733978271 0.60351032018661499 0.58385562896728516
0.59384846687316895 0.58972489833831787 0.57632702589035034
0.79425048828125 0.58680135011672974 0.56217294931411743
0.97338354587554932 0.57853430509567261 0.54451721906661987
0.42024880647659302 0.76453572511672974 0.56752687692642212
0.4785226583480835 0.75599139928817749 0.56829667091369629
0.57179969549179077 0.72807186841964722 0.54181516170501709
0.74096798896789551 0.74717777967453003 0.55256944894790649
0.97218739986419678 0.77339118719100952 0.55778169631958008
0.54162567853927612 0.92192333936691284 0.6158176064491272
0.57058984041213989 0.92000651359558105 0.608306884765625
0.63128304481506348 0.90925592184066772 0.58536136150360107
0.75472354888916016 0.91330790519714355 0.58319723606109619
0.93077951669692993 0.94119244813919067 0.61587268114089966
0.27171951532363892 0.23725119233131409 0.80096149444580078
0.43427100777626038 0.26375412940979004 0.79907679557800293
0.63615304231643677 0.33621025085449219 0.80306416749954224
0.82706540822982788 0.4192923903465271 0.80180579423904419
0.98356634378433228 0.50139284133911133 0.79920345544815063
0.33306440711021423 0.42211392521858215 0.7909698486328125
0.45148661732673645 0.42989927530288696 0.78946137428283691
0.64162081480026245 0.48436960577964783 0.79219335317611694
0.8192247748374939 0.52724957466125488 0.8005298376083374
0.97704756259918213 0.5810779333114624 0.80139684677124023
0.34083136916160583 0.59479773044586182 0.76893031597137451
0.45043501257896423 0.60733026266098022 0.7662893533706665
0.63111549615859985 0.6352354884147644 0.77504187822341919
0.80891722440719604 0.66619354486465454 0.78838098049163818
0.97794634103775024 0.68734884262084961 0.79794520139694214
0.46242150664329529 0.80018836259841919 0.77424758672714233
0.52456450462341309 0.79860192537307739 0.7754625678062439
0.64550930261611938 0.7911607027053833 0.77443069219589233
0.79369539022445679 0.78111201524734497 0.77043473720550537
0.97042059898376465 0.77189153432846069 0.75834381580352783
0.60695630311965942 0.94955611228942871 0.77620899677276611
0.6336783766746521 0.94747859239578247 0.77534252405166626
0.69536370038986206 0.94578456878662109 0.77430987358093262
0.7765963077545166 0.92286312580108643 0.74553525447845459
0.9478880763053894 0.95173174142837524 0.76651293039321899
0.50747746229171753 0.47778427600860596 0.95649194717407227
0.56901109218597412 0.4954109787940979 0.96034681797027588
0.68725830316543579 0.53563278913497925 0.95935934782028198
0.82474696636199951 0.5901528000831604 0.95758277177810669
0.96935796737670898 0.62862896919250488 0.95722943544387817
0.53892385959625244 0.569621741771698 0.95921832323074341
0.58552819490432739 0.57716429233551025 0.95570647716522217
0.6940845251083374 0.60412633419036865 0.95314759016036987
0.82737809419631958 0.64320242404937744 0.95549923181533813
0.96945250034332275 0.6706123948097229 0.95669561624526978
0.54541242122650146 0.67855656147003174 0.94729399681091309
0.59877687692642212 0.68995499610900879 0.95131164789199829
0.70176661014556885 0.70486241579055786 0.95035356283187866
0.83332151174545288 0.72926777601242065 0.94888663291931152
0.96948456764221191 0.75200647115707397 0.95752441883087158
0.53243184089660645 0.80646181106567383 0.94196087121963501
0.57180255651473999 0.80255013704299927 0.94425314664840698
0.67108947038650513 0.80072486400604248 0.95033460855484009
0.82522213459014893 0.8222234845161438 0.95185047388076782
0.97403615713119507 0.85390770435333252 0.95986741781234741
0.62031912803649902 0.97497415542602539 0.9529564380645752
0.65219402313232422 0.97207891941070557 0.95584601163864136
0.73694169521331787 0.97187578678131104 0.95804387331008911
0.851848304271698 0.96578353643417358 0.95873373746871948
0.97088265419006348 0.96988594532012939 0.95868974924087524
