luts/negative_new/kodak_portra_800_hc.cube
# Created by: G'MIC (https://gmic.eu)
TITLE "kodak_portra_800_hc"
# LUT size
LUT_3D_SIZE 13
# Data domain
DOMAIN_MIN 0.0 0.0 0.0
DOMAIN_MAX 1.0 1.0 1.0
# LUT data points
0.016240483149886131 0.023368924856185913 0.024979759007692337
0.049443412572145462 0.024851212278008461 0.022752439603209496
0.1149274930357933 0.021712284535169601 0.021637711673974991
0.20986582338809967 0.01008371077477932 0.020677005872130394
0.35059377551078796 0.0045287786051630974 0.015992138534784317
0.50774669647216797 0.0039822445251047611 0.0090611474588513374
0.65985441207885742 0.0028843299951404333 0.0021565007045865059
0.78656643629074097 0.0032045252155512571 6.8754306994378567e-05
0.88206493854522705 0.0026249305810779333 0.00014702291809953749
0.95556640625 0.0022767011541873217 0.00061356788501143456
0.99419397115707397 0.003516088705509901 0.00051302439533174038
0.99989300966262817 0.0075348052196204662 0
1 0.047888137400150299 0
0.01077563688158989 0.056384023278951645 0.02888183668255806
0.038716860115528107 0.060090336948633194 0.027840424329042435
0.11132708936929703 0.062527090311050415 0.023088522255420685
0.21511615812778473 0.045904092490673065 0.02032521553337574
0.34980228543281555 0.017670022323727608 0.014702650718390942
0.51027053594589233 0.0090752849355340004 0.008086230605840683
0.66267639398574829 0.0071141263470053673 0.0017436607740819454
0.78662097454071045 0.010831361636519432 5.0264246965525672e-05
0.88000863790512085 0.006772942841053009 0
0.95142859220504761 0.0056773913092911243 0
0.99463772773742676 0.015474282205104828 0
1 0.064812242984771729 0
1 0.15006637573242188 0
0.0054863574914634228 0.10207019746303558 0.032948095351457596
0.022183287888765335 0.10913069546222687 0.030935952439904213
0.085353106260299683 0.11904016882181168 0.023106219246983528
0.20109857618808746 0.1227010115981102 0.013061179779469967
0.34927213191986084 0.10358376801013947 0.0075697805732488632
0.51016145944595337 0.065147072076797485 0.0041048089042305946
0.66522639989852905 0.048239972442388535 0.00094000122044235468
0.78990644216537476 0.053304292261600494 0
0.87805432081222534 0.06808057427406311 0
0.94675928354263306 0.10683472454547882 0
0.99242019653320312 0.16215318441390991 0
0.99985641241073608 0.21402950584888458 0
1 0.25933262705802917 0
0.003523718100041151 0.17907731235027313 0.028273848816752434
0.011523677036166191 0.18552237749099731 0.025458002462983131
0.029893044382333755 0.19238714873790741 0.016530938446521759
0.14788679778575897 0.21693909168243408 0.006493796594440937
0.33293464779853821 0.2403031587600708 0.003144686808809638
0.50272798538208008 0.23305042088031769 0.0024059969000518322
0.65509724617004395 0.23203615844249725 0.0012503380421549082
0.7715994119644165 0.24000106751918793 0.00035544001730158925
0.85876351594924927 0.26557394862174988 0.00044076956692151725
0.92127978801727295 0.28477102518081665 0
0.9791979193687439 0.31714218854904175 0.00090578862000256777
0.99795562028884888 0.34498241543769836 0.001066050841473043
0.99922138452529907 0.37127923965454102 0.00034571628202684224
0.0015404196456074715 0.27740317583084106 0.013429634273052216
0.0057898578234016895 0.28567183017730713 0.015955278649926186
0.0089784208685159683 0.29620462656021118 0.0096966465935111046
0.056540604680776596 0.31446844339370728 0.0017432118766009808
0.25336447358131409 0.35174810886383057 0.00084369134856387973
0.47085979580879211 0.38310539722442627 0.0010377771686762571
0.63085794448852539 0.39134684205055237 0.00066691380925476551
0.74383330345153809 0.39895665645599365 0.0011457107029855251
0.82653892040252686 0.40809506177902222 0.00085064757149666548
0.89507633447647095 0.42009851336479187 3.3928365155588835e-05
0.96062356233596802 0.4356025755405426 0.00093059166101738811
0.99234026670455933 0.45610606670379639 0.0016324061434715986
0.99569404125213623 0.47019574046134949 0.0015991510590538383
0.00021846995514351875 0.39388439059257507 0.010215325281023979
0.0031779569108039141 0.399232417345047 0.01226679515093565
0.0064446842297911644 0.40714854001998901 0.0092117013409733772
0.015130450949072838 0.41650822758674622 0.0031463324557989836
0.14404493570327759 0.44049298763275146 0
0.39040505886077881 0.48210036754608154 5.3675033996114507e-05
0.58844518661499023 0.51736950874328613 0
0.71495485305786133 0.52541983127593994 3.5005457903025672e-05
0.79846012592315674 0.5260201096534729 0.00023479087394662201
0.8717116117477417 0.53278040885925293 0.00091346289264038205
0.94501781463623047 0.54081481695175171 0.0016100116772577167
0.98950636386871338 0.54816412925720215 0.0017208922654390335
0.9921918511390686 0.55243688821792603 0.0023167629260569811
0 0.49897852540016174 0.014585263095796108
0.00095193902961909771 0.49919223785400391 0.014400138519704342
0.0056144115515053272 0.50049811601638794 0.01049366407096386
0.0095548145473003387 0.50629901885986328 0.0054572159424424171
0.060217391699552536 0.51924753189086914 0.0005546719185076654
0.29931929707527161 0.55074441432952881 0
0.51148569583892822 0.58639907836914062 0
0.67171579599380493 0.6125481128692627 0.00020608340855687857
0.77743899822235107 0.62374603748321533 0.0011877770302817225
0.8519129753112793 0.62335813045501709 0.001922173541970551
0.9248618483543396 0.62357401847839355 0.0016749962233006954
0.97999727725982666 0.62423717975616455 0.0017061121761798859
0.99164509773254395 0.62576615810394287 0.0023284314665943384
0 0.58618450164794922 0.013162111863493919
7.2733564593363553e-05 0.58253681659698486 0.01266949251294136
0.002347160829231143 0.58258885145187378 0.01141566876322031
0.0039316215552389622 0.58741879463195801 0.0063404906541109085
0.020556790754199028 0.59391522407531738 0.0014300327748060226
0.23111286759376526 0.61277127265930176 0
0.43903419375419617 0.63828516006469727 0.00041475481702946126
0.60706198215484619 0.6638302206993103 0.0013398713199421763
0.73294705152511597 0.68300169706344604 0.000796269450802356
0.82603144645690918 0.69202446937561035 0.00058333453489467502
0.90602314472198486 0.69599467515945435 0.00051351811271160841
0.96998542547225952 0.69589918851852417 0.0014014150947332382
0.99202245473861694 0.69532132148742676 0.0023041220847517252
0 0.66226887702941895 0.011412706226110458
0 0.66221308708190918 0.0093557471409440041
0 0.65921634435653687 0.0097997775301337242
0.00096896302420645952 0.65795570611953735 0.0073237549513578415
0.016142541542649269 0.65989583730697632 0.0020745221991091967
0.20203328132629395 0.67294520139694214 0.0007420558831654489
0.39771148562431335 0.69182974100112915 0.0034902235493063927
0.55776405334472656 0.71164613962173462 0.0032636306714266539
0.68440401554107666 0.73186665773391724 0.0011937608942389488
0.79447847604751587 0.75268596410751343 0.00014415067562367767
0.88985931873321533 0.7648766040802002 0
0.95865732431411743 0.76408582925796509 7.7670229075010866e-05
0.99266296625137329 0.76135236024856567 0.00025215896312147379
0.00038743860204704106 0.73386579751968384 0.021934794262051582
0.00015659705968573689 0.73382937908172607 0.018495716154575348
0.00026103001437149942 0.73078632354736328 0.019784126430749893
0.00046287986333481967 0.72706061601638794 0.014565696008503437
0.02533334493637085 0.72431296110153198 0.0074363709427416325
0.22646638751029968 0.732280433177948 0.0053592156618833542
0.40334227681159973 0.74637174606323242 0.0074862460605800152
0.54426133632659912 0.76333463191986084 0.0069600869901478291
0.65646457672119141 0.78111034631729126 0.0047215181402862072
0.76368618011474609 0.80211889743804932 0.0040853763930499554
0.86091947555541992 0.81667590141296387 0.0020077424123883247
0.93794262409210205 0.82149934768676758 0.00019825954223051667
0.98756879568099976 0.82407069206237793 0
0.0032475190237164497 0.79994809627532959 0.1258339136838913
0.0038296419661492109 0.80077964067459106 0.12315402925014496
0.0047038658522069454 0.79911261796951294 0.12192327529191971
0.028048271313309669 0.79577243328094482 0.11573231965303421
0.139144167304039 0.79263979196548462 0.10532809793949127
0.29647266864776611 0.79456788301467896 0.081991218030452728
0.42559173703193665 0.80311089754104614 0.060194950550794601
0.53583830595016479 0.81513535976409912 0.031571853905916214
0.63518756628036499 0.82993161678314209 0.015607288107275963
0.7311522364616394 0.84597611427307129 0.006884346716105938
0.82319670915603638 0.85911303758621216 0.0059611001051962376
0.91131216287612915 0.87234240770339966 0.0027055328246206045
0.98288941383361816 0.88239443302154541 5.0982307584490627e-05
0.050815746188163757 0.86786419153213501 0.2781125009059906
0.071434572339057922 0.86777353286743164 0.27723085880279541
0.12006489187479019 0.86661159992218018 0.27625906467437744
0.20230463147163391 0.86394608020782471 0.27642542123794556
0.29216745495796204 0.86179083585739136 0.27196225523948669
0.38425394892692566 0.8629000186920166 0.26123544573783875
0.47329732775688171 0.86761581897735596 0.24797117710113525
0.55318528413772583 0.87387597560882568 0.21529895067214966
0.63065850734710693 0.88422048091888428 0.17260083556175232
0.71009522676467896 0.8934100866317749 0.11681567877531052
0.79296910762786865 0.90514379739761353 0.061779171228408813
0.87931233644485474 0.91572874784469604 0.017958024516701698
0.96146863698959351 0.92567014694213867 0.0028549493290483952
0.30825620889663696 0.93692260980606079 0.44783619046211243
0.32087051868438721 0.9357483983039856 0.44538837671279907
0.34177342057228088 0.9346345067024231 0.44551804661750793
0.3759007453918457 0.93328386545181274 0.44668716192245483
0.42402100563049316 0.93243032693862915 0.44529414176940918
0.47793129086494446 0.93268907070159912 0.44149008393287659
0.53265225887298584 0.93421846628189087 0.43624973297119141
0.59027618169784546 0.93799537420272827 0.4213319718837738
0.6511877179145813 0.94444656372070312 0.3991205096244812
0.71688586473464966 0.95114654302597046 0.36854392290115356
0.78563588857650757 0.95749926567077637 0.32784143090248108
0.86024051904678345 0.96403181552886963 0.25158566236495972
0.93503022193908691 0.96856611967086792 0.13538837432861328
0.017361659556627274 0.025262914597988129 0.068230330944061279
0.04848359152674675 0.022937191650271416 0.061972271651029587
0.11867266148328781 0.017935000360012054 0.063099846243858337
0.2160675972700119 0.0086216498166322708 0.063242129981517792
0.35608804225921631 0.0061870650388300419 0.054540641605854034
0.51085221767425537 0.0040289186872541904 0.043886955827474594
0.66291713714599609 0.0028022765181958675 0.029185425490140915
0.7857213020324707 0.0027333428151905537 0.015011297538876534
0.8817102313041687 0.0024628133978694677 0.0074261832050979137
0.94852221012115479 0.0019770902581512928 0.0063407449051737785
0.9932975172996521 0.0035828533582389355 0.0054189194925129414
0.99996793270111084 0.0081959888339042664 0.0025011100806295872
1 0.053009018301963806 0.00026328890817239881
0.012580916285514832 0.056391876190900803 0.062670685350894928
0.041922431439161301 0.063905738294124603 0.068935558199882507
0.12030842900276184 0.05949961394071579 0.066067501902580261
0.22103480994701385 0.037474881857633591 0.059638198465108871
0.35733774304389954 0.018617907539010048 0.051582515239715576
0.51590937376022339 0.0075837229378521442 0.038538075983524323
0.66637516021728516 0.005481331143528223 0.02317841537296772
0.78670775890350342 0.0083413515239953995 0.01198896486312151
0.87856423854827881 0.0067847608588635921 0.0055374745279550552
0.94860219955444336 0.0064727934077382088 0.0035225213505327702
0.99421030282974243 0.014032745733857155 0.0019691917113959789
1 0.064494997262954712 0.001784844440408051
1 0.15355561673641205 0.001792967552319169
0.0060602524317800999 0.11248815059661865 0.069904804229736328
0.024853335693478584 0.1205633133649826 0.074637256562709808
0.093430571258068085 0.124234639108181 0.067463129758834839
0.21348217129707336 0.12477631121873856 0.048334322869777679
0.3579804003238678 0.1047484278678894 0.038435634225606918
0.51718258857727051 0.064981140196323395 0.027148542925715446
0.66825217008590698 0.044473253190517426 0.012327635660767555
0.78934288024902344 0.04893290251493454 0.0042878994718194008
0.87714558839797974 0.063803575932979584 0.0024684083182364702
0.94634795188903809 0.1052083894610405 0.0024160498287528753
0.99221611022949219 0.15767073631286621 0.0021575179416686296
0.99936568737030029 0.21500761806964874 0.0027511147782206535
1 0.26205283403396606 0.0041554770432412624
0.0030966515187174082 0.19036996364593506 0.070680461823940277
0.0077702989801764488 0.19382034242153168 0.067481830716133118
0.040588933974504471 0.19787546992301941 0.056224539875984192
0.16778089106082916 0.22255316376686096 0.031437382102012634
0.3426278829574585 0.23834599554538727 0.014434590004384518
0.50693082809448242 0.23096160590648651 0.013548607937991619
0.65697300434112549 0.22929807007312775 0.0065892389975488186
0.77182990312576294 0.23638114333152771 0.0041404273360967636
0.85821372270584106 0.25957444310188293 0.0042364979162812233
0.92608940601348877 0.28428968787193298 0.0036178738810122013
0.97778797149658203 0.31379604339599609 0.0051790573634207249
0.99614858627319336 0.34503483772277832 0.0048913243226706982
0.9994426965713501 0.3742910623550415 0.0039150910452008247
0.0011942096753045917 0.29328319430351257 0.046311203390359879
0.0039667617529630661 0.29649236798286438 0.049617916345596313
0.01265875156968832 0.30194714665412903 0.041352350264787674
0.072068832814693451 0.31708577275276184 0.020461676642298698
0.27000129222869873 0.35327929258346558 0.0073661054484546185
0.47818800806999207 0.38425981998443604 0.0049874996766448021
0.63289904594421387 0.3900960385799408 0.003937695175409317
0.74475926160812378 0.39489629864692688 0.0046527041122317314
0.83133363723754883 0.40753263235092163 0.0047922171652317047
0.90180200338363647 0.42416059970855713 0.0038040310610085726
0.96180927753448486 0.44032540917396545 0.0062577789649367332
0.99178612232208252 0.45781305432319641 0.0059694778174161911
0.99613535404205322 0.47052320837974548 0.0039332821033895016
4.0181479562306777e-05 0.40058356523513794 0.026803677901625633
0.001572971697896719 0.40453115105628967 0.026219746097922325
0.0060607311315834522 0.40843883156776428 0.022826848551630974
0.016157636418938637 0.41712489724159241 0.010785959661006927
0.16745695471763611 0.44372004270553589 0.0044039110653102398
0.39823368191719055 0.48312258720397949 0.005077362060546875
0.59191775321960449 0.51530075073242188 0.0027425577864050865
0.71613228321075439 0.52242434024810791 0.0027359607629477978
0.80494236946105957 0.52353090047836304 0.0043275719508528709
0.87764304876327515 0.53459697961807251 0.0056712431833148003
0.94470411539077759 0.54376208782196045 0.0057591008953750134
0.98662906885147095 0.54889881610870361 0.0077439402230083942
0.99395066499710083 0.55185246467590332 0.0050358790904283524
0.00010383456537965685 0.50304025411605835 0.019059903919696808
0.00049416039837524295 0.50196260213851929 0.020265301689505577
0.0037443870678544044 0.50203055143356323 0.017607923597097397
0.0082651320844888687 0.50790464878082275 0.012053096666932106
0.078688345849514008 0.52160900831222534 0.002648327499628067
0.3139374852180481 0.55285942554473877 0.0031493841670453548
0.52215689420700073 0.58660048246383667 0.0029449763242155313
0.67822843790054321 0.60956811904907227 0.0031429214868694544
0.7782396674156189 0.61996805667877197 0.0054908301681280136
0.85435730218887329 0.6234203577041626 0.006515891756862402
0.92502731084823608 0.62482738494873047 0.0052672741003334522
0.97971904277801514 0.62636089324951172 0.004191678948700428
0.99312913417816162 0.62736219167709351 0.0046628913842141628
0.00023547901946585625 0.58881711959838867 0.018489088863134384
0.00052805879386141896 0.58652055263519287 0.021769100800156593
0.0016940397908911109 0.58624750375747681 0.015952793881297112
0.0053894342854619026 0.58755189180374146 0.012717662379145622
0.031877554953098297 0.59370285272598267 0.003337800269946456
0.24959047138690948 0.61332148313522339 0.0030245613306760788
0.45211479067802429 0.63720703125 0.0044096405617892742
0.61429488658905029 0.66120374202728271 0.0042080897837877274
0.73503124713897705 0.68140143156051636 0.0039204913191497326
0.83012121915817261 0.69389653205871582 0.0038134704809635878
0.90723973512649536 0.69725286960601807 0.0042359596118330956
0.96785014867782593 0.69677901268005371 0.004106858279556036
0.9926878809928894 0.69452023506164551 0.0045748092234134674
0.00061178766191005707 0.66645872592926025 0.021048408001661301
0.00062142167007550597 0.66531842947006226 0.021212859079241753
0.00024535236298106611 0.6631351113319397 0.017672430723905563
0.002118533244356513 0.66045063734054565 0.01401335746049881
0.018373392522335052 0.6606677770614624 0.0067296195775270462
0.22088906168937683 0.67265021800994873 0.0064832498319447041
0.41568735241889954 0.69072026014328003 0.0082002980634570122
0.56788420677185059 0.71099817752838135 0.006294923834502697
0.68937647342681885 0.73092770576477051 0.0040117152966558933
0.7976691722869873 0.75168108940124512 0.0031725864391773939
0.89145523309707642 0.76577049493789673 0.0020460390951484442
0.95368731021881104 0.76356971263885498 0.0025146484840661287
0.98897790908813477 0.75916272401809692 0.0010229821782559156
0.0025549347046762705 0.73612082004547119 0.069399796426296234
0.002703303936868906 0.73598122596740723 0.070345424115657806
0.0027391919866204262 0.73317641019821167 0.064544796943664551
0.0034410813823342323 0.72939211130142212 0.05915355309844017
0.038871120661497116 0.72609227895736694 0.04444517195224762
0.24389097094535828 0.7318425178527832 0.027601758018136024
0.41284039616584778 0.74529039859771729 0.016564687713980675
0.54472064971923828 0.76125204563140869 0.0081091783940792084
0.65698105096817017 0.77869349718093872 0.0054611205123364925
0.76298367977142334 0.79881531000137329 0.0071052401326596737
0.86180251836776733 0.81705307960510254 0.004130389541387558
0.94078165292739868 0.82427877187728882 0.0004700155695900321
0.98303896188735962 0.82327407598495483 0.0012707728892564774
0.0053358487784862518 0.80199211835861206 0.18127766251564026
0.0046921377070248127 0.80248492956161499 0.17810215055942535
0.010710353031754494 0.79968667030334473 0.17536798119544983
0.040414653718471527 0.79678547382354736 0.16933883726596832
0.16276046633720398 0.79442757368087769 0.16210290789604187
0.29809576272964478 0.79607820510864258 0.13925373554229736
0.43028104305267334 0.80361670255661011 0.11130443215370178
0.53764051198959351 0.81457978487014771 0.076331868767738342
0.63368570804595947 0.82724958658218384 0.038500543683767319
0.72815036773681641 0.84308803081512451 0.019124064594507217
0.82110553979873657 0.85769015550613403 0.010002629831433296
0.91367876529693604 0.87243545055389404 0.00383607461117208
0.98371517658233643 0.88291436433792114 0.00066480448003858328
0.060581102967262268 0.86836344003677368 0.30937686562538147
0.083526298403739929 0.86872380971908569 0.30815878510475159
0.13936352729797363 0.86739182472229004 0.3059363067150116
0.2162848562002182 0.86484611034393311 0.30696603655815125
0.29708003997802734 0.86308145523071289 0.30536308884620667
0.38073742389678955 0.86336451768875122 0.29597064852714539
0.47453340888023376 0.86778712272644043 0.2833273708820343
0.55855494737625122 0.87449508905410767 0.25677430629730225
0.63583564758300781 0.88268899917602539 0.21616914868354797
0.71241170167922974 0.89317256212234497 0.1679232269525528
0.79352813959121704 0.90399014949798584 0.10401184856891632
0.87887763977050781 0.91475886106491089 0.041420746594667435
0.96046531200408936 0.92526310682296753 0.0067078834399580956
0.31789180636405945 0.93619126081466675 0.46395480632781982
0.32775935530662537 0.93507087230682373 0.46156221628189087
0.34701123833656311 0.93419390916824341 0.46158072352409363
0.38147306442260742 0.93303751945495605 0.46329721808433533
0.42740383744239807 0.93312430381774902 0.46472844481468201
0.47939038276672363 0.93269622325897217 0.46227642893791199
0.53553438186645508 0.93477904796600342 0.4557187557220459
0.59420514106750488 0.93883240222930908 0.44183224439620972
0.6550832986831665 0.94422256946563721 0.4184010922908783
0.72043263912200928 0.94999754428863525 0.38782459497451782
0.78802651166915894 0.95689672231674194 0.35226321220397949
0.85996067523956299 0.96359139680862427 0.29134449362754822
0.93475252389907837 0.96817553043365479 0.1729106605052948
0.0099657541140913963 0.026305254548788071 0.13070096075534821
0.03535919263958931 0.024480976164340973 0.13782720267772675
0.109969362616539 0.019329968839883804 0.13711792230606079
0.21944403648376465 0.0081006521359086037 0.13325843214988708
0.36217817664146423 0.0049848221242427826 0.13125845789909363
0.51654595136642456 0.0038513632025569677 0.11879944056272507
0.66770029067993164 0.0025670519098639488 0.10175710916519165
0.78810638189315796 0.0023751053959131241 0.086538620293140411
0.88215357065200806 0.0022831936366856098 0.076493069529533386
0.94805526733398438 0.0023580514825880527 0.064336098730564117
0.99471360445022583 0.0037270938046276569 0.048343583941459656
1 0.00679041538387537 0.03275647759437561
1 0.065370835363864899 0.013063288293778896
0.0061971927061676979 0.061389099806547165 0.13010311126708984
0.03677673265337944 0.061830930411815643 0.13435137271881104
0.12189045548439026 0.058118049055337906 0.13881686329841614
0.22406923770904541 0.034595489501953125 0.13127133250236511
0.36072853207588196 0.014003410004079342 0.12316279858350754
0.52068012952804565 0.006060626357793808 0.11713796854019165
0.6698337197303772 0.0076000289991497993 0.10262072831392288
0.78765535354614258 0.0075142057612538338 0.083768256008625031
0.87797516584396362 0.005807151086628437 0.071432910859584808
0.94854933023452759 0.0082693509757518768 0.057625520974397659
0.99302476644515991 0.017350545153021812 0.040366783738136292
1 0.070705637335777283 0.023320112377405167
1 0.16443192958831787 0.015067022293806076
0.00505091343075037 0.11826138943433762 0.1293732225894928
0.032643768936395645 0.12413473427295685 0.13448396325111389
0.11294905841350555 0.12634527683258057 0.13659209012985229
0.2208322286605835 0.1174006462097168 0.12716631591320038
0.36605489253997803 0.094173341989517212 0.1184578537940979
0.52565330266952515 0.058608230203390121 0.11119712144136429
0.67319899797439575 0.042369723320007324 0.09731089323759079
0.79029816389083862 0.041502933949232101 0.077795617282390594
0.87794703245162964 0.062617823481559753 0.058463361114263535
0.94618362188339233 0.10014361143112183 0.042700733989477158
0.99162429571151733 0.16268102824687958 0.027178552001714706
0.99978423118591309 0.22413809597492218 0.0171522106975317
1 0.27353766560554504 0.014400617219507694
0.0027550940867513418 0.2046038955450058 0.1302214115858078
0.014638340100646019 0.20684434473514557 0.13329833745956421
0.076201312243938446 0.21150587499141693 0.13044753670692444
0.19541983306407928 0.22501365840435028 0.11700446903705597
0.35969007015228271 0.23994076251983643 0.095289371907711029
0.51737469434738159 0.23197996616363525 0.084512479603290558
0.66316825151443481 0.23025205731391907 0.069543994963169098
0.77496355772018433 0.23801381886005402 0.052469231188297272
0.86356896162033081 0.26190102100372314 0.035651396960020065
0.93167167901992798 0.29148450493812561 0.025896662846207619
0.97933238744735718 0.32229065895080566 0.019264236092567444
0.99733817577362061 0.35125443339347839 0.012658976018428802
0.99997222423553467 0.37810656428337097 0.0063460255041718483
0.0027275385800749063 0.31483596563339233 0.1327705979347229
0.0031804852187633514 0.31515708565711975 0.13220131397247314
0.020431892946362495 0.31610366702079773 0.12713676691055298
0.11612898856401443 0.32609283924102783 0.1108316034078598
0.30865418910980225 0.35924795269966125 0.071416430175304413
0.49411815404891968 0.38505911827087402 0.042949602007865906
0.64103478193283081 0.39341652393341064 0.03630104660987854
0.74992853403091431 0.39941397309303284 0.02912820503115654
