luts/negative_new/kodak_portra_400_-.cube
# Created by: G'MIC (https://gmic.eu)
TITLE "kodak_portra_400_-"
# LUT size
LUT_3D_SIZE 13
# Data domain
DOMAIN_MIN 0.0 0.0 0.0
DOMAIN_MAX 1.0 1.0 1.0
# LUT data points
0.0214360561221838 0.022272447124123573 0.024908745661377907
0.06870124489068985 0.019629040732979774 0.021238289773464203
0.15790043771266937 0.021116204559803009 0.018674932420253754
0.27072718739509583 0.016496321186423302 0.016657555475831032
0.39805698394775391 0.0071234460920095444 0.0090307500213384628
0.52038270235061646 0.0038142185658216476 0.0040435642004013062
0.63567346334457397 0.00044718722347170115 0.0015995249850675464
0.72912919521331787 0.00044017119216732681 0.0014598172856494784
0.81420260667800903 0.0024755140766501427 0.00060966343153268099
0.88428264856338501 0.006620998028665781 0.00033443674328736961
0.94015908241271973 0.025258172303438187 0
0.98580276966094971 0.08809102326631546 1.1488970812933985e-05
0.99764120578765869 0.16255153715610504 0.0011903650593012571
0.010350754484534264 0.065892301499843597 0.032481115311384201
0.058107517659664154 0.069714352488517761 0.026365198194980621
0.15646019577980042 0.077307261526584625 0.02078908309340477
0.27154132723808289 0.078477941453456879 0.015446486882865429
0.39927071332931519 0.062916487455368042 0.0079301567748188972
0.52256166934967041 0.044530022889375687 0.0027433359064161777
0.63627249002456665 0.027811760082840919 0.0024680790957063437
0.73087149858474731 0.03037790022790432 0.0014149235794320703
0.81370139122009277 0.037056911736726761 0.0003781935665756464
0.87913793325424194 0.064067348837852478 0.0012676164042204618
0.93574899435043335 0.11162424832582474 0.00068140967050567269
0.98012852668762207 0.16141046583652496 0.00023912916367407888
0.99589020013809204 0.21032647788524628 0.00086756685050204396
0.0034329134505242109 0.13414779305458069 0.041172537952661514
0.033243920654058456 0.13581635057926178 0.036966931074857712
0.12652921676635742 0.14970092475414276 0.021936334669589996
0.25795131921768188 0.16509324312210083 0.010291485115885735
0.39598539471626282 0.17251984775066376 0.0083747711032629013
0.51791369915008545 0.17275352776050568 0.0040463018231093884
0.62875878810882568 0.16518020629882812 0.0019006617367267609
0.72733479738235474 0.1663719117641449 0.0020471012685447931
0.80572432279586792 0.17199072241783142 0.0013685488374903798
0.8673851490020752 0.18628770112991333 0.0021294837351888418
0.92309039831161499 0.21277157962322235 0.0017241982277482748
0.97617948055267334 0.2426123172044754 0.0010651532793417573
0.99867308139801025 0.27504336833953857 0.00012655819591600448
0.0022286658640950918 0.22433203458786011 0.049048524349927902
0.0096736233681440353 0.22081820666790009 0.05521538108587265
0.081233784556388855 0.23022887110710144 0.044329069554805756
0.21936714649200439 0.25401315093040466 0.01495361328125
0.36787733435630798 0.27863949537277222 0.0073277340270578861
0.50352692604064941 0.29052022099494934 0.0048506790772080421
0.61819952726364136 0.28985130786895752 0.0034620845690369606
0.71559017896652222 0.28617742657661438 0.0024765313137322664
0.79081606864929199 0.28609189391136169 0.0033549140207469463
0.85408532619476318 0.29292163252830505 0.0046793767251074314
0.91081035137176514 0.31130406260490417 0.0039099152199923992
0.96834081411361694 0.32992938160896301 0.0020640804432332516
0.99703335762023926 0.35045060515403748 6.4804975409060717e-05
0.0020149380434304476 0.32128441333770752 0.074235863983631134
0.0044637345708906651 0.31555113196372986 0.084635533392429352
0.031649243086576462 0.31352218985557556 0.082969024777412415
0.16504448652267456 0.33726450800895691 0.049414090812206268
0.31806552410125732 0.36321428418159485 0.01379050500690937
0.46732380986213684 0.38515195250511169 0.0045207003131508827
0.59535974264144897 0.39266029000282288 0.0027873169165104628
0.69410955905914307 0.39077648520469666 0.0021977145224809647
0.76889258623123169 0.38910844922065735 0.0037455239798873663
0.83504271507263184 0.39267066121101379 0.0054721757769584656
0.89555412530899048 0.40465047955513 0.0043005403131246567
0.95647644996643066 0.41403618454933167 0.0029399646446108818
0.9935002326965332 0.41965237259864807 0.00093029247364029288
0.0020022972021251917 0.41072574257850647 0.11153391003608704
0.0063880621455609798 0.40344178676605225 0.12439660727977753
0.01441605482250452 0.39733374118804932 0.12953726947307587
0.11227621883153915 0.40914681553840637 0.10728377103805542
0.27036896347999573 0.43313995003700256 0.059144638478755951
0.41454792022705078 0.45670938491821289 0.019977809861302376
0.55317091941833496 0.47389531135559082 0.0052719716913998127
0.66136276721954346 0.47944754362106323 0.0032073226757347584
0.74010509252548218 0.47895100712776184 0.0039765452966094017
0.81050640344619751 0.48202377557754517 0.0039043352007865906
0.87606346607208252 0.48555955290794373 0.0045942268334329128
0.94000309705734253 0.4873444139957428 0.0039695589803159237
0.98520475625991821 0.48749840259552002 0.0010036693420261145
0.0013587801950052381 0.48717692494392395 0.16008269786834717
0.0047861733473837376 0.47997736930847168 0.17034816741943359
0.0070266425609588623 0.47159460186958313 0.17530164122581482
0.081321701407432556 0.47346597909927368 0.16692739725112915
0.23415221273899078 0.49200201034545898 0.13500088453292847
0.36197683215141296 0.51111918687820435 0.094122417271137238
0.49236378073692322 0.53130394220352173 0.045332964509725571
0.61742407083511353 0.54723560810089111 0.012337942607700825
0.7095874547958374 0.55212068557739258 0.0069998200051486492
0.78706872463226318 0.55460119247436523 0.0069833644665777683
0.85659307241439819 0.55567800998687744 0.0063795051537454128
0.92269784212112427 0.5555834174156189 0.0044843638315796852
0.97637569904327393 0.55544513463973999 0.0011386347468942404
0.0014676860300824046 0.55665510892868042 0.20673324167728424
0.0049402425065636635 0.55019843578338623 0.21635599434375763
0.0069336835294961929 0.54230159521102905 0.22084926068782806
0.071029916405677795 0.53508341312408447 0.22097715735435486
0.20968648791313171 0.54225015640258789 0.21283210813999176
0.32611909508705139 0.55784553289413452 0.19029626250267029
0.44291931390762329 0.5763663649559021 0.15329340100288391
0.56443899869918823 0.594035804271698 0.081998176872730255
0.67663341760635376 0.60963839292526245 0.028607521206140518
0.76592373847961426 0.61679399013519287 0.0097949011251330376
0.83767759799957275 0.6193002462387085 0.0075514102354645729
0.90727150440216064 0.62081629037857056 0.0064942152239382267
0.96966558694839478 0.62381017208099365 0.0021707871928811073
0.0030221228953450918 0.61915147304534912 0.25648468732833862
0.0047358791343867779 0.61428624391555786 0.26324921846389771
0.010324127040803432 0.60665643215179443 0.26619893312454224
0.095096096396446228 0.5980561375617981 0.27210718393325806
0.2188696414232254 0.59350365400314331 0.27347597479820251
0.31913703680038452 0.60452193021774292 0.26277321577072144
0.42232409119606018 0.62046831846237183 0.23965403437614441
0.52659046649932861 0.63592565059661865 0.20209045708179474
0.63424420356750488 0.65181362628936768 0.15418927371501923
0.73589050769805908 0.66801172494888306 0.08344714343547821
0.82095271348953247 0.67886066436767578 0.037158697843551636
0.89374709129333496 0.68391180038452148 0.010188128799200058
0.96262842416763306 0.6883704662322998 0.004008603747934103
0.007577559445053339 0.67799884080886841 0.31423881649971008
0.012565881945192814 0.6753699779510498 0.31674081087112427
0.063832543790340424 0.66797322034835815 0.31877630949020386
0.1753736287355423 0.6597256064414978 0.32618060708045959
0.26206052303314209 0.65237027406692505 0.33241090178489685
0.34133175015449524 0.6564335823059082 0.33000588417053223
0.43203771114349365 0.6695597767829895 0.31599017977714539
0.51837682723999023 0.6820605993270874 0.29325279593467712
0.61234468221664429 0.69505918025970459 0.26348128914833069
0.7013239860534668 0.70983564853668213 0.22719626128673553
0.79348409175872803 0.72605204582214355 0.18114615976810455
0.87655174732208252 0.73923128843307495 0.11630397289991379
0.95068377256393433 0.74810343980789185 0.052505761384963989
0.11582235991954803 0.73625439405441284 0.38186332583427429
0.15280389785766602 0.73481005430221558 0.38539215922355652
0.19940830767154694 0.72968083620071411 0.38961264491081238
0.26778241991996765 0.72146260738372803 0.39361649751663208
0.32654488086700439 0.71432781219482422 0.39622312784194946
0.38594335317611694 0.71296799182891846 0.39637494087219238
0.4503115713596344 0.72001403570175171 0.3915332555770874
0.52267563343048096 0.73109763860702515 0.37991493940353394
0.60241353511810303 0.74390798807144165 0.36233946681022644
0.68552446365356445 0.75841683149337769 0.34100827574729919
0.76812410354614258 0.77442443370819092 0.3126385509967804
0.8547443151473999 0.7907899022102356 0.2739158570766449
0.93501883745193481 0.80418366193771362 0.23230385780334473
0.29258978366851807 0.80609714984893799 0.47267892956733704
0.31204876303672791 0.80512171983718872 0.47437828779220581
0.33643555641174316 0.79842346906661987 0.47426772117614746
0.37188065052032471 0.79091453552246094 0.4746854305267334
0.41437587141990662 0.78620356321334839 0.48136284947395325
0.45675480365753174 0.77972447872161865 0.48677977919578552
0.50480246543884277 0.78336763381958008 0.48633542656898499
0.55659240484237671 0.79264140129089355 0.47819197177886963
0.62031340599060059 0.80464130640029907 0.46772009134292603
0.68646228313446045 0.81851178407669067 0.45617154240608215
0.75918984413146973 0.83270353078842163 0.43642428517341614
0.83756399154663086 0.84697133302688599 0.40717232227325439
0.91739135980606079 0.86067897081375122 0.3725334107875824
0.43181401491165161 0.88254266977310181 0.56930571794509888
0.44313541054725647 0.88154679536819458 0.5708584189414978
0.45917180180549622 0.87621235847473145 0.57005929946899414
0.48557224869728088 0.87377876043319702 0.57467901706695557
0.51601099967956543 0.86836498975753784 0.58069276809692383
0.55228710174560547 0.86552202701568604 0.59113812446594238
0.58928322792053223 0.86550962924957275 0.59706741571426392
0.62706863880157471 0.87139332294464111 0.59248584508895874
0.67528903484344482 0.88312810659408569 0.58813732862472534
0.72540336847305298 0.89520829916000366 0.57873296737670898
0.78262126445770264 0.90790295600891113 0.56846272945404053
0.84650754928588867 0.91896593570709229 0.55118238925933838
0.91509002447128296 0.92925196886062622 0.52427393198013306
0.021628750488162041 0.028022781014442444 0.075400076806545258
0.074168309569358826 0.022162433713674545 0.078273594379425049
0.16493707895278931 0.014020672999322414 0.080952934920787811
0.28299728035926819 0.0090870428830385208 0.077350959181785583
0.40741643309593201 0.0062234913930296898 0.071833468973636627
0.52604645490646362 0.0033639646135270596 0.061622276902198792
0.64193189144134521 0.00076883356086909771 0.0492234006524086
0.73673254251480103 0.0002672980772331357 0.043876811861991882
0.81892269849777222 0.0015662249643355608 0.027309447526931763
0.88491314649581909 0.0046509089879691601 0.018504692241549492
0.94011962413787842 0.015393365174531937 0.0096638547256588936
0.98549795150756836 0.081119969487190247 0.0069187390618026257
0.99936133623123169 0.16167578101158142 0.0087912911549210548
0.0087085645645856857 0.086364701390266418 0.083697237074375153
0.062375970184803009 0.081949524581432343 0.083599239587783813
0.16483376920223236 0.078021988272666931 0.07766597718000412
0.28411182761192322 0.064077235758304596 0.070926845073699951
0.4090086817741394 0.048673219978809357 0.06335882842540741
0.53058218955993652 0.027804579585790634 0.052127942442893982
0.64284712076187134 0.02090168371796608 0.04073822870850563
0.73802644014358521 0.021583212539553642 0.03133881464600563
0.81767958402633667 0.027471130713820457 0.020886186510324478
0.8798258900642395 0.052102137356996536 0.014626042917370796
0.9344063401222229 0.097379870712757111 0.010939698666334152
0.98381215333938599 0.15898072719573975 0.0070257298648357391
0.99915695190429688 0.21067248284816742 0.006127720233052969
0.0032468759454786777 0.16165518760681152 0.095238238573074341
0.04320858046412468 0.15977691113948822 0.092590406537055969
0.14599448442459106 0.16436272859573364 0.084417171776294708
0.27373489737510681 0.17060381174087524 0.065992541611194611
0.4037976861000061 0.16869853436946869 0.043925207108259201
0.52648532390594482 0.15850193798542023 0.036717403680086136
0.63912004232406616 0.15821422636508942 0.024774258956313133
0.7340053915977478 0.15772858262062073 0.017810536548495293
0.80834639072418213 0.16578194499015808 0.013344289734959602
0.87013113498687744 0.18632341921329498 0.010020042769610882
0.92567360401153564 0.21446901559829712 0.0095918243750929832
0.97805619239807129 0.24357233941555023 0.0047939373180270195
0.99906694889068604 0.27520674467086792 0.0028526305686682463
0.0023786057718098164 0.25291413068771362 0.10765895247459412
0.017036288976669312 0.24975694715976715 0.11440327763557434
0.10376503318548203 0.2499498575925827 0.11155261099338531
0.23873135447502136 0.26548591256141663 0.082051970064640045
0.38426628708839417 0.2829183042049408 0.042978517711162567
0.51399689912796021 0.28839555382728577 0.021037202328443527
0.62500953674316406 0.2864481508731842 0.015225818380713463
0.72161382436752319 0.28473192453384399 0.0099076814949512482
0.7948792576789856 0.28560611605644226 0.0077916611917316914
0.85877984762191772 0.29501855373382568 0.007685971911996603
0.91578453779220581 0.31121817231178284 0.0069776498712599277
0.96977740526199341 0.32992014288902283 0.0043360241688787937
0.99737519025802612 0.34838563203811646 0.0038262160960584879
0.0029355816077440977 0.34402969479560852 0.13089518249034882
0.0078957946971058846 0.34151637554168701 0.14217254519462585
0.059236250817775726 0.33495041728019714 0.1435479074716568
0.19086802005767822 0.34890830516815186 0.12289325147867203
0.33551868796348572 0.37102869153022766 0.077317856252193451
0.47760513424873352 0.38816827535629272 0.033027078956365585
0.6015436053276062 0.39445191621780396 0.01188215333968401
0.69860011339187622 0.39234697818756104 0.0053935782052576542
0.77500653266906738 0.38963630795478821 0.0039550033397972584
0.83857202529907227 0.39277869462966919 0.0056715873070061207
0.89916586875915527 0.40298864245414734 0.0069678062573075294
0.95760965347290039 0.41267785429954529 0.0073953066021203995
0.99359250068664551 0.42123603820800781 0.004248390905559063
0.0025767756160348654 0.43104833364486694 0.16331249475479126
0.0085161393508315086 0.42481085658073425 0.1730981171131134
0.032902691513299942 0.4151160717010498 0.17763379216194153
0.1518862396478653 0.42002257704734802 0.16857178509235382
0.28765425086021423 0.43986785411834717 0.13520516455173492
0.42666023969650269 0.4628237783908844 0.083039209246635437
0.56041675806045532 0.47978928685188293 0.032417371869087219
0.66452038288116455 0.48365724086761475 0.011061619967222214
0.74723196029663086 0.48109650611877441 0.0057969186455011368
0.81574326753616333 0.48112136125564575 0.0045485552400350571
0.88017821311950684 0.48259380459785461 0.0081577375531196594
0.94297736883163452 0.48687630891799927 0.007223077118396759
0.98758804798126221 0.48942571878433228 0.0043203914538025856
0.0020944783464074135 0.5036015510559082 0.19932574033737183
0.006127077154815197 0.49633273482322693 0.20780248939990997
0.013860275968909264 0.48705178499221802 0.21065056324005127
0.12264477461576462 0.48192748427391052 0.21256172657012939
0.24995511770248413 0.49729403853416443 0.19529822468757629
0.3738095760345459 0.51600605249404907 0.16003873944282532
0.50139361619949341 0.53562784194946289 0.10988308489322662
0.62208372354507446 0.55033606290817261 0.053876254707574844
0.718208909034729 0.55672949552536011 0.016792148351669312
0.79208219051361084 0.55707675218582153 0.0086852731183171272
0.86103802919387817 0.55508601665496826 0.0059325871989130974
0.92619740962982178 0.55637842416763306 0.0039642034098505974
0.97854149341583252 0.55605345964431763 0.0023908577859401703
0.0016294891247525811 0.56793880462646484 0.23893333971500397
0.0034571478608995676 0.56264859437942505 0.24496680498123169
0.010964606888592243 0.55423837900161743 0.24873784184455872
0.11231976747512817 0.54560410976409912 0.25384119153022766
0.23522405326366425 0.55054092407226562 0.25164470076560974
0.34101063013076782 0.56205207109451294 0.23672129213809967
0.45462927222251892 0.57886815071105957 0.20301400125026703
0.57108813524246216 0.59665602445602417 0.15379059314727783
0.68295341730117798 0.61399692296981812 0.090433590114116669
0.76977509260177612 0.62112146615982056 0.041635774075984955
0.84180653095245361 0.62235301733016968 0.013998532667756081
0.90831589698791504 0.6228339672088623 0.0065043582580983639
0.96751391887664795 0.62246578931808472 0.0046721664257347584
0.0037920484319329262 0.626964271068573 0.28688064217567444
0.0063144308514893055 0.6214669942855835 0.28734418749809265
0.022894944995641708 0.61361730098724365 0.28895178437232971
0.13372378051280975 0.60356414318084717 0.2983950674533844
0.24646797776222229 0.60086160898208618 0.30209717154502869
0.33770865201950073 0.60850232839584351 0.29286414384841919
0.43078449368476868 0.62209820747375488 0.27116173505783081
0.53531962633132935 0.63795673847198486 0.2398180216550827
0.64217418432235718 0.65561038255691528 0.20261707901954651
0.73745280504226685 0.66975319385528564 0.15130963921546936
0.82238239049911499 0.68007427453994751 0.091557040810585022
0.8945508599281311 0.68492215871810913 0.034600604325532913
0.96122080087661743 0.68859374523162842 0.0086431019008159637
0.0095511041581630707 0.68303656578063965 0.33469337224960327
0.028388109058141708 0.6793057918548584 0.33490952849388123
0.10017260164022446 0.67229181528091431 0.33919593691825867
0.20250663161277771 0.66316264867782593 0.34765678644180298
0.28234446048736572 0.65699374675750732 0.35454592108726501
0.35367691516876221 0.6586611270904541 0.34987297654151917
0.43467935919761658 0.66905885934829712 0.33806225657463074
0.52447104454040527 0.68352997303009033 0.31847584247589111
0.61711615324020386 0.69817376136779785 0.29283884167671204
0.70284229516983032 0.7115054726600647 0.26382476091384888
0.79329651594161987 0.72664779424667358 0.22382473945617676
0.87551295757293701 0.73990905284881592 0.17218819260597229
0.95019990205764771 0.74852615594863892 0.098742827773094177
0.13834503293037415 0.73955196142196655 0.39627021551132202
0.17608247697353363 0.73719209432601929 0.3985036313533783
0.22453966736793518 0.73289722204208374 0.40457597374916077
0.28438636660575867 0.72615253925323486 0.40965467691421509
0.34417915344238281 0.71859985589981079 0.41417276859283447
0.39528191089630127 0.71493566036224365 0.41253548860549927
0.45664176344871521 0.72061634063720703 0.40832874178886414
0.52686476707458496 0.73253375291824341 0.39748302102088928
0.6055561900138855 0.74615859985351562 0.38343697786331177
0.68601113557815552 0.75974142551422119 0.36641997098922729
0.76857060194015503 0.77545821666717529 0.33662810921669006
0.85389381647109985 0.79063856601715088 0.29855573177337646
0.93268752098083496 0.80344504117965698 0.26001843810081482
0.30145341157913208 0.80939954519271851 0.48146578669548035
0.31808751821517944 0.80716794729232788 0.48438307642936707
0.34183144569396973 0.80175668001174927 0.48433545231819153
0.37921661138534546 0.79487508535385132 0.48516803979873657
0.42577928304672241 0.79043698310852051 0.49189490079879761
0.46859070658683777 0.78575116395950317 0.49697864055633545
0.50950336456298828 0.78522467613220215 0.49651777744293213
0.56016796827316284 0.79220914840698242 0.48963451385498047
0.62128919363021851 0.80551141500473022 0.47932511568069458
0.68918883800506592 0.81837934255599976 0.46702706813812256
0.7602916955947876 0.83230400085449219 0.44960722327232361
0.83947014808654785 0.84754115343093872 0.42261460423469543
0.91925370693206787 0.86071395874023438 0.39011570811271667
0.43463945388793945 0.88466960191726685 0.57503801584243774
0.44496926665306091 0.8837929368019104 0.57686322927474976
0.46244943141937256 0.88012170791625977 0.57802325487136841
0.4845241904258728 0.87303692102432251 0.57809215784072876
0.51959538459777832 0.87213295698165894 0.58811116218566895
0.5544777512550354 0.86667674779891968 0.59472179412841797
0.58885246515274048 0.86467188596725464 0.60010188817977905
0.62495654821395874 0.86903303861618042 0.59489434957504272
0.67238283157348633 0.88295120000839233 0.59210258722305298
0.72669810056686401 0.89516746997833252 0.58402574062347412
0.78277677297592163 0.90687733888626099 0.57517969608306885
0.847636878490448 0.92004537582397461 0.55998140573501587
0.91613852977752686 0.93101280927658081 0.53878283500671387
0.017048479989171028 0.029995817691087723 0.16601528227329254
0.086501255631446838 0.022249901667237282 0.17668651044368744
0.18924495577812195 0.0094127431511878967 0.18829116225242615
0.29738354682922363 0.0066621219739317894 0.18908670544624329
0.4211026132106781 0.0053646164014935493 0.18793469667434692
0.54256802797317505 0.0033123241737484932 0.17672951519489288
0.6544376015663147 0.0013623555423691869 0.16641603410243988
0.74967026710510254 0.0014534745132550597 0.16114421188831329
0.82336550951004028 0.0014798631891608238 0.15302373468875885
0.88549542427062988 0.0074508069083094597 0.14640216529369354
0.9385496973991394 0.034227393567562103 0.13517819344997406
0.98128193616867065 0.11475572735071182 0.11946393549442291
0.99842798709869385 0.1773020327091217 0.10707206279039383
0.0076723434031009674 0.091079100966453552 0.16990846395492554
0.062723614275455475 0.085883438587188721 0.17548277974128723
0.17931446433067322 0.077133238315582275 0.1844850480556488
0.29857763648033142 0.060483220964670181 0.18566872179508209
0.42270693182945251 0.034027233719825745 0.17960099875926971
0.54492580890655518 0.019620513543486595 0.17259560525417328
0.65556460618972778 0.020162319764494896 0.16703197360038757
0.74656146764755249 0.026590295135974884 0.16206611692905426
0.82007640600204468 0.037414178252220154 0.14959754049777985
0.87931424379348755 0.073753178119659424 0.13921159505844116
0.93277227878570557 0.12563531100749969 0.1291109025478363
0.98246008157730103 0.17847882211208344 0.11581962555646896
0.99858051538467407 0.22269202768802643 0.10043317079544067
0.0020590838976204395 0.18057133257389069 0.183473140001297
0.033699635416269302 0.18101984262466431 0.18159416317939758
0.16370086371898651 0.18092174828052521 0.18549643456935883
0.29350730776786804 0.17690406739711761 0.17840009927749634
0.42007049918174744 0.16575881838798523 0.17404642701148987
0.54049468040466309 0.15819594264030457 0.16296416521072388
0.64935684204101562 0.16007676720619202 0.15243637561798096
0.74018001556396484 0.166059210896492 0.14109139144420624
0.81067538261413574 0.17732171714305878 0.13046477735042572
0.86991673707962036 0.20347543060779572 0.12398096919059753
0.92563813924789429 0.2336450070142746 0.11400537192821503
0.97953802347183228 0.25578349828720093 0.098480924963951111
0.99956929683685303 0.28437888622283936 0.086129762232303619
0.0016051946440711617 0.29199841618537903 0.2060256153345108
0.020295027643442154 0.28796449303627014 0.20155468583106995
0.13567784428596497 0.28085651993751526 0.2021341472864151
0.26436209678649902 0.28039255738258362 0.19129152595996857
0.40601307153701782 0.28930896520614624 0.17020075023174286
0.5291326642036438 0.29029345512390137 0.14337827265262604
0.63512563705444336 0.28886798024177551 0.1258617639541626
0.72573554515838623 0.29022505879402161 0.11486472189426422
0.79720604419708252 0.29302427172660828 0.10563937574625015
0.86082905530929565 0.30322787165641785 0.099724851548671722
0.91790437698364258 0.31947579979896545 0.090620465576648712
0.97267729043960571 0.33422353863716125 0.074137836694717407
0.99919754266738892 0.35180658102035522 0.057390607893466949
0.0046764747239649296 0.3838314414024353 0.22569935023784637
