luts/negative_new/kodak_tmax_3200_-.cube
# Created by: G'MIC (https://gmic.eu)
TITLE "kodak_tmax_3200_-"
# LUT size
LUT_3D_SIZE 7
# Data domain
DOMAIN_MIN 0.0 0.0 0.0
DOMAIN_MAX 1.0 1.0 1.0
# LUT data points
0.009624062106013298 0.009624062106013298 0.009624062106013298
0.028547383844852448 0.028547383844852448 0.028547383844852448
0.052154943346977234 0.052154943346977234 0.052154943346977234
0.11748369783163071 0.11748369783163071 0.11748369783163071
0.19519908726215363 0.19519908726215363 0.19519908726215363
0.26020315289497375 0.26020315289497375 0.26020315289497375
0.33129686117172241 0.33129686117172241 0.33129686117172241
0.098718143999576569 0.098718143999576569 0.098718143999576569
0.1412072479724884 0.1412072479724884 0.1412072479724884
0.19165840744972229 0.19165840744972229 0.19165840744972229
0.23940972983837128 0.23940972983837128 0.23940972983837128
0.28690975904464722 0.28690975904464722 0.28690975904464722
0.32659780979156494 0.32659780979156494 0.32659780979156494
0.38148966431617737 0.38148966431617737 0.38148966431617737
0.2460935115814209 0.2460935115814209 0.2460935115814209
0.26142004132270813 0.26142004132270813 0.26142004132270813
0.29878821969032288 0.29878821969032288 0.29878821969032288
0.35360780358314514 0.35360780358314514 0.35360780358314514
0.39387783408164978 0.39387783408164978 0.39387783408164978
0.43773174285888672 0.43773174285888672 0.43773174285888672
0.50419574975967407 0.50419574975967407 0.50419574975967407
0.36849024891853333 0.36849024891853333 0.36849024891853333
0.37401062250137329 0.37401062250137329 0.37401062250137329
0.39480233192443848 0.39480233192443848 0.39480233192443848
0.43909832835197449 0.43909832835197449 0.43909832835197449
0.4908197820186615 0.4908197820186615 0.4908197820186615
0.5618937611579895 0.5618937611579895 0.5618937611579895
0.65894901752471924 0.65894901752471924 0.65894901752471924
0.50041669607162476 0.50041669607162476 0.50041669607162476
0.50842666625976562 0.50842666625976562 0.50842666625976562
0.5221712589263916 0.5221712589263916 0.5221712589263916
0.54606205224990845 0.54606205224990845 0.54606205224990845
0.59010785818099976 0.59010785818099976 0.59010785818099976
0.65825188159942627 0.65825188159942627 0.65825188159942627
0.75954854488372803 0.75954854488372803 0.75954854488372803
0.67015856504440308 0.67015856504440308 0.67015856504440308
0.6755746603012085 0.6755746603012085 0.6755746603012085
0.68533241748809814 0.68533241748809814 0.68533241748809814
0.70184886455535889 0.70184886455535889 0.70184886455535889
0.72667044401168823 0.72667044401168823 0.72667044401168823
0.76377749443054199 0.76377749443054199 0.76377749443054199
0.83488678932189941 0.83488678932189941 0.83488678932189941
0.86090981960296631 0.86090981960296631 0.86090981960296631
0.85999304056167603 0.85999304056167603 0.85999304056167603
0.86542069911956787 0.86542069911956787 0.86542069911956787
0.87916797399520874 0.87916797399520874 0.87916797399520874
0.89063870906829834 0.89063870906829834 0.89063870906829834
0.90313255786895752 0.90313255786895752 0.90313255786895752
0.93509989976882935 0.93509989976882935 0.93509989976882935
0.0090413261204957962 0.0090413261204957962 0.0090413261204957962
0.055683284997940063 0.055683284997940063 0.055683284997940063
0.094859272241592407 0.094859272241592407 0.094859272241592407
0.1407739669084549 0.1407739669084549 0.1407739669084549
0.21223658323287964 0.21223658323287964 0.21223658323287964
0.26527038216590881 0.26527038216590881 0.26527038216590881
0.32535931468009949 0.32535931468009949 0.32535931468009949
0.1185687780380249 0.1185687780380249 0.1185687780380249
0.16218440234661102 0.16218440234661102 0.16218440234661102
0.20473341643810272 0.20473341643810272 0.20473341643810272
0.24710361659526825 0.24710361659526825 0.24710361659526825
0.29103162884712219 0.29103162884712219 0.29103162884712219
0.33115816116333008 0.33115816116333008 0.33115816116333008
0.38709715008735657 0.38709715008735657 0.38709715008735657
0.2720591127872467 0.2720591127872467 0.2720591127872467
0.28330773115158081 0.28330773115158081 0.28330773115158081
0.31748226284980774 0.31748226284980774 0.31748226284980774
0.37068507075309753 0.37068507075309753 0.37068507075309753
0.40422922372817993 0.40422922372817993 0.40422922372817993
0.44470164179801941 0.44470164179801941 0.44470164179801941
0.50849384069442749 0.50849384069442749 0.50849384069442749
0.39918354153633118 0.39918354153633118 0.39918354153633118
0.39995485544204712 0.39995485544204712 0.39995485544204712
0.41759145259857178 0.41759145259857178 0.41759145259857178
0.46042373776435852 0.46042373776435852 0.46042373776435852
0.50803977251052856 0.50803977251052856 0.50803977251052856
0.57429248094558716 0.57429248094558716 0.57429248094558716
0.66062021255493164 0.66062021255493164 0.66062021255493164
0.53002870082855225 0.53002870082855225 0.53002870082855225
0.53358376026153564 0.53358376026153564 0.53358376026153564
0.54322612285614014 0.54322612285614014 0.54322612285614014
0.56482928991317749 0.56482928991317749 0.56482928991317749
0.6115686297416687 0.6115686297416687 0.6115686297416687
0.68264496326446533 0.68264496326446533 0.68264496326446533
0.77458316087722778 0.77458316087722778 0.77458316087722778
0.68841135501861572 0.68841135501861572 0.68841135501861572
0.69341582059860229 0.69341582059860229 0.69341582059860229
0.70178818702697754 0.70178818702697754 0.70178818702697754
0.71714133024215698 0.71714133024215698 0.71714133024215698
0.74614077806472778 0.74614077806472778 0.74614077806472778
0.78984904289245605 0.78984904289245605 0.78984904289245605
0.85202902555465698 0.85202902555465698 0.85202902555465698
0.86512905359268188 0.86512905359268188 0.86512905359268188
0.868510901927948 0.868510901927948 0.868510901927948
0.87509584426879883 0.87509584426879883 0.87509584426879883
0.88612383604049683 0.88612383604049683 0.88612383604049683
0.90033906698226929 0.90033906698226929 0.90033906698226929
0.91853207349777222 0.91853207349777222 0.91853207349777222
0.94551771879196167 0.94551771879196167 0.94551771879196167
0.036406587809324265 0.036406587809324265 0.036406587809324265
0.096270330250263214 0.096270330250263214 0.096270330250263214
0.15606452524662018 0.15606452524662018 0.15606452524662018
0.17764554917812347 0.17764554917812347 0.17764554917812347
0.22039489448070526 0.22039489448070526 0.22039489448070526
0.26658692955970764 0.26658692955970764 0.26658692955970764
0.32365956902503967 0.32365956902503967 0.32365956902503967
0.14933913946151733 0.14933913946151733 0.14933913946151733
0.18600572645664215 0.18600572645664215 0.18600572645664215
0.22701320052146912 0.22701320052146912 0.22701320052146912
0.25995111465454102 0.25995111465454102 0.25995111465454102
0.29076233506202698 0.29076233506202698 0.29076233506202698
0.32996982336044312 0.32996982336044312 0.32996982336044312
0.38552182912826538 0.38552182912826538 0.38552182912826538
0.26696082949638367 0.26696082949638367 0.26696082949638367
0.29348215460777283 0.29348215460777283 0.29348215460777283
0.33571454882621765 0.33571454882621765 0.33571454882621765
0.38298824429512024 0.38298824429512024 0.38298824429512024
0.41047182679176331 0.41047182679176331 0.41047182679176331
0.4440159797668457 0.4440159797668457 0.4440159797668457
0.49740743637084961 0.49740743637084961 0.49740743637084961
0.42672550678253174 0.42672550678253174 0.42672550678253174
0.42439761757850647 0.42439761757850647 0.42439761757850647
0.4477943480014801 0.4477943480014801 0.4477943480014801
0.4883994460105896 0.4883994460105896 0.4883994460105896
0.5267828106880188 0.5267828106880188 0.5267828106880188
0.57655531167984009 0.57655531167984009 0.57655531167984009
0.64524561166763306 0.64524561166763306 0.64524561166763306
0.56677365303039551 0.56677365303039551 0.56677365303039551
0.56558084487915039 0.56558084487915039 0.56558084487915039
0.57617032527923584 0.57617032527923584 0.57617032527923584
0.60283464193344116 0.60283464193344116 0.60283464193344116
0.64070749282836914 0.64070749282836914 0.64070749282836914
0.6952204704284668 0.6952204704284668 0.6952204704284668
0.77291750907897949 0.77291750907897949 0.77291750907897949
0.71614980697631836 0.71614980697631836 0.71614980697631836
0.71997815370559692 0.71997815370559692 0.71997815370559692
0.72878187894821167 0.72878187894821167 0.72878187894821167
0.74579417705535889 0.74579417705535889 0.74579417705535889
0.76830762624740601 0.76830762624740601 0.76830762624740601
0.79791831970214844 0.79791831970214844 0.79791831970214844
0.85320627689361572 0.85320627689361572 0.85320627689361572
0.87537562847137451 0.87537562847137451 0.87537562847137451
0.88258993625640869 0.88258993625640869 0.88258993625640869
0.89064294099807739 0.89064294099807739 0.89064294099807739
0.89970725774765015 0.89970725774765015 0.89970725774765015
0.9071885347366333 0.9071885347366333 0.9071885347366333
0.91616946458816528 0.91616946458816528 0.91616946458816528
0.94435101747512817 0.94435101747512817 0.94435101747512817
0.078606486320495605 0.078606486320495605 0.078606486320495605
0.12930501997470856 0.12930501997470856 0.12930501997470856
0.20168575644493103 0.20168575644493103 0.20168575644493103
0.25391304492950439 0.25391304492950439 0.25391304492950439
0.27021002769470215 0.27021002769470215 0.27021002769470215
0.29066020250320435 0.29066020250320435 0.29066020250320435
0.33673790097236633 0.33673790097236633 0.33673790097236633
0.1827813982963562 0.1827813982963562 0.1827813982963562
0.21205863356590271 0.21205863356590271 0.21205863356590271
0.26061707735061646 0.26061707735061646 0.26061707735061646
0.30359423160552979 0.30359423160552979 0.30359423160552979
0.32328358292579651 0.32328358292579651 0.32328358292579651
0.34569060802459717 0.34569060802459717 0.34569060802459717
0.38737571239471436 0.38737571239471436 0.38737571239471436
0.27851963043212891 0.27851963043212891 0.27851963043212891
0.30085909366607666 0.30085909366607666 0.30085909366607666
0.35397207736968994 0.35397207736968994 0.35397207736968994
0.40259844064712524 0.40259844064712524 0.40259844064712524
0.43071568012237549 0.43071568012237549 0.43071568012237549
0.4481484591960907 0.4481484591960907 0.4481484591960907
0.47759312391281128 0.47759312391281128 0.47759312391281128
0.41926082968711853 0.41926082968711853 0.41926082968711853
0.42472189664840698 0.42472189664840698 0.42472189664840698
0.46444934606552124 0.46444934606552124 0.46444934606552124
0.50983422994613647 0.50983422994613647 0.50983422994613647
0.54453086853027344 0.54453086853027344 0.54453086853027344
0.57229524850845337 0.57229524850845337 0.57229524850845337
0.60767978429794312 0.60767978429794312 0.60767978429794312
0.57590234279632568 0.57590234279632568 0.57590234279632568
0.57603645324707031 0.57603645324707031 0.57603645324707031
0.59417223930358887 0.59417223930358887 0.59417223930358887
0.6285509467124939 0.6285509467124939 0.6285509467124939
0.66303128004074097 0.66303128004074097 0.66303128004074097
0.70218408107757568 0.70218408107757568 0.70218408107757568
0.75992244482040405 0.75992244482040405 0.75992244482040405
0.73765468597412109 0.73765468597412109 0.73765468597412109
0.7386583685874939 0.7386583685874939 0.7386583685874939
0.74899971485137939 0.74899971485137939 0.74899971485137939
0.77270978689193726 0.77270978689193726 0.77270978689193726
0.7916334867477417 0.7916334867477417 0.7916334867477417
0.81356954574584961 0.81356954574584961 0.81356954574584961
0.86725634336471558 0.86725634336471558 0.86725634336471558
0.88981515169143677 0.88981515169143677 0.88981515169143677
0.89946073293685913 0.89946073293685913 0.89946073293685913
0.90711843967437744 0.90711843967437744 0.90711843967437744
0.91670483350753784 0.91670483350753784 0.91670483350753784
0.91886281967163086 0.91886281967163086 0.91886281967163086
0.92110288143157959 0.92110288143157959 0.92110288143157959
0.94752514362335205 0.94752514362335205 0.94752514362335205
0.14269731938838959 0.14269731938838959 0.14269731938838959
0.17234587669372559 0.17234587669372559 0.17234587669372559
0.22651457786560059 0.22651457786560059 0.22651457786560059
0.3076152503490448 0.3076152503490448 0.3076152503490448
0.34107363224029541 0.34107363224029541 0.34107363224029541
0.34757581353187561 0.34757581353187561 0.34757581353187561
0.37738224864006042 0.37738224864006042 0.37738224864006042
0.23428422212600708 0.23428422212600708 0.23428422212600708
0.25047412514686584 0.25047412514686584 0.25047412514686584
0.29182398319244385 0.29182398319244385 0.29182398319244385
0.35235348343849182 0.35235348343849182 0.35235348343849182
0.38940244913101196 0.38940244913101196 0.38940244913101196
0.39769634604454041 0.39769634604454041 0.39769634604454041
0.41675648093223572 0.41675648093223572 0.41675648093223572
0.32481288909912109 0.32481288909912109 0.32481288909912109
0.33826380968093872 0.33826380968093872 0.33826380968093872
0.38882511854171753 0.38882511854171753 0.38882511854171753
0.44141086935997009 0.44141086935997009 0.44141086935997009
0.48113331198692322 0.48113331198692322 0.48113331198692322
0.48608753085136414 0.48608753085136414 0.48608753085136414
0.4882294237613678 0.4882294237613678 0.4882294237613678
0.39886611700057983 0.39886611700057983 0.39886611700057983
0.42772921919822693 0.42772921919822693 0.42772921919822693
0.48144769668579102 0.48144769668579102 0.48144769668579102
0.53009200096130371 0.53009200096130371 0.53009200096130371
0.57024151086807251 0.57024151086807251 0.57024151086807251
0.58874326944351196 0.58874326944351196 0.58874326944351196
0.60128962993621826 0.60128962993621826 0.60128962993621826
0.55741250514984131 0.55741250514984131 0.55741250514984131
0.56007575988769531 0.56007575988769531 0.56007575988769531
0.58381378650665283 0.58381378650665283 0.58381378650665283
0.63051366806030273 0.63051366806030273 0.63051366806030273
0.67582863569259644 0.67582863569259644 0.67582863569259644
0.71534490585327148 0.71534490585327148 0.71534490585327148
0.76026880741119385 0.76026880741119385 0.76026880741119385
0.74691188335418701 0.74691188335418701 0.74691188335418701
0.73668652772903442 0.73668652772903442 0.73668652772903442
0.74538272619247437 0.74538272619247437 0.74538272619247437
0.78024822473526001 0.78024822473526001 0.78024822473526001
0.80655413866043091 0.80655413866043091 0.80655413866043091
0.83779621124267578 0.83779621124267578 0.83779621124267578
0.89468282461166382 0.89468282461166382 0.89468282461166382
0.91375374794006348 0.91375374794006348 0.91375374794006348
0.91348379850387573 0.91348379850387573 0.91348379850387573
0.91216611862182617 0.91216611862182617 0.91216611862182617
0.92418628931045532 0.92418628931045532 0.92418628931045532
0.92953395843505859 0.92953395843505859 0.92953395843505859
0.93385589122772217 0.93385589122772217 0.93385589122772217
0.95445543527603149 0.95445543527603149 0.95445543527603149
0.21277527511119843 0.21277527511119843 0.21277527511119843
0.22832469642162323 0.22832469642162323 0.22832469642162323
0.26770627498626709 0.26770627498626709 0.26770627498626709
0.33993571996688843 0.33993571996688843 0.33993571996688843
0.41351220011711121 0.41351220011711121 0.41351220011711121
0.46330380439758301 0.46330380439758301 0.46330380439758301
0.46232098340988159 0.46232098340988159 0.46232098340988159
0.28731057047843933 0.28731057047843933 0.28731057047843933
0.29571431875228882 0.29571431875228882 0.29571431875228882
0.32833069562911987 0.32833069562911987 0.32833069562911987
0.39268681406974792 0.39268681406974792 0.39268681406974792
0.46116417646408081 0.46116417646408081 0.46116417646408081
0.49420776963233948 0.49420776963233948 0.49420776963233948
0.48845145106315613 0.48845145106315613 0.48845145106315613
0.36514994502067566 0.36514994502067566 0.36514994502067566
0.38101673126220703 0.38101673126220703 0.38101673126220703
0.42130035161972046 0.42130035161972046 0.42130035161972046
0.47289368510246277 0.47289368510246277 0.47289368510246277
0.53461462259292603 0.53461462259292603 0.53461462259292603
0.56224149465560913 0.56224149465560913 0.56224149465560913
0.55196183919906616 0.55196183919906616 0.55196183919906616
0.41645434498786926 0.41645434498786926 0.41645434498786926
0.44469711184501648 0.44469711184501648 0.44469711184501648
0.49144238233566284 0.49144238233566284 0.49144238233566284
0.54504555463790894 0.54504555463790894 0.54504555463790894
0.60093778371810913 0.60093778371810913 0.60093778371810913
0.63779455423355103 0.63779455423355103 0.63779455423355103
0.64059340953826904 0.64059340953826904 0.64059340953826904
0.52826052904129028 0.52826052904129028 0.52826052904129028
0.5293077826499939 0.5293077826499939 0.5293077826499939
0.55784523487091064 0.55784523487091064 0.55784523487091064
0.61883115768432617 0.61883115768432617 0.61883115768432617
0.68629002571105957 0.68629002571105957 0.68629002571105957
0.7396361231803894 0.7396361231803894 0.7396361231803894
0.76128607988357544 0.76128607988357544 0.76128607988357544
0.71693670749664307 0.71693670749664307 0.71693670749664307
0.71150237321853638 0.71150237321853638 0.71150237321853638
0.73113739490509033 0.73113739490509033 0.73113739490509033
0.76324057579040527 0.76324057579040527 0.76324057579040527
0.8051217794418335 0.8051217794418335 0.8051217794418335
0.84753727912902832 0.84753727912902832 0.84753727912902832
0.87411332130432129 0.87411332130432129 0.87411332130432129
0.91219037771224976 0.91219037771224976 0.91219037771224976
0.9107477068901062 0.9107477068901062 0.9107477068901062
0.90685904026031494 0.90685904026031494 0.90685904026031494
0.91660910844802856 0.91660910844802856 0.91660910844802856
0.9294888973236084 0.9294888973236084 0.9294888973236084
0.93946665525436401 0.93946665525436401 0.93946665525436401
0.95339465141296387 0.95339465141296387 0.95339465141296387
0.28525510430335999 0.28525510430335999 0.28525510430335999
0.2974277138710022 0.2974277138710022 0.2974277138710022
0.33486694097518921 0.33486694097518921 0.33486694097518921
0.40687897801399231 0.40687897801399231 0.40687897801399231
0.50878703594207764 0.50878703594207764 0.50878703594207764
0.61296838521957397 0.61296838521957397 0.61296838521957397
0.6356809139251709 0.6356809139251709 0.6356809139251709
0.33540600538253784 0.33540600538253784 0.33540600538253784
0.34592214226722717 0.34592214226722717 0.34592214226722717
0.38106891512870789 0.38106891512870789 0.38106891512870789
0.45167931914329529 0.45167931914329529 0.45167931914329529
0.54878693819046021 0.54878693819046021 0.54878693819046021
0.63322323560714722 0.63322323560714722 0.63322323560714722
0.64861953258514404 0.64861953258514404 0.64861953258514404
0.40728291869163513 0.40728291869163513 0.40728291869163513
0.42238682508468628 0.42238682508468628 0.42238682508468628
0.45847243070602417 0.45847243070602417 0.45847243070602417
0.51245111227035522 0.51245111227035522 0.51245111227035522
0.59550565481185913 0.59550565481185913 0.59550565481185913
0.68507415056228638 0.68507415056228638 0.68507415056228638
0.70574170351028442 0.70574170351028442 0.70574170351028442
0.46820235252380371 0.46820235252380371 0.46820235252380371
0.48266345262527466 0.48266345262527466 0.48266345262527466
0.53763049840927124 0.53763049840927124 0.53763049840927124
0.59050256013870239 0.59050256013870239 0.59050256013870239
0.65393376350402832 0.65393376350402832 0.65393376350402832
0.73344999551773071 0.73344999551773071 0.73344999551773071
0.7651134729385376 0.7651134729385376 0.7651134729385376
0.47871267795562744 0.47871267795562744 0.47871267795562744
0.48704254627227783 0.48704254627227783 0.48704254627227783
0.54762524366378784 0.54762524366378784 0.54762524366378784
0.64766180515289307 0.64766180515289307 0.64766180515289307
0.73459786176681519 0.73459786176681519 0.73459786176681519
0.81035417318344116 0.81035417318344116 0.81035417318344116
0.84328681230545044 0.84328681230545044 0.84328681230545044
0.69199997186660767 0.69199997186660767 0.69199997186660767
0.69941097497940063 0.69941097497940063 0.69941097497940063
0.72543907165527344 0.72543907165527344 0.72543907165527344
0.7396121621131897 0.7396121621131897 0.7396121621131897
0.80304890871047974 0.80304890871047974 0.80304890871047974
0.88221979141235352 0.88221979141235352 0.88221979141235352
0.90597951412200928 0.90597951412200928 0.90597951412200928
0.88830345869064331 0.88830345869064331 0.88830345869064331
0.90407317876815796 0.90407317876815796 0.90407317876815796
0.91352277994155884 0.91352277994155884 0.91352277994155884
0.91603845357894897 0.91603845357894897 0.91603845357894897
0.93635141849517822 0.93635141849517822 0.93635141849517822
0.95237737894058228 0.95237737894058228 0.95237737894058228
0.96442610025405884 0.96442610025405884 0.96442610025405884
