luts/negative_new/kodak_tmax_3200_-.cube
# Created by: G'MIC (https://gmic.eu)
TITLE "kodak_tmax_3200_-"
# LUT size
LUT_3D_SIZE 13
# Data domain
DOMAIN_MIN 0.0 0.0 0.0
DOMAIN_MAX 1.0 1.0 1.0
# LUT data points
0.009624062106013298 0.009624062106013298 0.009624062106013298
0.017699701711535454 0.017699701711535454 0.017699701711535454
0.028547383844852448 0.028547383844852448 0.028547383844852448
0.039247460663318634 0.039247460663318634 0.039247460663318634
0.052154943346977234 0.052154943346977234 0.052154943346977234
0.079130701720714569 0.079130701720714569 0.079130701720714569
0.11748369783163071 0.11748369783163071 0.11748369783163071
0.15772286057472229 0.15772286057472229 0.15772286057472229
0.19519908726215363 0.19519908726215363 0.19519908726215363
0.22884702682495117 0.22884702682495117 0.22884702682495117
0.26020315289497375 0.26020315289497375 0.26020315289497375
0.29375198483467102 0.29375198483467102 0.29375198483467102
0.33129686117172241 0.33129686117172241 0.33129686117172241
0.040364328771829605 0.040364328771829605 0.040364328771829605
0.058896951377391815 0.058896951377391815 0.058896951377391815
0.079635307192802429 0.079635307192802429 0.079635307192802429
0.10002360492944717 0.10002360492944717 0.10002360492944717
0.11826454848051071 0.11826454848051071 0.11826454848051071
0.14175315201282501 0.14175315201282501 0.14175315201282501
0.17350110411643982 0.17350110411643982 0.17350110411643982
0.20676110684871674 0.20676110684871674 0.20676110684871674
0.23704907298088074 0.23704907298088074 0.23704907298088074
0.26387795805931091 0.26387795805931091 0.26387795805931091
0.28924429416656494 0.28924429416656494 0.28924429416656494
0.31727713346481323 0.31727713346481323 0.31727713346481323
0.35187444090843201 0.35187444090843201 0.35187444090843201
0.098718143999576569 0.098718143999576569 0.098718143999576569
0.1177140474319458 0.1177140474319458 0.1177140474319458
0.1412072479724884 0.1412072479724884 0.1412072479724884
0.16751144826412201 0.16751144826412201 0.16751144826412201
0.19165840744972229 0.19165840744972229 0.19165840744972229
0.21355640888214111 0.21355640888214111 0.21355640888214111
0.23940972983837128 0.23940972983837128 0.23940972983837128
0.2644505500793457 0.2644505500793457 0.2644505500793457
0.28690975904464722 0.28690975904464722 0.28690975904464722
0.30704867839813232 0.30704867839813232 0.30704867839813232
0.32659780979156494 0.32659780979156494 0.32659780979156494
0.3496822714805603 0.3496822714805603 0.3496822714805603
0.38148966431617737 0.38148966431617737 0.38148966431617737
0.17582467198371887 0.17582467198371887 0.17582467198371887
0.18718621134757996 0.18718621134757996 0.18718621134757996
0.20361201465129852 0.20361201465129852 0.20361201465129852
0.22573426365852356 0.22573426365852356 0.22573426365852356
0.25062644481658936 0.25062644481658936 0.25062644481658936
0.27646329998970032 0.27646329998970032 0.27646329998970032
0.30266633629798889 0.30266633629798889 0.30266633629798889
0.32333934307098389 0.32333934307098389 0.32333934307098389
0.34082883596420288 0.34082883596420288 0.34082883596420288
0.35805049538612366 0.35805049538612366 0.35805049538612366
0.37727954983711243 0.37727954983711243 0.37727954983711243
0.39948055148124695 0.39948055148124695 0.39948055148124695
0.43176731467247009 0.43176731467247009 0.43176731467247009
0.2460935115814209 0.2460935115814209 0.2460935115814209
0.25215381383895874 0.25215381383895874 0.25215381383895874
0.26142004132270813 0.26142004132270813 0.26142004132270813
0.27676156163215637 0.27676156163215637 0.27676156163215637
0.29878821969032288 0.29878821969032288 0.29878821969032288
0.3263620138168335 0.3263620138168335 0.3263620138168335
0.35360780358314514 0.35360780358314514 0.35360780358314514
0.3753451406955719 0.3753451406955719 0.3753451406955719
0.39387783408164978 0.39387783408164978 0.39387783408164978
0.41388347744941711 0.41388347744941711 0.41388347744941711
0.43773174285888672 0.43773174285888672 0.43773174285888672
0.46722036600112915 0.46722036600112915 0.46722036600112915
0.50419574975967407 0.50419574975967407 0.50419574975967407
0.30816364288330078 0.30816364288330078 0.30816364288330078
0.31137436628341675 0.31137436628341675 0.31137436628341675
0.31639483571052551 0.31639483571052551 0.31639483571052551
0.32611054182052612 0.32611054182052612 0.32611054182052612
0.34400463104248047 0.34400463104248047 0.34400463104248047
0.36966288089752197 0.36966288089752197 0.36966288089752197
0.39627900719642639 0.39627900719642639 0.39627900719642639
0.42038321495056152 0.42038321495056152 0.42038321495056152
0.44369795918464661 0.44369795918464661 0.44369795918464661
0.46979233622550964 0.46979233622550964 0.46979233622550964
0.5018044114112854 0.5018044114112854 0.5018044114112854
0.54041343927383423 0.54041343927383423 0.54041343927383423
0.58329564332962036 0.58329564332962036 0.58329564332962036
0.36849024891853333 0.36849024891853333 0.36849024891853333
0.37055298686027527 0.37055298686027527 0.37055298686027527
0.37401062250137329 0.37401062250137329 0.37401062250137329
0.38097020983695984 0.38097020983695984 0.38097020983695984
0.39480233192443848 0.39480233192443848 0.39480233192443848
0.41550767421722412 0.41550767421722412 0.41550767421722412
0.43909832835197449 0.43909832835197449 0.43909832835197449
0.46369478106498718 0.46369478106498718 0.46369478106498718
0.4908197820186615 0.4908197820186615 0.4908197820186615
0.52256345748901367 0.52256345748901367 0.52256345748901367
0.5618937611579895 0.5618937611579895 0.5618937611579895
0.6090397834777832 0.6090397834777832 0.6090397834777832
0.65894901752471924 0.65894901752471924 0.65894901752471924
0.43136090040206909 0.43136090040206909 0.43136090040206909
0.43366613984107971 0.43366613984107971 0.43366613984107971
0.43746578693389893 0.43746578693389893 0.43746578693389893
0.4437415599822998 0.4437415599822998 0.4437415599822998
0.45409590005874634 0.45409590005874634 0.45409590005874634
0.46881687641143799 0.46881687641143799 0.46881687641143799
0.48722776770591736 0.48722776770591736 0.48722776770591736
0.51014220714569092 0.51014220714569092 0.51014220714569092
0.53802889585494995 0.53802889585494995 0.53802889585494995
0.57151967287063599 0.57151967287063599 0.57151967287063599
0.61356973648071289 0.61356973648071289 0.61356973648071289
0.66457200050354004 0.66457200050354004 0.66457200050354004
0.71851068735122681 0.71851068735122681 0.71851068735122681
0.50041669607162476 0.50041669607162476 0.50041669607162476
0.5035596489906311 0.5035596489906311 0.5035596489906311
0.50842666625976562 0.50842666625976562 0.50842666625976562
0.51430642604827881 0.51430642604827881 0.51430642604827881
0.5221712589263916 0.5221712589263916 0.5221712589263916
0.53251522779464722 0.53251522779464722 0.53251522779464722
0.54606205224990845 0.54606205224990845 0.54606205224990845
0.5652925968170166 0.5652925968170166 0.5652925968170166
0.59010785818099976 0.59010785818099976 0.59010785818099976
0.62021553516387939 0.62021553516387939 0.62021553516387939
0.65825188159942627 0.65825188159942627 0.65825188159942627
0.70683741569519043 0.70683741569519043 0.70683741569519043
0.75954854488372803 0.75954854488372803 0.75954854488372803
0.57993626594543457 0.57993626594543457 0.57993626594543457
0.58330553770065308 0.58330553770065308 0.58330553770065308
0.58811312913894653 0.58811312913894653 0.58811312913894653
0.59342938661575317 0.59342938661575317 0.59342938661575317
0.59976541996002197 0.59976541996002197 0.59976541996002197
0.60777109861373901 0.60777109861373901 0.60777109861373901
0.61855143308639526 0.61855143308639526 0.61855143308639526
0.63346046209335327 0.63346046209335327 0.63346046209335327
0.65266203880310059 0.65266203880310059 0.65266203880310059
0.67532342672348022 0.67532342672348022 0.67532342672348022
0.70449239015579224 0.70449239015579224 0.70449239015579224
0.74665915966033936 0.74665915966033936 0.74665915966033936
0.7949950098991394 0.7949950098991394 0.7949950098991394
0.67015856504440308 0.67015856504440308 0.67015856504440308
0.67219293117523193 0.67219293117523193 0.67219293117523193
0.6755746603012085 0.6755746603012085 0.6755746603012085
0.67980533838272095 0.67980533838272095 0.67980533838272095
0.68533241748809814 0.68533241748809814 0.68533241748809814
0.69249016046524048 0.69249016046524048 0.69249016046524048
0.70184886455535889 0.70184886455535889 0.70184886455535889
0.71326291561126709 0.71326291561126709 0.71326291561126709
0.72667044401168823 0.72667044401168823 0.72667044401168823
0.74230188131332397 0.74230188131332397 0.74230188131332397
0.76377749443054199 0.76377749443054199 0.76377749443054199
0.79567605257034302 0.79567605257034302 0.79567605257034302
0.83488678932189941 0.83488678932189941 0.83488678932189941
0.76577097177505493 0.76577097177505493 0.76577097177505493
0.76618361473083496 0.76618361473083496 0.76618361473083496
0.76756298542022705 0.76756298542022705 0.76756298542022705
0.7704538106918335 0.7704538106918335 0.7704538106918335
0.77517491579055786 0.77517491579055786 0.77517491579055786
0.78197628259658813 0.78197628259658813 0.78197628259658813
0.79059904813766479 0.79059904813766479 0.79059904813766479
0.79967349767684937 0.79967349767684937 0.79967349767684937
0.80819976329803467 0.80819976329803467 0.80819976329803467
0.81814455986022949 0.81814455986022949 0.81814455986022949
0.83236271142959595 0.83236271142959595 0.83236271142959595
0.85349571704864502 0.85349571704864502 0.85349571704864502
0.88173651695251465 0.88173651695251465 0.88173651695251465
0.86090981960296631 0.86090981960296631 0.86090981960296631
0.86013072729110718 0.86013072729110718 0.86013072729110718
0.85999304056167603 0.85999304056167603 0.85999304056167603
0.86161708831787109 0.86161708831787109 0.86161708831787109
0.86542069911956787 0.86542069911956787 0.86542069911956787
0.87136185169219971 0.87136185169219971 0.87136185169219971
0.87916797399520874 0.87916797399520874 0.87916797399520874
0.88631254434585571 0.88631254434585571 0.88631254434585571
0.89063870906829834 0.89063870906829834 0.89063870906829834
0.89532530307769775 0.89532530307769775 0.89532530307769775
0.90313255786895752 0.90313255786895752 0.90313255786895752
0.91588938236236572 0.91588938236236572 0.91588938236236572
0.93509989976882935 0.93509989976882935 0.93509989976882935
0.0086763864383101463 0.0086763864383101463 0.0086763864383101463
0.022652465850114822 0.022652465850114822 0.022652465850114822
0.040454834699630737 0.040454834699630737 0.040454834699630737
0.057042438536882401 0.057042438536882401 0.057042438536882401
0.073213063180446625 0.073213063180446625 0.073213063180446625
0.096268266439437866 0.096268266439437866 0.096268266439437866
0.12936116755008698 0.12936116755008698 0.12936116755008698
0.16817192733287811 0.16817192733287811 0.16817192733287811
0.20465517044067383 0.20465517044067383 0.20465517044067383
0.23538355529308319 0.23538355529308319 0.23538355529308319
0.26325693726539612 0.26325693726539612 0.26325693726539612
0.29333308339118958 0.29333308339118958 0.29333308339118958
0.32806679606437683 0.32806679606437683 0.32806679606437683
0.04813697561621666 0.04813697561621666 0.04813697561621666
0.06809794157743454 0.06809794157743454 0.06809794157743454
0.091400966048240662 0.091400966048240662 0.091400966048240662
0.11353562027215958 0.11353562027215958 0.11353562027215958
0.13255695998668671 0.13255695998668671 0.13255695998668671
0.15325810015201569 0.15325810015201569 0.15325810015201569
0.18132326006889343 0.18132326006889343 0.18132326006889343
0.21320775151252747 0.21320775151252747 0.21320775151252747
0.2426789253950119 0.2426789253950119 0.2426789253950119
0.26787200570106506 0.26787200570106506 0.26787200570106506
0.29147416353225708 0.29147416353225708 0.29147416353225708
0.31776678562164307 0.31776678562164307 0.31776678562164307
0.35056397318840027 0.35056397318840027 0.35056397318840027
0.11645000427961349 0.11645000427961349 0.11645000427961349
0.1318562924861908 0.1318562924861908 0.1318562924861908
0.15322153270244598 0.15322153270244598 0.15322153270244598
0.17755143344402313 0.17755143344402313 0.17755143344402313
0.20005661249160767 0.20005661249160767 0.20005661249160767
0.22077630460262299 0.22077630460262299 0.22077630460262299
0.24461834132671356 0.24461834132671356 0.24461834132671356
0.26895943284034729 0.26895943284034729 0.26895943284034729
0.29043692350387573 0.29043692350387573 0.29043692350387573
0.3097262978553772 0.3097262978553772 0.3097262978553772
0.32940918207168579 0.32940918207168579 0.32940918207168579
0.35228708386421204 0.35228708386421204 0.35228708386421204
0.3837798535823822 0.3837798535823822 0.3837798535823822
0.19835709035396576 0.19835709035396576 0.19835709035396576
0.20377357304096222 0.20377357304096222 0.20377357304096222
0.21621622145175934 0.21621622145175934 0.21621622145175934
0.23560166358947754 0.23560166358947754 0.23560166358947754
0.25860452651977539 0.25860452651977539 0.25860452651977539
0.28326937556266785 0.28326937556266785 0.28326937556266785
0.3077235221862793 0.3077235221862793 0.3077235221862793
0.3278941810131073 0.3278941810131073 0.3278941810131073
0.34474048018455505 0.34474048018455505 0.34474048018455505
0.3612900972366333 0.3612900972366333 0.3612900972366333
0.37991887331008911 0.37991887331008911 0.37991887331008911
0.40343371033668518 0.40343371033668518 0.40343371033668518
0.43563920259475708 0.43563920259475708 0.43563920259475708
0.26535865664482117 0.26535865664482117 0.26535865664482117
0.26814308762550354 0.26814308762550354 0.26814308762550354
0.27366408705711365 0.27366408705711365 0.27366408705711365
0.28619098663330078 0.28619098663330078 0.28619098663330078
0.30681911110877991 0.30681911110877991 0.30681911110877991
0.33430802822113037 0.33430802822113037 0.33430802822113037
0.36099335551261902 0.36099335551261902 0.36099335551261902
0.38186940550804138 0.38186940550804138 0.38186940550804138
0.39945289492607117 0.39945289492607117 0.39945289492607117
0.41829392313957214 0.41829392313957214 0.41829392313957214
0.44140613079071045 0.44140613079071045 0.44140613079071045
0.47047775983810425 0.47047775983810425 0.47047775983810425
0.50604748725891113 0.50604748725891113 0.50604748725891113
0.32444939017295837 0.32444939017295837 0.32444939017295837
0.32602196931838989 0.32602196931838989 0.32602196931838989
0.3280845582485199 0.3280845582485199 0.3280845582485199
0.33467349410057068 0.33467349410057068 0.33467349410057068
0.35129913687705994 0.35129913687705994 0.35129913687705994
0.37817865610122681 0.37817865610122681 0.37817865610122681
0.40518409013748169 0.40518409013748169 0.40518409013748169
0.42850270867347717 0.42850270867347717 0.42850270867347717
0.45050570368766785 0.45050570368766785 0.45050570368766785
0.47567963600158691 0.47567963600158691 0.47567963600158691
0.50652813911437988 0.50652813911437988 0.50652813911437988
0.54374575614929199 0.54374575614929199 0.54374575614929199
0.58516919612884521 0.58516919612884521 0.58516919612884521
0.38328009843826294 0.38328009843826294 0.38328009843826294
0.38403600454330444 0.38403600454330444 0.38403600454330444
0.38523858785629272 0.38523858785629272 0.38523858785629272
0.38988295197486877 0.38988295197486877 0.38988295197486877
0.40260350704193115 0.40260350704193115 0.40260350704193115
0.42345839738845825 0.42345839738845825 0.42345839738845825
0.44711735844612122 0.44711735844612122 0.44711735844612122
0.47157922387123108 0.47157922387123108 0.47157922387123108
0.49823752045631409 0.49823752045631409 0.49823752045631409
0.52988803386688232 0.52988803386688232 0.52988803386688232
0.56847846508026123 0.56847846508026123 0.56847846508026123
0.61361360549926758 0.61361360549926758 0.61361360549926758
0.66031324863433838 0.66031324863433838 0.66031324863433838
0.44480499625205994 0.44480499625205994 0.44480499625205994
0.44602540135383606 0.44602540135383606 0.44602540135383606
0.44833368062973022 0.44833368062973022 0.44833368062973022
0.45273402333259583 0.45273402333259583 0.45273402333259583
0.46200627088546753 0.46200627088546753 0.46200627088546753
0.47594755887985229 0.47594755887985229 0.47594755887985229
0.49385428428649902 0.49385428428649902 0.49385428428649902
0.51677978038787842 0.51677978038787842 0.51677978038787842
0.54575961828231812 0.54575961828231812 0.54575961828231812
0.58022165298461914 0.58022165298461914 0.58022165298461914
0.62245452404022217 0.62245452404022217 0.62245452404022217
0.67170077562332153 0.67170077562332153 0.67170077562332153
0.722328782081604 0.722328782081604 0.722328782081604
0.51141989231109619 0.51141989231109619 0.51141989231109619
0.51443397998809814 0.51443397998809814 0.51443397998809814
0.51840472221374512 0.51840472221374512 0.51840472221374512
0.52303057909011841 0.52303057909011841 0.52303057909011841
0.52973872423171997 0.52973872423171997 0.52973872423171997
0.53865623474121094 0.53865623474121094 0.53865623474121094
0.55105757713317871 0.55105757713317871 0.55105757713317871
0.57083618640899658 0.57083618640899658 0.57083618640899658
0.59820061922073364 0.59820061922073364 0.59820061922073364
0.63084375858306885 0.63084375858306885 0.63084375858306885
0.67038041353225708 0.67038041353225708 0.67038041353225708
0.71783649921417236 0.71783649921417236 0.71783649921417236
0.76760679483413696 0.76760679483413696 0.76760679483413696
0.58860647678375244 0.58860647678375244 0.58860647678375244
0.59225630760192871 0.59225630760192871 0.59225630760192871
0.59665656089782715 0.59665656089782715 0.59665656089782715
0.60126644372940063 0.60126644372940063 0.60126644372940063
0.6067078709602356 0.6067078709602356 0.6067078709602356
0.61354166269302368 0.61354166269302368 0.61354166269302368
0.62352257966995239 0.62352257966995239 0.62352257966995239
0.63945925235748291 0.63945925235748291 0.63945925235748291
0.661174476146698 0.661174476146698 0.661174476146698
0.6871337890625 0.6871337890625 0.6871337890625
0.7193949818611145 0.7193949818611145 0.7193949818611145
0.7599787712097168 0.7599787712097168 0.7599787712097168
0.80475932359695435 0.80475932359695435 0.80475932359695435
0.67680495977401733 0.67680495977401733 0.67680495977401733
0.67908960580825806 0.67908960580825806 0.67908960580825806
0.68259036540985107 0.68259036540985107 0.68259036540985107
0.68651145696640015 0.68651145696640015 0.68651145696640015
0.69150376319885254 0.69150376319885254 0.69150376319885254
0.69807714223861694 0.69807714223861694 0.69807714223861694
0.70719844102859497 0.70719844102859497 0.70719844102859497
0.71937817335128784 0.71937817335128784 0.71937817335128784
0.73490393161773682 0.73490393161773682 0.73490393161773682
0.75369513034820557 0.75369513034820557 0.75369513034820557
0.77730250358581543 0.77730250358581543 0.77730250358581543
0.80797272920608521 0.80797272920608521 0.80797272920608521
0.84417843818664551 0.84417843818664551 0.84417843818664551
0.76947546005249023 0.76947546005249023 0.76947546005249023
0.77085131406784058 0.77085131406784058 0.77085131406784058
0.77285313606262207 0.77285313606262207 0.77285313606262207
0.77593517303466797 0.77593517303466797 0.77593517303466797
0.7805016040802002 0.7805016040802002 0.7805016040802002
0.78683924674987793 0.78683924674987793 0.78683924674987793
0.79506045579910278 0.79506045579910278 0.79506045579910278
0.80459100008010864 0.80459100008010864 0.80459100008010864
0.81527704000473022 0.81527704000473022 0.81527704000473022
0.82788264751434326 0.82788264751434326 0.82788264751434326
0.84341061115264893 0.84341061115264893 0.84341061115264893
0.86345583200454712 0.86345583200454712 0.86345583200454712
0.88946223258972168 0.88946223258972168 0.88946223258972168
0.86235141754150391 0.86235141754150391 0.86235141754150391
0.8627738356590271 0.8627738356590271 0.8627738356590271
0.86366826295852661 0.86366826295852661 0.86366826295852661
0.86581754684448242 0.86581754684448242 0.86581754684448242
0.8695683479309082 0.8695683479309082 0.8695683479309082
0.87516552209854126 0.87516552209854126 0.87516552209854126
0.88212412595748901 0.88212412595748901 0.88212412595748901
0.88924908638000488 0.88924908638000488 0.88924908638000488
0.89575684070587158 0.89575684070587158 0.89575684070587158
0.90291368961334229 0.90291368961334229 0.90291368961334229
0.91146212816238403 0.91146212816238403 0.91146212816238403
0.92298668622970581 0.92298668622970581 0.92298668622970581
0.94058841466903687 0.94058841466903687 0.94058841466903687
0.0090413261204957962 0.0090413261204957962 0.0090413261204957962
0.029658298939466476 0.029658298939466476 0.029658298939466476
0.055683284997940063 0.055683284997940063 0.055683284997940063
0.078272752463817596 0.078272752463817596 0.078272752463817596
0.094859272241592407 0.094859272241592407 0.094859272241592407
0.11247437447309494 0.11247437447309494 0.11247437447309494
0.1407739669084549 0.1407739669084549 0.1407739669084549
0.17709434032440186 0.17709434032440186 0.17709434032440186
0.21223658323287964 0.21223658323287964 0.21223658323287964
0.23990283906459808 0.23990283906459808 0.23990283906459808
0.26527038216590881 0.26527038216590881 0.26527038216590881
0.29295346140861511 0.29295346140861511 0.29295346140861511
0.32535931468009949 0.32535931468009949 0.32535931468009949
0.049636241048574448 0.049636241048574448 0.049636241048574448
0.075710192322731018 0.075710192322731018 0.075710192322731018
0.10342356562614441 0.10342356562614441 0.10342356562614441
0.12713097035884857 0.12713097035884857 0.12713097035884857
0.14422257244586945 0.14422257244586945 0.14422257244586945
0.16126918792724609 0.16126918792724609 0.16126918792724609
0.18639744818210602 0.18639744818210602 0.18639744818210602
0.21663646399974823 0.21663646399974823 0.21663646399974823
0.24539245665073395 0.24539245665073395 0.24539245665073395
0.26967975497245789 0.26967975497245789 0.26967975497245789
0.29267036914825439 0.29267036914825439 0.29267036914825439
0.31892997026443481 0.31892997026443481 0.31892997026443481
0.35051265358924866 0.35051265358924866 0.35051265358924866
0.1185687780380249 0.1185687780380249 0.1185687780380249
0.13910754024982452 0.13910754024982452 0.13910754024982452
0.16218440234661102 0.16218440234661102 0.16218440234661102
0.18458767235279083 0.18458767235279083 0.18458767235279083
0.20473341643810272 0.20473341643810272 0.20473341643810272
0.22453674674034119 0.22453674674034119 0.22453674674034119
0.24710361659526825 0.24710361659526825 0.24710361659526825
0.26995086669921875 0.26995086669921875 0.26995086669921875
0.29103162884712219 0.29103162884712219 0.29103162884712219
0.31087523698806763 0.31087523698806763 0.31087523698806763
0.33115816116333008 0.33115816116333008 0.33115816116333008
0.35589861869812012 0.35589861869812012 0.35589861869812012
0.38709715008735657 0.38709715008735657 0.38709715008735657
0.20144565403461456 0.20144565403461456 0.20144565403461456
0.21071058511734009 0.21071058511734009 0.21071058511734009
0.22422435879707336 0.22422435879707336 0.22422435879707336
0.24261362850666046 0.24261362850666046 0.24261362850666046
0.26452159881591797 0.26452159881591797 0.26452159881591797
0.28893539309501648 0.28893539309501648 0.28893539309501648
0.31241500377655029 0.31241500377655029 0.31241500377655029
0.33112147450447083 0.33112147450447083 0.33112147450447083
0.34694564342498779 0.34694564342498779 0.34694564342498779
0.36279645562171936 0.36279645562171936 0.36279645562171936
0.38263523578643799 0.38263523578643799 0.38263523578643799
0.40796703100204468 0.40796703100204468 0.40796703100204468
0.43998697400093079 0.43998697400093079 0.43998697400093079
0.2720591127872467 0.2720591127872467 0.2720591127872467
0.27664154767990112 0.27664154767990112 0.27664154767990112
0.28330773115158081 0.28330773115158081 0.28330773115158081
0.29629695415496826 0.29629695415496826 0.29629695415496826
0.31748226284980774 0.31748226284980774 0.31748226284980774
0.34481701254844666 0.34481701254844666 0.34481701254844666
0.37068507075309753 0.37068507075309753 0.37068507075309753
0.38886132836341858 0.38886132836341858 0.38886132836341858
