luts/negative_new/kodak_portra_800_hc.cube
# Created by: G'MIC (https://gmic.eu)
TITLE "kodak_portra_800_hc"
# LUT size
LUT_3D_SIZE 7
# Data domain
DOMAIN_MIN 0.0 0.0 0.0
DOMAIN_MAX 1.0 1.0 1.0
# LUT data points
0.016240483149886131 0.023368924856185913 0.024979759007692337
0.1149274930357933 0.021712284535169601 0.021637711673974991
0.35059377551078796 0.0045287786051630974 0.015992138534784317
0.65985441207885742 0.0028843299951404333 0.0021565007045865059
0.88206493854522705 0.0026249305810779333 0.00014702291809953749
0.99419397115707397 0.003516088705509901 0.00051302439533174038
1 0.047888137400150299 0
0.0054863574914634228 0.10207019746303558 0.032948095351457596
0.085353106260299683 0.11904016882181168 0.023106219246983528
0.34927213191986084 0.10358376801013947 0.0075697805732488632
0.66522639989852905 0.048239972442388535 0.00094000122044235468
0.87805432081222534 0.06808057427406311 0
0.99242019653320312 0.16215318441390991 0
1 0.25933262705802917 0
0.0015404196456074715 0.27740317583084106 0.013429634273052216
0.0089784208685159683 0.29620462656021118 0.0096966465935111046
0.25336447358131409 0.35174810886383057 0.00084369134856387973
0.63085794448852539 0.39134684205055237 0.00066691380925476551
0.82653892040252686 0.40809506177902222 0.00085064757149666548
0.96062356233596802 0.4356025755405426 0.00093059166101738811
0.99569404125213623 0.47019574046134949 0.0015991510590538383
0 0.49897852540016174 0.014585263095796108
0.0056144115515053272 0.50049811601638794 0.01049366407096386
0.060217391699552536 0.51924753189086914 0.0005546719185076654
0.51148569583892822 0.58639907836914062 0
0.77743899822235107 0.62374603748321533 0.0011877770302817225
0.9248618483543396 0.62357401847839355 0.0016749962233006954
0.99164509773254395 0.62576615810394287 0.0023284314665943384
0 0.66226887702941895 0.011412706226110458
0 0.65921634435653687 0.0097997775301337242
0.016142541542649269 0.65989583730697632 0.0020745221991091967
0.39771148562431335 0.69182974100112915 0.0034902235493063927
0.68440401554107666 0.73186665773391724 0.0011937608942389488
0.88985931873321533 0.7648766040802002 0
0.99266296625137329 0.76135236024856567 0.00025215896312147379
0.0032475190237164497 0.79994809627532959 0.1258339136838913
0.0047038658522069454 0.79911261796951294 0.12192327529191971
0.139144167304039 0.79263979196548462 0.10532809793949127
0.42559173703193665 0.80311089754104614 0.060194950550794601
0.63518756628036499 0.82993161678314209 0.015607288107275963
0.82319670915603638 0.85911303758621216 0.0059611001051962376
0.98288941383361816 0.88239443302154541 5.0982307584490627e-05
0.30825620889663696 0.93692260980606079 0.44783619046211243
0.34177342057228088 0.9346345067024231 0.44551804661750793
0.42402100563049316 0.93243032693862915 0.44529414176940918
0.53265225887298584 0.93421846628189087 0.43624973297119141
0.6511877179145813 0.94444656372070312 0.3991205096244812
0.78563588857650757 0.95749926567077637 0.32784143090248108
0.93503022193908691 0.96856611967086792 0.13538837432861328
0.0099657541140913963 0.026305254548788071 0.13070096075534821
0.109969362616539 0.019329968839883804 0.13711792230606079
0.36217817664146423 0.0049848221242427826 0.13125845789909363
0.66770029067993164 0.0025670519098639488 0.10175710916519165
0.88215357065200806 0.0022831936366856098 0.076493069529533386
0.99471360445022583 0.0037270938046276569 0.048343583941459656
1 0.065370835363864899 0.013063288293778896
0.00505091343075037 0.11826138943433762 0.1293732225894928
0.11294905841350555 0.12634527683258057 0.13659209012985229
0.36605489253997803 0.094173341989517212 0.1184578537940979
0.67319899797439575 0.042369723320007324 0.09731089323759079
0.87794703245162964 0.062617823481559753 0.058463361114263535
0.99162429571151733 0.16268102824687958 0.027178552001714706
1 0.27353766560554504 0.014400617219507694
0.0027275385800749063 0.31483596563339233 0.1327705979347229
0.020431892946362495 0.31610366702079773 0.12713676691055298
0.30865418910980225 0.35924795269966125 0.071416430175304413
0.64103478193283081 0.39341652393341064 0.03630104660987854
0.8380730152130127 0.40995621681213379 0.019463168457150459
0.96804368495941162 0.44349828362464905 0.011402174830436707
0.99835294485092163 0.47093111276626587 0.0072161955758929253
0.0036073571536689997 0.51723706722259521 0.11103013157844543
0.0049511776305735111 0.51664096117019653 0.11173727363348007
0.11748223751783371 0.52468270063400269 0.067993119359016418
0.53525948524475098 0.58631026744842529 0.01469732541590929
0.78156822919845581 0.62158739566802979 0.0086755342781543732
0.92990106344223022 0.62418282032012939 0.010038548149168491
0.99737143516540527 0.62680327892303467 0.008095969446003437
0.0049851210787892342 0.67645013332366943 0.13230961561203003
0.0052729137241840363 0.67036467790603638 0.11961556226015091
0.046648662537336349 0.66258174180984497 0.10191003978252411
0.42962709069252014 0.69147837162017822 0.041771460324525833
0.69203084707260132 0.73012995719909668 0.0091323405504226685
0.89080572128295898 0.76541054248809814 0.0062366561032831669
0.99196499586105347 0.7593313455581665 0.002941385842859745
0.0085241431370377541 0.80527400970458984 0.25672003626823425
0.016790067777037621 0.80240815877914429 0.24717293679714203
0.20000089704990387 0.79694104194641113 0.23669996857643127
0.43949764966964722 0.80325901508331299 0.2064317911863327
0.63622522354125977 0.82585620880126953 0.13924503326416016
0.81692361831665039 0.8554568886756897 0.035166032612323761
0.98161941766738892 0.88052654266357422 0.0034148122649639845
0.32847222685813904 0.93568849563598633 0.49049252271652222
0.3585839569568634 0.93384295701980591 0.49019879102706909
0.43474900722503662 0.93281209468841553 0.49043011665344238
0.53390336036682129 0.93330663442611694 0.482797771692276
0.65789049863815308 0.94369667768478394 0.45618712902069092
0.79001092910766602 0.95745265483856201 0.39835965633392334
0.9336087703704834 0.96760815382003784 0.25713232159614563
0.0047067231498658657 0.024587757885456085 0.35928457975387573
0.056071635335683823 0.010479047894477844 0.37101656198501587
0.38096976280212402 0.0026747011579573154 0.38095799088478088
0.66316038370132446 0.0028041165787726641 0.37512782216072083
0.871551513671875 0.00033120549051091075 0.35070130228996277
0.99197077751159668 0.0025671415496617556 0.31988584995269775
1 0.089314013719558716 0.32413077354431152
0.0059357588179409504 0.13288724422454834 0.35940587520599365
0.065349102020263672 0.12778750061988831 0.36653918027877808
0.39858332276344299 0.077485285699367523 0.38603690266609192
0.68013733625411987 0.015051314607262611 0.37302786111831665
0.87694191932678223 0.014892682433128357 0.34681132435798645
0.99386054277420044 0.1100165992975235 0.33536934852600098
1 0.30212941765785217 0.33687621355056763
0.0044797263108193874 0.34405049681663513 0.36305993795394897
0.060597244650125504 0.35702550411224365 0.36158406734466553
0.36761951446533203 0.36753496527671814 0.36694589257240295
0.64667540788650513 0.36950019001960754 0.35945028066635132
0.83309745788574219 0.40140172839164734 0.35014042258262634
0.96570169925689697 0.44558984041213989 0.33801627159118652
0.99931538105010986 0.48394355177879333 0.31655818223953247
0.0075531755574047565 0.55596327781677246 0.3843650221824646
0.11473432183265686 0.56647193431854248 0.38450103998184204
0.30883944034576416 0.55445969104766846 0.35640817880630493
0.57436966896057129 0.58650654554367065 0.32211443781852722
0.78247702121734619 0.6165081262588501 0.31800022721290588
0.92640739679336548 0.62429207563400269 0.32839664816856384
0.99517780542373657 0.63198703527450562 0.3242068886756897
0.060779616236686707 0.70254504680633545 0.4083496630191803
0.074581488966941833 0.69988900423049927 0.38425734639167786
0.25544384121894836 0.68784070014953613 0.3604988157749176
0.47944191098213196 0.69697320461273193 0.32943502068519592
0.70133125782012939 0.73457902669906616 0.30512097477912903
0.88780927658081055 0.76139503717422485 0.29904225468635559
0.99437898397445679 0.75807476043701172 0.32541760802268982
0.069710657000541687 0.81578701734542847 0.429464191198349
0.15809446573257446 0.8119625449180603 0.424875408411026
0.31485584378242493 0.80640953779220581 0.41289642453193665
0.46228942275047302 0.80221468210220337 0.38744896650314331
0.64454299211502075 0.82744628190994263 0.37031224370002747
0.81965267658233643 0.85625672340393066 0.33792516589164734
0.97776323556900024 0.87778067588806152 0.28425872325897217
0.37227734923362732 0.93637627363204956 0.57432538270950317
0.4039861261844635 0.93505984544754028 0.57631438970565796
0.46793973445892334 0.93314021825790405 0.57013988494873047
0.55009746551513672 0.93178892135620117 0.56186282634735107
0.66117292642593384 0.94209694862365723 0.55306065082550049
0.78942859172821045 0.95623373985290527 0.52235007286071777
0.9298740029335022 0.96695798635482788 0.44589266180992126
0.00334192905575037 0.012558821588754654 0.61139899492263794
0.027063570916652679 0.0016955058090388775 0.6232675313949585
0.42012423276901245 0.0023284314665943384 0.63312226533889771
0.69179755449295044 0.0020938948728144169 0.64613479375839233
0.86236488819122314 0.0008054396603256464 0.6275668740272522
0.98648476600646973 0.0037108627147972584 0.59472399950027466
1 0.0049232933670282364 0.56744861602783203
0.0027969211805611849 0.12951472401618958 0.60799235105514526
0.05246296152472496 0.11768078058958054 0.62221658229827881
0.43008655309677124 0.060236673802137375 0.63730156421661377
0.69738227128982544 0.029388127848505974 0.65027213096618652
0.85977888107299805 0.013603240251541138 0.63037019968032837
0.98524981737136841 0.052781227976083755 0.60231226682662964
1 0.20248967409133911 0.57476776838302612
0.0048164366744458675 0.3500652015209198 0.5952223539352417
0.016966994851827621 0.36052221059799194 0.60459834337234497
0.381795734167099 0.36877462267875671 0.61592787504196167
0.65878796577453613 0.38012298941612244 0.62739831209182739
0.8242679238319397 0.37394177913665771 0.61101877689361572
0.95563739538192749 0.42434805631637573 0.6005433201789856
1 0.481006920337677 0.59572756290435791
0.01250139158219099 0.5800594687461853 0.58749055862426758
0.12781703472137451 0.58955758810043335 0.58818382024765015
0.40509375929832458 0.58528035879135132 0.59690022468566895
0.59421086311340332 0.59027779102325439 0.59663200378417969
0.77411395311355591 0.61502814292907715 0.58641636371612549
0.91769355535507202 0.63000798225402832 0.59401559829711914
0.99723005294799805 0.65124416351318359 0.59706497192382812
0.28725934028625488 0.72550326585769653 0.60417884588241577
0.35592541098594666 0.72659975290298462 0.60403907299041748
0.46766588091850281 0.72217142581939697 0.60461413860321045
0.55217474699020386 0.71381396055221558 0.56851965188980103
0.71957993507385254 0.74093472957611084 0.56497639417648315
0.87903362512588501 0.75556999444961548 0.58054125308990479
0.99021023511886597 0.76306718587875366 0.58873581886291504
0.4057471752166748 0.8291473388671875 0.6387561559677124
0.42553615570068359 0.82684338092803955 0.63096332550048828
0.46562659740447998 0.82349288463592529 0.60744571685791016
0.52491390705108643 0.81466460227966309 0.5749393105506897
0.65578073263168335 0.82609134912490845 0.5686570405960083
0.8273385763168335 0.86193263530731201 0.57117617130279541
0.97057890892028809 0.8735581636428833 0.5569109320640564
0.48393809795379639 0.94110786914825439 0.69173651933670044
0.48183357715606689 0.93892961740493774 0.67810696363449097
0.51365524530410767 0.93920660018920898 0.67039233446121216
0.5813223123550415 0.93478679656982422 0.66313338279724121
0.67068326473236084 0.93969190120697021 0.65360718965530396
0.79268413782119751 0.95395159721374512 0.63901597261428833
0.93050944805145264 0.96628910303115845 0.60179227590560913
0.0094290189445018768 0.0040241912938654423 0.79014062881469727
0.15019126236438751 5.9838389461219776e-06 0.79463940858840942
0.47025305032730103 0.0024492451921105385 0.79711133241653442
0.68842965364456177 0.0074712415225803852 0.79883819818496704
0.860176682472229 0.0090556871145963669 0.8016970157623291
0.97961115837097168 0.0031427270732820034 0.78526794910430908
1 0.010742801241576672 0.76686739921569824
0.008931746706366539 0.11794484406709671 0.78589713573455811
0.20009298622608185 0.10100675374269485 0.79093509912490845
0.48661905527114868 0.057719018310308456 0.79708677530288696
0.70234650373458862 0.062906257808208466 0.80428463220596313
0.85940301418304443 0.092931888997554779 0.81228679418563843
0.97323161363601685 0.10691650956869125 0.79071176052093506
1 0.22653788328170776 0.76636385917663574
0.0085309641435742378 0.36218813061714172 0.76894295215606689
0.14709851145744324 0.36630922555923462 0.7765999436378479
0.44639942049980164 0.37390398979187012 0.77705812454223633
0.66329634189605713 0.39561170339584351 0.78784477710723877
0.8220665454864502 0.42956981062889099 0.79340219497680664
0.94580507278442383 0.43544790148735046 0.7747645378112793
0.99867826700210571 0.47957614064216614 0.76017075777053833
0.007997879758477211 0.56951272487640381 0.74646908044815063
0.071535103023052216 0.57947808504104614 0.74812299013137817
0.38818761706352234 0.5807269811630249 0.75006890296936035
0.60547161102294922 0.59842300415039062 0.76092779636383057
0.7770010232925415 0.61823296546936035 0.76962321996688843
0.91439670324325562 0.63351213932037354 0.75790077447891235
0.99362921714782715 0.64794456958770752 0.76212614774703979
0.26757815480232239 0.73278284072875977 0.74313843250274658
0.34559068083763123 0.73204994201660156 0.74530833959579468
0.49097070097923279 0.73322176933288574 0.74767792224884033
0.61041969060897827 0.73603802919387817 0.7497900128364563
0.73838353157043457 0.74312704801559448 0.74654555320739746
0.87948596477508545 0.7639319896697998 0.74261009693145752
0.97846972942352295 0.77608960866928101 0.75954633951187134
0.47962000966072083 0.84680545330047607 0.7634313702583313
0.50138163566589355 0.84698456525802612 0.76181823015213013
0.56454038619995117 0.84365552663803101 0.75681424140930176
0.62769103050231934 0.84276527166366577 0.75059467554092407
0.69956523180007935 0.83644050359725952 0.7334059476852417
0.83668678998947144 0.85834211111068726 0.72972983121871948
0.96830457448959351 0.87649154663085938 0.74039679765701294
0.58252072334289551 0.94615650177001953 0.80595433712005615
0.58860057592391968 0.94573318958282471 0.79842990636825562
0.62590634822845459 0.94565796852111816 0.79518622159957886
0.65750020742416382 0.94360047578811646 0.78077524900436401
0.7095758318901062 0.94000059366226196 0.76200264692306519
0.80541306734085083 0.94820213317871094 0.75087219476699829
0.93780839443206787 0.96764010190963745 0.7501523494720459
0.24495479464530945 0.0043992283754050732 0.90871846675872803
0.35849073529243469 0.0024655810557305813 0.90724152326583862
0.5353279709815979 0.0068032955750823021 0.9039769172668457
0.69802361726760864 0.010798645205795765 0.91064471006393433
0.85240119695663452 0.010641719214618206 0.91735589504241943
0.97294372320175171 0.058483406901359558 0.91966110467910767
0.99999535083770752 0.10490701347589493 0.90386271476745605
0.28128147125244141 0.115639328956604 0.90559679269790649
0.39262679219245911 0.10814163833856583 0.90387231111526489
0.54913270473480225 0.098321773111820221 0.90721338987350464
0.70737510919570923 0.12283442169427872 0.91076946258544922
0.84545201063156128 0.22724707424640656 0.91472733020782471
0.96672409772872925 0.29062935709953308 0.91521149873733521
0.99503350257873535 0.31437551975250244 0.89455819129943848
0.25931808352470398 0.38332018256187439 0.89500021934509277
0.36224755644798279 0.39385843276977539 0.88900315761566162
0.51843833923339844 0.39155280590057373 0.89153569936752319
0.67141866683959961 0.41668868064880371 0.89414602518081665
0.81771755218505859 0.46906664967536926 0.90329748392105103
0.94148433208465576 0.50234013795852661 0.906624436378479
0.99622583389282227 0.50262898206710815 0.90141183137893677
0.06672222912311554 0.57144498825073242 0.87515038251876831
0.24897317588329315 0.57895797491073608 0.87534451484680176
0.46755918860435486 0.59083229303359985 0.87681454420089722
0.63035482168197632 0.60067832469940186 0.87942302227020264
0.78637850284576416 0.62712514400482178 0.88898545503616333
0.91336935758590698 0.64588934183120728 0.89210045337677002
0.98729115724563599 0.64588981866836548 0.89159470796585083
0.24847011268138885 0.7291075587272644 0.86152642965316772
0.3153979480266571 0.7183232307434082 0.86671334505081177
0.45941102504730225 0.72284942865371704 0.86468994617462158
0.58981454372406006 0.73159778118133545 0.86438226699829102
0.74446767568588257 0.75130605697631836 0.87191462516784668
0.88508814573287964 0.77061420679092407 0.88123488426208496
0.98018741607666016 0.77430278062820435 0.88415729999542236
0.46744978427886963 0.84962272644042969 0.86457830667495728
0.49480694532394409 0.84886854887008667 0.86740201711654663
0.56795740127563477 0.84853088855743408 0.86649036407470703
0.65591597557067871 0.85137355327606201 0.86721426248550415
0.75400847196578979 0.85633724927902222 0.87009197473526001
0.85802912712097168 0.86778390407562256 0.8699524998664856
0.97131508588790894 0.88174545764923096 0.88025391101837158
0.62875151634216309 0.95196807384490967 0.88816595077514648
0.64568746089935303 0.94977438449859619 0.8844110369682312
0.67439359426498413 0.95069390535354614 0.88553798198699951
0.72766542434692383 0.94910734891891479 0.88366919755935669
0.78859537839889526 0.95107352733612061 0.88461863994598389
0.83960545063018799 0.9507148265838623 0.86648106575012207
0.94541484117507935 0.96547490358352661 0.86831796169281006
0.47427499294281006 0.032752227038145065 0.99117225408554077
0.5257532000541687 0.031266454607248306 0.99254411458969116
0.62225329875946045 0.04044780507683754 0.99209332466125488
0.7333570122718811 0.082487814128398895 0.99155217409133911
0.84184128046035767 0.19080503284931183 0.98787647485733032
0.95235681533813477 0.32017725706100464 0.98777467012405396
0.99846816062927246 0.35785666108131409 0.98453003168106079
0.47797080874443054 0.22937186062335968 0.98420125246047974
0.52873212099075317 0.2251381129026413 0.98363828659057617
0.6185920238494873 0.24328818917274475 0.98355746269226074
0.72355598211288452 0.28453072905540466 0.98499327898025513
0.83201348781585693 0.34498846530914307 0.98427832126617432
0.94330096244812012 0.42868426442146301 0.98659789562225342
0.9914785623550415 0.45199894905090332 0.97976392507553101
0.4620092511177063 0.44880035519599915 0.98006159067153931
0.51252669095993042 0.45180484652519226 0.9800763726234436
0.5977293848991394 0.45025897026062012 0.98024684190750122
0.69971257448196411 0.48008519411087036 0.9775385856628418
0.81306099891662598 0.51680928468704224 0.97879350185394287
0.92469781637191772 0.55856490135192871 0.9787142276763916
0.99535572528839111 0.57975161075592041 0.98143577575683594
0.40645310282707214 0.61370021104812622 0.97730535268783569
0.47063887119293213 0.6192137598991394 0.97790461778640747
0.56222689151763916 0.62563139200210571 0.9762951135635376
0.67068672180175781 0.63122785091400146 0.97223401069641113
0.79465329647064209 0.65423703193664551 0.97567093372344971
0.90633559226989746 0.67358636856079102 0.9724198579788208
0.98094016313552856 0.69416660070419312 0.97736048698425293
0.3579963743686676 0.73205268383026123 0.96921509504318237
0.41457727551460266 0.72974789142608643 0.97052806615829468
0.50321716070175171 0.73323804140090942 0.96763402223587036
0.63313311338424683 0.74494004249572754 0.96786201000213623
0.76580590009689331 0.75745058059692383 0.96561330556869507
0.89135587215423584 0.77853751182556152 0.97070753574371338
0.98308408260345459 0.79600101709365845 0.97336030006408691
0.48399531841278076 0.85590219497680664 0.96060818433761597
0.51162886619567871 0.85310655832290649 0.96066588163375854
0.56392151117324829 0.8518182635307312 0.96262878179550171
0.64136070013046265 0.84955215454101562 0.96361929178237915
0.74129027128219604 0.85516101121902466 0.96588659286499023
0.86821979284286499 0.87055134773254395 0.9632728099822998
0.97013789415359497 0.88587760925292969 0.96470552682876587
0.61656659841537476 0.95375573635101318 0.95873540639877319
0.63841730356216431 0.95315784215927124 0.9606701135635376
0.6810796856880188 0.9532352089881897 0.96476256847381592
0.74112653732299805 0.9554905891418457 0.96698439121246338
0.80727779865264893 0.95597630739212036 0.96587240695953369
0.88186794519424438 0.96074128150939941 0.96541494131088257
0.964793860912323 0.96732026338577271 0.96655893325805664
