luts/negative_new/kodak_portra_160_-.cube
# Created by: G'MIC (https://gmic.eu)
TITLE "kodak_portra_160_-"
# LUT size
LUT_3D_SIZE 7
# Data domain
DOMAIN_MIN 0.0 0.0 0.0
DOMAIN_MAX 1.0 1.0 1.0
# LUT data points
0.015113292261958122 0.0234540905803442 0.017801875248551369
0.1544269323348999 0.021841550245881081 0.02500489167869091
0.3930199146270752 0.0067854486405849457 0.0080346055328845978
0.6136171817779541 0.003037680871784687 0.0018902648007497191
0.76335042715072632 0.004307212308049202 0.0011640511220321059
0.87273043394088745 0.020971005782485008 0.00064879772253334522
0.97376102209091187 0.15183441340923309 0.0013175515923649073
0.0050068874843418598 0.15821148455142975 0.012399127706885338
0.13671682775020599 0.17122092843055725 0.0095086041837930679
0.41598469018936157 0.19638527929782867 0.0025740829296410084
0.6331322193145752 0.18325294554233551 0.0011285220971331
0.77010953426361084 0.18046033382415771 0.0031856612768024206
0.87236315011978149 0.21357481181621552 0.0047255870886147022
0.97497111558914185 0.26429986953735352 0.0033309487625956535
0.00058406754396855831 0.35934087634086609 0.0042546889744699001
0.11478706449270248 0.35829204320907593 0.001905344077385962
0.35727831721305847 0.39160275459289551 0.0015288109425455332
0.60440522432327271 0.41967087984085083 0.00043821148574352264
0.76478230953216553 0.40005123615264893 0.00075462192762643099
0.86977559328079224 0.39117389917373657 0.0032141741830855608
0.97522860765457153 0.40984392166137695 0.0020028806757181883
0.02143363282084465 0.51477688550949097 0.016215365380048752
0.15541274845600128 0.50384873151779175 0.010281342081725597
0.3302437961101532 0.51052349805831909 0.0084010707214474678
0.51672399044036865 0.5390436053276062 0.0050508389249444008
0.69944143295288086 0.56621235609054565 0.0014265920035541058
0.84846806526184082 0.55948543548583984 0.0013605753192678094
0.97769486904144287 0.55382454395294189 0.00054665358038619161
0.20340514183044434 0.62086760997772217 0.11570485681295395
0.26091310381889343 0.6120191216468811 0.10728469491004944
0.35442599654197693 0.60535335540771484 0.092017136514186859
0.49457570910453796 0.62505817413330078 0.097927212715148926
0.63299369812011719 0.65092575550079346 0.11468596756458282
0.79010617733001709 0.6903151273727417 0.096541941165924072
0.94808721542358398 0.70057690143585205 0.012789932079613209
0.34964838624000549 0.73308277130126953 0.2442842423915863
0.37877863645553589 0.72364407777786255 0.23375090956687927
0.42980632185935974 0.71594613790512085 0.22112575173377991
0.51110851764678955 0.71745544672012329 0.21769686043262482
0.6245841383934021 0.73901265859603882 0.23487477004528046
0.74819207191467285 0.76347488164901733 0.25550854206085205
0.90461409091949463 0.81110036373138428 0.26618686318397522
0.49065902829170227 0.87592571973800659 0.39986807107925415
0.50666683912277222 0.87471824884414673 0.39793717861175537
0.54284745454788208 0.87088519334793091 0.38943427801132202
0.59665948152542114 0.86852347850799561 0.38332155346870422
0.68606871366500854 0.88478147983551025 0.39796793460845947
0.78963732719421387 0.90240389108657837 0.40865412354469299
0.90641361474990845 0.92878550291061401 0.42995420098304749
0.0098734535276889801 0.030754523351788521 0.16765125095844269
0.15844923257827759 0.027192119508981705 0.17554166913032532
0.41133898496627808 0.0066183502785861492 0.18131253123283386
0.61574429273605347 0.0026486115530133247 0.16937156021595001
0.75358670949935913 0.011602588929235935 0.16715772449970245
0.86008656024932861 0.082054421305656433 0.1627056896686554
0.96831589937210083 0.19487358629703522 0.16505414247512817
0.0043296962976455688 0.19248566031455994 0.17547138035297394
0.17246034741401672 0.19544483721256256 0.17930576205253601
0.41929873824119568 0.19269682466983795 0.1715744286775589
0.62311124801635742 0.18413247168064117 0.15738174319267273
0.75733548402786255 0.19961588084697723 0.15409377217292786
0.86363339424133301 0.23857420682907104 0.14944633841514587
0.97021222114562988 0.28840950131416321 0.1496843695640564
0.014604171738028526 0.40103060007095337 0.18509994447231293
0.18777579069137573 0.39012643694877625 0.19049446284770966
0.38912823796272278 0.40571862459182739 0.17556840181350708
0.60941499471664429 0.41905349493026733 0.13985453546047211
0.75776809453964233 0.40456545352935791 0.11428159475326538
0.86408847570419312 0.40206745266914368 0.11370574682950974
0.97220206260681152 0.41865572333335876 0.11729653924703598
0.14927981793880463 0.53624123334884644 0.21624711155891418
0.2351362556219101 0.52484142780303955 0.20402191579341888
0.36390477418899536 0.51798802614212036 0.18925967812538147
0.53288823366165161 0.54500347375869751 0.19577474892139435
0.70231646299362183 0.57043230533599854 0.16978003084659576
0.84948945045471191 0.56441354751586914 0.10162749886512756
0.97625732421875 0.55954015254974365 0.062601633369922638
0.27000728249549866 0.63476228713989258 0.25728514790534973
0.31413984298706055 0.62710320949554443 0.25059136748313904
0.37490874528884888 0.61019325256347656 0.22425013780593872
0.50117456912994385 0.623973548412323 0.23467206954956055
0.63916122913360596 0.65429979562759399 0.25119569897651672
0.79048365354537964 0.68894171714782715 0.2466973215341568
0.95001000165939331 0.69955253601074219 0.17086254060268402
0.37498664855957031 0.73398792743682861 0.31803160905838013
0.39695850014686584 0.72893893718719482 0.31132796406745911
0.44306331872940063 0.71826344728469849 0.29561936855316162
0.51920592784881592 0.7205318808555603 0.2928277850151062
0.62739390134811401 0.74076515436172485 0.30787849426269531
0.74710315465927124 0.76520556211471558 0.32837703824043274
0.90629297494888306 0.81369322538375854 0.34255576133728027
0.49070817232131958 0.87448239326477051 0.43454882502555847
0.51085454225540161 0.8785327672958374 0.43300718069076538
0.54103356599807739 0.86949890851974487 0.42152976989746094
0.59823989868164062 0.86982399225234985 0.41662085056304932
0.68432998657226562 0.88304823637008667 0.4262845516204834
0.78948432207107544 0.90282255411148071 0.44044768810272217
0.90557712316513062 0.92718136310577393 0.45987981557846069
0.0014373479643836617 0.055553838610649109 0.41749218106269836
0.1607791930437088 0.059106729924678802 0.42219990491867065
0.42020848393440247 0.044994864612817764 0.42337155342102051
0.63402074575424194 0.096993722021579742 0.42325481772422791
0.76023310422897339 0.16012249886989594 0.39997565746307373
0.85310333967208862 0.20375889539718628 0.37966281175613403
0.95040750503540039 0.25829258561134338 0.38018649816513062
0.0022150974255055189 0.22059157490730286 0.41431295871734619
0.19525302946567535 0.23938517272472382 0.42051684856414795
0.4284365177154541 0.25576475262641907 0.42642244696617126
0.62143349647521973 0.27340295910835266 0.42313081026077271
0.74242228269577026 0.28087043762207031 0.39848712086677551
0.841960608959198 0.29684823751449585 0.3798154890537262
0.94901520013809204 0.33072167634963989 0.37964460253715515
0.016238851472735405 0.4378819465637207 0.41201376914978027
0.22937051951885223 0.43882209062576294 0.42031076550483704
0.43153095245361328 0.43446153402328491 0.42004922032356262
0.59843158721923828 0.43238753080368042 0.4106304943561554
0.72313278913497925 0.42546030879020691 0.38873732089996338
0.83508098125457764 0.42932602763175964 0.37899693846702576
0.95086550712585449 0.44267547130584717 0.37806048989295959
0.25060582160949707 0.57418346405029297 0.41252532601356506
0.33440965414047241 0.56856149435043335 0.41930040717124939
0.42613297700881958 0.54835659265518188 0.4074975848197937
0.56022250652313232 0.55910730361938477 0.40515759587287903
0.70692664384841919 0.56959670782089233 0.39526218175888062
0.8369067907333374 0.56684190034866333 0.37876385450363159
0.95817160606384277 0.56764024496078491 0.36742570996284485
0.36633923649787903 0.66158509254455566 0.43184289336204529
0.38520035147666931 0.65721303224563599 0.42066234350204468
0.43839126825332642 0.63809406757354736 0.39913412928581238
0.52307611703872681 0.63339841365814209 0.3927156925201416
0.64949578046798706 0.66009432077407837 0.41232773661613464
0.79445618391036987 0.68900525569915771 0.41387724876403809
0.95175480842590332 0.69515562057495117 0.3807055652141571
0.42040035128593445 0.75239807367324829 0.44696477055549622
0.43537893891334534 0.74539893865585327 0.43645647168159485
0.47248256206512451 0.73469692468643188 0.42022022604942322
0.52639573812484741 0.72134262323379517 0.39953061938285828
0.63023710250854492 0.73985213041305542 0.41661205887794495
0.7514985203742981 0.76934295892715454 0.44024845957756042
0.91197210550308228 0.81372749805450439 0.45022207498550415
0.50033450126647949 0.8863568902015686 0.50652009248733521
0.51436823606491089 0.88373816013336182 0.50205671787261963
0.5459829568862915 0.87791639566421509 0.4932873547077179
0.5970725417137146 0.87271928787231445 0.47975745797157288
0.68183028697967529 0.88420647382736206 0.48319515585899353
0.78920459747314453 0.90296787023544312 0.49864843487739563
0.90734493732452393 0.92810463905334473 0.51677113771438599
0.0040471842512488365 0.12058915942907333 0.59829437732696533
0.20572760701179504 0.13859760761260986 0.60210633277893066
0.43022933602333069 0.18069177865982056 0.60433554649353027
0.61341255903244019 0.22584782540798187 0.608440101146698
0.7528877854347229 0.28208523988723755 0.59644931554794312
0.85921204090118408 0.35910129547119141 0.58244931697845459
0.95771700143814087 0.37732404470443726 0.56985950469970703
0.093021973967552185 0.27237111330032349 0.59385138750076294
0.25980818271636963 0.28914380073547363 0.5934978723526001
0.44846382737159729 0.31682223081588745 0.59582805633544922
0.61257517337799072 0.34755885601043701 0.60312283039093018
0.74255847930908203 0.37964373826980591 0.59130644798278809
0.84524047374725342 0.41738793253898621 0.57926231622695923
0.95062857866287231 0.41654819250106812 0.56747734546661377
0.14656683802604675 0.43651106953620911 0.57997667789459229
0.2945486307144165 0.44364649057388306 0.58241039514541626
0.45744442939758301 0.46193590760231018 0.58529061079025269
0.59759902954101562 0.48130318522453308 0.5857277512550354
0.72055625915527344 0.49518346786499023 0.5859980583190918
0.82310932874679565 0.48768606781959534 0.56382119655609131
0.93540775775909424 0.48426789045333862 0.55374747514724731
0.27779415249824524 0.59645432233810425 0.5743706226348877
0.35510653257369995 0.59838825464248657 0.5790860652923584
0.47331905364990234 0.58568692207336426 0.57658153772354126
0.57580298185348511 0.58098345994949341 0.57012844085693359
0.70084714889526367 0.58674907684326172 0.57007360458374023
0.81450831890106201 0.57330429553985596 0.55160641670227051
0.93772202730178833 0.57067930698394775 0.5396193265914917
0.40495428442955017 0.69846224784851074 0.56575393676757812
0.44208943843841553 0.69510036706924438 0.56749802827835083
0.50469636917114258 0.68254095315933228 0.56909394264221191
0.56091928482055664 0.65828102827072144 0.54820805788040161
0.66662228107452393 0.67380082607269287 0.55597895383834839
0.80578446388244629 0.69032251834869385 0.55866158008575439
0.95483916997909546 0.69102209806442261 0.53845524787902832
0.45156988501548767 0.78017294406890869 0.5679328441619873
0.47463616728782654 0.77778559923171997 0.5668952465057373
0.51368874311447144 0.76943314075469971 0.55722874402999878
0.56003248691558838 0.74911391735076904 0.53585785627365112
0.63545399904251099 0.7452508807182312 0.52741712331771851
0.76034766435623169 0.7779228687286377 0.55170994997024536
0.92514878511428833 0.81471461057662964 0.55899351835250854
0.50937366485595703 0.89510101079940796 0.59814125299453735
0.52451592683792114 0.89859527349472046 0.59343099594116211
0.55774772167205811 0.8942103385925293 0.58508127927780151
0.60347026586532593 0.88930481672286987 0.57130366563796997
0.67263567447662354 0.88600361347198486 0.5558173656463623
0.78681850433349609 0.90659767389297485 0.5727238655090332
0.91117137670516968 0.92848056554794312 0.59224361181259155
0.20116573572158813 0.22175796329975128 0.72190552949905396
0.31827956438064575 0.23858197033405304 0.72371011972427368
0.46228614449501038 0.27573788166046143 0.72551482915878296
0.60779213905334473 0.33014172315597534 0.72625434398651123
0.73509860038757324 0.37373396754264832 0.72367030382156372
0.85116732120513916 0.41279846429824829 0.71746647357940674
0.9637567400932312 0.48443979024887085 0.72263699769973755
0.27577072381973267 0.34438499808311462 0.7168654203414917
0.36191973090171814 0.35554811358451843 0.71682596206665039
0.475807785987854 0.37775492668151855 0.71764081716537476
0.61258405447006226 0.4182073175907135 0.72403615713119507
0.73127090930938721 0.44439536333084106 0.72282886505126953
0.84229826927185059 0.46572798490524292 0.71787756681442261
0.95674532651901245 0.52226978540420532 0.72324150800704956
0.32820194959640503 0.47309112548828125 0.70357674360275269
0.38668128848075867 0.477641761302948 0.70325195789337158
0.48559096455574036 0.48764219880104065 0.70523089170455933
0.61024987697601318 0.5125313401222229 0.71289724111557007
0.7236630916595459 0.52672791481018066 0.7149243950843811
0.83500498533248901 0.55502641201019287 0.71672570705413818
0.95051586627960205 0.57634502649307251 0.717914879322052
0.34497350454330444 0.58912140130996704 0.69056898355484009
0.3995324969291687 0.58794742822647095 0.6883736252784729
0.48512664437294006 0.58837252855300903 0.68892216682434082
0.59316504001617432 0.60206788778305054 0.69459474086761475
0.70897644758224487 0.62006688117980957 0.70439058542251587
0.82469367980957031 0.63313078880310059 0.70772159099578857
0.94074612855911255 0.61988973617553711 0.69989794492721558
0.40780621767044067 0.71660685539245605 0.69341880083084106
0.45207196474075317 0.71378785371780396 0.69261825084686279
0.5150526762008667 0.7105720043182373 0.69357126951217651
0.60252130031585693 0.70085150003433228 0.69021368026733398
0.69075495004653931 0.69398963451385498 0.68620717525482178
0.8075440526008606 0.69439619779586792 0.68386685848236084
0.93986088037490845 0.68537473678588867 0.67020988464355469
0.49585691094398499 0.81719332933425903 0.68840867280960083
0.51719355583190918 0.81649267673492432 0.68998968601226807
0.55523842573165894 0.81158262491226196 0.68895673751831055
0.6105765700340271 0.80003905296325684 0.68374818563461304
0.66573131084442139 0.77137869596481323 0.65838468074798584
0.78362768888473511 0.78435182571411133 0.66484934091567993
0.94758826494216919 0.81503802537918091 0.6744881272315979
0.51024246215820312 0.92636317014694214 0.69294065237045288
0.52459937334060669 0.92212951183319092 0.68969929218292236
0.56696945428848267 0.92173457145690918 0.69214212894439697
0.62106817960739136 0.91314446926116943 0.68722444772720337
0.68202507495880127 0.90137964487075806 0.66244661808013916
0.77993488311767578 0.89791196584701538 0.65630573034286499
0.92217057943344116 0.93734222650527954 0.68432313203811646
0.38047227263450623 0.34888872504234314 0.83372348546981812
0.43310266733169556 0.35630986094474792 0.83396631479263306
0.52097970247268677 0.38424199819564819 0.83540314435958862
0.62887245416641235 0.41704255342483521 0.83448809385299683
0.73971021175384521 0.46406501531600952 0.83503848314285278
0.84907090663909912 0.49125990271568298 0.83376944065093994
0.95215380191802979 0.51408892869949341 0.83488506078720093
0.40229946374893188 0.42425253987312317 0.82627695798873901
0.4496425986289978 0.43222233653068542 0.831573486328125
0.5341981053352356 0.45300701260566711 0.82972383499145508
0.63719767332077026 0.47869816422462463 0.83356994390487671
0.7381969690322876 0.51179963350296021 0.83604240417480469
0.84358346462249756 0.53201711177825928 0.83501791954040527
0.95214933156967163 0.55145996809005737 0.83618324995040894
0.4248490035533905 0.51949799060821533 0.8180088996887207
0.46517676115036011 0.53068578243255615 0.82101404666900635
0.53933405876159668 0.5415838360786438 0.8213161826133728
0.63803160190582275 0.5566093921661377 0.82638412714004517
0.73726147413253784 0.57578498125076294 0.82921606302261353
0.83843624591827393 0.59294253587722778 0.8299756646156311
0.94507831335067749 0.6064344048500061 0.8351859450340271
0.41049465537071228 0.60861754417419434 0.80385744571685791
0.45667967200279236 0.61410367488861084 0.80833953619003296
0.52932053804397583 0.62207907438278198 0.80797827243804932
0.61657941341400146 0.63166910409927368 0.81167644262313843
0.72701215744018555 0.65016895532608032 0.81849092245101929
0.83535194396972656 0.66500777006149292 0.8245883584022522
0.94890576601028442 0.6785581111907959 0.83385610580444336
0.42733940482139587 0.71851265430450439 0.80663621425628662
0.4629567563533783 0.71798801422119141 0.80766052007675171
0.52053260803222656 0.71159398555755615 0.80534154176712036
0.59716546535491943 0.7048952579498291 0.80044078826904297
0.70883285999298096 0.72088152170181274 0.81090736389160156
0.8322339653968811 0.74117940664291382 0.82277536392211914
0.95321226119995117 0.75172215700149536 0.8306090235710144
0.47564619779586792 0.83543509244918823 0.81203418970108032
0.49870759248733521 0.83825975656509399 0.81496584415435791
0.54992431402206421 0.83599686622619629 0.81747639179229736
0.62524318695068359 0.83084946870803833 0.81543099880218506
0.72366875410079956 0.82347667217254639 0.81481432914733887
0.82147634029388428 0.81805044412612915 0.81152200698852539
0.95370066165924072 0.81376558542251587 0.80635654926300049
0.57906955480575562 0.94892972707748413 0.81693601608276367
0.59446746110916138 0.9502454400062561 0.81770116090774536
0.6281246542930603 0.94790077209472656 0.81702476739883423
0.67799347639083862 0.94676810503005981 0.81951123476028442
0.73924911022186279 0.93821364641189575 0.81280559301376343
0.80137032270431519 0.92302864789962769 0.78356063365936279
0.93206644058227539 0.93498170375823975 0.79835283756256104
0.50878995656967163 0.48555076122283936 0.94869905710220337
0.53641736507415771 0.49281376600265503 0.94918656349182129
0.59127140045166016 0.50353050231933594 0.94770419597625732
0.66866284608840942 0.52754610776901245 0.94730788469314575
0.75755256414413452 0.55420166254043579 0.94679325819015503
0.85057616233825684 0.58825051784515381 0.94359076023101807
0.94967776536941528 0.60443699359893799 0.95021432638168335
0.51642012596130371 0.52832484245300293 0.94695711135864258
0.54408109188079834 0.53548347949981689 0.94837194681167603
0.59962218999862671 0.54404157400131226 0.94542330503463745
0.67291909456253052 0.56261146068572998 0.94491922855377197
0.75658994913101196 0.58561617136001587 0.94639217853546143
0.85077095031738281 0.61100190877914429 0.94601833820343018
0.95001113414764404 0.6242859959602356 0.94793009757995605
0.52155858278274536 0.59180259704589844 0.94309353828430176
0.54557341337203979 0.59477680921554565 0.94258123636245728
0.60240834951400757 0.60696548223495483 0.94425791501998901
0.67356014251708984 0.61570382118225098 0.94051152467727661
0.75923854112625122 0.6365237832069397 0.94320791959762573
0.85250824689865112 0.65713560581207275 0.9451899528503418
0.95131778717041016 0.66649138927459717 0.9488983154296875
0.50895142555236816 0.65937501192092896 0.93805825710296631
0.53646838665008545 0.66297924518585205 0.93988001346588135
0.5850832462310791 0.66805672645568848 0.93454301357269287
0.66599422693252563 0.67599737644195557 0.93910157680511475
0.75528144836425781 0.69186621904373169 0.94337767362594604
0.85223668813705444 0.71036624908447266 0.94730991125106812
0.95184886455535889 0.72195190191268921 0.94829863309860229
0.47730696201324463 0.73359435796737671 0.93463242053985596
0.49569904804229736 0.73103863000869751 0.93518555164337158
0.55228960514068604 0.73286586999893188 0.93827646970748901
0.63905638456344604 0.73944848775863647 0.93820905685424805
0.74415981769561768 0.7562071681022644 0.94465351104736328
0.85143661499023438 0.77681887149810791 0.94408750534057617
0.95740813016891479 0.79475295543670654 0.95299637317657471
0.48963248729705811 0.85018676519393921 0.94233024120330811
0.51014477014541626 0.84759831428527832 0.94329565763473511
0.55575650930404663 0.84542858600616455 0.94357585906982422
0.62601613998413086 0.83869260549545288 0.94541388750076294
0.71683776378631592 0.82909238338470459 0.94387543201446533
0.84562146663665771 0.84632313251495361 0.94976425170898438
0.96222269535064697 0.87198066711425781 0.95659744739532471
0.53807294368743896 0.96877902746200562 0.94886374473571777
0.55793923139572144 0.96955227851867676 0.94863229990005493
0.60443466901779175 0.96665549278259277 0.94842863082885742
0.67052948474884033 0.96694672107696533 0.95296895503997803
0.76191431283950806 0.96371972560882568 0.95312130451202393
0.86435580253601074 0.95925956964492798 0.9556044340133667
0.96515429019927979 0.96276324987411499 0.95565831661224365
