luts/negative_new/kodak_portra_160.cube
# Created by: G'MIC (https://gmic.eu)
TITLE "kodak_portra_160"
# LUT size
LUT_3D_SIZE 7
# Data domain
DOMAIN_MIN 0.0 0.0 0.0
DOMAIN_MAX 1.0 1.0 1.0
# LUT data points
0.019879883155226707 0.026109836995601654 0.021318009123206139
0.12847636640071869 0.030017059296369553 0.021086763590574265
0.34325417876243591 0.012186880223453045 0.014642678201198578
0.58453422784805298 0.0025977788027375937 0.0045525343157351017
0.77496081590652466 0.0037241168320178986 0.001800043391995132
0.90171831846237183 0.02147655189037323 0
0.99640083312988281 0.15355515480041504 0.0015063865575939417
0.016004106029868126 0.14519968628883362 0.022810438647866249
0.12030667811632156 0.1511380523443222 0.015902545303106308
0.36849817633628845 0.17617686092853546 0.0060989530757069588
0.61594951152801514 0.16306315362453461 0.0032215341925621033
0.77779585123062134 0.17348377406597137 0.00020961387781426311
0.90398621559143066 0.21746067702770233 0.00094315770547837019
0.99671107530593872 0.2608395516872406 0.0011067409068346024
0.0022111630532890558 0.3217715322971344 0.005185101181268692
0.086547449231147766 0.32091912627220154 0.0036403131671249866
0.3169841468334198 0.35565358400344849 0.00034760119160637259
0.58993226289749146 0.40563160181045532 0.0020221634767949581
0.77482008934020996 0.41020676493644714 0.00060254265554249287
0.90355128049850464 0.41406592726707458 0.0025736640673130751
0.99197620153427124 0.41705223917961121 0.0025964176747947931
0.0045399833470582962 0.49669122695922852 0.0022421893663704395
0.088068552315235138 0.48759961128234863 0.0019474403234198689
0.30482572317123413 0.49410909414291382 0.0024317572824656963
0.51749145984649658 0.53390985727310181 0.0023284314665943384
0.71913063526153564 0.57859069108963013 7.3601215262897313e-05
0.8842586874961853 0.58032310009002686 0.00047694187378510833
0.99134272336959839 0.57271355390548706 0
0.15280905365943909 0.63231343030929565 0.0074310903437435627
0.23395262658596039 0.62356472015380859 0.012539777904748917
0.33718001842498779 0.61342990398406982 0.0061617083847522736
0.49883446097373962 0.63535416126251221 0.0042065042071044445
0.65846997499465942 0.66804713010787964 0.0084550445899367332
0.82456129789352417 0.70823782682418823 0.0077261384576559067
0.98173731565475464 0.71795254945755005 0.00055470183724537492
0.33634525537490845 0.7552686333656311 0.15618149936199188
0.37513181567192078 0.75177282094955444 0.14602215588092804
0.42695018649101257 0.739479660987854 0.10817399621009827
0.52477830648422241 0.74468839168548584 0.1143588051199913
0.65545082092285156 0.77014106512069702 0.14414329826831818
0.78637337684631348 0.79225432872772217 0.17793551087379456
0.94305920600891113 0.83398216962814331 0.19794876873493195
0.49756672978401184 0.90137356519699097 0.38343235850334167
0.51351428031921387 0.89833205938339233 0.37498286366462708
0.5527033805847168 0.89495605230331421 0.36855816841125488
0.61425215005874634 0.89425504207611084 0.36619749665260315
0.70692795515060425 0.90774917602539062 0.38274362683296204
0.81300121545791626 0.9231298565864563 0.40311148762702942
0.92601031064987183 0.94059962034225464 0.424864262342453
0.011735489591956139 0.041556235402822495 0.14987033605575562
0.13173879683017731 0.033743437379598618 0.14823178946971893
0.35956808924674988 0.007498512975871563 0.15845425426959991
0.58733290433883667 0.0023222679737955332 0.14498306810855865
0.76518517732620239 0.0027866140007972717 0.13038875162601471
0.89483988285064697 0.0048138336278498173 0.11577487736940384
0.99514502286911011 0.13904094696044922 0.10107605904340744
0.0034477831795811653 0.16807882487773895 0.14681757986545563
0.14157868921756744 0.16692328453063965 0.15098100900650024
0.37522208690643311 0.1636035293340683 0.14137408137321472
0.60781002044677734 0.13276296854019165 0.12280800193548203
0.77221381664276123 0.1492307186126709 0.11111324280500412
0.89804792404174805 0.1954597681760788 0.097753636538982391
0.99335110187530518 0.25782153010368347 0.084248244762420654
0.0020018185023218393 0.36384359002113342 0.14437644183635712
0.13827037811279297 0.35435587167739868 0.14950262010097504
0.35252255201339722 0.37097266316413879 0.13547602295875549
0.61125683784484863 0.40154725313186646 0.082028195261955261
0.78100281953811646 0.39930072426795959 0.053500905632972717
0.90214687585830688 0.40088847279548645 0.044977106153964996
0.99494361877441406 0.41654080152511597 0.044533103704452515
0.037076283246278763 0.5271943211555481 0.15274736285209656
0.1699242889881134 0.51718682050704956 0.14463050663471222
0.33353915810585022 0.50885939598083496 0.12116986513137817
0.53013819456100464 0.54473185539245605 0.12110847234725952
0.72947007417678833 0.58252298831939697 0.080355733633041382
0.89080154895782471 0.57882136106491089 0.02786622941493988
0.99493253231048584 0.56843489408493042 0.01241194736212492
0.21188730001449585 0.64534974098205566 0.18541133403778076
0.27921566367149353 0.64016467332839966 0.17908671498298645
0.35894936323165894 0.62319105863571167 0.15159009397029877
0.50877553224563599 0.64384174346923828 0.15535883605480194
0.66333299875259399 0.67632830142974854 0.17257682979106903
0.82981210947036743 0.71312516927719116 0.16251148283481598
0.98305398225784302 0.71631103754043579 0.064244575798511505
0.35895568132400513 0.76164823770523071 0.26716354489326477
0.39063435792922974 0.75947791337966919 0.26054325699806213
0.44084563851356506 0.74563980102539062 0.23228418827056885
0.52620911598205566 0.74361723661422729 0.22423909604549408
0.65596330165863037 0.76924920082092285 0.25204175710678101
0.78532308340072632 0.79418015480041504 0.2799963653087616
0.94429713487625122 0.83544009923934937 0.30339670181274414
0.50061547756195068 0.9031633734703064 0.42509746551513672
0.51809751987457275 0.9016539454460144 0.42201271653175354
0.5572851300239563 0.89894914627075195 0.41479778289794922
0.61652207374572754 0.89472264051437378 0.4087505042552948
0.70649969577789307 0.90493112802505493 0.41855767369270325
0.81233835220336914 0.92117190361022949 0.43901807069778442
0.92634540796279907 0.94130051136016846 0.46317550539970398
0.00598882045596838 0.056227739900350571 0.38052842020988464
0.13744671642780304 0.052069362252950668 0.38658198714256287
0.38366878032684326 0.026545176282525063 0.3943265974521637
0.62672990560531616 0.0096773933619260788 0.40323007106781006
0.78691798448562622 0.027470951899886131 0.38832676410675049
0.89522498846054077 0.05390993133187294 0.35962128639221191
0.98758614063262939 0.16712646186351776 0.35353770852088928
0.0040429206565022469 0.19344820082187653 0.3764306902885437
0.14183008670806885 0.19973620772361755 0.38539770245552063
0.39682790637016296 0.21497461199760437 0.39627978205680847
0.61716830730438232 0.21071986854076385 0.39874792098999023
0.76927751302719116 0.20731006562709808 0.37849164009094238
0.88464933633804321 0.22468075156211853 0.35841566324234009
0.98303830623626709 0.28844454884529114 0.35579204559326172
0.0037555769085884094 0.40623712539672852 0.37770479917526245
0.1433623731136322 0.41069778800010681 0.38936677575111389
0.40441915392875671 0.40311279892921448 0.38916835188865662
0.607749342918396 0.40542858839035034 0.38088950514793396
0.75403058528900146 0.40348026156425476 0.35820788145065308
0.87863767147064209 0.40879270434379578 0.34650745987892151
0.9857785701751709 0.42442154884338379 0.34739243984222412
0.12391089648008347 0.57899338006973267 0.38021084666252136
0.27426677942276001 0.570453941822052 0.38821741938591003
0.40415123105049133 0.54902702569961548 0.37511810660362244
0.56077426671981812 0.56255364418029785 0.37822714447975159
0.73712432384490967 0.57924866676330566 0.36984539031982422
0.87835472822189331 0.57428091764450073 0.34531649947166443
0.98831737041473389 0.57032221555709839 0.33001270890235901
0.32519662380218506 0.68190747499465942 0.4049326479434967
0.36562973260879517 0.67443609237670898 0.40092813968658447
0.42833688855171204 0.65577161312103271 0.37427595257759094
0.52867072820663452 0.65245860815048218 0.36098161339759827
0.675861656665802 0.68683606386184692 0.38404417037963867
0.83567160367965698 0.71125298738479614 0.39088907837867737
0.98236221075057983 0.71122282743453979 0.35100564360618591
0.40698465704917908 0.78027528524398804 0.42464831471443176
0.42946308851242065 0.77425247430801392 0.41886171698570251
0.47324314713478088 0.76384401321411133 0.39819756150245667
0.53703927993774414 0.75242424011230469 0.3715166449546814
0.65361148118972778 0.76884043216705322 0.39100530743598938
0.7862057089805603 0.79543805122375488 0.41919040679931641
0.94559091329574585 0.83384501934051514 0.44245803356170654
0.51388168334960938 0.90855962038040161 0.50893718004226685
0.53055256605148315 0.90629702806472778 0.50803053379058838
0.56399250030517578 0.90135675668716431 0.49137628078460693
0.61649578809738159 0.89805400371551514 0.48025566339492798
0.70335131883621216 0.90555369853973389 0.48811867833137512
0.81230401992797852 0.92177808284759521 0.50908094644546509
0.92703640460968018 0.94207710027694702 0.53080886602401733
0.0046091265976428986 0.093102790415287018 0.59914028644561768
0.17365089058876038 0.095336541533470154 0.60154646635055542
0.42086765170097351 0.11215084046125412 0.60604244470596313
0.62741184234619141 0.13517437875270844 0.61376410722732544
0.78520840406417847 0.20151609182357788 0.60357660055160522
0.90595769882202148 0.3089509904384613 0.59089469909667969
0.99094140529632568 0.33596271276473999 0.57665896415710449
0.0056344573386013508 0.23758651316165924 0.59079444408416748
0.20366422832012177 0.2440207302570343 0.59483200311660767
0.43251031637191772 0.26923945546150208 0.60180193185806274
0.62475764751434326 0.2919623851776123 0.60521328449249268
0.77604836225509644 0.33830872178077698 0.60267871618270874
0.89198762178421021 0.38663479685783386 0.59008020162582397
0.98798298835754395 0.3905346691608429 0.56913614273071289
0.011485515162348747 0.41696116328239441 0.58126598596572876
0.21009077131748199 0.42270967364311218 0.58403915166854858
0.43380606174468994 0.43934410810470581 0.58492565155029297
0.61112421751022339 0.46533107757568359 0.5904233455657959
0.75519049167633057 0.48341289162635803 0.59272950887680054
0.87068456411361694 0.47734519839286804 0.56723886728286743
0.97696870565414429 0.46983131766319275 0.55419749021530151
0.15748162567615509 0.60841077566146851 0.58120405673980713
0.30569657683372498 0.60660433769226074 0.58297133445739746
0.45725589990615845 0.59712928533554077 0.5814443826675415
0.59384846687316895 0.58972489833831787 0.57632702589035034
0.73023933172225952 0.58988255262374878 0.57124835252761841
0.85742968320846558 0.58620619773864746 0.55180925130844116
0.97338354587554932 0.57853430509567261 0.54451721906661987
0.39007487893104553 0.72366756200790405 0.57075220346450806
0.43017253279685974 0.71771705150604248 0.57391220331192017
0.50368571281433105 0.70717340707778931 0.5699964165687561
0.57649791240692139 0.6865469217300415 0.55492162704467773
0.69243764877319336 0.69915771484375 0.55789756774902344
0.8473244309425354 0.7077406644821167 0.55928242206573486
0.98001402616500854 0.70879667997360229 0.54362702369689941
0.45471969246864319 0.80922317504882812 0.57360202074050903
0.48470413684844971 0.80513924360275269 0.57647192478179932
0.52386283874511719 0.79712742567062378 0.56323647499084473
0.57396012544631958 0.77460455894470215 0.53669792413711548
0.65962785482406616 0.77228289842605591 0.526591956615448
0.79802936315536499 0.80158883333206177 0.55804580450057983
0.95354193449020386 0.83616703748703003 0.57649177312850952
0.54162567853927612 0.92192333936691284 0.6158176064491272
0.5559571385383606 0.92026317119598389 0.61149877309799194
0.58914744853973389 0.91520744562149048 0.60252267122268677
0.63128304481506348 0.90925592184066772 0.58536136150360107
0.6991429328918457 0.90459877252578735 0.57152748107910156
0.81249368190765381 0.92281001806259155 0.59442460536956787
0.93077951669692993 0.94119244813919067 0.61587268114089966
0.1519530713558197 0.17142386734485626 0.74208182096481323
0.29660534858703613 0.18831512331962585 0.74126660823822021
0.47028073668479919 0.21906127035617828 0.74372780323028564
0.62798607349395752 0.28127005696296692 0.74792706966400146
0.76961368322372437 0.33254963159561157 0.74652308225631714
0.89570921659469604 0.39274477958679199 0.737557053565979
0.99023938179016113 0.47951048612594604 0.73878365755081177
0.21610449254512787 0.3027862012386322 0.73672062158584595
0.32422497868537903 0.31307721138000488 0.7358359694480896
0.48442521691322327 0.33702293038368225 0.73749846220016479
0.62752258777618408 0.38463160395622253 0.74291175603866577
0.76416420936584473 0.42065423727035522 0.74661707878112793
0.88580536842346191 0.45457032322883606 0.74158161878585815
0.98096716403961182 0.52558392286300659 0.73888611793518066
0.25995764136314392 0.45695239305496216 0.72369581460952759
0.35190701484680176 0.46085473895072937 0.72156119346618652
0.48305708169937134 0.48289817571640015 0.71725618839263916
0.62658780813217163 0.51433897018432617 0.72694051265716553
0.75498378276824951 0.53887033462524414 0.73637849092483521
0.87444543838500977 0.5649263858795166 0.74084353446960449
0.97579586505889893 0.59074801206588745 0.73464840650558472
0.28106850385665894 0.59394663572311401 0.70988947153091431
0.36543565988540649 0.59728342294692993 0.7096673846244812
0.48282608389854431 0.60302257537841797 0.70616400241851807
0.61715751886367798 0.61979937553405762 0.71441185474395752
0.74218887090682983 0.63771039247512817 0.72505044937133789
0.86266064643859863 0.6538313627243042 0.7318112850189209
0.97234839200973511 0.64148473739624023 0.71874797344207764
0.39856129884719849 0.7403331995010376 0.71400362253189087
0.44669428467750549 0.73926156759262085 0.71456873416900635
0.52615052461624146 0.7358972430229187 0.71390986442565918
0.62546062469482422 0.7247006893157959 0.71178919076919556
0.72516018152236938 0.7212144136428833 0.70684713125228882
0.84721618890762329 0.71804916858673096 0.70418226718902588
0.96926170587539673 0.70682507753372192 0.69040334224700928
0.52319920063018799 0.84574621915817261 0.70739763975143433
0.54597574472427368 0.84164136648178101 0.71114933490753174
0.58864003419876099 0.83599621057510376 0.71039730310440063
0.64798265695571899 0.82313227653503418 0.70202058553695679
0.70279204845428467 0.79958713054656982 0.67521524429321289
0.82034081220626831 0.81111669540405273 0.68436062335968018
0.96831327676773071 0.8344922661781311 0.69939523935317993
0.56807416677474976 0.94262182712554932 0.71798908710479736
0.58779799938201904 0.94137996435165405 0.71912777423858643
0.6178099513053894 0.93725705146789551 0.71614724397659302
0.67216092348098755 0.93137305974960327 0.71158277988433838
0.72487646341323853 0.91830098628997803 0.68868911266326904
0.81354087591171265 0.91722220182418823 0.68624889850616455
0.9402472972869873 0.94704568386077881 0.71203809976577759
0.3624938428401947 0.30719369649887085 0.85562962293624878
0.42412453889846802 0.32071083784103394 0.85538870096206665
0.53272044658660889 0.34562087059020996 0.85640150308609009
0.65025609731674194 0.39451345801353455 0.85632872581481934
0.76492232084274292 0.45639851689338684 0.85601896047592163
0.88264232873916626 0.49300485849380493 0.85574668645858765
0.98292869329452515 0.52245038747787476 0.85680305957794189
0.38644516468048096 0.39907443523406982 0.85104715824127197
0.44423577189445496 0.40812432765960693 0.85189694166183472
0.53873676061630249 0.43275764584541321 0.85102784633636475
0.65034288167953491 0.46400517225265503 0.85351705551147461
0.76340162754058838 0.51462256908416748 0.85677117109298706
0.87455374002456665 0.54240721464157104 0.85693758726119995
0.9795108437538147 0.56149804592132568 0.85706895589828491
0.42363595962524414 0.52039051055908203 0.84432685375213623
0.46424055099487305 0.52678340673446655 0.84284120798110962
0.54389411211013794 0.54000949859619141 0.8430212140083313
0.65675073862075806 0.56844884157180786 0.84555232524871826
0.76429331302642822 0.60052013397216797 0.85118287801742554
0.87103497982025146 0.6127089262008667 0.85220634937286377
0.97663909196853638 0.63146382570266724 0.85462218523025513
0.40943321585655212 0.61411195993423462 0.82966309785842896
0.45572599768638611 0.62669998407363892 0.82943320274353027
0.53727257251739502 0.63586962223052979 0.82793474197387695
0.64913469552993774 0.65474778413772583 0.83506137132644653
0.76152569055557251 0.678477942943573 0.84326869249343872
0.86955052614212036 0.69390147924423218 0.84812980890274048
0.97532731294631958 0.70364081859588623 0.85348844528198242
0.44321870803833008 0.731964111328125 0.82572227716445923
0.47873613238334656 0.73526817560195923 0.8282243013381958
0.54049587249755859 0.73119544982910156 0.82658857107162476
0.63064074516296387 0.7288210391998291 0.82412862777709961
0.74503064155578613 0.74679100513458252 0.82985097169876099
0.8665001392364502 0.76837778091430664 0.84417539834976196
0.9752962589263916 0.78087002038955688 0.85147029161453247
0.51754915714263916 0.86006337404251099 0.83304327726364136
0.54179781675338745 0.85866469144821167 0.83631747961044312
0.59593862295150757 0.85751640796661377 0.83708655834197998
0.67212516069412231 0.85366469621658325 0.83689194917678833
0.76334577798843384 0.84296286106109619 0.8337852954864502
0.85621541738510132 0.84099942445755005 0.83050918579101562
0.97424930334091187 0.84182709455490112 0.83079034090042114
0.64372462034225464 0.95813107490539551 0.8332018256187439
0.65761971473693848 0.95593857765197754 0.83559930324554443
0.69016003608703613 0.95250749588012695 0.8368036150932312
0.73452377319335938 0.9552578330039978 0.83938312530517578
0.78914469480514526 0.94803988933563232 0.83371567726135254
0.83882397413253784 0.93612194061279297 0.80649614334106445
0.95391952991485596 0.95324313640594482 0.82324063777923584
0.50747746229171753 0.47778427600860596 0.95649194717407227
0.5398108959197998 0.48287397623062134 0.95922046899795532
0.60651504993438721 0.50906765460968018 0.96020269393920898
0.68725830316543579 0.53563278913497925 0.95935934782028198
0.77681714296340942 0.56868308782577515 0.95601582527160645
0.8718457818031311 0.60866320133209229 0.95666122436523438
0.96935796737670898 0.62862896919250488 0.95722943544387817
0.52633237838745117 0.53149491548538208 0.95830971002578735
0.55631303787231445 0.53733634948730469 0.96071487665176392
0.61357051134109497 0.5531080961227417 0.96030896902084351
0.69126313924789429 0.57313340902328491 0.9561648964881897
0.77801978588104248 0.60287988185882568 0.95581984519958496
0.87373661994934082 0.63388228416442871 0.95611977577209473
0.97018724679946899 0.65342575311660767 0.95832955837249756
0.54809659719467163 0.60787075757980347 0.95558810234069824
0.56993025541305542 0.60886365175247192 0.953804612159729
0.62168824672698975 0.62180650234222412 0.95432287454605103
0.69726502895355225 0.63615447282791138 0.95214778184890747
0.78652870655059814 0.66205042600631714 0.9538390040397644
0.87589740753173828 0.6822739839553833 0.95602041482925415
0.96993482112884521 0.69336438179016113 0.95723617076873779
0.54541242122650146 0.67855656147003174 0.94729399681091309
0.57362520694732666 0.68553155660629272 0.95237988233566284
0.62584298849105835 0.69262582063674927 0.95056533813476562
0.70176661014556885 0.70486241579055786 0.95035356283187866
0.78997445106506348 0.72202664613723755 0.95165205001831055
0.87624138593673706 0.73922920227050781 0.95036834478378296
0.96948456764221191 0.75200647115707397 0.95752441883087158
0.52216809988021851 0.75139224529266357 0.94271737337112427
0.54398322105407715 0.75079566240310669 0.94820070266723633
0.59870481491088867 0.75414866209030151 0.94603878259658813
0.683005690574646 0.76550686359405518 0.9467165470123291
0.78324836492538452 0.78111666440963745 0.95246791839599609
0.88114714622497559 0.80097478628158569 0.95219933986663818
0.97160458564758301 0.81770581007003784 0.95699042081832886
0.55311399698257446 0.86488550901412964 0.94397294521331787
0.57186508178710938 0.86097955703735352 0.94206249713897705
0.62083274126052856 0.86170333623886108 0.95233899354934692
0.68468976020812988 0.85717827081680298 0.95456999540328979
0.76603239774703979 0.85103553533554077 0.95306318998336792
0.87373799085617065 0.86819016933441162 0.95461243391036987
0.9758676290512085 0.89057004451751709 0.96065610647201538
0.62031912803649902 0.97497415542602539 0.9529564380645752
0.63438630104064941 0.96724671125411987 0.95448946952819824
0.67582225799560547 0.9721214771270752 0.95422834157943726
0.73694169521331787 0.97187578678131104 0.95804387331008911
0.81753194332122803 0.96413969993591309 0.95391190052032471
0.89315497875213623 0.96445977687835693 0.96121245622634888
0.97088265419006348 0.96988594532012939 0.95868974924087524
