luts/negative_new/kodak_tri-x_400_-.cube
# Created by: G'MIC (https://gmic.eu)
TITLE "kodak_tri-x_400_-"
# LUT size
LUT_3D_SIZE 7
# Data domain
DOMAIN_MIN 0.0 0.0 0.0
DOMAIN_MAX 1.0 1.0 1.0
# LUT data points
0.0064607206732034683 0.0064607206732034683 0.0064607206732034683
0.048169348388910294 0.048169348388910294 0.048169348388910294
0.091578446328639984 0.091578446328639984 0.091578446328639984
0.16266025602817535 0.16266025602817535 0.16266025602817535
0.26594787836074829 0.26594787836074829 0.26594787836074829
0.35002955794334412 0.35002955794334412 0.35002955794334412
0.45451480150222778 0.45451480150222778 0.45451480150222778
0.10063135623931885 0.10063135623931885 0.10063135623931885
0.14761081337928772 0.14761081337928772 0.14761081337928772
0.20829287171363831 0.20829287171363831 0.20829287171363831
0.26369890570640564 0.26369890570640564 0.26369890570640564
0.34195727109909058 0.34195727109909058 0.34195727109909058
0.41720360517501831 0.41720360517501831 0.41720360517501831
0.50932753086090088 0.50932753086090088 0.50932753086090088
0.24259799718856812 0.24259799718856812 0.24259799718856812
0.2391284853219986 0.2391284853219986 0.2391284853219986
0.33862587809562683 0.33862587809562683 0.33862587809562683
0.42043840885162354 0.42043840885162354 0.42043840885162354
0.47461754083633423 0.47461754083633423 0.47461754083633423
0.53392696380615234 0.53392696380615234 0.53392696380615234
0.61140990257263184 0.61140990257263184 0.61140990257263184
0.39854905009269714 0.39854905009269714 0.39854905009269714
0.37144237756729126 0.37144237756729126 0.37144237756729126
0.42089110612869263 0.42089110612869263 0.42089110612869263
0.51309555768966675 0.51309555768966675 0.51309555768966675
0.58572995662689209 0.58572995662689209 0.58572995662689209
0.6563870906829834 0.6563870906829834 0.6563870906829834
0.73103904724121094 0.73103904724121094 0.73103904724121094
0.54281342029571533 0.54281342029571533 0.54281342029571533
0.51690524816513062 0.51690524816513062 0.51690524816513062
0.51805561780929565 0.51805561780929565 0.51805561780929565
0.57697844505310059 0.57697844505310059 0.57697844505310059
0.66414409875869751 0.66414409875869751 0.66414409875869751
0.75661933422088623 0.75661933422088623 0.75661933422088623
0.83742201328277588 0.83742201328277588 0.83742201328277588
0.71348363161087036 0.71348363161087036 0.71348363161087036
0.69555491209030151 0.69555491209030151 0.69555491209030151
0.66852283477783203 0.66852283477783203 0.66852283477783203
0.69206357002258301 0.69206357002258301 0.69206357002258301
0.76650106906890869 0.76650106906890869 0.76650106906890869
0.84944695234298706 0.84944695234298706 0.84944695234298706
0.91810828447341919 0.91810828447341919 0.91810828447341919
0.89139413833618164 0.89139413833618164 0.89139413833618164
0.89132928848266602 0.89132928848266602 0.89132928848266602
0.87562006711959839 0.87562006711959839 0.87562006711959839
0.86782634258270264 0.86782634258270264 0.86782634258270264
0.89852356910705566 0.89852356910705566 0.89852356910705566
0.940582275390625 0.940582275390625 0.940582275390625
0.97489583492279053 0.97489583492279053 0.97489583492279053
0.048903431743383408 0.048903431743383408 0.048903431743383408
0.10902765393257141 0.10902765393257141 0.10902765393257141
0.19079184532165527 0.19079184532165527 0.19079184532165527
0.22732497751712799 0.22732497751712799 0.22732497751712799
0.28199055790901184 0.28199055790901184 0.28199055790901184
0.35402461886405945 0.35402461886405945 0.35402461886405945
0.47149786353111267 0.47149786353111267 0.47149786353111267
0.16013725101947784 0.16013725101947784 0.16013725101947784
0.17358531057834625 0.17358531057834625 0.17358531057834625
0.22078558802604675 0.22078558802604675 0.22078558802604675
0.27330231666564941 0.27330231666564941 0.27330231666564941
0.33940649032592773 0.33940649032592773 0.33940649032592773
0.41393065452575684 0.41393065452575684 0.41393065452575684
0.52472031116485596 0.52472031116485596 0.52472031116485596
0.3213876485824585 0.3213876485824585 0.3213876485824585
0.29894691705703735 0.29894691705703735 0.29894691705703735
0.35167604684829712 0.35167604684829712 0.35167604684829712
0.41293776035308838 0.41293776035308838 0.41293776035308838
0.46454638242721558 0.46454638242721558 0.46454638242721558
0.53220319747924805 0.53220319747924805 0.53220319747924805
0.62277126312255859 0.62277126312255859 0.62277126312255859
0.44102185964584351 0.44102185964584351 0.44102185964584351
0.41078948974609375 0.41078948974609375 0.41078948974609375
0.42248368263244629 0.42248368263244629 0.42248368263244629
0.52161937952041626 0.52161937952041626 0.52161937952041626
0.59620600938796997 0.59620600938796997 0.59620600938796997
0.66527032852172852 0.66527032852172852 0.66527032852172852
0.73960191011428833 0.73960191011428833 0.73960191011428833
0.56465941667556763 0.56465941667556763 0.56465941667556763
0.54180371761322021 0.54180371761322021 0.54180371761322021
0.53101354837417603 0.53101354837417603 0.53101354837417603
0.59264081716537476 0.59264081716537476 0.59264081716537476
0.67979127168655396 0.67979127168655396 0.67979127168655396
0.75694733858108521 0.75694733858108521 0.75694733858108521
0.84055876731872559 0.84055876731872559 0.84055876731872559
0.72718274593353271 0.72718274593353271 0.72718274593353271
0.71054965257644653 0.71054965257644653 0.71054965257644653
0.69317471981048584 0.69317471981048584 0.69317471981048584
0.71497249603271484 0.71497249603271484 0.71497249603271484
0.77662712335586548 0.77662712335586548 0.77662712335586548
0.84281003475189209 0.84281003475189209 0.84281003475189209
0.91372859477996826 0.91372859477996826 0.91372859477996826
0.8950313925743103 0.8950313925743103 0.8950313925743103
0.89218562841415405 0.89218562841415405 0.89218562841415405
0.88276177644729614 0.88276177644729614 0.88276177644729614
0.88141798973083496 0.88141798973083496 0.88141798973083496
0.90974241495132446 0.90974241495132446 0.90974241495132446
0.94690132141113281 0.94690132141113281 0.94690132141113281
0.97748517990112305 0.97748517990112305 0.97748517990112305
0.15191084146499634 0.15191084146499634 0.15191084146499634
0.18817736208438873 0.18817736208438873 0.18817736208438873
0.26642397046089172 0.26642397046089172 0.26642397046089172
0.36417296528816223 0.36417296528816223 0.36417296528816223
0.43095257878303528 0.43095257878303528 0.43095257878303528
0.4516773521900177 0.4516773521900177 0.4516773521900177
0.48929169774055481 0.48929169774055481 0.48929169774055481
0.19819320738315582 0.19819320738315582 0.19819320738315582
0.23410859704017639 0.23410859704017639 0.23410859704017639
0.31814637780189514 0.31814637780189514 0.31814637780189514
0.39205995202064514 0.39205995202064514 0.39205995202064514
0.42623105645179749 0.42623105645179749 0.42623105645179749
0.46429046988487244 0.46429046988487244 0.46429046988487244
0.52234876155853271 0.52234876155853271 0.52234876155853271
0.36148005723953247 0.36148005723953247 0.36148005723953247
0.3700103759765625 0.3700103759765625 0.3700103759765625
0.38988229632377625 0.38988229632377625 0.38988229632377625
0.42269083857536316 0.42269083857536316 0.42269083857536316
0.4633546769618988 0.4633546769618988 0.4633546769618988
0.52234435081481934 0.52234435081481934 0.52234435081481934
0.59299516677856445 0.59299516677856445 0.59299516677856445
0.50946187973022461 0.50946187973022461 0.50946187973022461
0.51099693775177002 0.51099693775177002 0.51099693775177002
0.48241129517555237 0.48241129517555237 0.48241129517555237
0.53586101531982422 0.53586101531982422 0.53586101531982422
0.59529811143875122 0.59529811143875122 0.59529811143875122
0.6595313549041748 0.6595313549041748 0.6595313549041748
0.73065090179443359 0.73065090179443359 0.73065090179443359
0.62595474720001221 0.62595474720001221 0.62595474720001221
0.62363302707672119 0.62363302707672119 0.62363302707672119
0.59762823581695557 0.59762823581695557 0.59762823581695557
0.62511157989501953 0.62511157989501953 0.62511157989501953
0.69972282648086548 0.69972282648086548 0.69972282648086548
0.77317529916763306 0.77317529916763306 0.77317529916763306
0.85178053379058838 0.85178053379058838 0.85178053379058838
0.76154208183288574 0.76154208183288574 0.76154208183288574
0.75658005475997925 0.75658005475997925 0.75658005475997925
0.7430797815322876 0.7430797815322876 0.7430797815322876
0.74151301383972168 0.74151301383972168 0.74151301383972168
0.78521031141281128 0.78521031141281128 0.78521031141281128
0.85590392351150513 0.85590392351150513 0.85590392351150513
0.92397993803024292 0.92397993803024292 0.92397993803024292
0.90640735626220703 0.90640735626220703 0.90640735626220703
0.90360629558563232 0.90360629558563232 0.90360629558563232
0.89629507064819336 0.89629507064819336 0.89629507064819336
0.88905233144760132 0.88905233144760132 0.88905233144760132
0.90644329786300659 0.90644329786300659 0.90644329786300659
0.94272148609161377 0.94272148609161377 0.94272148609161377
0.97569316625595093 0.97569316625595093 0.97569316625595093
0.27029404044151306 0.27029404044151306 0.27029404044151306
0.29618722200393677 0.29618722200393677 0.29618722200393677
0.35704496502876282 0.35704496502876282 0.35704496502876282
0.40718737244606018 0.40718737244606018 0.40718737244606018
0.50311791896820068 0.50311791896820068 0.50311791896820068
0.61162739992141724 0.61162739992141724 0.61162739992141724
0.67277997732162476 0.67277997732162476 0.67277997732162476
0.31428986787796021 0.31428986787796021 0.31428986787796021
0.34883964061737061 0.34883964061737061 0.34883964061737061
0.39838770031929016 0.39838770031929016 0.39838770031929016
0.44736629724502563 0.44736629724502563 0.44736629724502563
0.53166395425796509 0.53166395425796509 0.53166395425796509
0.61803972721099854 0.61803972721099854 0.61803972721099854
0.65281212329864502 0.65281212329864502 0.65281212329864502
0.36143428087234497 0.36143428087234497 0.36143428087234497
0.39933362603187561 0.39933362603187561 0.39933362603187561
0.44355693459510803 0.44355693459510803 0.44355693459510803
0.4953123927116394 0.4953123927116394 0.4953123927116394
0.5709347128868103 0.5709347128868103 0.5709347128868103
0.60508733987808228 0.60508733987808228 0.60508733987808228
0.63401013612747192 0.63401013612747192 0.63401013612747192
0.52464288473129272 0.52464288473129272 0.52464288473129272
0.54352134466171265 0.54352134466171265 0.54352134466171265
0.54870355129241943 0.54870355129241943 0.54870355129241943
0.5679207444190979 0.5679207444190979 0.5679207444190979
0.60623407363891602 0.60623407363891602 0.60623407363891602
0.65344655513763428 0.65344655513763428 0.65344655513763428
0.69882631301879883 0.69882631301879883 0.69882631301879883
0.70313471555709839 0.70313471555709839 0.70313471555709839
0.7035212516784668 0.7035212516784668 0.7035212516784668
0.68987810611724854 0.68987810611724854 0.68987810611724854
0.66779357194900513 0.66779357194900513 0.66779357194900513
0.70676928758621216 0.70676928758621216 0.70676928758621216
0.77766138315200806 0.77766138315200806 0.77766138315200806
0.84754055738449097 0.84754055738449097 0.84754055738449097
0.81467777490615845 0.81467777490615845 0.81467777490615845
0.81910967826843262 0.81910967826843262 0.81910967826843262
0.81656068563461304 0.81656068563461304 0.81656068563461304
0.78303319215774536 0.78303319215774536 0.78303319215774536
0.78917652368545532 0.78917652368545532 0.78917652368545532
0.86889392137527466 0.86889392137527466 0.86889392137527466
0.94008791446685791 0.94008791446685791 0.94008791446685791
0.93336135149002075 0.93336135149002075 0.93336135149002075
0.93162882328033447 0.93162882328033447 0.93162882328033447
0.93089532852172852 0.93089532852172852 0.93089532852172852
0.9119950532913208 0.9119950532913208 0.9119950532913208
0.9042629599571228 0.9042629599571228 0.9042629599571228
0.93960726261138916 0.93960726261138916 0.93960726261138916
0.98318588733673096 0.98318588733673096 0.98318588733673096
0.39755597710609436 0.39755597710609436 0.39755597710609436
0.40979433059692383 0.40979433059692383 0.40979433059692383
0.45601603388786316 0.45601603388786316 0.45601603388786316
0.51729857921600342 0.51729857921600342 0.51729857921600342
0.56521886587142944 0.56521886587142944 0.56521886587142944
0.64757430553436279 0.64757430553436279 0.64757430553436279
0.79277652502059937 0.79277652502059937 0.79277652502059937
0.43561515212059021 0.43561515212059021 0.43561515212059021
0.45611828565597534 0.45611828565597534 0.45611828565597534
0.50137609243392944 0.50137609243392944 0.50137609243392944
0.55192941427230835 0.55192941427230835 0.55192941427230835
0.5952039361000061 0.5952039361000061 0.5952039361000061
0.66032445430755615 0.66032445430755615 0.66032445430755615
0.79872804880142212 0.79872804880142212 0.79872804880142212
0.46441683173179626 0.46441683173179626 0.46441683173179626
0.48438200354576111 0.48438200354576111 0.48438200354576111
0.53431004285812378 0.53431004285812378 0.53431004285812378
0.58010542392730713 0.58010542392730713 0.58010542392730713
0.62794280052185059 0.62794280052185059 0.62794280052185059
0.71051603555679321 0.71051603555679321 0.71051603555679321
0.80668842792510986 0.80668842792510986 0.80668842792510986
0.53352528810501099 0.53352528810501099 0.53352528810501099
0.54076850414276123 0.54076850414276123 0.54076850414276123
0.57766252756118774 0.57766252756118774 0.57766252756118774
0.62062793970108032 0.62062793970108032 0.62062793970108032
0.66555839776992798 0.66555839776992798 0.66555839776992798
0.74116593599319458 0.74116593599319458 0.74116593599319458
0.78960627317428589 0.78960627317428589 0.78960627317428589
0.70663559436798096 0.70663559436798096 0.70663559436798096
0.70862340927124023 0.70862340927124023 0.70862340927124023
0.70862084627151489 0.70862084627151489 0.70862084627151489
0.71658217906951904 0.71658217906951904 0.71658217906951904
0.7409365177154541 0.7409365177154541 0.7409365177154541
0.78209221363067627 0.78209221363067627 0.78209221363067627
0.82354217767715454 0.82354217767715454 0.82354217767715454
0.88001024723052979 0.88001024723052979 0.88001024723052979
0.86142575740814209 0.86142575740814209 0.86142575740814209
0.87211436033248901 0.87211436033248901 0.87211436033248901
0.86626684665679932 0.86626684665679932 0.86626684665679932
0.83620697259902954 0.83620697259902954 0.83620697259902954
0.87514650821685791 0.87514650821685791 0.87514650821685791
0.93795579671859741 0.93795579671859741 0.93795579671859741
0.97333776950836182 0.97333776950836182 0.97333776950836182
0.96168661117553711 0.96168661117553711 0.96168661117553711
0.966594398021698 0.966594398021698 0.966594398021698
0.95586752891540527 0.95586752891540527 0.95586752891540527
0.93491435050964355 0.93491435050964355 0.93491435050964355
0.95628952980041504 0.95628952980041504 0.95628952980041504
0.99519670009613037 0.99519670009613037 0.99519670009613037
0.55657553672790527 0.55657553672790527 0.55657553672790527
0.56170964241027832 0.56170964241027832 0.56170964241027832
0.59475445747375488 0.59475445747375488 0.59475445747375488
0.65615475177764893 0.65615475177764893 0.65615475177764893
0.70816719532012939 0.70816719532012939 0.70816719532012939
0.72982180118560791 0.72982180118560791 0.72982180118560791
0.8071933388710022 0.8071933388710022 0.8071933388710022
0.579925537109375 0.579925537109375 0.579925537109375
0.59740513563156128 0.59740513563156128 0.59740513563156128
0.63279402256011963 0.63279402256011963 0.63279402256011963
0.68861442804336548 0.68861442804336548 0.68861442804336548
0.7352902889251709 0.7352902889251709 0.7352902889251709
0.73986232280731201 0.73986232280731201 0.73986232280731201
0.80433553457260132 0.80433553457260132 0.80433553457260132
0.61031085252761841 0.61031085252761841 0.61031085252761841
0.62379205226898193 0.62379205226898193 0.62379205226898193
0.66353219747543335 0.66353219747543335 0.66353219747543335
0.70719450712203979 0.70719450712203979 0.70719450712203979
0.74725985527038574 0.74725985527038574 0.74725985527038574
0.765208899974823 0.765208899974823 0.765208899974823
0.83279174566268921 0.83279174566268921 0.83279174566268921
0.6168399453163147 0.6168399453163147 0.6168399453163147
0.62784862518310547 0.62784862518310547 0.62784862518310547
0.67750120162963867 0.67750120162963867 0.67750120162963867
0.71633732318878174 0.71633732318878174 0.71633732318878174
0.76339030265808105 0.76339030265808105 0.76339030265808105
0.79967910051345825 0.79967910051345825 0.79967910051345825
0.87964069843292236 0.87964069843292236 0.87964069843292236
0.71512055397033691 0.71512055397033691 0.71512055397033691
0.71545100212097168 0.71545100212097168 0.71545100212097168
0.72006416320800781 0.72006416320800781 0.72006416320800781
0.74346166849136353 0.74346166849136353 0.74346166849136353
0.79525554180145264 0.79525554180145264 0.79525554180145264
0.85191828012466431 0.85191828012466431 0.85191828012466431
0.90851414203643799 0.90851414203643799 0.90851414203643799
0.85750120878219604 0.85750120878219604 0.85750120878219604
0.8611719012260437 0.8611719012260437 0.8611719012260437
0.87208646535873413 0.87208646535873413 0.87208646535873413
0.87310731410980225 0.87310731410980225 0.87310731410980225
0.8943907618522644 0.8943907618522644 0.8943907618522644
0.910847008228302 0.910847008228302 0.910847008228302
0.93918651342391968 0.93918651342391968 0.93918651342391968
0.97235375642776489 0.97235375642776489 0.97235375642776489
0.96809685230255127 0.96809685230255127 0.96809685230255127
0.97405046224594116 0.97405046224594116 0.97405046224594116
0.97588258981704712 0.97588258981704712 0.97588258981704712
0.98007690906524658 0.98007690906524658 0.98007690906524658
0.9819759726524353 0.9819759726524353 0.9819759726524353
0.99482041597366333 0.99482041597366333 0.99482041597366333
0.76017886400222778 0.76017886400222778 0.76017886400222778
0.75940209627151489 0.75940209627151489 0.75940209627151489
0.77750676870346069 0.77750676870346069 0.77750676870346069
0.81836128234863281 0.81836128234863281 0.81836128234863281
0.86603307723999023 0.86603307723999023 0.86603307723999023
0.89596951007843018 0.89596951007843018 0.89596951007843018
0.90996408462524414 0.90996408462524414 0.90996408462524414
0.76803398132324219 0.76803398132324219 0.76803398132324219
0.78281450271606445 0.78281450271606445 0.78281450271606445
0.80309027433395386 0.80309027433395386 0.80309027433395386
0.83687609434127808 0.83687609434127808 0.83687609434127808
0.87873286008834839 0.87873286008834839 0.87873286008834839
0.89688622951507568 0.89688622951507568 0.89688622951507568
0.90500956773757935 0.90500956773757935 0.90500956773757935
0.78853905200958252 0.78853905200958252 0.78853905200958252
0.80614215135574341 0.80614215135574341 0.80614215135574341
0.82686853408813477 0.82686853408813477 0.82686853408813477
0.84621590375900269 0.84621590375900269 0.84621590375900269
0.88124662637710571 0.88124662637710571 0.88124662637710571
0.90063893795013428 0.90063893795013428 0.90063893795013428
0.91590553522109985 0.91590553522109985 0.91590553522109985
0.78167241811752319 0.78167241811752319 0.78167241811752319
0.79683500528335571 0.79683500528335571 0.79683500528335571
0.83126324415206909 0.83126324415206909 0.83126324415206909
0.85966765880584717 0.85966765880584717 0.85966765880584717
0.89666301012039185 0.89666301012039185 0.89666301012039185
0.91642677783966064 0.91642677783966064 0.91642677783966064
0.9305570125579834 0.9305570125579834 0.9305570125579834
0.79145681858062744 0.79145681858062744 0.79145681858062744
0.79284781217575073 0.79284781217575073 0.79284781217575073
0.80928057432174683 0.80928057432174683 0.80928057432174683
0.85254770517349243 0.85254770517349243 0.85254770517349243
0.90063899755477905 0.90063899755477905 0.90063899755477905
0.92756843566894531 0.92756843566894531 0.92756843566894531
0.93979531526565552 0.93979531526565552 0.93979531526565552
0.90507876873016357 0.90507876873016357 0.90507876873016357
0.90434283018112183 0.90434283018112183 0.90434283018112183
0.90660643577575684 0.90660643577575684 0.90660643577575684
0.89898955821990967 0.89898955821990967 0.89898955821990967
0.92851889133453369 0.92851889133453369 0.92851889133453369
0.95209956169128418 0.95209956169128418 0.95209956169128418
0.96359509229660034 0.96359509229660034 0.96359509229660034
0.97649717330932617 0.97649717330932617 0.97649717330932617
0.98650389909744263 0.98650389909744263 0.98650389909744263
0.98449504375457764 0.98449504375457764 0.98449504375457764
0.98236662149429321 0.98236662149429321 0.98236662149429321
0.99135684967041016 0.99135684967041016 0.99135684967041016
0.99209344387054443 0.99209344387054443 0.99209344387054443
0.99002718925476074 0.99002718925476074 0.99002718925476074
