luts/negative_new/kodak_portra_160_++.cube
# Created by: G'MIC (https://gmic.eu)
TITLE "kodak_portra_160_++"
# LUT size
LUT_3D_SIZE 5
# Data domain
DOMAIN_MIN 0.0 0.0 0.0
DOMAIN_MAX 1.0 1.0 1.0
# LUT data points
0.13419154286384583 0.086283817887306213 0.078873574733734131
0.28083455562591553 0.07434207946062088 0.080146268010139465
0.58204442262649536 0.019504981115460396 0.052567336708307266
0.83655565977096558 0.05277189239859581 0.011708981357514858
0.99864476919174194 0.17985871434211731 0.0022020228207111359
0.12190050631761551 0.25047126412391663 0.075061768293380737
0.26514548063278198 0.27007171511650085 0.058688819408416748
0.5983893871307373 0.31184488534927368 0.0050404719077050686
0.83148080110549927 0.31060394644737244 0.0059119430370628834
0.99302160739898682 0.34823164343833923 0.0023721882607787848
0.10303010791540146 0.50878727436065674 0.031328387558460236
0.26071542501449585 0.49880543351173401 0.025434277951717377
0.52612364292144775 0.54754042625427246 0.0053127212449908257
0.79984205961227417 0.57907962799072266 0.0041596805676817894
0.99034208059310913 0.56693112850189209 6.8933826696593314e-05
0.28412792086601257 0.71097123622894287 0.13362950086593628
0.35766181349754333 0.70013684034347534 0.11441317945718765
0.52057075500488281 0.70989620685577393 0.099052250385284424
0.73592180013656616 0.75734782218933105 0.12679289281368256
0.97443723678588867 0.80463343858718872 0.054013930261135101
0.51450061798095703 0.92589092254638672 0.41462287306785583
0.54964232444763184 0.92494547367095947 0.40968441963195801
0.63452798128128052 0.92128664255142212 0.40288552641868591
0.77877026796340942 0.94089561700820923 0.43164092302322388
0.93833184242248535 0.9582984447479248 0.46161988377571106
0.11975415050983429 0.096956603229045868 0.27738091349601746
0.29902014136314392 0.094102256000041962 0.28201383352279663
0.62435781955718994 0.0201747827231884 0.29496586322784424
0.84633409976959229 0.012928398326039314 0.26629230380058289
0.99553090333938599 0.18541106581687927 0.2599981427192688
0.064664922654628754 0.30350294709205627 0.27904412150382996
0.30956587195396423 0.30697447061538696 0.28870022296905518
0.61764061450958252 0.30338886380195618 0.2694057822227478
0.83578211069107056 0.30929470062255859 0.24671322107315063
0.99400597810745239 0.34120142459869385 0.23410053551197052
0.18450823426246643 0.56811130046844482 0.29924660921096802
0.32372814416885376 0.54190731048583984 0.2878032922744751
0.56034433841705322 0.56805634498596191 0.28307968378067017
0.81139898300170898 0.57240289449691772 0.20783774554729462
0.99106878042221069 0.56175374984741211 0.1335860937833786
0.34035363793373108 0.73467803001403809 0.33906710147857666
0.39855760335922241 0.72096401453018188 0.32000935077667236
0.52910077571868896 0.71473222970962524 0.30152904987335205
0.74218922853469849 0.76142388582229614 0.33887740969657898
0.97081267833709717 0.79867684841156006 0.30068334937095642
0.52381503582000732 0.93026423454284668 0.49151957035064697
0.55758434534072876 0.92884111404418945 0.48688387870788574
0.63471055030822754 0.92303872108459473 0.47249320149421692
0.77665382623672485 0.93906319141387939 0.49722254276275635
0.93951475620269775 0.95758992433547974 0.5306885838508606
0.060715589672327042 0.13771542906761169 0.61124527454376221
0.34817671775817871 0.1548326164484024 0.61410737037658691
0.64133459329605103 0.18611958622932434 0.62622916698455811
0.86674594879150391 0.29650193452835083 0.61423337459564209
0.99548673629760742 0.36243531107902527 0.6017916202545166
0.076355025172233582 0.34359213709831238 0.60555946826934814
0.35353276133537292 0.36269998550415039 0.60958456993103027
0.62858730554580688 0.40552648901939392 0.62439864873886108
0.84717816114425659 0.45030185580253601 0.61460405588150024
0.98871368169784546 0.4486735463142395 0.5857008695602417
0.19569584727287292 0.62493646144866943 0.6010175347328186
0.39520263671875 0.62048637866973877 0.60361713171005249
0.60832768678665161 0.60831069946289062 0.60048961639404297
0.80547845363616943 0.59611934423446655 0.57621794939041138
0.98395687341690063 0.58602917194366455 0.55146366357803345
0.43468844890594482 0.79001474380493164 0.59272176027297974
0.49725994467735291 0.78163868188858032 0.5908847451210022
0.58974206447601318 0.74973767995834351 0.56704938411712646
0.76229017972946167 0.77448469400405884 0.58163416385650635
0.97629272937774658 0.78674209117889404 0.54916232824325562
0.56682169437408447 0.94062548875808716 0.6492990255355835
0.59513932466506958 0.94246214628219604 0.64190536737442017
0.65564048290252686 0.93096184730529785 0.62053042650222778
0.77462363243103027 0.93694710731506348 0.61444032192230225
0.94016808271408081 0.95996546745300293 0.65249383449554443
0.28918138146400452 0.26522988080978394 0.82256191968917847
0.43450689315795898 0.28650429844856262 0.8274918794631958
0.64637809991836548 0.3632969856262207 0.82999259233474731
0.84420138597488403 0.43808203935623169 0.82776153087615967
0.99350321292877197 0.52524161338806152 0.8292422890663147
0.34475171566009521 0.43394565582275391 0.81411522626876831
0.46579530835151672 0.45621833205223083 0.81710481643676758
0.64985102415084839 0.49344369769096375 0.82286530733108521
0.83247286081314087 0.54813075065612793 0.82636600732803345
0.9880824089050293 0.60496705770492554 0.82738125324249268
0.35366532206535339 0.61078047752380371 0.79429560899734497
0.46620288491249084 0.62320232391357422 0.79607558250427246
0.63621479272842407 0.65540659427642822 0.79984563589096069
0.82305449247360229 0.69519102573394775 0.81876087188720703
0.98066210746765137 0.72028064727783203 0.82814127206802368
0.47998544573783875 0.82675796747207642 0.80451428890228271
0.54119133949279785 0.82613438367843628 0.80680626630783081
0.67459237575531006 0.82090544700622559 0.80700123310089111
0.80613309144973755 0.81332796812057495 0.80248314142227173
0.97580593824386597 0.79433268308639526 0.78109455108642578
0.63585680723190308 0.96936404705047607 0.81147557497024536
0.66180658340454102 0.96670043468475342 0.81133943796157837
0.71910965442657471 0.96109235286712646 0.80735373497009277
0.79611843824386597 0.94754821062088013 0.77872109413146973
0.95343750715255737 0.96390420198440552 0.80040329694747925
0.527557373046875 0.50505107641220093 0.97779613733291626
0.58492875099182129 0.51342493295669556 0.97798639535903931
0.70609122514724731 0.556926429271698 0.974892258644104
0.84625530242919922 0.61859458684921265 0.97330540418624878
0.97902387380599976 0.66090488433837891 0.97248798608779907
0.55636048316955566 0.59001946449279785 0.97471988201141357
0.60875827074050903 0.59841382503509521 0.97201371192932129
0.71630311012268066 0.6269378662109375 0.97127938270568848
0.84729069471359253 0.67073976993560791 0.97031539678573608
0.97584211826324463 0.70192962884902954 0.96901082992553711
0.57122260332107544 0.70287734270095825 0.96692895889282227
0.6260802149772644 0.71338891983032227 0.96631592512130737
0.72107458114624023 0.72893494367599487 0.96718740463256836
0.85285168886184692 0.76344066858291626 0.96751278638839722
0.97605353593826294 0.78696566820144653 0.97258895635604858
0.56636422872543335 0.83285987377166748 0.96376293897628784
0.61229407787322998 0.832103431224823 0.96434706449508667
0.70225727558135986 0.83104151487350464 0.96760398149490356
0.84026920795440674 0.85607558488845825 0.96494853496551514
0.97168421745300293 0.88006150722503662 0.96359574794769287
0.66130608320236206 0.9832037091255188 0.96379894018173218
0.68367063999176025 0.98362106084823608 0.96867960691452026
0.76600223779678345 0.97842127084732056 0.96611940860748291
0.86995506286621094 0.97607582807540894 0.97045379877090454
0.97636830806732178 0.97674465179443359 0.9715498685836792
