luts/negative_new/kodak_portra_800_++.cube
# Created by: G'MIC (https://gmic.eu)
TITLE "kodak_portra_800_++"
# LUT size
LUT_3D_SIZE 13
# Data domain
DOMAIN_MIN 0.0 0.0 0.0
DOMAIN_MAX 1.0 1.0 1.0
# LUT data points
0.070072025060653687 0.14488174021244049 0.19163678586483002
0.12217003107070923 0.14717225730419159 0.19123776257038116
0.17887194454669952 0.14869853854179382 0.18749025464057922
0.25470492243766785 0.14782856404781342 0.1853039413690567
0.34557661414146423 0.14886412024497986 0.18478314578533173
0.45935314893722534 0.15229696035385132 0.1863519698381424
0.58419996500015259 0.15115946531295776 0.18418057262897491
0.70511734485626221 0.15132851898670197 0.1756041944026947
0.81942170858383179 0.16087606549263 0.16538025438785553
0.91718858480453491 0.18597714602947235 0.15085770189762115
0.98315626382827759 0.22199882566928864 0.13502132892608643
0.99680578708648682 0.2633700966835022 0.11701662838459015
0.99980145692825317 0.29980155825614929 0.098655417561531067
0.066216625273227692 0.17347472906112671 0.19796068966388702
0.11172516644001007 0.17416687309741974 0.19598829746246338
0.17010866105556488 0.17256173491477966 0.19097255170345306
0.25091260671615601 0.17577168345451355 0.18638375401496887
0.34536293148994446 0.17924411594867706 0.18474483489990234
0.45751911401748657 0.18528896570205688 0.18473605811595917
0.57654118537902832 0.19318605959415436 0.18124169111251831
0.69315081834793091 0.20079220831394196 0.17271009087562561
0.80902105569839478 0.20782464742660522 0.16039282083511353
0.90749943256378174 0.22735123336315155 0.14592278003692627
0.97212785482406616 0.2633078396320343 0.12946330010890961
0.99558734893798828 0.30133259296417236 0.11039968580007553
0.99968981742858887 0.33344459533691406 0.08942006528377533
0.057886790484189987 0.20466057956218719 0.20121538639068604
0.094232000410556793 0.20698805153369904 0.19950118660926819
0.15451189875602722 0.21075296401977539 0.19535236060619354
0.23818464577198029 0.22060099244117737 0.19033811986446381
0.33392655849456787 0.22334578633308411 0.18431486189365387
0.44729363918304443 0.23742055892944336 0.17857162654399872
0.56632143259048462 0.25079387426376343 0.1727583259344101
0.68311101198196411 0.25999683141708374 0.16336071491241455
0.79621315002441406 0.2710970938205719 0.14992085099220276
0.89184117317199707 0.28759726881980896 0.13517704606056213
0.97185266017913818 0.30899322032928467 0.11747252196073532
0.99632734060287476 0.34110018610954285 0.094141952693462372
1 0.37085559964179993 0.066844016313552856
0.035642046481370926 0.25356200337409973 0.20600372552871704
0.068683981895446777 0.25410634279251099 0.20395542681217194
0.13002957403659821 0.26042041182518005 0.19929218292236328
0.21364103257656097 0.27350559830665588 0.19306617975234985
0.32533338665962219 0.294281005859375 0.18227598071098328
0.44249469041824341 0.31416475772857666 0.17019626498222351
0.55734771490097046 0.32368576526641846 0.15962971746921539
0.67288565635681152 0.32743331789970398 0.14771570265293121
0.78298884630203247 0.33749613165855408 0.13472659885883331
0.87530034780502319 0.35444265604019165 0.11657864600419998
0.96127921342849731 0.37034901976585388 0.090655036270618439
0.9950297474861145 0.39170756936073303 0.06100190058350563
0.99962121248245239 0.41426509618759155 0.034973010420799255
0.010128440335392952 0.31715330481529236 0.21341115236282349
0.030060697346925735 0.31584429740905762 0.21173147857189178
0.091455630958080292 0.32385888695716858 0.20767499506473541
0.18228258192539215 0.33874475955963135 0.19834591448307037
0.30412432551383972 0.3677106499671936 0.18041537702083588
0.42990443110466003 0.39647552371025085 0.15532776713371277
0.54924535751342773 0.41237097978591919 0.13354751467704773
0.6639372706413269 0.41117432713508606 0.12127404659986496
0.77103251218795776 0.41085851192474365 0.10757184773683548
0.86103814840316772 0.42805925011634827 0.07786482572555542
0.9456060528755188 0.44166263937950134 0.046379223465919495
0.99375522136688232 0.45551890134811401 0.023585181683301926
0.99855750799179077 0.47147288918495178 0.015354395844042301
0.003871663473546505 0.38779020309448242 0.22052857279777527
0.0082952911034226418 0.38499540090560913 0.21876896917819977
0.042651697993278503 0.3866361677646637 0.21564334630966187
0.13892075419425964 0.40352734923362732 0.20570836961269379
0.25797998905181885 0.43153432011604309 0.18770402669906616
0.38991516828536987 0.46450266242027283 0.15833716094493866
0.53843319416046143 0.49925908446311951 0.10631565749645233
0.66029423475265503 0.50992023944854736 0.068916693329811096
0.76242172718048096 0.50888466835021973 0.045545198023319244
0.85191810131072998 0.51088309288024902 0.025986615568399429
0.93189752101898193 0.51731222867965698 0.015545744448900223
0.9885672926902771 0.52490729093551636 0.0096025057137012482
0.99615681171417236 0.53586822748184204 0.011787145398557186
0.003907566424459219 0.46177241206169128 0.22772683203220367
0.0084702735766768456 0.45850935578346252 0.22367553412914276
0.016068626195192337 0.45569655299186707 0.22098957002162933
0.077216222882270813 0.46562460064888 0.21311201155185699
0.20344844460487366 0.49550947546958923 0.19508439302444458
0.33595934510231018 0.52511239051818848 0.16813361644744873
0.48165425658226013 0.55557101964950562 0.12157107889652252
0.63649719953536987 0.59435617923736572 0.03871549665927887
0.75177520513534546 0.60824143886566162 0.008703179657459259
0.84166061878204346 0.60230886936187744 0.0077445385977625847
0.91810792684555054 0.59937143325805664 0.0093527399003505707
0.97686690092086792 0.60455459356307983 0.010408947244286537
0.99221831560134888 0.60951077938079834 0.012650433927774429
0.0033029443584382534 0.5399787425994873 0.22825343906879425
0.0080125248059630394 0.53630185127258301 0.22642245888710022
0.012285195291042328 0.53340482711791992 0.225022092461586
0.02948487177491188 0.53463983535766602 0.21993732452392578
0.13766282796859741 0.55711698532104492 0.20411951839923859
0.29026991128921509 0.58538025617599487 0.17818114161491394
0.43726614117622375 0.61377894878387451 0.14101926982402802
0.5788118839263916 0.64533060789108276 0.073586471378803253
0.71990573406219482 0.67894333600997925 0.0098435943946242332
0.83439785242080688 0.69387626647949219 0.0040242364630103111
0.90748196840286255 0.68999356031417847 0.007010740227997303
0.96529632806777954 0.68697041273117065 0.010178195312619209
0.98933422565460205 0.68623578548431396 0.011043623089790344
0.0018066555494442582 0.62303721904754639 0.22957998514175415
0.0065831202082335949 0.62118345499038696 0.23279710114002228
0.010734543204307556 0.61809557676315308 0.23278814554214478
0.012252418324351311 0.61412256956100464 0.22841380536556244
0.088036179542541504 0.62197369337081909 0.21759697794914246
0.25253129005432129 0.6449628472328186 0.19519500434398651
0.39363032579421997 0.67183387279510498 0.16282428801059723
0.530814528465271 0.6990501880645752 0.10868339985609055
0.66705197095870972 0.72630101442337036 0.027563581243157387
0.80509543418884277 0.75840991735458374 0.0047701369039714336
0.90169829130172729 0.77240318059921265 0.0031754437368363142
0.96271991729736328 0.76669842004776001 0.004651432391256094
0.99003380537033081 0.76254791021347046 0.0055031571537256241
0.00013140510418452322 0.70838934183120728 0.24523532390594482
0.003103533061221242 0.707023024559021 0.24690262973308563
0.0070615881122648716 0.70369642972946167 0.24704496562480927
0.0090895108878612518 0.70068496465682983 0.24238917231559753
0.058769255876541138 0.70104885101318359 0.23417983949184418
0.23183350265026093 0.71059900522232056 0.22379378974437714
0.37117734551429749 0.73238682746887207 0.19753502309322357
0.50265347957611084 0.75677365064620972 0.1587846577167511
0.63086628913879395 0.77810055017471313 0.084413863718509674
0.7543376088142395 0.80177682638168335 0.017352070659399033
0.87165409326553345 0.8270379900932312 0.0057703801430761814
0.95717322826385498 0.83721017837524414 0.00077347102342173457
0.98835641145706177 0.8330303430557251 0.0006841023568995297
1.9088445696979761e-05 0.7934456467628479 0.2788536548614502
0.00055238313507288694 0.79303032159805298 0.2774684727191925
0.0036953645758330822 0.7899736762046814 0.27884656190872192
0.013389108702540398 0.78848159313201904 0.27526724338531494
0.10565561056137085 0.78635412454605103 0.26862487196922302
0.26024782657623291 0.78803610801696777 0.26191943883895874
0.3854030966758728 0.8005794882774353 0.24480673670768738
0.50683212280273438 0.81671011447906494 0.22354632616043091
0.62209826707839966 0.8342052698135376 0.17698115110397339
0.72817379236221313 0.85041195154190063 0.10395784676074982
0.83113771677017212 0.86581712961196899 0.032786201685667038
0.92742860317230225 0.88374108076095581 0.0073631736449897289
0.98581469058990479 0.89101606607437134 0.00063926848815754056
0.024602986872196198 0.87497073411941528 0.34652087092399597
0.0361965112388134 0.87400901317596436 0.34563282132148743
0.068235717713832855 0.87309169769287109 0.3432101309299469
0.14366765320301056 0.87037855386734009 0.3442835807800293
0.25614437460899353 0.86652356386184692 0.34297677874565125
0.35076379776000977 0.86446273326873779 0.33660948276519775
0.44507452845573425 0.86942267417907715 0.32849940657615662
0.53851741552352905 0.87801367044448853 0.31332919001579285
0.63571798801422119 0.8916475772857666 0.28943821787834167
0.72621089220046997 0.90354353189468384 0.24893383681774139
0.81571167707443237 0.91354447603225708 0.18695598840713501
0.89942800998687744 0.92286843061447144 0.086328528821468353
0.96892005205154419 0.93199771642684937 0.016886977478861809
0.33215996623039246 0.94459736347198486 0.4765467643737793
0.34873148798942566 0.94304823875427246 0.47650378942489624
0.37471684813499451 0.94184815883636475 0.47733238339424133
0.40784153342247009 0.93952977657318115 0.48017612099647522
0.45714446902275085 0.9362226128578186 0.48014873266220093
0.51105254888534546 0.93467181921005249 0.478872150182724
0.56877714395523071 0.936920166015625 0.4777069091796875
0.62774848937988281 0.94103628396987915 0.46604186296463013
0.68806272745132446 0.94788384437561035 0.44580802321434021
0.75592482089996338 0.95548743009567261 0.42151299118995667
0.82339471578598022 0.96174013614654541 0.38372921943664551
0.88820910453796387 0.96753835678100586 0.31922590732574463
0.95185494422912598 0.97194498777389526 0.21475927531719208
0.072600975632667542 0.14706137776374817 0.22028851509094238
0.12634339928627014 0.14783583581447601 0.21883699297904968
0.184199258685112 0.14699095487594604 0.21471774578094482
0.25954630970954895 0.14402782917022705 0.21111598610877991
0.35747474431991577 0.1392526775598526 0.21011950075626373
0.45885130763053894 0.14666621387004852 0.21080189943313599
0.58318865299224854 0.14323006570339203 0.21181675791740417
0.70963060855865479 0.13726100325584412 0.21070480346679688
0.82498407363891602 0.14334827661514282 0.20623752474784851
0.91701900959014893 0.17450772225856781 0.19341978430747986
0.98293817043304443 0.21342265605926514 0.1736413836479187
0.99677455425262451 0.2570548951625824 0.16117782890796661
0.99994182586669922 0.29626253247261047 0.15319094061851501
0.073048532009124756 0.17861539125442505 0.22378151118755341
0.1205805316567421 0.17682744562625885 0.22230522334575653
0.17663586139678955 0.17285580933094025 0.21746967732906342
0.25573825836181641 0.17331545054912567 0.21363714337348938
0.35601484775543213 0.17503739893436432 0.21389578282833099
0.46037042140960693 0.18148171901702881 0.21321548521518707
0.57994091510772705 0.18444466590881348 0.21171422302722931
0.70106768608093262 0.18078571557998657 0.20816615223884583
0.81397885084152222 0.1905149519443512 0.20214378833770752
0.90890222787857056 0.21773552894592285 0.19205424189567566
0.97534894943237305 0.25616663694381714 0.17031922936439514
0.99550610780715942 0.29538902640342712 0.15665926039218903
0.99971741437911987 0.32742860913276672 0.14658994972705841
0.073165044188499451 0.21469113230705261 0.22540783882141113
0.10917371511459351 0.21544674038887024 0.22525157034397125
0.16186028718948364 0.21505835652351379 0.22141546010971069
0.24600063264369965 0.21923935413360596 0.21843869984149933
0.34480896592140198 0.22391729056835175 0.21741519868373871
0.4529518187046051 0.23788626492023468 0.20996966958045959
0.57310682535171509 0.24538449943065643 0.20624087750911713
0.69163614511489868 0.24460920691490173 0.20021678507328033
0.800243079662323 0.25752478837966919 0.19257718324661255
0.89157909154891968 0.28049817681312561 0.17919650673866272
0.97231388092041016 0.30404132604598999 0.15865927934646606
0.99593782424926758 0.3358796238899231 0.14250075817108154
0.99987757205963135 0.36437585949897766 0.12956549227237701
0.058246895670890808 0.26236572861671448 0.22905546426773071
0.088906034827232361 0.26447755098342896 0.22944630682468414
0.13983587920665741 0.26320961117744446 0.22450897097587585
0.22613124549388885 0.27345240116119385 0.22290104627609253
0.32939818501472473 0.29003781080245972 0.21759684383869171
0.44556555151939392 0.31189426779747009 0.20269268751144409
0.56353092193603516 0.32107120752334595 0.19442082941532135
0.68034404516220093 0.3193853497505188 0.18727238476276398
0.78722643852233887 0.33096349239349365 0.1784718930721283
0.87644475698471069 0.35284766554832458 0.15886645019054413
0.95977061986923218 0.37019085884094238 0.13350194692611694
0.99403089284896851 0.39208129048347473 0.11095160990953445
0.99859917163848877 0.4156024158000946 0.095783412456512451
0.013618858531117439 0.32630598545074463 0.2327989935874939
0.04231637716293335 0.3288634717464447 0.23551730811595917
0.10113814473152161 0.32953378558158875 0.23308822512626648
0.19273385405540466 0.34023827314376831 0.2286611944437027
0.30849733948707581 0.36493393778800964 0.21329827606678009
0.43526935577392578 0.39530095458030701 0.18883556127548218
0.55377447605133057 0.40862664580345154 0.17259153723716736
0.66837573051452637 0.40879014134407043 0.16425454616546631
0.77495282888412476 0.4110354483127594 0.15405197441577911
0.86584436893463135 0.42605435848236084 0.12805108726024628
0.94590902328491211 0.44211485981941223 0.097012177109718323
0.99115496873855591 0.4580359160900116 0.0693182572722435
0.9981694221496582 0.47350385785102844 0.051182452589273453
0.0047926958650350571 0.39847457408905029 0.24039284884929657
0.012060696259140968 0.3972499668598175 0.2407117486000061
0.055470932275056839 0.39875254034996033 0.23984482884407043
0.15288537740707397 0.40832144021987915 0.23186354339122772
0.26819086074829102 0.43376919627189636 0.21267561614513397
0.39487811923027039 0.46505415439605713 0.18591399490833282
0.53924018144607544 0.49848070740699768 0.14947673678398132
0.66147702932357788 0.51051080226898193 0.12150660157203674
0.76364469528198242 0.50736492872238159 0.10177549719810486
0.85537374019622803 0.50336229801177979 0.079931594431400299
0.93527889251708984 0.51182550191879272 0.048114463686943054
0.99069893360137939 0.52234625816345215 0.026255514472723007
0.9973563551902771 0.53625106811523438 0.016982568427920341
0.0032679389696568251 0.46824738383293152 0.24138906598091125
0.0073476303368806839 0.46854603290557861 0.2430398166179657
0.017223268747329712 0.46934458613395691 0.24219472706317902
0.093133606016635895 0.47608157992362976 0.23412257432937622
0.21425473690032959 0.49835479259490967 0.21600361168384552
0.34239014983177185 0.52347975969314575 0.19427305459976196
0.48957070708274841 0.55872005224227905 0.15416605770587921
0.63911265134811401 0.5951915979385376 0.084290795028209686
0.75714850425720215 0.60620296001434326 0.037011660635471344
0.84596890211105347 0.59988164901733398 0.022722147405147552
0.91998231410980225 0.59483665227890015 0.016257999464869499
0.98021477460861206 0.59674608707427979 0.014002197422087193
0.99460506439208984 0.60583525896072388 0.012456721626222134
0.0020586948376148939 0.54404127597808838 0.24562858045101166
0.0060520847328007221 0.54465502500534058 0.24726991355419159
0.0096244364976882935 0.54394638538360596 0.24525463581085205
0.032386705279350281 0.54275411367416382 0.23780316114425659
0.15441270172595978 0.55835312604904175 0.22556078433990479
0.29953089356422424 0.58292466402053833 0.20398430526256561
0.43804478645324707 0.61337661743164062 0.17252089083194733
0.58060342073440552 0.64551258087158203 0.11427681148052216
0.7255629301071167 0.67932426929473877 0.030547751113772392
0.83378523588180542 0.69084370136260986 0.0069417166523635387
0.90837293863296509 0.68606668710708618 0.0098247602581977844
0.9685477614402771 0.68015533685684204 0.010933775454759598
0.99107486009597778 0.68053364753723145 0.010322496294975281
0.0017877914942800999 0.62751263380050659 0.25249883532524109
0.0052621131762862206 0.62642103433609009 0.25534799695014954
0.0097284950315952301 0.62345951795578003 0.25382387638092041
0.012950089760124683 0.62020301818847656 0.24700093269348145
0.10266947746276855 0.62437653541564941 0.23784548044204712
0.26172065734863281 0.64373421669006348 0.22035855054855347
0.40307390689849854 0.67198163270950317 0.19308564066886902
0.54174149036407471 0.69995445013046265 0.14601229131221771
0.67389428615570068 0.72652822732925415 0.072179533541202545
0.80207008123397827 0.75598663091659546 0.012078782543540001
0.90108513832092285 0.76937353610992432 0.0051944507285952568
0.95977914333343506 0.76136094331741333 0.0057493620552122593
0.98871153593063354 0.75728833675384521 0.0063612991943955421
0.00034552181023173034 0.71226280927658081 0.26285502314567566
0.0029616262763738632 0.71008414030075073 0.26751452684402466
0.0074383155442774296 0.70776480436325073 0.26802888512611389
0.011652239598333836 0.70558059215545654 0.26215839385986328
0.068455666303634644 0.70630347728729248 0.25238096714019775
0.23820813000202179 0.71561694145202637 0.24347288906574249
0.37893286347389221 0.73404240608215332 0.22357304394245148
0.51213771104812622 0.7568662166595459 0.19063006341457367
0.63959711790084839 0.77939331531524658 0.12629081308841705
0.75580412149429321 0.80112892389297485 0.053422771394252777
0.8700980544090271 0.82413959503173828 0.0091552734375
0.95470160245895386 0.8351510763168335 0.0031394211109727621
0.98282289505004883 0.83090400695800781 0.0031317318789660931
0.0014897664077579975 0.79372149705886841 0.30487713217735291
0.0017671622335910797 0.79427409172058105 0.2972712516784668
0.0053677726536989212 0.79258090257644653 0.29783976078033447
0.015913944691419601 0.79140686988830566 0.29217761754989624
0.11361223459243774 0.78955584764480591 0.2860657274723053
0.26614132523536682 0.79036086797714233 0.28136423230171204
0.39257803559303284 0.80106490850448608 0.26928159594535828
0.51269972324371338 0.81736141443252563 0.25001850724220276
0.62418210506439209 0.83484256267547607 0.20962552726268768
0.73180025815963745 0.85065430402755737 0.14709939062595367
0.83188533782958984 0.86444360017776489 0.063637509942054749
0.92738109827041626 0.88212180137634277 0.012419592589139938
0.98492562770843506 0.89105671644210815 0.0017763923387974501
0.030584732070565224 0.87478023767471313 0.36517119407653809
0.045053519308567047 0.87488919496536255 0.36149045825004578
0.08105737715959549 0.87456691265106201 0.36082944273948669
0.1607566624879837 0.87121009826660156 0.36133620142936707
0.26287797093391418 0.86673092842102051 0.36178857088088989
0.3598848283290863 0.86613786220550537 0.35530582070350647
0.45296522974967957 0.87043052911758423 0.34730291366577148
0.54323935508728027 0.87977057695388794 0.33370888233184814
0.63480997085571289 0.89197254180908203 0.31037458777427673
0.72893220186233521 0.902942955493927 0.27667221426963806
0.82131850719451904 0.91256451606750488 0.22849732637405396
0.90227949619293213 0.92187756299972534 0.12581506371498108
0.97064584493637085 0.93085229396820068 0.033177603036165237
0.34152299165725708 0.94468426704406738 0.4883846640586853
0.35868009924888611 0.94409549236297607 0.48865091800689697
0.38576170802116394 0.94236451387405396 0.48861125111579895
0.41699445247650146 0.93956094980239868 0.49106550216674805
0.46195170283317566 0.93603807687759399 0.49433454871177673
0.51521974802017212 0.9352155327796936 0.49015682935714722
0.57329678535461426 0.93647497892379761 0.48944234848022461
0.63210576772689819 0.94133883714675903 0.48020121455192566
0.69102513790130615 0.94728130102157593 0.46261397004127502
0.75669944286346436 0.95462924242019653 0.44257500767707825
0.82576572895050049 0.9614555835723877 0.40849584341049194
0.89083153009414673 0.96666163206100464 0.34392499923706055
0.95162016153335571 0.97091281414031982 0.24481205642223358
0.067653626203536987 0.14740659296512604 0.25770655274391174
0.12342514097690582 0.14755791425704956 0.26251187920570374
0.18443930149078369 0.14547562599182129 0.26272103190422058
0.26536440849304199 0.13820874691009521 0.26018911600112915
0.36230236291885376 0.12630563974380493 0.25394946336746216
0.46710002422332764 0.10540599375963211 0.24712669849395752
0.59154927730560303 0.077037036418914795 0.24338634312152863
0.72088819742202759 0.089305490255355835 0.24603691697120667
0.83353680372238159 0.1156071200966835 0.24891833961009979
0.92169511318206787 0.15491513907909393 0.24412019550800323
0.98515087366104126 0.1978464275598526 0.23220938444137573
0.9983336329460144 0.24836984276771545 0.22703947126865387
1 0.29160222411155701 0.21532592177391052
0.064806647598743439 0.18003576993942261 0.26141771674156189
0.11813845485448837 0.17903332412242889 0.26466444134712219
0.17947886884212494 0.17493601143360138 0.26358240842819214
0.26272541284561157 0.16977256536483765 0.26021310687065125
0.3622492253780365 0.16263961791992188 0.2544863224029541
0.46529099345207214 0.15804342925548553 0.24770860373973846
0.59111130237579346 0.15048252046108246 0.24807712435722351
0.71601217985153198 0.15321196615695953 0.24935248494148254
0.82565534114837646 0.1723349392414093 0.24987755715847015
0.91517907381057739 0.20223283767700195 0.24496544897556305
0.97936385869979858 0.24073556065559387 0.23267444968223572
0.99702876806259155 0.28552341461181641 0.22665886580944061
1 0.32189372181892395 0.21385470032691956
0.0723753422498703 0.2184184342622757 0.25939556956291199
0.11572940647602081 0.22069226205348969 0.26205086708068848
0.17048019170761108 0.21821399033069611 0.26282107830047607
0.25367647409439087 0.21547171473503113 0.26174646615982056
0.35128694772720337 0.21528246998786926 0.25739717483520508
0.4622495174407959 0.22532793879508972 0.25178954005241394
0.58555430173873901 0.23322094976902008 0.25093236565589905
0.70572280883789062 0.23231089115142822 0.2488768994808197
0.81220561265945435 0.24540789425373077 0.24641583859920502
0.90080708265304565 0.26888900995254517 0.2386467307806015
0.97615200281143188 0.29594171047210693 0.22532142698764801
0.9963148832321167 0.33016175031661987 0.21629387140274048
0.99962258338928223 0.35897049307823181 0.20166999101638794
0.071147575974464417 0.2689090371131897 0.2606053352355957
0.10668875277042389 0.27125504612922668 0.26224502921104431
0.15503254532814026 0.26742774248123169 0.26189723610877991
0.23381431400775909 0.27366194128990173 0.26322883367538452
0.33419793844223022 0.28347310423851013 0.25947058200836182
0.45652320981025696 0.30038091540336609 0.24977622926235199
0.57715320587158203 0.31294074654579163 0.24567610025405884
0.69217193126678467 0.31333956122398376 0.24075673520565033
0.79673558473587036 0.324471116065979 0.23247380554676056
0.88541221618652344 0.34697815775871277 0.22108772397041321
0.96273386478424072 0.3681853711605072 0.2077731192111969
0.99367266893386841 0.39070072770118713 0.19029903411865234
0.99810755252838135 0.41469112038612366 0.17454178631305695
0.032942887395620346 0.33842438459396362 0.26886087656021118
0.070572733879089355 0.33846640586853027 0.26796969771385193
0.12647914886474609 0.33889147639274597 0.26829737424850464
0.20499150454998016 0.34318548440933228 0.26349085569381714
0.31478250026702881 0.36186492443084717 0.25442266464233398
0.44382780790328979 0.39048972725868225 0.23957380652427673
