luts/negative_new/kodak_portra_800.cube
# Created by: G'MIC (https://gmic.eu)
TITLE "kodak_portra_800"
# LUT size
LUT_3D_SIZE 13
# Data domain
DOMAIN_MIN 0.0 0.0 0.0
DOMAIN_MAX 1.0 1.0 1.0
# LUT data points
0.034757517278194427 0.046882167458534241 0.049364816397428513
0.089024834334850311 0.052383631467819214 0.050398837774991989
0.15176191926002502 0.051797199994325638 0.044294949620962143
0.24334633350372314 0.04328937828540802 0.038712549954652786
0.35347512364387512 0.026809049770236015 0.031861189752817154
0.48727434873580933 0.011949950829148293 0.021804390475153923
0.62346112728118896 0.0075151482596993446 0.011877666227519512
0.74634569883346558 0.0075533697381615639 0.0068975114263594151
0.84854328632354736 0.010656798258423805 0.0062734717503190041
0.93163293600082397 0.0075606550090014935 0.003312473651021719
0.98214948177337646 0.013080746866762638 2.154182038793806e-05
0.99903774261474609 0.054982561618089676 0
1 0.13361229002475739 0.00011435116175562143
0.023024195805191994 0.090347498655319214 0.053951278328895569
0.066571541130542755 0.093416668474674225 0.052705533802509308
0.1426481306552887 0.10036538541316986 0.045454211533069611
0.23870719969272614 0.10031923651695251 0.037437617778778076
0.34984782338142395 0.092461347579956055 0.027715824544429779
0.48562350869178772 0.066487930715084076 0.018002290278673172
0.62121790647506714 0.039586219936609268 0.0073800780810415745
0.74806690216064453 0.032176926732063293 0.0024327447172254324
0.85214102268218994 0.037584595382213593 0.0033530441578477621
0.9322279691696167 0.058945823460817337 0.001303938333876431
0.98408704996109009 0.099410995841026306 0.00017212511738762259
0.99737054109573364 0.14354339241981506 0.00044823440839536488
1 0.19705003499984741 0.00096553727053105831
0.008836694061756134 0.14357940852642059 0.059052322059869766
0.041286766529083252 0.14634278416633606 0.055921696126461029
0.12109605222940445 0.15865065157413483 0.04275837168097496
0.22575396299362183 0.17275059223175049 0.026835167780518532
0.34268930554389954 0.17451223731040955 0.019205998629331589
0.47540003061294556 0.16261443495750427 0.012597192078828812
0.61177569627761841 0.16009736061096191 0.007076652254909277
0.73929953575134277 0.17005482316017151 0.0041159982793033123
0.84524136781692505 0.18147081136703491 0.0022241480182856321
0.92358791828155518 0.20286205410957336 0.0014476551441475749
0.98524391651153564 0.22778300940990448 0.0016079023480415344
0.99577391147613525 0.25575339794158936 0.00087648280896246433
0.9994702935218811 0.27981531620025635 0.00084108836017549038
0.0033835018984973431 0.21007236838340759 0.069527417421340942
0.016180584207177162 0.21166342496871948 0.065868794918060303
0.06711655855178833 0.22244194149971008 0.051912914961576462
0.18881386518478394 0.24861665070056915 0.023921726271510124
0.32941600680351257 0.26775825023651123 0.010165569372475147
0.46874028444290161 0.27519398927688599 0.0070210476405918598
0.59928011894226074 0.28246274590492249 0.005042102187871933
0.72376447916030884 0.29547479748725891 0.0035817015450447798
0.8229600191116333 0.30735659599304199 0.0026302561163902283
0.90469098091125488 0.32006856799125671 0.0011265773791819811
0.97548973560333252 0.33495527505874634 0.0015888438792899251
0.99475640058517456 0.35546019673347473 0.00082786410348489881
0.99841195344924927 0.36928188800811768 0.0009476605337113142
0.002186075784265995 0.28763356804847717 0.07461567223072052
0.0074033401906490326 0.2919917106628418 0.069269545376300812
0.01878306083381176 0.29808589816093445 0.058113381266593933
0.12097956240177155 0.31865778565406799 0.031336542218923569
0.28761526942253113 0.3523450493812561 0.0090424781665205956
0.44998791813850403 0.38181880116462708 0.0040459278970956802
0.58713060617446899 0.39698460698127747 0.0028434004634618759
0.70922011137008667 0.40946361422538757 0.0024140002205967903
0.7991403341293335 0.41978192329406738 0.0028029498644173145
0.88381332159042358 0.42745658755302429 0.0024472554214298725
0.96566063165664673 0.43394625186920166 0.0012835185043513775
0.99413502216339111 0.4432845413684845 0.0011053795460611582
0.99632382392883301 0.45012480020523071 0.00073529413202777505
0.0020326352678239346 0.37577295303344727 0.077944464981555939
0.005538012832403183 0.38209041953086853 0.071033477783203125
0.0088325804099440575 0.38473930954933167 0.059048179537057877
0.052743934094905853 0.3921302855014801 0.038074314594268799
0.22323371469974518 0.42139109969139099 0.009888114407658577
0.39704230427742004 0.45730593800544739 0.0034084096550941467
0.55632400512695312 0.48958531022071838 0.0025516434106975794
0.68283665180206299 0.50728678703308105 0.0023150574415922165
0.7751731276512146 0.51457422971725464 0.0017543717985972762
0.86051321029663086 0.5198976993560791 0.0012969073140993714
0.94267040491104126 0.52534490823745728 0.0007702995790168643
0.98948943614959717 0.5310625433921814 0.00071536796167492867
0.99681508541107178 0.53364765644073486 0.00017179601127281785
0.0015913720708340406 0.46557354927062988 0.078957170248031616
0.0051609412766993046 0.46868550777435303 0.071706242859363556
0.0080240583047270775 0.46843931078910828 0.059024885296821594
0.015267645008862019 0.46915823221206665 0.040893658995628357
0.14736528694629669 0.48527485132217407 0.011822763830423355
0.32939386367797852 0.51688164472579956 0.0038114511407911777
0.49406537413597107 0.55233103036880493 0.0043129418045282364
0.647938072681427 0.58734983205795288 0.0019354128744453192
0.75122559070587158 0.59955346584320068 7.8627643233630806e-05
0.83710223436355591 0.60467040538787842 4.5237822632770985e-05
0.92068028450012207 0.61034959554672241 0.00020428825519047678
0.98709607124328613 0.61469662189483643 0.0005054249195381999
0.99971628189086914 0.61654835939407349 0
0.0010047613177448511 0.55139040946960449 0.073516353964805603
0.0036050386261194944 0.55134415626525879 0.07222563773393631
0.005909639410674572 0.54942870140075684 0.061614617705345154
0.010902972891926765 0.54800474643707275 0.042970247566699982
0.07430005818605423 0.55354088544845581 0.017893264070153236
0.26879960298538208 0.57915371656417847 0.0038283104076981544
0.43668189644813538 0.61268585920333862 0.0055979709140956402
0.5916253924369812 0.64479506015777588 0.0040551726706326008
0.71608430147171021 0.67070221900939941 0.0015223334776237607
0.81805998086929321 0.68556296825408936 0
0.90228921175003052 0.691814124584198 0
0.97418034076690674 0.69160556793212891 0.00030007454915903509
0.99766683578491211 0.69151091575622559 0.00023803711519576609
0 0.63269752264022827 0.069586656987667084
0.00014492857735604048 0.63244128227233887 0.070543505251407623
0.0036044700536876917 0.62898361682891846 0.061699498444795609
0.0086081260815262794 0.62511086463928223 0.046547938138246536
0.031047999858856201 0.62660300731658936 0.025843331590294838
0.2227514386177063 0.64494901895523071 0.0077152028679847717
0.39545524120330811 0.6721758246421814 0.0076737497001886368
0.54271668195724487 0.70048993825912476 0.0072385002858936787
0.66865485906600952 0.72819262742996216 0.0045296913012862206
0.79035770893096924 0.7546038031578064 0.0016468721441924572
0.88247311115264893 0.76617491245269775 1.4959597137931269e-05
0.95139527320861816 0.76278811693191528 0
0.99263584613800049 0.760661780834198 0
0 0.71388953924179077 0.092949874699115753
0 0.71285849809646606 0.092581763863563538
0.00065228331368416548 0.7083890438079834 0.085458986461162567
0.0043041454628109932 0.70409309864044189 0.076207838952541351
0.017183685675263405 0.70397865772247314 0.059996899217367172
0.19569920003414154 0.7144019603729248 0.028582075610756874
0.37116381525993347 0.7347252368927002 0.013627490028738976
0.50997054576873779 0.75818663835525513 0.0085506215691566467
0.63450884819030762 0.7825847864151001 0.0074790357612073421
0.75138503313064575 0.80492484569549561 0.0050327824428677559
0.85006070137023926 0.82042127847671509 0.0025832680985331535
0.93174368143081665 0.82596421241760254 0.00017608942289371043
0.98657357692718506 0.82541638612747192 0
0 0.79575228691101074 0.15301771461963654
0.0010517793707549572 0.79439759254455566 0.15331780910491943
0.0018300374504178762 0.79052412509918213 0.15284629166126251
0.0021690966095775366 0.78850197792053223 0.145975261926651
0.032857544720172882 0.78674995899200439 0.12812575697898865
0.21356098353862762 0.7908899188041687 0.10005247592926025
0.37020748853683472 0.80097585916519165 0.063319198787212372
0.4917510449886322 0.81598198413848877 0.030420610681176186
0.60677295923233032 0.83493584394454956 0.013464280404150486
0.71621882915496826 0.85171419382095337 0.0063092699274420738
0.81297039985656738 0.86611777544021606 0.0045796562917530537
0.90192526578903198 0.8750641942024231 0.0019796933047473431
0.97647958993911743 0.87962663173675537 5.3316005505621433e-05
0.0014073090860620141 0.87608605623245239 0.25555813312530518
0.0067110396921634674 0.87515825033187866 0.25829285383224487
0.014535507187247276 0.87228727340698242 0.24971975386142731
0.039833247661590576 0.8716474175453186 0.24164484441280365
0.15450800955295563 0.86828184127807617 0.23593325912952423
0.28385332226753235 0.86442166566848755 0.22744075953960419
0.40216517448425293 0.86947596073150635 0.20411436259746552
0.50607919692993164 0.87917214632034302 0.17256061732769012
0.60015159845352173 0.89078199863433838 0.13437114655971527
0.69383615255355835 0.90258872509002686 0.082044802606105804
0.78507477045059204 0.91364771127700806 0.031526274979114532
0.87384897470474243 0.92180740833282471 0.0073841321282088757
0.95696717500686646 0.92875450849533081 0.0029208464547991753
0.17076274752616882 0.94741535186767578 0.39921706914901733
0.19146101176738739 0.94734448194503784 0.39955353736877441
0.23422977328300476 0.94553142786026001 0.39736476540565491
0.29142853617668152 0.94389963150024414 0.39583751559257507
0.35458707809448242 0.94143861532211304 0.39629948139190674
0.42033439874649048 0.9395451545715332 0.39653581380844116
0.48743647336959839 0.94098746776580811 0.38770952820777893
0.56042450666427612 0.94589042663574219 0.37291374802589417
0.63451099395751953 0.95238655805587769 0.3518010675907135
0.70738005638122559 0.95850557088851929 0.32116249203681946
0.78121268749237061 0.96445482969284058 0.26721340417861938
0.85787063837051392 0.96973025798797607 0.19104018807411194
0.93312418460845947 0.97420364618301392 0.087764650583267212
0.037482630461454391 0.049826677888631821 0.1002948060631752
0.093810990452766418 0.050960555672645569 0.10279932618141174
0.15819187462329865 0.043464180082082748 0.10021773725748062
0.24413870275020599 0.034044124186038971 0.094686277210712433
0.35689252614974976 0.015809705480933189 0.087701179087162018
0.4868806004524231 0.0080354278907179832 0.074352815747261047
0.62071305513381958 0.0092183584347367287 0.060257751494646072
0.74678760766983032 0.0068556093610823154 0.051070582121610641
0.84711545705795288 0.0073360218666493893 0.039580609649419785
0.93055284023284912 0.0063661313615739346 0.020459851250052452
0.98857200145721436 0.007226891815662384 0.0065922904759645462
0.9998478889465332 0.031292680650949478 0.0049872156232595444
1 0.11060348153114319 0.002432400593534112
0.024980552494525909 0.095648795366287231 0.099491849541664124
0.076776735484600067 0.099306128919124603 0.10425039380788803
0.1467832624912262 0.097722090780735016 0.10265205055475235
0.23850791156291962 0.093845009803771973 0.096039973199367523
0.35232198238372803 0.076021812856197357 0.084682181477546692
0.48626923561096191 0.047677386552095413 0.072365507483482361
0.62174952030181885 0.028033029288053513 0.058155447244644165
0.74753504991531372 0.019251070916652679 0.042718175798654556
0.85120052099227905 0.021930664777755737 0.026209723204374313
0.93377864360809326 0.037385724484920502 0.012842753902077675
0.98779106140136719 0.071886353194713593 0.0061572655104100704
0.99907869100570679 0.1275629848241806 0.0049429051578044891
1 0.1861150860786438 0.0053741754963994026
0.010311156511306763 0.15165677666664124 0.10345324128866196
0.054114695638418198 0.15452086925506592 0.10397005081176758
0.12479868531227112 0.15901200473308563 0.097536750137805939
0.22991254925727844 0.16924318671226501 0.087905392050743103
0.34777605533599854 0.1670389324426651 0.074742414057254791
0.4816192090511322 0.15500965714454651 0.064752541482448578
0.61954480409622192 0.1523386538028717 0.045011438429355621
0.74355250597000122 0.15141865611076355 0.03047555685043335
0.84514528512954712 0.16024690866470337 0.016447523608803749
0.92576956748962402 0.18451584875583649 0.008691166527569294
0.98504412174224854 0.21234296262264252 0.0055436976253986359
0.99678331613540649 0.24435798823833466 0.0043404074385762215
0.9999958872795105 0.26930046081542969 0.0044413995929062366
0.0028685026336461306 0.22188009321689606 0.11579817533493042
0.019933020696043968 0.22058616578578949 0.10958850383758545
0.082547388970851898 0.23009075224399567 0.10016763955354691
0.20109662413597107 0.25083661079406738 0.079557709395885468
0.33762198686599731 0.26661938428878784 0.056315060704946518
0.47621208429336548 0.27177071571350098 0.038694299757480621
0.60896605253219604 0.28046375513076782 0.026421595364809036
0.73407149314880371 0.28983944654464722 0.014062291011214256
0.83092194795608521 0.29958620667457581 0.0083232801407575607
0.91244935989379883 0.31047093868255615 0.005207735113799572
0.97570139169692993 0.32630190253257751 0.0043826834298670292
0.99525070190429688 0.34371620416641235 0.0045398636721074581
0.99979811906814575 0.36032801866531372 0.0048642624169588089
0.0020040473900735378 0.30137425661087036 0.12511448562145233
0.0057612848468124866 0.30124074220657349 0.11655865609645844
0.028927253559231758 0.30589622259140015 0.1062583327293396
0.13767212629318237 0.32730132341384888 0.087061740458011627
0.30019330978393555 0.3574104905128479 0.047021724283695221
0.45743504166603088 0.38063815236091614 0.01583893783390522
0.59085404872894287 0.39578926563262939 0.009504878893494606
0.70994633436203003 0.40669968724250793 0.0090417154133319855
0.80953401327133179 0.41281303763389587 0.0067240847274661064
0.89335203170776367 0.41954332590103149 0.0042960969731211662
0.96514570713043213 0.42799609899520874 0.0042469846084713936
0.99447035789489746 0.43881183862686157 0.0054777255281805992
0.99875301122665405 0.44674167037010193 0.0052202413789927959
0.0026508704759180546 0.38582849502563477 0.12399853020906448
0.0072678960859775543 0.38998928666114807 0.11968111246824265
0.012541034258902073 0.38980534672737122 0.11061645299196243
0.065704822540283203 0.39710003137588501 0.092217147350311279
0.22918321192264557 0.42586436867713928 0.052459388971328735
0.39821195602416992 0.45420736074447632 0.015065675601363182
0.55619585514068604 0.48621293902397156 0.0084986668080091476
0.68070238828659058 0.50315195322036743 0.0087335174903273582
0.78090035915374756 0.51127839088439941 0.0060839033685624599
0.86978828907012939 0.51680171489715576 0.0042545543983578682
0.94659829139709473 0.52303177118301392 0.0042609870433807373
0.99086219072341919 0.52964240312576294 0.0050009782426059246
0.99792182445526123 0.53231978416442871 0.0038926517590880394
0.0015371284680441022 0.47376316785812378 0.12484736740589142
0.0056933681480586529 0.47525867819786072 0.1224534884095192
0.0076519087888300419 0.47326624393463135 0.11508166790008545
0.021180590614676476 0.47157540917396545 0.098959304392337799
0.15515534579753876 0.49049407243728638 0.063722752034664154
0.3365115225315094 0.51702529191970825 0.022828524932265282
0.49687275290489197 0.54982393980026245 0.01002972200512886
0.64374244213104248 0.5827556848526001 0.0065313153900206089
0.75841879844665527 0.59997928142547607 0.0026933108456432819
0.84509789943695068 0.60470616817474365 0.0036110971122980118
0.92621928453445435 0.60965877771377563 0.003696636063978076
0.98400759696960449 0.61396652460098267 0.0041130962781608105
0.99866920709609985 0.61499702930450439 0.002680804580450058
0.00016753253294155002 0.55822324752807617 0.12635599076747894
0.0024312934838235378 0.55786120891571045 0.12810929119586945
0.005521183367818594 0.55418777465820312 0.11991675943136215
0.011364745907485485 0.55093181133270264 0.10256603360176086
0.086221165955066681 0.55637407302856445 0.075756385922431946
0.28233733773231506 0.58043557405471802 0.035440839827060699
0.4429781436920166 0.61041748523712158 0.012833569198846817
0.59207069873809814 0.64375835657119751 0.0052242055535316467
0.72482842206954956 0.67300641536712646 0.0020538030657917261
0.82123184204101562 0.68579679727554321 0.0016384349437430501
0.90495532751083374 0.69148057699203491 0.0024789248127490282
0.97302263975143433 0.69208651781082153 0.0044761956669390202
0.99672836065292358 0.69061535596847534 0.0038538763765245676
0 0.63995587825775146 0.13019326329231262
1.8430224372423254e-05 0.63759982585906982 0.12964755296707153
0.0032270841766148806 0.63262802362442017 0.12155470252037048
0.0082107391208410263 0.62700134515762329 0.1072523221373558
0.042428679764270782 0.62758386135101318 0.089142337441444397
0.23531258106231689 0.64540386199951172 0.050398688763380051
0.39952567219734192 0.67103880643844604 0.016896551474928856
0.54344147443771362 0.6990506649017334 0.0072878818027675152
0.67119687795639038 0.72564500570297241 0.0048041399568319321
0.78729921579360962 0.75242263078689575 0.0020015791524201632
0.88368266820907593 0.76569068431854248 0.00015022428124211729
0.95708173513412476 0.76248705387115479 0.0012167537352070212
0.99345839023590088 0.75967055559158325 0.0026205175090581179
0 0.7184256911277771 0.13940389454364777
0 0.7159920334815979 0.14172171056270599
0.00095982273342087865 0.71194946765899658 0.13460643589496613
0.0057490780018270016 0.7067115306854248 0.12670211493968964
0.025070669129490852 0.70530807971954346 0.11548234522342682
0.20544412732124329 0.71532326936721802 0.086766950786113739
0.37307128310203552 0.7345699667930603 0.042279470711946487
0.50828361511230469 0.75600016117095947 0.014478377066552639
0.62948626279830933 0.77850395441055298 0.0083987964317202568
0.74354261159896851 0.80125784873962402 0.0057928496971726418
0.85119384527206421 0.81974601745605469 0.0033647425007075071
0.94077599048614502 0.82846915721893311 0.00021918801940046251
0.99193733930587769 0.8272327184677124 0.00038046741974540055
0.00097826786804944277 0.79820585250854492 0.19679892063140869
0.0026557473465800285 0.79530823230743408 0.1958392858505249
0.0012422598665580153 0.79329919815063477 0.18318729102611542
0.0046339593827724457 0.7907336950302124 0.17721852660179138
0.045347731560468674 0.78909832239151001 0.16734428703784943
0.22675973176956177 0.79249793291091919 0.1542426198720932
0.3796573281288147 0.80324167013168335 0.11762062460184097
0.4952186644077301 0.81492561101913452 0.07413964718580246
0.60216879844665527 0.83143103122711182 0.033254273235797882
0.71049791574478149 0.8485826849937439 0.011092870496213436
0.81320321559906006 0.86467307806015015 0.0053773019462823868
0.90802830457687378 0.87710726261138916 0.0024331335444003344
0.98029762506484985 0.88208335638046265 0.00033647124655544758
0.0030064750462770462 0.87624901533126831 0.28507834672927856
0.0066344616934657097 0.87534165382385254 0.28340697288513184
0.015557591803371906 0.87316608428955078 0.27134692668914795
0.052585169672966003 0.87216764688491821 0.26511099934577942
0.17070731520652771 0.86995470523834229 0.25988146662712097
0.29492449760437012 0.86716872453689575 0.2545187771320343
0.40997359156608582 0.87106865644454956 0.23872201144695282
0.50672727823257446 0.87846499681472778 0.21492049098014832
0.60370266437530518 0.88953882455825806 0.17802108824253082
0.69530212879180908 0.90167862176895142 0.12757860124111176
0.78673660755157471 0.91224467754364014 0.062115147709846497
0.87498605251312256 0.9213758111000061 0.017950829118490219
0.9570997953414917 0.9288063645362854 0.0046553369611501694
0.17890866100788116 0.94722312688827515 0.41521129012107849
0.2041802704334259 0.94761753082275391 0.414885014295578
0.24622777104377747 0.94571858644485474 0.41343978047370911
0.29911518096923828 0.94368922710418701 0.41266986727714539
0.36024194955825806 0.94205749034881592 0.41190060973167419
0.42261645197868347 0.93991613388061523 0.40895733237266541
0.4894467294216156 0.94080322980880737 0.40636679530143738
0.56008672714233398 0.94440031051635742 0.39261278510093689
0.63634485006332397 0.95117032527923584 0.37391519546508789
0.71077394485473633 0.95706653594970703 0.34257820248603821
0.7830316424369812 0.96391052007675171 0.29701226949691772
0.85893243551254272 0.9692615270614624 0.22587545216083527
0.93245571851730347 0.9739568829536438 0.12270071357488632
0.03267892450094223 0.05132254958152771 0.16934876143932343
0.091890387237071991 0.050773471593856812 0.17262674868106842
0.16002137959003448 0.04271991178393364 0.17246343195438385
0.24409525096416473 0.029218651354312897 0.16939038038253784
0.35863170027732849 0.010480050928890705 0.16413334012031555
0.4821397066116333 0.0076198354363441467 0.15221378207206726
0.61139452457427979 0.0083686234429478645 0.14413890242576599
0.74197816848754883 0.0070127150975167751 0.13765326142311096
0.85117959976196289 0.0046400781720876694 0.12442371249198914
0.93074232339859009 0.0024259679485112429 0.10969913005828857
0.98944783210754395 0.0053005442023277283 0.093904770910739899
0.99990326166152954 0.018487235531210899 0.071096904575824738
1 0.095049567520618439 0.054529376327991486
0.021099718287587166 0.099448546767234802 0.16497150063514709
0.076174579560756683 0.10263343900442123 0.17114065587520599
0.14606744050979614 0.097457990050315857 0.17449916899204254
0.24272637069225311 0.087624207139015198 0.17489707469940186
0.36015585064888 0.055495452135801315 0.16473805904388428
0.48715588450431824 0.024672923609614372 0.15040817856788635
0.61988353729248047 0.017454633489251137 0.14568687975406647
0.74477434158325195 0.012395626865327358 0.14109943807125092
0.84926652908325195 0.012491562403738499 0.12670333683490753
0.93284481763839722 0.01929861307144165 0.11026483029127121
0.98901349306106567 0.045610599219799042 0.088717877864837646
0.99910831451416016 0.10678745061159134 0.065387636423110962
1 0.17369033396244049 0.048244476318359375
0.012514630332589149 0.15985509753227234 0.16432662308216095
0.062769658863544464 0.16091330349445343 0.16885828971862793
0.13354814052581787 0.16133894026279449 0.1764519214630127
0.23596234619617462 0.16299372911453247 0.1726088672876358
0.35760587453842163 0.15476858615875244 0.16083160042762756
0.48918196558952332 0.14394561946392059 0.15060307085514069
0.62604713439941406 0.12648740410804749 0.14177633821964264
0.74855297803878784 0.11600332707166672 0.13150005042552948
0.84839791059494019 0.12927080690860748 0.11804733425378799
0.92766332626342773 0.15813647210597992 0.10207758843898773
0.98680073022842407 0.19078633189201355 0.07594037801027298
0.99733418226242065 0.22789266705513 0.053661033511161804
1 0.25985622406005859 0.033190619200468063
0.0068920059129595757 0.23620760440826416 0.1777976006269455
0.046804212033748627 0.23579591512680054 0.17637954652309418
0.11860960721969604 0.23963984847068787 0.17545837163925171
0.21445873379707336 0.25069248676300049 0.16577418148517609
0.34481212496757507 0.2627226710319519 0.15105004608631134
0.48250049352645874 0.26458859443664551 0.13671500980854034
0.61541056632995605 0.26480457186698914 0.12152364104986191
0.74027258157730103 0.2694154679775238 0.10691845417022705
0.83657491207122803 0.27774882316589355 0.091155767440795898
0.917236328125 0.29439243674278259 0.076762661337852478
0.97624921798706055 0.31343433260917664 0.05741589143872261
0.99678331613540649 0.33225247263908386 0.03829377144575119
1 0.35278666019439697 0.026289846748113632
0.0049742157571017742 0.31776559352874756 0.18617548048496246
0.017993807792663574 0.31868964433670044 0.18302629888057709
0.06160799041390419 0.32259562611579895 0.17453494668006897
0.16576047241687775 0.33395227789878845 0.16484621167182922
0.31442990899085999 0.35694527626037598 0.14197179675102234
