luts/negative_new/kodak_tri-x_400_++.cube
# Created by: G'MIC (https://gmic.eu)
TITLE "kodak_tri-x_400_++"
# LUT size
LUT_3D_SIZE 13
# Data domain
DOMAIN_MIN 0.0 0.0 0.0
DOMAIN_MAX 1.0 1.0 1.0
# LUT data points
0.1357308030128479 0.1357308030128479 0.1357308030128479
0.14051365852355957 0.14051365852355957 0.14051365852355957
0.14805586636066437 0.14805586636066437 0.14805586636066437
0.15703901648521423 0.15703901648521423 0.15703901648521423
0.16613240540027618 0.16613240540027618 0.16613240540027618
0.17442338168621063 0.17442338168621063 0.17442338168621063
0.18463294208049774 0.18463294208049774 0.18463294208049774
0.19956295192241669 0.19956295192241669 0.19956295192241669
0.22068686783313751 0.22068686783313751 0.22068686783313751
0.24745167791843414 0.24745167791843414 0.24745167791843414
0.2828274667263031 0.2828274667263031 0.2828274667263031
0.33214464783668518 0.33214464783668518 0.33214464783668518
0.3946625292301178 0.3946625292301178 0.3946625292301178
0.14556761085987091 0.14556761085987091 0.14556761085987091
0.14959050714969635 0.14959050714969635 0.14959050714969635
0.15643772482872009 0.15643772482872009 0.15643772482872009
0.16571377217769623 0.16571377217769623 0.16571377217769623
0.17585274577140808 0.17585274577140808 0.17585274577140808
0.18534326553344727 0.18534326553344727 0.18534326553344727
0.19660994410514832 0.19660994410514832 0.19660994410514832
0.21264238655567169 0.21264238655567169 0.21264238655567169
0.23389135301113129 0.23389135301113129 0.23389135301113129
0.2611696720123291 0.2611696720123291 0.2611696720123291
0.29756864905357361 0.29756864905357361 0.29756864905357361
0.3464713990688324 0.3464713990688324 0.3464713990688324
0.40857627987861633 0.40857627987861633 0.40857627987861633
0.16283135116100311 0.16283135116100311 0.16283135116100311
0.16520605981349945 0.16520605981349945 0.16520605981349945
0.17126892507076263 0.17126892507076263 0.17126892507076263
0.18191610276699066 0.18191610276699066 0.18191610276699066
0.19639970362186432 0.19639970362186432 0.19639970362186432
0.21228483319282532 0.21228483319282532 0.21228483319282532
0.22834829986095428 0.22834829986095428 0.22834829986095428
0.24601630866527557 0.24601630866527557 0.24601630866527557
0.26697883009910583 0.26697883009910583 0.26697883009910583
0.29308250546455383 0.29308250546455383 0.29308250546455383
0.32934784889221191 0.32934784889221191 0.32934784889221191
0.3794587254524231 0.3794587254524231 0.3794587254524231
0.44229599833488464 0.44229599833488464 0.44229599833488464
0.18850228190422058 0.18850228190422058 0.18850228190422058
0.18845121562480927 0.18845121562480927 0.18845121562480927
0.1929677426815033 0.1929677426815033 0.1929677426815033
0.20555658638477325 0.20555658638477325 0.20555658638477325
0.22815476357936859 0.22815476357936859 0.22815476357936859
0.25613027811050415 0.25613027811050415 0.25613027811050415
0.28114503622055054 0.28114503622055054 0.28114503622055054
0.3021148145198822 0.3021148145198822 0.3021148145198822
0.32303991913795471 0.32303991913795471 0.32303991913795471
0.34806877374649048 0.34806877374649048 0.34806877374649048
0.38469871878623962 0.38469871878623962 0.38469871878623962
0.43690007925033569 0.43690007925033569 0.43690007925033569
0.50024533271789551 0.50024533271789551 0.50024533271789551
0.22366915643215179 0.22366915643215179 0.22366915643215179
0.21987816691398621 0.21987816691398621 0.21987816691398621
0.2209172397851944 0.2209172397851944 0.2209172397851944
0.23427851498126984 0.23427851498126984 0.23427851498126984
0.264728844165802 0.264728844165802 0.264728844165802
0.30717912316322327 0.30717912316322327 0.30717912316322327
0.34494754672050476 0.34494754672050476 0.34494754672050476
0.37342005968093872 0.37342005968093872 0.37342005968093872
0.39748203754425049 0.39748203754425049 0.39748203754425049
0.42370650172233582 0.42370650172233582 0.42370650172233582
0.46052342653274536 0.46052342653274536 0.46052342653274536
0.51194071769714355 0.51194071769714355 0.51194071769714355
0.57315152883529663 0.57315152883529663 0.57315152883529663
0.26751258969306946 0.26751258969306946 0.26751258969306946
0.2592155933380127 0.2592155933380127 0.2592155933380127
0.25558903813362122 0.25558903813362122 0.25558903813362122
0.26542392373085022 0.26542392373085022 0.26542392373085022
0.29881724715232849 0.29881724715232849 0.29881724715232849
0.35020521283149719 0.35020521283149719 0.35020521283149719
0.40271151065826416 0.40271151065826416 0.40271151065826416
0.44574874639511108 0.44574874639511108 0.44574874639511108
0.4791463315486908 0.4791463315486908 0.4791463315486908
0.50797486305236816 0.50797486305236816 0.50797486305236816
0.5443493127822876 0.5443493127822876 0.5443493127822876
0.59544521570205688 0.59544521570205688 0.59544521570205688
0.65281498432159424 0.65281498432159424 0.65281498432159424
0.32244610786437988 0.32244610786437988 0.32244610786437988
0.30938392877578735 0.30938392877578735 0.30938392877578735
0.29899188876152039 0.29899188876152039 0.29899188876152039
0.30205211043357849 0.30205211043357849 0.30205211043357849
0.33154216408729553 0.33154216408729553 0.33154216408729553
0.38601234555244446 0.38601234555244446 0.38601234555244446
0.4490199089050293 0.4490199089050293 0.4490199089050293
0.50705021619796753 0.50705021619796753 0.50705021619796753
0.55442172288894653 0.55442172288894653 0.55442172288894653
0.5923997163772583 0.5923997163772583 0.5923997163772583
0.63049024343490601 0.63049024343490601 0.63049024343490601
0.6793021559715271 0.6793021559715271 0.6793021559715271
0.73145461082458496 0.73145461082458496 0.73145461082458496
0.39374628663063049 0.39374628663063049 0.39374628663063049
0.37854099273681641 0.37854099273681641 0.37854099273681641
0.36169135570526123 0.36169135570526123 0.36169135570526123
0.35357722640037537 0.35357722640037537 0.35357722640037537
0.37532207369804382 0.37532207369804382 0.37532207369804382
0.42740353941917419 0.42740353941917419 0.42740353941917419
0.49086374044418335 0.49086374044418335 0.49086374044418335
0.55275809764862061 0.55275809764862061 0.55275809764862061
0.61006194353103638 0.61006194353103638 0.61006194353103638
0.66617673635482788 0.66617673635482788 0.66617673635482788
0.71081697940826416 0.71081697940826416 0.71081697940826416
0.7533450722694397 0.7533450722694397 0.7533450722694397
0.79817485809326172 0.79817485809326172 0.79817485809326172
0.48409765958786011 0.48409765958786011 0.48409765958786011
0.47149336338043213 0.47149336338043213 0.47149336338043213
0.453482985496521 0.453482985496521 0.453482985496521
0.43913796544075012 0.43913796544075012 0.43913796544075012
0.45017406344413757 0.45017406344413757 0.45017406344413757
0.48984268307685852 0.48984268307685852 0.48984268307685852
0.54144442081451416 0.54144442081451416 0.54144442081451416
0.59472715854644775 0.59472715854644775 0.59472715854644775
0.64547675848007202 0.64547675848007202 0.64547675848007202
0.70315349102020264 0.70315349102020264 0.70315349102020264
0.76036620140075684 0.76036620140075684 0.76036620140075684
0.80550485849380493 0.80550485849380493 0.80550485849380493
0.84602999687194824 0.84602999687194824 0.84602999687194824
0.58861982822418213 0.58861982822418213 0.58861982822418213
0.58285057544708252 0.58285057544708252 0.58285057544708252
0.5703127384185791 0.5703127384185791 0.5703127384185791
0.55452966690063477 0.55452966690063477 0.55452966690063477
0.55490422248840332 0.55490422248840332 0.55490422248840332
0.57689511775970459 0.57689511775970459 0.57689511775970459
0.61223328113555908 0.61223328113555908 0.61223328113555908
0.65238302946090698 0.65238302946090698 0.65238302946090698
0.69412565231323242 0.69412565231323242 0.69412565231323242
0.74257725477218628 0.74257725477218628 0.74257725477218628
0.7965245246887207 0.7965245246887207 0.7965245246887207
0.84291595220565796 0.84291595220565796 0.84291595220565796
0.88052058219909668 0.88052058219909668 0.88052058219909668
0.69603437185287476 0.69603437185287476 0.69603437185287476
0.6954154372215271 0.6954154372215271 0.6954154372215271
0.68773567676544189 0.68773567676544189 0.68773567676544189
0.67469453811645508 0.67469453811645508 0.67469453811645508
0.66993921995162964 0.66993921995162964 0.66993921995162964
0.6792299747467041 0.6792299747467041 0.6792299747467041
0.70079326629638672 0.70079326629638672 0.70079326629638672
0.72996693849563599 0.72996693849563599 0.72996693849563599
0.76412773132324219 0.76412773132324219 0.76412773132324219
0.80340808629989624 0.80340808629989624 0.80340808629989624
0.84321582317352295 0.84321582317352295 0.84321582317352295
0.87870997190475464 0.87870997190475464 0.87870997190475464
0.90930193662643433 0.90930193662643433 0.90930193662643433
0.79878759384155273 0.79878759384155273 0.79878759384155273
0.79935836791992188 0.79935836791992188 0.79935836791992188
0.79493123292922974 0.79493123292922974 0.79493123292922974
0.78716093301773071 0.78716093301773071 0.78716093301773071
0.78232139348983765 0.78232139348983765 0.78232139348983765
0.78497576713562012 0.78497576713562012 0.78497576713562012
0.79660278558731079 0.79660278558731079 0.79660278558731079
0.8168712854385376 0.8168712854385376 0.8168712854385376
0.84362798929214478 0.84362798929214478 0.84362798929214478
0.87182027101516724 0.87182027101516724 0.87182027101516724
0.89580273628234863 0.89580273628234863 0.89580273628234863
0.91622430086135864 0.91622430086135864 0.91622430086135864
0.93706017732620239 0.93706017732620239 0.93706017732620239
0.89354658126831055 0.89354658126831055 0.89354658126831055
0.89496469497680664 0.89496469497680664 0.89496469497680664
0.89272892475128174 0.89272892475128174 0.89272892475128174
0.88858425617218018 0.88858425617218018 0.88858425617218018
0.88505655527114868 0.88505655527114868 0.88505655527114868
0.88429701328277588 0.88429701328277588 0.88429701328277588
0.88926500082015991 0.88926500082015991 0.88926500082015991
0.90146130323410034 0.90146130323410034 0.90146130323410034
0.91901803016662598 0.91901803016662598 0.91901803016662598
0.93609732389450073 0.93609732389450073 0.93609732389450073
0.94688636064529419 0.94688636064529419 0.94688636064529419
0.95598578453063965 0.95598578453063965 0.95598578453063965
0.96664232015609741 0.96664232015609741 0.96664232015609741
0.13279072940349579 0.13279072940349579 0.13279072940349579
0.14039050042629242 0.14039050042629242 0.14039050042629242
0.15085743367671967 0.15085743367671967 0.15085743367671967
0.16281107068061829 0.16281107068061829 0.16281107068061829
0.17281059920787811 0.17281059920787811 0.17281059920787811
0.17932796478271484 0.17932796478271484 0.17932796478271484
0.18724451959133148 0.18724451959133148 0.18724451959133148
0.20004074275493622 0.20004074275493622 0.20004074275493622
0.21806935966014862 0.21806935966014862 0.21806935966014862
0.24299493432044983 0.24299493432044983 0.24299493432044983
0.27843475341796875 0.27843475341796875 0.27843475341796875
0.32900875806808472 0.32900875806808472 0.32900875806808472
0.39338192343711853 0.39338192343711853 0.39338192343711853
0.14264315366744995 0.14264315366744995 0.14264315366744995
0.14875349402427673 0.14875349402427673 0.14875349402427673
0.15769621729850769 0.15769621729850769 0.15769621729850769
0.16830523312091827 0.16830523312091827 0.16830523312091827
0.17720142006874084 0.17720142006874084 0.17720142006874084
0.18262520432472229 0.18262520432472229 0.18262520432472229
0.19007843732833862 0.19007843732833862 0.19007843732833862
0.20606319606304169 0.20606319606304169 0.20606319606304169
0.22869303822517395 0.22869303822517395 0.22869303822517395
0.25891003012657166 0.25891003012657166 0.25891003012657166
0.29809778928756714 0.29809778928756714 0.29809778928756714
0.34965994954109192 0.34965994954109192 0.34965994954109192
0.41593700647354126 0.41593700647354126 0.41593700647354126
0.16127599775791168 0.16127599775791168 0.16127599775791168
0.16536647081375122 0.16536647081375122 0.16536647081375122
0.1715092658996582 0.1715092658996582 0.1715092658996582
0.18104745447635651 0.18104745447635651 0.18104745447635651
0.19282245635986328 0.19282245635986328 0.19282245635986328
0.20404723286628723 0.20404723286628723 0.20404723286628723
0.21650414168834686 0.21650414168834686 0.21650414168834686
0.23514081537723541 0.23514081537723541 0.23514081537723541
0.26033619046211243 0.26033619046211243 0.26033619046211243
0.29313763976097107 0.29313763976097107 0.29313763976097107
0.33443203568458557 0.33443203568458557 0.33443203568458557
0.38689696788787842 0.38689696788787842 0.38689696788787842
0.45202898979187012 0.45202898979187012 0.45202898979187012
0.19168256223201752 0.19168256223201752 0.19168256223201752
0.19221396744251251 0.19221396744251251 0.19221396744251251
0.19422011077404022 0.19422011077404022 0.19422011077404022
0.20273123681545258 0.20273123681545258 0.20273123681545258
0.22164642810821533 0.22164642810821533 0.22164642810821533
0.24632102251052856 0.24632102251052856 0.24632102251052856
0.26985642313957214 0.26985642313957214 0.26985642313957214
0.29151484370231628 0.29151484370231628 0.29151484370231628
0.31568533182144165 0.31568533182144165 0.31568533182144165
0.34701067209243774 0.34701067209243774 0.34701067209243774
0.38929042220115662 0.38929042220115662 0.38929042220115662
0.44367042183876038 0.44367042183876038 0.44367042183876038
0.50813597440719604 0.50813597440719604 0.50813597440719604
0.23242233693599701 0.23242233693599701 0.23242233693599701
0.22905083000659943 0.22905083000659943 0.22905083000659943
0.22548943758010864 0.22548943758010864 0.22548943758010864
0.23178666830062866 0.23178666830062866 0.23178666830062866
0.25814485549926758 0.25814485549926758 0.25814485549926758
0.29891869425773621 0.29891869425773621 0.29891869425773621
0.33798378705978394 0.33798378705978394 0.33798378705978394
0.36767995357513428 0.36767995357513428 0.36767995357513428
0.39326640963554382 0.39326640963554382 0.39326640963554382
0.42278912663459778 0.42278912663459778 0.42278912663459778
0.46340358257293701 0.46340358257293701 0.46340358257293701
0.51747864484786987 0.51747864484786987 0.51747864484786987
0.58012402057647705 0.58012402057647705 0.58012402057647705
0.28060024976730347 0.28060024976730347 0.28060024976730347
0.27305293083190918 0.27305293083190918 0.27305293083190918
0.26453873515129089 0.26453873515129089 0.26453873515129089
0.26728719472885132 0.26728719472885132 0.26728719472885132
0.29635632038116455 0.29635632038116455 0.29635632038116455
0.34826326370239258 0.34826326370239258 0.34826326370239258
0.40400004386901855 0.40400004386901855 0.40400004386901855
0.44918704032897949 0.44918704032897949 0.44918704032897949
0.48166349530220032 0.48166349530220032 0.48166349530220032
0.51018476486206055 0.51018476486206055 0.51018476486206055
0.54822695255279541 0.54822695255279541 0.54822695255279541
0.60043752193450928 0.60043752193450928 0.60043752193450928
0.65897780656814575 0.65897780656814575 0.65897780656814575
0.33548685908317566 0.33548685908317566 0.33548685908317566
0.32493239641189575 0.32493239641189575 0.32493239641189575
0.31234350800514221 0.31234350800514221 0.31234350800514221
0.31018838286399841 0.31018838286399841 0.31018838286399841
0.335245281457901 0.335245281457901 0.335245281457901
0.38915747404098511 0.38915747404098511 0.38915747404098511
0.45508483052253723 0.45508483052253723 0.45508483052253723
0.51617825031280518 0.51617825031280518 0.51617825031280518
0.560863196849823 0.560863196849823 0.560863196849823
0.59426915645599365 0.59426915645599365 0.59426915645599365
0.63286614418029785 0.63286614418029785 0.63286614418029785
0.68271887302398682 0.68271887302398682 0.68271887302398682
0.73603790998458862 0.73603790998458862 0.73603790998458862
0.40420365333557129 0.40420365333557129 0.40420365333557129
0.39261576533317566 0.39261576533317566 0.39261576533317566
0.3772692084312439 0.3772692084312439 0.3772692084312439
0.36854392290115356 0.36854392290115356 0.36854392290115356
0.3852081298828125 0.3852081298828125 0.3852081298828125
0.43217587471008301 0.43217587471008301 0.43217587471008301
0.49574688076972961 0.49574688076972961 0.49574688076972961
0.55916309356689453 0.55916309356689453 0.55916309356689453
0.61220598220825195 0.61220598220825195 0.61220598220825195
0.65921568870544434 0.65921568870544434 0.65921568870544434
0.70624685287475586 0.70624685287475586 0.70624685287475586
0.75408488512039185 0.75408488512039185 0.75408488512039185
0.80137419700622559 0.80137419700622559 0.80137419700622559
0.49339231848716736 0.49339231848716736 0.49339231848716736
0.48398742079734802 0.48398742079734802 0.48398742079734802
0.46874424815177917 0.46874424815177917 0.46874424815177917
0.45510360598564148 0.45510360598564148 0.45510360598564148
0.4612656831741333 0.4612656831741333 0.4612656831741333
0.49417018890380859 0.49417018890380859 0.49417018890380859
0.54388266801834106 0.54388266801834106 0.54388266801834106
0.59694814682006836 0.59694814682006836 0.59694814682006836
0.64718711376190186 0.64718711376190186 0.64718711376190186
0.70060068368911743 0.70060068368911743 0.70060068368911743
0.75668507814407349 0.75668507814407349 0.75668507814407349
0.80618500709533691 0.80618500709533691 0.80618500709533691
0.84995776414871216 0.84995776414871216 0.84995776414871216
0.59731960296630859 0.59731960296630859 0.59731960296630859
0.59333616495132446 0.59333616495132446 0.59333616495132446
0.58227229118347168 0.58227229118347168 0.58227229118347168
0.56658291816711426 0.56658291816711426 0.56658291816711426
0.56331121921539307 0.56331121921539307 0.56331121921539307
0.58038878440856934 0.58038878440856934 0.58038878440856934
0.61287820339202881 0.61287820339202881 0.61287820339202881
0.65292340517044067 0.65292340517044067 0.65292340517044067
0.69582581520080566 0.69582581520080566 0.69582581520080566
0.74503904581069946 0.74503904581069946 0.74503904581069946
0.79819071292877197 0.79819071292877197 0.79819071292877197
0.84536057710647583 0.84536057710647583 0.84536057710647583
0.88476741313934326 0.88476741313934326 0.88476741313934326
0.70393270254135132 0.70393270254135132 0.70393270254135132
0.70420867204666138 0.70420867204666138 0.70420867204666138
0.69727432727813721 0.69727432727813721 0.69727432727813721
0.68426269292831421 0.68426269292831421 0.68426269292831421
0.67695271968841553 0.67695271968841553 0.67695271968841553
0.68253219127655029 0.68253219127655029 0.68253219127655029
0.70106786489486694 0.70106786489486694 0.70106786489486694
0.72959727048873901 0.72959727048873901 0.72959727048873901
0.76431357860565186 0.76431357860565186 0.76431357860565186
0.80426502227783203 0.80426502227783203 0.80426502227783203
0.84477800130844116 0.84477800130844116 0.84477800130844116
0.88137263059616089 0.88137263059616089 0.88137263059616089
0.91311508417129517 0.91311508417129517 0.91311508417129517
0.80507528781890869 0.80507528781890869 0.80507528781890869
0.80699390172958374 0.80699390172958374 0.80699390172958374
0.80308806896209717 0.80308806896209717 0.80308806896209717
0.79497557878494263 0.79497557878494263 0.79497557878494263
0.78833860158920288 0.78833860158920288 0.78833860158920288
0.7883608341217041 0.7883608341217041 0.7883608341217041
0.79747766256332397 0.79747766256332397 0.79747766256332397
0.81638604402542114 0.81638604402542114 0.81638604402542114
0.84222418069839478 0.84222418069839478 0.84222418069839478
0.8701665997505188 0.8701665997505188 0.8701665997505188
0.89572232961654663 0.89572232961654663 0.89572232961654663
0.91868460178375244 0.91868460178375244 0.91868460178375244
0.9398682713508606 0.9398682713508606 0.9398682713508606
0.8977818489074707 0.8977818489074707 0.8977818489074707
0.90042489767074585 0.90042489767074585 0.90042489767074585
0.89909082651138306 0.89909082651138306 0.89909082651138306
0.89461946487426758 0.89461946487426758 0.89461946487426758
0.88983571529388428 0.88983571529388428 0.88983571529388428
0.88742870092391968 0.88742870092391968 0.88742870092391968
0.89079052209854126 0.89079052209854126 0.89079052209854126
0.90147823095321655 0.90147823095321655 0.90147823095321655
0.91744482517242432 0.91744482517242432 0.91744482517242432
0.93346321582794189 0.93346321582794189 0.93346321582794189
0.94620174169540405 0.94620174169540405 0.94620174169540405
0.95664608478546143 0.95664608478546143 0.95664608478546143
0.96870046854019165 0.96870046854019165 0.96870046854019165
0.13315494358539581 0.13315494358539581 0.13315494358539581
0.1436646580696106 0.1436646580696106 0.1436646580696106
0.15829579532146454 0.15829579532146454 0.15829579532146454
0.17518274486064911 0.17518274486064911 0.17518274486064911
0.18940840661525726 0.18940840661525726 0.18940840661525726
0.19743470847606659 0.19743470847606659 0.19743470847606659
0.20685194432735443 0.20685194432735443 0.20685194432735443
0.21914154291152954 0.21914154291152954 0.21914154291152954
0.2289046049118042 0.2289046049118042 0.2289046049118042
0.24547304213047028 0.24547304213047028 0.24547304213047028
0.27945494651794434 0.27945494651794434 0.27945494651794434
0.32858255505561829 0.32858255505561829 0.32858255505561829
0.39233839511871338 0.39233839511871338 0.39233839511871338
0.14257228374481201 0.14257228374481201 0.14257228374481201
0.15165366232395172 0.15165366232395172 0.15165366232395172
0.16445668041706085 0.16445668041706085 0.16445668041706085
0.17866861820220947 0.17866861820220947 0.17866861820220947
0.19035105407238007 0.19035105407238007 0.19035105407238007
0.19487562775611877 0.19487562775611877 0.19487562775611877
0.20070566236972809 0.20070566236972809 0.20070566236972809
0.2163693755865097 0.2163693755865097 0.2163693755865097
0.23589794337749481 0.23589794337749481 0.23589794337749481
0.26408213376998901 0.26408213376998901 0.26408213376998901
0.30287545919418335 0.30287545919418335 0.30287545919418335
0.35428214073181152 0.35428214073181152 0.35428214073181152
0.42213943600654602 0.42213943600654602 0.42213943600654602
0.163253054022789 0.163253054022789 0.163253054022789
0.17003393173217773 0.17003393173217773 0.17003393173217773
0.17859357595443726 0.17859357595443726 0.17859357595443726
0.1892542839050293 0.1892542839050293 0.1892542839050293
0.20140750706195831 0.20140750706195831 0.20140750706195831
0.21085569262504578 0.21085569262504578 0.21085569262504578
0.2199435830116272 0.2199435830116272 0.2199435830116272
0.23752999305725098 0.23752999305725098 0.23752999305725098
0.26176744699478149 0.26176744699478149 0.26176744699478149
0.29806458950042725 0.29806458950042725 0.29806458950042725
0.34159961342811584 0.34159961342811584 0.34159961342811584
0.39402559399604797 0.39402559399604797 0.39402559399604797
0.45914390683174133 0.45914390683174133 0.45914390683174133
0.19981034100055695 0.19981034100055695 0.19981034100055695
0.20330289006233215 0.20330289006233215 0.20330289006233215
0.20458537340164185 0.20458537340164185 0.20458537340164185
0.20979750156402588 0.20979750156402588 0.20979750156402588
0.22592945396900177 0.22592945396900177 0.22592945396900177
0.24850939214229584 0.24850939214229584 0.24850939214229584
0.26844263076782227 0.26844263076782227 0.26844263076782227
0.2862909734249115 0.2862909734249115 0.2862909734249115
0.30964243412017822 0.30964243412017822 0.30964243412017822
0.34565499424934387 0.34565499424934387 0.34565499424934387
0.39299884438514709 0.39299884438514709 0.39299884438514709
0.45000821352005005 0.45000821352005005 0.45000821352005005
0.5147329568862915 0.5147329568862915 0.5147329568862915
0.25151562690734863 0.25151562690734863 0.25151562690734863
0.2516930103302002 0.2516930103302002 0.2516930103302002
0.24332502484321594 0.24332502484321594 0.24332502484321594
0.23965376615524292 0.23965376615524292 0.23965376615524292
0.26060190796852112 0.26060190796852112 0.26060190796852112
0.29942509531974792 0.29942509531974792 0.29942509531974792
0.33571368455886841 0.33571368455886841 0.33571368455886841
0.36030340194702148 0.36030340194702148 0.36030340194702148
0.38461577892303467 0.38461577892303467 0.38461577892303467
