luts/negative_new/kodak_portra_400.cube
# Created by: G'MIC (https://gmic.eu)
TITLE "kodak_portra_400"
# LUT size
LUT_3D_SIZE 5
# Data domain
DOMAIN_MIN 0.0 0.0 0.0
DOMAIN_MAX 1.0 1.0 1.0
# LUT data points
0.028550285845994949 0.036040645092725754 0.035365428775548935
0.25378915667533875 0.024430593475699425 0.028910020366311073
0.62135756015777588 0.0053300447762012482 0.0081985173746943474
0.90965002775192261 0.018603559583425522 0.0004414427385199815
1 0.20488640666007996 0.0014130386989563704
0.00080774346133694053 0.21141231060028076 0.060882136225700378
0.20637720823287964 0.23664750158786774 0.029190422967076302
0.61248588562011719 0.28455182909965515 0.0045215832069516182
0.87674719095230103 0.31728953123092651 0.0019110884750261903
0.99668347835540771 0.38362842798233032 0.001236650045029819
0 0.48163416981697083 0.14827162027359009
0.054788596928119659 0.46163934469223022 0.15079367160797119
0.49346336722373962 0.53241950273513794 0.022230589762330055
0.82136070728302002 0.57941967248916626 0.0024213902652263641
0.99184787273406982 0.58906704187393188 0.0026520374231040478
0.0036437090020626783 0.70491337776184082 0.29954171180725098
0.092289403080940247 0.68534606695175171 0.30112099647521973
0.44334232807159424 0.69598698616027832 0.28875398635864258
0.73595303297042847 0.74329441785812378 0.17656572163105011
0.97723263502120972 0.77627259492874146 0.015069176442921162
0.44548502564430237 0.91067296266555786 0.58915048837661743
0.50568652153015137 0.9049486517906189 0.60344260931015015
0.619914710521698 0.89589571952819824 0.62077176570892334
0.75090599060058594 0.9192425012588501 0.60241568088531494
0.93581801652908325 0.94865447282791138 0.55450928211212158
0.012783304788172245 0.041134823113679886 0.26313471794128418
0.31181821227073669 0.006878572516143322 0.30279529094696045
0.66515457630157471 0.0067436965182423592 0.30411761999130249
0.9273034930229187 0.0051727741956710815 0.26357665657997131
1 0.19351944327354431 0.24483045935630798
0.002931063761934638 0.28855156898498535 0.28554585576057434
0.27162864804267883 0.28795000910758972 0.29037660360336304
0.64172077178955078 0.27533000707626343 0.28056421875953674
0.89922928810119629 0.31371334195137024 0.23812820017337799
1 0.37779569625854492 0.21757712960243225
0.0068029365502297878 0.56635457277297974 0.34657585620880127
0.20130656659603119 0.54080629348754883 0.33875429630279541
0.54340535402297974 0.55840927362442017 0.30686315894126892
0.83829522132873535 0.5816190242767334 0.18389660120010376
0.99698847532272339 0.58452773094177246 0.091163381934165955
0.010904454626142979 0.7380099892616272 0.40829944610595703
0.22081939876079559 0.71625006198883057 0.41485348343849182
0.47191470861434937 0.70124614238739014 0.40874311327934265
0.75054818391799927 0.75313794612884521 0.37187770009040833
0.97901129722595215 0.77356916666030884 0.25734713673591614
0.46549668908119202 0.91946166753768921 0.62643134593963623
0.52077841758728027 0.91245412826538086 0.62993735074996948
0.62551242113113403 0.89953082799911499 0.65092337131500244
0.75814574956893921 0.91857600212097168 0.64164799451828003
0.93592590093612671 0.94861245155334473 0.60394120216369629
0.010351173579692841 0.046126902103424072 0.59890973567962646
0.36856889724731445 0.0078775594010949135 0.6341668963432312
0.7607734203338623 0.0029218187555670738 0.69056695699691772
0.93594253063201904 0.0058930790983140469 0.66275191307067871
1 0.18886680901050568 0.61448961496353149
0.0060617486014962196 0.28712895512580872 0.55034381151199341
0.29732599854469299 0.30064454674720764 0.60682564973831177
0.71628886461257935 0.33816736936569214 0.66358113288879395
0.90665894746780396 0.35190907120704651 0.64913457632064819
0.99816066026687622 0.41676065325737 0.60751926898956299
0.0010963889071717858 0.6232793927192688 0.61417293548583984
0.24094152450561523 0.62090587615966797 0.61712479591369629
0.62084841728210449 0.61920547485351562 0.62605398893356323
0.84519141912460327 0.62006610631942749 0.60548776388168335
0.99220019578933716 0.62282043695449829 0.5791206955909729
0.31816890835762024 0.80624914169311523 0.65130174160003662
0.44742217659950256 0.79141271114349365 0.64637339115142822
0.56858068704605103 0.75110828876495361 0.62019801139831543
0.76874810457229614 0.76250982284545898 0.59696382284164429
0.97187089920043945 0.77027648687362671 0.54311603307723999
0.52600550651550293 0.94047552347183228 0.71727126836776733
0.559032142162323 0.93485039472579956 0.7090146541595459
0.6443365216255188 0.91807085275650024 0.71497040987014771
0.76841467618942261 0.91830551624298096 0.72255045175552368
0.93666213750839233 0.9490165114402771 0.70096278190612793
0.25324574112892151 0.12614363431930542 0.81115603446960449
0.47005507349967957 0.099163219332695007 0.82561403512954712
0.75381374359130859 0.12617149949073792 0.85670095682144165
0.96075332164764404 0.27859127521514893 0.87993389368057251
1 0.35267746448516846 0.84282016754150391
0.14414846897125244 0.32924345135688782 0.7952122688293457
0.40901258587837219 0.34059974551200867 0.80803805589675903
0.72224080562591553 0.41521373391151428 0.84346365928649902
0.93427294492721558 0.48435458540916443 0.86557650566101074
0.99697768688201904 0.50906479358673096 0.84431815147399902
0.005591164343059063 0.56130576133728027 0.74421811103820801
0.23309171199798584 0.56536424160003662 0.74936604499816895
0.61543583869934082 0.61488944292068481 0.798847496509552
0.88724595308303833 0.68534332513809204 0.84576898813247681
0.99552303552627563 0.68065935373306274 0.83843326568603516
0.24811877310276031 0.81130236387252808 0.80805587768554688
0.39964726567268372 0.81029313802719116 0.81251031160354614
0.60759729146957397 0.80802720785140991 0.81114357709884644
0.81332385540008545 0.80684816837310791 0.80840551853179932
0.97956228256225586 0.81173557043075562 0.79843294620513916
0.52984094619750977 0.97597306966781616 0.84561449289321899
0.59244829416275024 0.96737581491470337 0.84592932462692261
0.70447182655334473 0.96017193794250488 0.84821182489395142
0.79981237649917603 0.93461000919342041 0.83228987455368042
0.94524991512298584 0.94874423742294312 0.82635033130645752
0.52234721183776855 0.37856230139732361 0.97439175844192505
0.60016828775405884 0.388445645570755 0.97772902250289917
0.75001615285873413 0.41418397426605225 0.98022603988647461
0.92317026853561401 0.49247586727142334 0.9846726655960083
0.99985533952713013 0.5457758903503418 0.98629099130630493
0.50094348192214966 0.49872899055480957 0.96524703502655029
0.58390432596206665 0.50498420000076294 0.9683830738067627
0.74002176523208618 0.53646671772003174 0.97294342517852783
0.91503322124481201 0.5914883017539978 0.98309636116027832
0.9988592267036438 0.62756520509719849 0.98403555154800415
0.42643868923187256 0.64859676361083984 0.9499509334564209
0.51871794462203979 0.65340793132781982 0.95253962278366089
0.69461816549301147 0.67368566989898682 0.96170139312744141
0.88617688417434692 0.719463050365448 0.97389763593673706
0.99688059091567993 0.75428754091262817 0.98070818185806274
0.32792028784751892 0.79633027315139771 0.94280350208282471
0.41354316473007202 0.79076850414276123 0.93887978792190552
0.57753592729568481 0.78376227617263794 0.93969500064849854
0.81772154569625854 0.81908822059631348 0.95978277921676636
0.99049985408782959 0.8718796968460083 0.97497862577438354
0.47427418828010559 0.96925801038742065 0.96986186504364014
0.53442925214767456 0.97268623113632202 0.96811807155609131
0.66662299633026123 0.96861475706100464 0.97184717655181885
0.8200688362121582 0.96643310785293579 0.9690747857093811
0.97381061315536499 0.97582834959030151 0.97242790460586548
