luts/negative_new/kodak_portra_400_-.cube
# Created by: G'MIC (https://gmic.eu)
TITLE "kodak_portra_400_-"
# LUT size
LUT_3D_SIZE 7
# Data domain
DOMAIN_MIN 0.0 0.0 0.0
DOMAIN_MAX 1.0 1.0 1.0
# LUT data points
0.0214360561221838 0.022272447124123573 0.024908745661377907
0.15790043771266937 0.021116204559803009 0.018674932420253754
0.39805698394775391 0.0071234460920095444 0.0090307500213384628
0.63567346334457397 0.00044718722347170115 0.0015995249850675464
0.81420260667800903 0.0024755140766501427 0.00060966343153268099
0.94015908241271973 0.025258172303438187 0
0.99764120578765869 0.16255153715610504 0.0011903650593012571
0.0034329134505242109 0.13414779305458069 0.041172537952661514
0.12652921676635742 0.14970092475414276 0.021936334669589996
0.39598539471626282 0.17251984775066376 0.0083747711032629013
0.62875878810882568 0.16518020629882812 0.0019006617367267609
0.80572432279586792 0.17199072241783142 0.0013685488374903798
0.92309039831161499 0.21277157962322235 0.0017241982277482748
0.99867308139801025 0.27504336833953857 0.00012655819591600448
0.0020149380434304476 0.32128441333770752 0.074235863983631134
0.031649243086576462 0.31352218985557556 0.082969024777412415
0.31806552410125732 0.36321428418159485 0.01379050500690937
0.59535974264144897 0.39266029000282288 0.0027873169165104628
0.76889258623123169 0.38910844922065735 0.0037455239798873663
0.89555412530899048 0.40465047955513 0.0043005403131246567
0.9935002326965332 0.41965237259864807 0.00093029247364029288
0.0013587801950052381 0.48717692494392395 0.16008269786834717
0.0070266425609588623 0.47159460186958313 0.17530164122581482
0.23415221273899078 0.49200201034545898 0.13500088453292847
0.49236378073692322 0.53130394220352173 0.045332964509725571
0.7095874547958374 0.55212068557739258 0.0069998200051486492
0.85659307241439819 0.55567800998687744 0.0063795051537454128
0.97637569904327393 0.55544513463973999 0.0011386347468942404
0.0030221228953450918 0.61915147304534912 0.25648468732833862
0.010324127040803432 0.60665643215179443 0.26619893312454224
0.2188696414232254 0.59350365400314331 0.27347597479820251
0.42232409119606018 0.62046831846237183 0.23965403437614441
0.63424420356750488 0.65181362628936768 0.15418927371501923
0.82095271348953247 0.67886066436767578 0.037158697843551636
0.96262842416763306 0.6883704662322998 0.004008603747934103
0.11582235991954803 0.73625439405441284 0.38186332583427429
0.19940830767154694 0.72968083620071411 0.38961264491081238
0.32654488086700439 0.71432781219482422 0.39622312784194946
0.4503115713596344 0.72001403570175171 0.3915332555770874
0.60241353511810303 0.74390798807144165 0.36233946681022644
0.76812410354614258 0.77442443370819092 0.3126385509967804
0.93501883745193481 0.80418366193771362 0.23230385780334473
0.43181401491165161 0.88254266977310181 0.56930571794509888
0.45917180180549622 0.87621235847473145 0.57005929946899414
0.51601099967956543 0.86836498975753784 0.58069276809692383
0.58928322792053223 0.86550962924957275 0.59706741571426392
0.67528903484344482 0.88312810659408569 0.58813732862472534
0.78262126445770264 0.90790295600891113 0.56846272945404053
0.91509002447128296 0.92925196886062622 0.52427393198013306
0.017048479989171028 0.029995817691087723 0.16601528227329254
0.18924495577812195 0.0094127431511878967 0.18829116225242615
0.4211026132106781 0.0053646164014935493 0.18793469667434692
0.6544376015663147 0.0013623555423691869 0.16641603410243988
0.82336550951004028 0.0014798631891608238 0.15302373468875885
0.9385496973991394 0.034227393567562103 0.13517819344997406
0.99842798709869385 0.1773020327091217 0.10707206279039383
0.0020590838976204395 0.18057133257389069 0.183473140001297
0.16370086371898651 0.18092174828052521 0.18549643456935883
0.42007049918174744 0.16575881838798523 0.17404642701148987
0.64935684204101562 0.16007676720619202 0.15243637561798096
0.81067538261413574 0.17732171714305878 0.13046477735042572
0.92563813924789429 0.2336450070142746 0.11400537192821503
0.99956929683685303 0.28437888622283936 0.086129762232303619
0.0046764747239649296 0.3838314414024353 0.22569935023784637
0.10364151000976562 0.37212947010993958 0.22548238933086395
0.35979929566383362 0.38068500161170959 0.1948939710855484
0.61139816045761108 0.39889770746231079 0.11530691385269165
0.77919286489486694 0.39303776621818542 0.073177829384803772
0.90336757898330688 0.40309217572212219 0.057802416384220123
0.99666589498519897 0.425435870885849 0.037557445466518402
0.0028957889880985022 0.53022998571395874 0.26647070050239563
0.048385843634605408 0.51546502113342285 0.2727205753326416
0.28670653700828552 0.50978368520736694 0.26722609996795654
0.50995028018951416 0.5389677882194519 0.21845972537994385
0.72400736808776855 0.55959922075271606 0.12376611679792404
0.86760842800140381 0.55411291122436523 0.024892305955290794
0.98581749200820923 0.55836981534957886 0.0063672382384538651
0.0061839683912694454 0.64025473594665527 0.33165371417999268
0.079776614904403687 0.62799352407455444 0.33109390735626221
0.27894386649131775 0.60699999332427979 0.3459247350692749
0.45223900675773621 0.6262555718421936 0.32319164276123047
0.65398985147476196 0.65907764434814453 0.26484104990959167
0.822151780128479 0.67970377206802368 0.18999479711055756
0.96592921018600464 0.68941217660903931 0.055338721722364426
0.17573945224285126 0.74615919589996338 0.42365023493766785
0.25028887391090393 0.73853904008865356 0.42900851368904114
0.36485019326210022 0.72303205728530884 0.44041246175765991
0.46939197182655334 0.72204208374023438 0.4359000027179718
0.6108626127243042 0.74827438592910767 0.41749140620231628
0.7702147364616394 0.77612489461898804 0.37682312726974487
0.93710160255432129 0.80468267202377319 0.31306174397468567
0.43723919987678528 0.88605707883834839 0.58204251527786255
0.46403831243515015 0.88039302825927734 0.5851365327835083
0.52286595106124878 0.87495088577270508 0.59587055444717407
0.59117370843887329 0.86652672290802002 0.60996431112289429
0.67476177215576172 0.88004171848297119 0.60121357440948486
0.78468722105026245 0.90576720237731934 0.58686399459838867
0.91941773891448975 0.93105340003967285 0.55601072311401367
0.01423149835318327 0.033080022782087326 0.40750995278358459
0.20142176747322083 0.013879334554076195 0.42962643504142761
0.48793107271194458 0.0030983719043433666 0.46426931023597717
0.67905020713806152 0.0022590337321162224 0.45492067933082581
0.82951527833938599 0.0053095947951078415 0.42795589566230774
0.94378751516342163 0.029151512309908867 0.39327985048294067
0.99963575601577759 0.23473247885704041 0.39531001448631287
0.0042468053288757801 0.19360293447971344 0.38542810082435608
0.15921159088611603 0.19844193756580353 0.41682559251785278
0.47220081090927124 0.18964792788028717 0.45196598768234253
0.67141664028167725 0.16811832785606384 0.44600766897201538
0.81623411178588867 0.19526922702789307 0.41893449425697327
0.92616391181945801 0.27001383900642395 0.40536829829216003
0.99909329414367676 0.33941841125488281 0.39554083347320557
0.00025384940090589225 0.42901891469955444 0.42496731877326965
0.08116631954908371 0.43202841281890869 0.43218466639518738
0.41774111986160278 0.42402768135070801 0.43619468808174133
0.6255033016204834 0.426687091588974 0.42302298545837402
0.77647346258163452 0.42560714483261108 0.39239871501922607
0.89749348163604736 0.44006839394569397 0.38201293349266052
0.99156796932220459 0.45954069495201111 0.36798718571662903
0.034704741090536118 0.60200494527816772 0.46006989479064941
0.21674457192420959 0.59152257442474365 0.45976352691650391
0.3850645124912262 0.55784547328948975 0.44608435034751892
0.55381166934967041 0.56300044059753418 0.42303058505058289
0.73182433843612671 0.56652319431304932 0.38479822874069214
0.86676281690597534 0.56754171848297119 0.34321433305740356
0.98055684566497803 0.57221764326095581 0.31844255328178406
0.23513497412204742 0.68162733316421509 0.48160624504089355
0.27986469864845276 0.6730341911315918 0.47027423977851868
0.37453469634056091 0.64838701486587524 0.46548870205879211
0.49648299813270569 0.64007949829101562 0.4553585946559906
0.66414570808410645 0.66786539554595947 0.43355670571327209
0.8245387077331543 0.6823577880859375 0.38540405035018921
0.96374285221099854 0.68655025959014893 0.31464239954948425
0.28778758645057678 0.77105700969696045 0.51375722885131836
0.32734650373458862 0.76274186372756958 0.50817859172821045
0.4060799777507782 0.74373108148574829 0.50882953405380249
0.496477872133255 0.72964507341384888 0.50998067855834961
0.61713248491287231 0.74797791242599487 0.49780610203742981
0.77767515182495117 0.78119689226150513 0.48098477721214294
0.93787485361099243 0.80542296171188354 0.44370296597480774
0.43702241778373718 0.89334392547607422 0.61036014556884766
0.46675172448158264 0.89126133918762207 0.61581200361251831
0.52365171909332275 0.88519948720932007 0.62501591444015503
0.59605604410171509 0.87385988235473633 0.6374778151512146
0.67777842283248901 0.88108146190643311 0.63830912113189697
0.78862881660461426 0.9080500602722168 0.62757092714309692
0.91794389486312866 0.9301334023475647 0.59830009937286377
0.010284453630447388 0.046262450516223907 0.59492510557174683
0.20822066068649292 0.02794647216796875 0.60831362009048462
0.51255255937576294 0.0087483720853924751 0.64636611938476562
0.73240208625793457 0.0057412539608776569 0.66883212327957153
0.83585470914840698 0.017614806070923805 0.64128702878952026
0.94195067882537842 0.12670466303825378 0.62406659126281738
0.99754148721694946 0.25046172738075256 0.60300832986831665
0.0075144749134778976 0.215489462018013 0.56947237253189087
0.19664870202541351 0.21535752713680267 0.59711581468582153
0.49963995814323425 0.22207148373126984 0.63147509098052979
0.70831382274627686 0.2430264949798584 0.65143543481826782
0.82060474157333374 0.25460547208786011 0.63628792762756348
0.9259803295135498 0.30468428134918213 0.61579799652099609
0.99693852663040161 0.35439679026603699 0.59861916303634644
0.0012144200736656785 0.40114790201187134 0.54941093921661377
0.13559278845787048 0.40819171071052551 0.56480056047439575
0.4316985011100769 0.4360848069190979 0.59569752216339111
0.65961569547653198 0.46461001038551331 0.62938553094863892
0.78636199235916138 0.46222120523452759 0.61801028251647949
0.90197932720184326 0.47098687291145325 0.6093137264251709
0.99095660448074341 0.4856707751750946 0.59426760673522949
0.0037926319055259228 0.61179113388061523 0.60340589284896851
0.15984760224819183 0.60660833120346069 0.60324001312255859
0.41463300585746765 0.60657882690429688 0.60580688714981079
0.60067355632781982 0.60163456201553345 0.60487514734268188
0.74362772703170776 0.59210318326950073 0.58592408895492554
0.86455690860748291 0.58986747264862061 0.5764840841293335
0.97516560554504395 0.60051554441452026 0.57202690839767456
0.24180881679058075 0.73513203859329224 0.62602716684341431
0.3398401141166687 0.72473698854446411 0.62414419651031494
0.47006446123123169 0.70854002237319946 0.62079977989196777
0.56609559059143066 0.67942565679550171 0.60006463527679443
0.68205195665359497 0.68480813503265381 0.58532750606536865
0.83412390947341919 0.69638830423355103 0.56041222810745239
0.96074610948562622 0.69712656736373901 0.51935333013534546
0.40853169560432434 0.80844026803970337 0.64036411046981812
0.43755915760993958 0.80339103937149048 0.63927984237670898
0.48250815272331238 0.785999596118927 0.61939322948455811
0.54776906967163086 0.75923091173171997 0.60553622245788574
0.64375966787338257 0.75458455085754395 0.60038143396377563
0.77945005893707275 0.78311169147491455 0.59158629179000854
0.94227021932601929 0.81246322393417358 0.57119977474212646
0.48227900266647339 0.91204273700714111 0.67838746309280396
0.4948517382144928 0.91387730836868286 0.67881017923355103
0.5269770622253418 0.90431904792785645 0.67021876573562622
0.60089528560638428 0.89272838830947876 0.67853885889053345
0.68457597494125366 0.88466084003448486 0.68544167280197144
0.78678059577941895 0.90194123983383179 0.67535686492919922
0.92248189449310303 0.93199729919433594 0.66067290306091309
0.11573637276887894 0.1071457639336586 0.72351205348968506
0.29797986149787903 0.10075951367616653 0.73155355453491211
0.51769775152206421 0.097985662519931793 0.75179481506347656
0.73049652576446533 0.13620635867118835 0.78061038255691528
0.87086945772171021 0.21160133183002472 0.79259622097015381
0.9456789493560791 0.25867238640785217 0.7697073221206665
0.99587380886077881 0.32543462514877319 0.76091384887695312
0.11769380420446396 0.24983537197113037 0.71638518571853638
0.2861936092376709 0.26021382212638855 0.7202039361000061
0.50959533452987671 0.27146342396736145 0.7408793568611145
0.71663802862167358 0.32101732492446899 0.77094548940658569
0.855094313621521 0.36164423823356628 0.78544723987579346
0.93841439485549927 0.38753131031990051 0.77090984582901001
0.99276334047317505 0.40420573949813843 0.7629198431968689
0.067133300006389618 0.41149494051933289 0.6844753623008728
0.24750310182571411 0.42245453596115112 0.69377726316452026
0.45886385440826416 0.4407808780670166 0.71213936805725098
0.67349320650100708 0.48124268651008606 0.74852418899536133
0.81490409374237061 0.5176662802696228 0.76612627506256104
0.91490477323532104 0.52377098798751831 0.76050651073455811
0.99335885047912598 0.52193576097488403 0.75757092237472534
0.0093077411875128746 0.55681425333023071 0.67141848802566528
0.18645331263542175 0.55642205476760864 0.67081797122955322
0.39278873801231384 0.56386822462081909 0.67894583940505981
0.60407692193984985 0.59837567806243896 0.71322286128997803
0.77918511629104614 0.63592922687530518 0.74956768751144409
0.88495135307312012 0.6326633095741272 0.74070185422897339
0.97953283786773682 0.62738984823226929 0.73519641160964966
0.21405522525310516 0.7209160327911377 0.71855783462524414
0.31183344125747681 0.71926546096801758 0.7195049524307251
0.44191080331802368 0.71900618076324463 0.71829402446746826
0.58521807193756104 0.71778053045272827 0.71716552972793579
0.72847694158554077 0.72321796417236328 0.72569441795349121
0.85743081569671631 0.72504621744155884 0.71051514148712158
0.97245365381240845 0.71935576200485229 0.70270860195159912
0.36667564511299133 0.85314488410949707 0.75623422861099243
0.41195666790008545 0.84977954626083374 0.75294584035873413
0.51188874244689941 0.84033375978469849 0.74631446599960327
0.61134791374206543 0.82235783338546753 0.73485052585601807
0.68598973751068115 0.78920376300811768 0.71367764472961426
0.80843114852905273 0.7955595850944519 0.70036721229553223
0.95539605617523193 0.81153184175491333 0.68092286586761475
0.47689464688301086 0.94489157199859619 0.77713978290557861
0.50525122880935669 0.94342041015625 0.77414965629577637
0.57043683528900146 0.93698161840438843 0.76711034774780273
0.62587392330169678 0.92349624633789062 0.75357037782669067
0.69327020645141602 0.90754580497741699 0.74667567014694214
0.79421508312225342 0.90732276439666748 0.74610608816146851
0.92941516637802124 0.93712228536605835 0.73877519369125366
0.32650271058082581 0.22837541997432709 0.83448833227157593
0.42508131265640259 0.2246919721364975 0.84236651659011841
0.56429862976074219 0.23313882946968079 0.85187345743179321
0.71630275249481201 0.27194291353225708 0.86535549163818359
0.86457353830337524 0.34962013363838196 0.88539856672286987
0.97067832946777344 0.39219576120376587 0.89182543754577637
0.99620324373245239 0.41022863984107971 0.88848036527633667
0.31350144743919373 0.3310716450214386 0.82721042633056641
0.41140651702880859 0.32461750507354736 0.83268135786056519
0.5581548810005188 0.3433384895324707 0.84680265188217163
0.70304650068283081 0.38094884157180786 0.85999143123626709
0.8535534143447876 0.43870958685874939 0.88407671451568604
0.96219491958618164 0.46710780262947083 0.8886457085609436
0.99415332078933716 0.4795110821723938 0.88455688953399658
0.2776147723197937 0.44734707474708557 0.80819302797317505
0.3624054491519928 0.45296600461006165 0.81128168106079102
0.51482325792312622 0.46882814168930054 0.82396483421325684
0.67910009622573853 0.50880807638168335 0.84785205125808716
0.82827126979827881 0.56069648265838623 0.87382668256759644
0.94008439779281616 0.58092039823532104 0.88206511735916138
0.99138277769088745 0.57334905862808228 0.87814688682556152
0.11739840358495712 0.55670922994613647 0.76670235395431519
0.26085501909255981 0.56322038173675537 0.77716535329818726
0.42896085977554321 0.57344514131546021 0.7885022759437561
0.61796891689300537 0.60429143905639648 0.81880491971969604
0.78636640310287476 0.65251302719116211 0.85788267850875854
0.91182875633239746 0.67606163024902344 0.87297731637954712
0.98905748128890991 0.66729259490966797 0.8691636323928833
0.15787383913993835 0.68384605646133423 0.78395789861679077
0.25950971245765686 0.68832743167877197 0.79065275192260742
0.38243162631988525 0.68270367383956909 0.78367871046066284
0.52652382850646973 0.67899984121322632 0.78327590227127075
0.71601790189743042 0.7182496190071106 0.82012546062469482
0.8934440016746521 0.76287698745727539 0.86664152145385742
0.97956430912017822 0.75458836555480957 0.85634148120880127
0.31079018115997314 0.83594965934753418 0.83491021394729614
0.36068382859230042 0.8381456732749939 0.83366590738296509
0.45975622534751892 0.83778947591781616 0.83422070741653442
0.57937437295913696 0.83668249845504761 0.83596384525299072
0.70119500160217285 0.82712775468826294 0.83152228593826294
0.84657996892929077 0.84038132429122925 0.84080219268798828
0.97083115577697754 0.84033203125 0.82812404632568359
0.41531151533126831 0.96642923355102539 0.87003350257873535
0.45125454664230347 0.96591639518737793 0.86463421583175659
0.52603399753570557 0.96751302480697632 0.86686891317367554
0.6300283670425415 0.95687192678451538 0.86838138103485107
0.73579210042953491 0.95337921380996704 0.86121958494186401
0.818340003490448 0.9266706109046936 0.84267061948776245
0.9373849630355835 0.94301265478134155 0.83924216032028198
0.51041662693023682 0.38702696561813354 0.95249456167221069
0.55222666263580322 0.3940870463848114 0.95316195487976074
0.63741689920425415 0.40230366587638855 0.95781570672988892
0.74062448740005493 0.42222428321838379 0.96215522289276123
0.85420292615890503 0.4547390341758728 0.96860724687576294
0.97099059820175171 0.50139784812927246 0.98132866621017456
1 0.52228903770446777 0.97974205017089844
0.49701645970344543 0.45060569047927856 0.9456794261932373
0.54448693990707397 0.45712968707084656 0.95108723640441895
0.62764722108840942 0.46134516596794128 0.95440101623535156
0.73196661472320557 0.47993484139442444 0.95762312412261963
0.84611994028091431 0.51189553737640381 0.96920835971832275
0.96284043788909912 0.54687756299972534 0.97545903921127319
0.99723833799362183 0.56399500370025635 0.97767901420593262
0.47069153189659119 0.53694140911102295 0.94096845388412476
0.51656877994537354 0.54113948345184326 0.93913668394088745
0.60732728242874146 0.55264401435852051 0.94632375240325928
0.71089655160903931 0.56561428308486938 0.95405721664428711
0.82465195655822754 0.59081786870956421 0.96252983808517456
0.94797831773757935 0.61908286809921265 0.97038108110427856
0.99582463502883911 0.62939965724945068 0.97284328937530518
0.40447220206260681 0.63015735149383545 0.9243779182434082
0.4499894380569458 0.62680602073669434 0.92606574296951294
0.54095888137817383 0.62658965587615967 0.93518000841140747
0.66956079006195068 0.64266735315322876 0.94669508934020996
0.79171937704086304 0.66693282127380371 0.95524340867996216
0.92817550897598267 0.69923543930053711 0.96627604961395264
0.99314343929290771 0.71072936058044434 0.97051000595092773
0.28538593649864197 0.71704477071762085 0.90853816270828247
0.33184784650802612 0.71468096971511841 0.90998363494873047
0.43505403399467468 0.71068942546844482 0.91244995594024658
0.57662391662597656 0.7131085991859436 0.92342400550842285
0.74080497026443481 0.73582541942596436 0.94646435976028442
0.89969503879547119 0.77504622936248779 0.96572816371917725
0.99367362260818481 0.79784303903579712 0.97139835357666016
0.30602049827575684 0.83275163173675537 0.93370449542999268
0.34695196151733398 0.83070659637451172 0.93169277906417847
0.42696216702461243 0.82728791236877441 0.93095862865447998
0.52772915363311768 0.81816256046295166 0.92439168691635132
0.64659500122070312 0.807270348072052 0.92277288436889648
0.83661675453186035 0.83871608972549438 0.9486544132232666
0.98470014333724976 0.88586747646331787 0.97034573554992676
0.34445783495903015 0.95819669961929321 0.95788520574569702
0.38900044560432434 0.96075141429901123 0.9595341682434082
0.46924018859863281 0.95886290073394775 0.95911133289337158
0.58086544275283813 0.96057403087615967 0.95994102954864502
0.70794254541397095 0.96036648750305176 0.96254152059555054
0.83615976572036743 0.95786160230636597 0.96074068546295166
0.9669613242149353 0.96893036365509033 0.96588444709777832
