luts/negative_new/kodak_tmax_3200_++.cube
# Created by: G'MIC (https://gmic.eu)
TITLE "kodak_tmax_3200_++"
# LUT size
LUT_3D_SIZE 5
# Data domain
DOMAIN_MIN 0.0 0.0 0.0
DOMAIN_MAX 1.0 1.0 1.0
# LUT data points
0.29365694522857666 0.29365694522857666 0.29365694522857666
0.29268857836723328 0.29268857836723328 0.29268857836723328
0.30380582809448242 0.30380582809448242 0.30380582809448242
0.31959089636802673 0.31959089636802673 0.31959089636802673
0.38038325309753418 0.38038325309753418 0.38038325309753418
0.31669139862060547 0.31669139862060547 0.31669139862060547
0.32511842250823975 0.32511842250823975 0.32511842250823975
0.36360317468643188 0.36360317468643188 0.36360317468643188
0.39273303747177124 0.39273303747177124 0.39273303747177124
0.46941414475440979 0.46941414475440979 0.46941414475440979
0.40476140379905701 0.40476140379905701 0.40476140379905701
0.41292983293533325 0.41292983293533325 0.41292983293533325
0.47111886739730835 0.47111886739730835 0.47111886739730835
0.5601956844329834 0.5601956844329834 0.5601956844329834
0.70297354459762573 0.70297354459762573 0.70297354459762573
0.62013828754425049 0.62013828754425049 0.62013828754425049
0.62503629922866821 0.62503629922866821 0.62503629922866821
0.66887575387954712 0.66887575387954712 0.66887575387954712
0.73694092035293579 0.73694092035293579 0.73694092035293579
0.84944069385528564 0.84944069385528564 0.84944069385528564
0.88167357444763184 0.88167357444763184 0.88167357444763184
0.87705790996551514 0.87705790996551514 0.87705790996551514
0.89821887016296387 0.89821887016296387 0.89821887016296387
0.91369909048080444 0.91369909048080444 0.91369909048080444
0.94040638208389282 0.94040638208389282 0.94040638208389282
0.28491947054862976 0.28491947054862976 0.28491947054862976
0.30086418986320496 0.30086418986320496 0.30086418986320496
0.32011181116104126 0.32011181116104126 0.32011181116104126
0.33234331011772156 0.33234331011772156 0.33234331011772156
0.38562580943107605 0.38562580943107605 0.38562580943107605
0.32016971707344055 0.32016971707344055 0.32016971707344055
0.33567976951599121 0.33567976951599121 0.33567976951599121
0.37031856179237366 0.37031856179237366 0.37031856179237366
0.40403535962104797 0.40403535962104797 0.40403535962104797
0.48383650183677673 0.48383650183677673 0.48383650183677673
0.4419194757938385 0.4419194757938385 0.4419194757938385
0.45232227444648743 0.45232227444648743 0.45232227444648743
0.4883439838886261 0.4883439838886261 0.4883439838886261
0.58439689874649048 0.58439689874649048 0.58439689874649048
0.70387512445449829 0.70387512445449829 0.70387512445449829
0.67209410667419434 0.67209410667419434 0.67209410667419434
0.67263221740722656 0.67263221740722656 0.67263221740722656
0.6898643970489502 0.6898643970489502 0.6898643970489502
0.74110764265060425 0.74110764265060425 0.74110764265060425
0.85258620977401733 0.85258620977401733 0.85258620977401733
0.89699345827102661 0.89699345827102661 0.89699345827102661
0.89179039001464844 0.89179039001464844 0.89179039001464844
0.90386950969696045 0.90386950969696045 0.90386950969696045
0.92377066612243652 0.92377066612243652 0.92377066612243652
0.94806843996047974 0.94806843996047974 0.94806843996047974
0.28728505969047546 0.28728505969047546 0.28728505969047546
0.31353870034217834 0.31353870034217834 0.31353870034217834
0.34738290309906006 0.34738290309906006 0.34738290309906006
0.35855719447135925 0.35855719447135925 0.35855719447135925
0.39820238947868347 0.39820238947868347 0.39820238947868347
0.32347568869590759 0.32347568869590759 0.32347568869590759
0.34592658281326294 0.34592658281326294 0.34592658281326294
0.38965627551078796 0.38965627551078796 0.38965627551078796
0.41223454475402832 0.41223454475402832 0.41223454475402832
0.46863692998886108 0.46863692998886108 0.46863692998886108
0.4443143904209137 0.4443143904209137 0.4443143904209137
0.47479328513145447 0.47479328513145447 0.47479328513145447
0.53424268960952759 0.53424268960952759 0.53424268960952759
0.59711676836013794 0.59711676836013794 0.59711676836013794
0.66506689786911011 0.66506689786911011 0.66506689786911011
0.7002379298210144 0.7002379298210144 0.7002379298210144
0.72202086448669434 0.72202086448669434 0.72202086448669434
0.74777805805206299 0.74777805805206299 0.74777805805206299
0.79567289352416992 0.79567289352416992 0.79567289352416992
0.86301153898239136 0.86301153898239136 0.86301153898239136
0.91204893589019775 0.91204893589019775 0.91204893589019775
0.90707886219024658 0.90707886219024658 0.90707886219024658
0.92288357019424438 0.92288357019424438 0.92288357019424438
0.93591552972793579 0.93591552972793579 0.93591552972793579
0.95136970281600952 0.95136970281600952 0.95136970281600952
0.30735388398170471 0.30735388398170471 0.30735388398170471
0.32598996162414551 0.32598996162414551 0.32598996162414551
0.37102752923965454 0.37102752923965454 0.37102752923965454
0.43052035570144653 0.43052035570144653 0.43052035570144653
0.43894109129905701 0.43894109129905701 0.43894109129905701
0.36207002401351929 0.36207002401351929 0.36207002401351929
0.37365758419036865 0.37365758419036865 0.37365758419036865
0.43586379289627075 0.43586379289627075 0.43586379289627075
0.51076400279998779 0.51076400279998779 0.51076400279998779
0.51467859745025635 0.51467859745025635 0.51467859745025635
0.43615520000457764 0.43615520000457764 0.43615520000457764
0.47186201810836792 0.47186201810836792 0.47186201810836792
0.58193600177764893 0.58193600177764893 0.58193600177764893
0.64861935377120972 0.64861935377120972 0.64861935377120972
0.66845542192459106 0.66845542192459106 0.66845542192459106
0.6760551929473877 0.6760551929473877 0.6760551929473877
0.68880897760391235 0.68880897760391235 0.68880897760391235
0.75313490629196167 0.75313490629196167 0.75313490629196167
0.82248079776763916 0.82248079776763916 0.82248079776763916
0.87223517894744873 0.87223517894744873 0.87223517894744873
0.9139893651008606 0.9139893651008606 0.9139893651008606
0.91483461856842041 0.91483461856842041 0.91483461856842041
0.932220458984375 0.932220458984375 0.932220458984375
0.94439530372619629 0.94439530372619629 0.94439530372619629
0.96288561820983887 0.96288561820983887 0.96288561820983887
0.35022634267807007 0.35022634267807007 0.35022634267807007
0.37120974063873291 0.37120974063873291 0.37120974063873291
0.44121620059013367 0.44121620059013367 0.44121620059013367
0.5892149806022644 0.5892149806022644 0.5892149806022644
0.68674761056900024 0.68674761056900024 0.68674761056900024
0.40676754713058472 0.40676754713058472 0.40676754713058472
0.42156293988227844 0.42156293988227844 0.42156293988227844
0.49634185433387756 0.49634185433387756 0.49634185433387756
0.65390020608901978 0.65390020608901978 0.65390020608901978
0.74220377206802368 0.74220377206802368 0.74220377206802368
0.5001673698425293 0.5001673698425293 0.5001673698425293
0.54223060607910156 0.54223060607910156 0.54223060607910156
0.63994991779327393 0.63994991779327393 0.63994991779327393
0.76081132888793945 0.76081132888793945 0.76081132888793945
0.79867714643478394 0.79867714643478394 0.79867714643478394
0.61937302350997925 0.61937302350997925 0.61937302350997925
0.62626338005065918 0.62626338005065918 0.62626338005065918
0.71867495775222778 0.71867495775222778 0.71867495775222778
0.84794801473617554 0.84794801473617554 0.84794801473617554
0.89279723167419434 0.89279723167419434 0.89279723167419434
0.90462207794189453 0.90462207794189453 0.90462207794189453
0.90742629766464233 0.90742629766464233 0.90742629766464233
0.92749869823455811 0.92749869823455811 0.92749869823455811
0.93440538644790649 0.93440538644790649 0.93440538644790649
0.95977210998535156 0.95977210998535156 0.95977210998535156
