luts/negative_new/kodak_tri-x_400_alt.cube
# Created by: G'MIC (https://gmic.eu)
TITLE "kodak_tri-x_400_alt"
# LUT size
LUT_3D_SIZE 13
# Data domain
DOMAIN_MIN 0.0 0.0 0.0
DOMAIN_MAX 1.0 1.0 1.0
# LUT data points
0.0098708653822541237 0.0098708653822541237 0.0098708653822541237
0.0075702294707298279 0.0075702294707298279 0.0075702294707298279
0.0088077764958143234 0.0088077764958143234 0.0088077764958143234
0.014361407607793808 0.014361407607793808 0.014361407607793808
0.025395127013325691 0.025395127013325691 0.025395127013325691
0.043271981179714203 0.043271981179714203 0.043271981179714203
0.068253412842750549 0.068253412842750549 0.068253412842750549
0.10390150547027588 0.10390150547027588 0.10390150547027588
0.14451642334461212 0.14451642334461212 0.14451642334461212
0.1873481422662735 0.1873481422662735 0.1873481422662735
0.23930786550045013 0.23930786550045013 0.23930786550045013
0.30496761202812195 0.30496761202812195 0.30496761202812195
0.37347704172134399 0.37347704172134399 0.37347704172134399
0.030981669202446938 0.030981669202446938 0.030981669202446938
0.034337796270847321 0.034337796270847321 0.034337796270847321
0.041913934051990509 0.041913934051990509 0.041913934051990509
0.053711101412773132 0.053711101412773132 0.053711101412773132
0.069978766143321991 0.069978766143321991 0.069978766143321991
0.091959170997142792 0.091959170997142792 0.091959170997142792
0.1209557056427002 0.1209557056427002 0.1209557056427002
0.15711390972137451 0.15711390972137451 0.15711390972137451
0.19429460167884827 0.19429460167884827 0.19429460167884827
0.23398759961128235 0.23398759961128235 0.23398759961128235
0.28188344836235046 0.28188344836235046 0.28188344836235046
0.33957633376121521 0.33957633376121521 0.33957633376121521
0.40047463774681091 0.40047463774681091 0.40047463774681091
0.060755215585231781 0.060755215585231781 0.060755215585231781
0.070141889154911041 0.070141889154911041 0.070141889154911041
0.083748839795589447 0.083748839795589447 0.083748839795589447
0.099815651774406433 0.099815651774406433 0.099815651774406433
0.11922429502010345 0.11922429502010345 0.11922429502010345
0.1432146281003952 0.1432146281003952 0.1432146281003952
0.17205142974853516 0.17205142974853516 0.17205142974853516
0.20517699420452118 0.20517699420452118 0.20517699420452118
0.24025295674800873 0.24025295674800873 0.24025295674800873
0.2782796323299408 0.2782796323299408 0.2782796323299408
0.32230877876281738 0.32230877876281738 0.32230877876281738
0.37274295091629028 0.37274295091629028 0.37274295091629028
0.42616277933120728 0.42616277933120728 0.42616277933120728
0.11231642961502075 0.11231642961502075 0.11231642961502075
0.12171947956085205 0.12171947956085205 0.12171947956085205
0.13632532954216003 0.13632532954216003 0.13632532954216003
0.15351496636867523 0.15351496636867523 0.15351496636867523
0.17302455008029938 0.17302455008029938 0.17302455008029938
0.19593819975852966 0.19593819975852966 0.19593819975852966
0.22266389429569244 0.22266389429569244 0.22266389429569244
0.25270336866378784 0.25270336866378784 0.25270336866378784
0.28521844744682312 0.28521844744682312 0.28521844744682312
0.32073462009429932 0.32073462009429932 0.32073462009429932
0.36052647233009338 0.36052647233009338 0.36052647233009338
0.40512418746948242 0.40512418746948242 0.40512418746948242
0.45240628719329834 0.45240628719329834 0.45240628719329834
0.18289412558078766 0.18289412558078766 0.18289412558078766
0.1882961094379425 0.1882961094379425 0.1882961094379425
0.19919565320014954 0.19919565320014954 0.19919565320014954
0.21330642700195312 0.21330642700195312 0.21330642700195312
0.23071268200874329 0.23071268200874329 0.23071268200874329
0.25097131729125977 0.25097131729125977 0.25097131729125977
0.27463975548744202 0.27463975548744202 0.27463975548744202
0.30106130242347717 0.30106130242347717 0.30106130242347717
0.33028453588485718 0.33028453588485718 0.33028453588485718
0.36255133152008057 0.36255133152008057 0.36255133152008057
0.39862731099128723 0.39862731099128723 0.39862731099128723
0.43795400857925415 0.43795400857925415 0.43795400857925415
0.48065087199211121 0.48065087199211121 0.48065087199211121
0.26047995686531067 0.26047995686531067 0.26047995686531067
0.2625090479850769 0.2625090479850769 0.2625090479850769
0.2682059109210968 0.2682059109210968 0.2682059109210968
0.2777407169342041 0.2777407169342041 0.2777407169342041
0.29115360975265503 0.29115360975265503 0.29115360975265503
0.30765405297279358 0.30765405297279358 0.30765405297279358
0.32780876755714417 0.32780876755714417 0.32780876755714417
0.35096591711044312 0.35096591711044312 0.35096591711044312
0.37667599320411682 0.37667599320411682 0.37667599320411682
0.40549668669700623 0.40549668669700623 0.40549668669700623
0.43742090463638306 0.43742090463638306 0.43742090463638306
0.47303557395935059 0.47303557395935059 0.47303557395935059
0.51162195205688477 0.51162195205688477 0.51162195205688477
0.33956065773963928 0.33956065773963928 0.33956065773963928
0.33763241767883301 0.33763241767883301 0.33763241767883301
0.33865830302238464 0.33865830302238464 0.33865830302238464
0.34388527274131775 0.34388527274131775 0.34388527274131775
0.35311645269393921 0.35311645269393921 0.35311645269393921
0.36630070209503174 0.36630070209503174 0.36630070209503174
0.38321816921234131 0.38321816921234131 0.38321816921234131
0.40234643220901489 0.40234643220901489 0.40234643220901489
0.42504584789276123 0.42504584789276123 0.42504584789276123
0.45036822557449341 0.45036822557449341 0.45036822557449341
0.47891110181808472 0.47891110181808472 0.47891110181808472
0.51092863082885742 0.51092863082885742 0.51092863082885742
0.54604566097259521 0.54604566097259521 0.54604566097259521
0.41268429160118103 0.41268429160118103 0.41268429160118103
0.40879970788955688 0.40879970788955688 0.40879970788955688
0.40709444880485535 0.40709444880485535 0.40709444880485535
0.40921145677566528 0.40921145677566528 0.40921145677566528
0.41551396250724792 0.41551396250724792 0.41551396250724792
0.42558059096336365 0.42558059096336365 0.42558059096336365
0.4390256404876709 0.4390256404876709 0.4390256404876709
0.45578542351722717 0.45578542351722717 0.45578542351722717
0.47524139285087585 0.47524139285087585 0.47524139285087585
0.4976542592048645 0.4976542592048645 0.4976542592048645
0.52329546213150024 0.52329546213150024 0.52329546213150024
0.55219227075576782 0.55219227075576782 0.55219227075576782
0.58449083566665649 0.58449083566665649 0.58449083566665649
0.47930687665939331 0.47930687665939331 0.47930687665939331
0.47505003213882446 0.47505003213882446 0.47505003213882446
0.4724399745464325 0.4724399745464325 0.4724399745464325
0.47299781441688538 0.47299781441688538 0.47299781441688538
0.47731238603591919 0.47731238603591919 0.47731238603591919
0.48506805300712585 0.48506805300712585 0.48506805300712585
0.49609309434890747 0.49609309434890747 0.49609309434890747
0.51022833585739136 0.51022833585739136 0.51022833585739136
0.52722114324569702 0.52722114324569702 0.52722114324569702
0.5472220778465271 0.5472220778465271 0.5472220778465271
0.5702892541885376 0.5702892541885376 0.5702892541885376
0.5965576171875 0.5965576171875 0.5965576171875
0.62614977359771729 0.62614977359771729 0.62614977359771729
0.54343080520629883 0.54343080520629883 0.54343080520629883
0.53890585899353027 0.53890585899353027 0.53890585899353027
0.53581720590591431 0.53581720590591431 0.53581720590591431
0.53562146425247192 0.53562146425247192 0.53562146425247192
0.53876006603240967 0.53876006603240967 0.53876006603240967
0.54502421617507935 0.54502421617507935 0.54502421617507935
0.55419552326202393 0.55419552326202393 0.55419552326202393
0.56626021862030029 0.56626021862030029 0.56626021862030029
0.58115196228027344 0.58115196228027344 0.58115196228027344
0.5988275408744812 0.5988275408744812 0.5988275408744812
0.61963635683059692 0.61963635683059692 0.61963635683059692
0.64363563060760498 0.64363563060760498 0.64363563060760498
0.67071646451950073 0.67071646451950073 0.67071646451950073
0.60757434368133545 0.60757434368133545 0.60757434368133545
0.60254961252212524 0.60254961252212524 0.60254961252212524
0.59905493259429932 0.59905493259429932 0.59905493259429932
0.59815084934234619 0.59815084934234619 0.59815084934234619
0.60026872158050537 0.60026872158050537 0.60026872158050537
0.60534858703613281 0.60534858703613281 0.60534858703613281
0.61312073469161987 0.61312073469161987 0.61312073469161987
0.62355315685272217 0.62355315685272217 0.62355315685272217
0.63637983798980713 0.63637983798980713 0.63637983798980713
0.65224939584732056 0.65224939584732056 0.65224939584732056
0.67099946737289429 0.67099946737289429 0.67099946737289429
0.69285768270492554 0.69285768270492554 0.69285768270492554
0.71800017356872559 0.71800017356872559 0.71800017356872559
0.67280304431915283 0.67280304431915283 0.67280304431915283
0.66713869571685791 0.66713869571685791 0.66713869571685791
0.66285574436187744 0.66285574436187744 0.66285574436187744
0.66126930713653564 0.66126930713653564 0.66126930713653564
0.66245132684707642 0.66245132684707642 0.66245132684707642
0.66635626554489136 0.66635626554489136 0.66635626554489136
0.67265975475311279 0.67265975475311279 0.67265975475311279
0.68151569366455078 0.68151569366455078 0.68151569366455078
0.69288963079452515 0.69288963079452515 0.69288963079452515
0.70709890127182007 0.70709890127182007 0.70709890127182007
0.72412979602813721 0.72412979602813721 0.72412979602813721
0.74425363540649414 0.74425363540649414 0.74425363540649414
0.76749396324157715 0.76749396324157715 0.76749396324157715
0.73818498849868774 0.73818498849868774 0.73818498849868774
0.73215067386627197 0.73215067386627197 0.73215067386627197
0.72727227210998535 0.72727227210998535 0.72727227210998535
0.72478669881820679 0.72478669881820679 0.72478669881820679
0.72501260042190552 0.72501260042190552 0.72501260042190552
0.72778952121734619 0.72778952121734619 0.72778952121734619
0.73295968770980835 0.73295968770980835 0.73295968770980835
0.74037283658981323 0.74037283658981323 0.74037283658981323
0.75050562620162964 0.75050562620162964 0.75050562620162964
0.76333087682723999 0.76333087682723999 0.76333087682723999
0.77897971868515015 0.77897971868515015 0.77897971868515015
0.79746794700622559 0.79746794700622559 0.79746794700622559
0.81908464431762695 0.81908464431762695 0.81908464431762695
0.017823044210672379 0.017823044210672379 0.017823044210672379
0.020148258656263351 0.020148258656263351 0.020148258656263351
0.027158280834555626 0.027158280834555626 0.027158280834555626
0.039454739540815353 0.039454739540815353 0.039454739540815353
0.057447679340839386 0.057447679340839386 0.057447679340839386
0.081923209130764008 0.081923209130764008 0.081923209130764008
0.11404158920049667 0.11404158920049667 0.11404158920049667
0.15343448519706726 0.15343448519706726 0.15343448519706726
0.19117136299610138 0.19117136299610138 0.19117136299610138
0.22948010265827179 0.22948010265827179 0.22948010265827179
0.27642029523849487 0.27642029523849487 0.27642029523849487
0.33352002501487732 0.33352002501487732 0.33352002501487732
0.39417481422424316 0.39417481422424316 0.39417481422424316
0.04718056321144104 0.04718056321144104 0.04718056321144104
0.053228609263896942 0.053228609263896942 0.053228609263896942
0.064487695693969727 0.064487695693969727 0.064487695693969727
0.080618493258953094 0.080618493258953094 0.080618493258953094
0.10169798880815506 0.10169798880815506 0.10169798880815506
0.12838305532932281 0.12838305532932281 0.12838305532932281
0.16172978281974792 0.16172978281974792 0.16172978281974792
0.19980327785015106 0.19980327785015106 0.19980327785015106
0.23536065220832825 0.23536065220832825 0.23536065220832825
0.27122610807418823 0.27122610807418823 0.27122610807418823
0.31434068083763123 0.31434068083763123 0.31434068083763123
0.36595010757446289 0.36595010757446289 0.36595010757446289
0.42090576887130737 0.42090576887130737 0.42090576887130737
0.084756933152675629 0.084756933152675629 0.084756933152675629
0.093772843480110168 0.093772843480110168 0.093772843480110168
0.10860203951597214 0.10860203951597214 0.10860203951597214
0.1273491382598877 0.1273491382598877 0.1273491382598877
0.14974755048751831 0.14974755048751831 0.14974755048751831
0.17659410834312439 0.17659410834312439 0.17659410834312439
0.20776475965976715 0.20776475965976715 0.20776475965976715
0.24164725840091705 0.24164725840091705 0.24164725840091705
0.27549293637275696 0.27549293637275696 0.27549293637275696
0.31062796711921692 0.31062796711921692 0.31062796711921692
0.3504050076007843 0.3504050076007843 0.3504050076007843
0.39628976583480835 0.39628976583480835 0.39628976583480835
0.44539877772331238 0.44539877772331238 0.44539877772331238
0.13835091888904572 0.13835091888904572 0.13835091888904572
0.14718480408191681 0.14718480408191681 0.14718480408191681
0.16193421185016632 0.16193421185016632 0.16193421185016632
0.18008340895175934 0.18008340895175934 0.18008340895175934
0.20142357051372528 0.20142357051372528 0.20142357051372528
0.22611358761787415 0.22611358761787415 0.22611358761787415
0.25402259826660156 0.25402259826660156 0.25402259826660156
0.28384962677955627 0.28384962677955627 0.28384962677955627
0.31507077813148499 0.31507077813148499 0.31507077813148499
0.34785500168800354 0.34785500168800354 0.34785500168800354
0.38452231884002686 0.38452231884002686 0.38452231884002686
0.42543324828147888 0.42543324828147888 0.42543324828147888
0.46959573030471802 0.46959573030471802 0.46959573030471802
0.20581521093845367 0.20581521093845367 0.20581521093845367
0.21206556260585785 0.21206556260585785 0.21206556260585785
0.22352398931980133 0.22352398931980133 0.22352398931980133
0.23851592838764191 0.23851592838764191 0.23851592838764191
0.2564903199672699 0.2564903199672699 0.2564903199672699
0.27791982889175415 0.27791982889175415 0.27791982889175415
0.30183538794517517 0.30183538794517517 0.30183538794517517
0.32788804173469543 0.32788804173469543 0.32788804173469543
0.35561695694923401 0.35561695694923401 0.35561695694923401
0.38559946417808533 0.38559946417808533 0.38559946417808533
0.41840317845344543 0.41840317845344543 0.41840317845344543
0.4551118016242981 0.4551118016242981 0.4551118016242981
0.49519628286361694 0.49519628286361694 0.49519628286361694
0.27997773885726929 0.27997773885726929 0.27997773885726929
0.28317883610725403 0.28317883610725403 0.28317883610725403
0.29009523987770081 0.29009523987770081 0.29009523987770081
0.3004995584487915 0.3004995584487915 0.3004995584487915
0.31454908847808838 0.31454908847808838 0.31454908847808838
0.33182096481323242 0.33182096481323242 0.33182096481323242
0.35180145502090454 0.35180145502090454 0.35180145502090454
0.37400525808334351 0.37400525808334351 0.37400525808334351
0.39836680889129639 0.39836680889129639 0.39836680889129639
0.42496195435523987 0.42496195435523987 0.42496195435523987
0.45436125993728638 0.45436125993728638 0.45436125993728638
0.48736736178398132 0.48736736178398132 0.48736736178398132
0.52387261390686035 0.52387261390686035 0.52387261390686035
0.35506793856620789 0.35506793856620789 0.35506793856620789
0.35466557741165161 0.35466557741165161 0.35466557741165161
0.35735020041465759 0.35735020041465759 0.35735020041465759
0.36359319090843201 0.36359319090843201 0.36359319090843201
0.37369143962860107 0.37369143962860107 0.37369143962860107
0.3871103823184967 0.3871103823184967 0.3871103823184967
0.4034779965877533 0.4034779965877533 0.4034779965877533
0.42235755920410156 0.42235755920410156 0.42235755920410156
0.44343855977058411 0.44343855977058411 0.44343855977058411
0.46708154678344727 0.46708154678344727 0.46708154678344727
0.4934934675693512 0.4934934675693512 0.4934934675693512
0.52330714464187622 0.52330714464187622 0.52330714464187622
0.55678641796112061 0.55678641796112061 0.55678641796112061
0.4248833954334259 0.4248833954334259 0.4248833954334259
0.42274552583694458 0.42274552583694458 0.42274552583694458
0.42244753241539001 0.42244753241539001 0.42244753241539001
0.42589181661605835 0.42589181661605835 0.42589181661605835
0.43271598219871521 0.43271598219871521 0.43271598219871521
0.44345781207084656 0.44345781207084656 0.44345781207084656
0.45678505301475525 0.45678505301475525 0.45678505301475525
0.4727032482624054 0.4727032482624054 0.4727032482624054
0.49107140302658081 0.49107140302658081 0.49107140302658081
0.5120387077331543 0.5120387077331543 0.5120387077331543
0.5357825756072998 0.5357825756072998 0.5357825756072998
0.56306278705596924 0.56306278705596924 0.56306278705596924
0.59384089708328247 0.59384089708328247 0.59384089708328247
0.48964318633079529 0.48964318633079529 0.48964318633079529
0.48610794544219971 0.48610794544219971 0.48610794544219971
0.48459386825561523 0.48459386825561523 0.48459386825561523
0.48650458455085754 0.48650458455085754 0.48650458455085754
0.49192598462104797 0.49192598462104797 0.49192598462104797
0.50022768974304199 0.50022768974304199 0.50022768974304199
0.51144778728485107 0.51144778728485107 0.51144778728485107
0.5249859094619751 0.5249859094619751 0.5249859094619751
0.54115128517150879 0.54115128517150879 0.54115128517150879
0.55980712175369263 0.55980712175369263 0.55980712175369263
0.58133423328399658 0.58133423328399658 0.58133423328399658
0.60627967119216919 0.60627967119216919 0.60627967119216919
0.63459241390228271 0.63459241390228271 0.63459241390228271
0.55146843194961548 0.55146843194961548 0.55146843194961548
0.54715555906295776 0.54715555906295776 0.54715555906295776
0.54498541355133057 0.54498541355133057 0.54498541355133057
0.54637759923934937 0.54637759923934937 0.54637759923934937
0.55086034536361694 0.55086034536361694 0.55086034536361694
0.55776733160018921 0.55776733160018921 0.55776733160018921
0.56721484661102295 0.56721484661102295 0.56721484661102295
0.57890886068344116 0.57890886068344116 0.57890886068344116
0.59315919876098633 0.59315919876098633 0.59315919876098633
0.60981637239456177 0.60981637239456177 0.60981637239456177
0.62942409515380859 0.62942409515380859 0.62942409515380859
0.65227007865905762 0.65227007865905762 0.65227007865905762
0.67828285694122314 0.67828285694122314 0.67828285694122314
0.61353892087936401 0.61353892087936401 0.61353892087936401
0.60820525884628296 0.60820525884628296 0.60820525884628296
0.60588598251342773 0.60588598251342773 0.60588598251342773
0.60653448104858398 0.60653448104858398 0.60653448104858398
0.61025452613830566 0.61025452613830566 0.61025452613830566
0.61612743139266968 0.61612743139266968 0.61612743139266968
0.62423539161682129 0.62423539161682129 0.62423539161682129
0.63432633876800537 0.63432633876800537 0.63432633876800537
0.64677149057388306 0.64677149057388306 0.64677149057388306
0.66177946329116821 0.66177946329116821 0.66177946329116821
0.67944693565368652 0.67944693565368652 0.67944693565368652
0.70047843456268311 0.70047843456268311 0.70047843456268311
0.72467142343521118 0.72467142343521118 0.72467142343521118
0.67713415622711182 0.67713415622711182 0.67713415622711182
0.671397864818573 0.671397864818573 0.671397864818573
0.66824424266815186 0.66824424266815186 0.66824424266815186
0.66824334859848022 0.66824334859848022 0.66824334859848022
0.67070364952087402 0.67070364952087402 0.67070364952087402
0.67544496059417725 0.67544496059417725 0.67544496059417725
0.68214291334152222 0.68214291334152222 0.68214291334152222
0.69112902879714966 0.69112902879714966 0.69112902879714966
0.70197224617004395 0.70197224617004395 0.70197224617004395
0.71537679433822632 0.71537679433822632 0.71537679433822632
0.73155707120895386 0.73155707120895386 0.73155707120895386
0.75076037645339966 0.75076037645339966 0.75076037645339966
0.77325773239135742 0.77325773239135742 0.77325773239135742
0.74149048328399658 0.74149048328399658 0.74149048328399658
0.73593413829803467 0.73593413829803467 0.73593413829803467
0.73203122615814209 0.73203122615814209 0.73203122615814209
0.7307971715927124 0.7307971715927124 0.7307971715927124
0.73219770193099976 0.73219770193099976 0.73219770193099976
0.73567461967468262 0.73567461967468262 0.73567461967468262
0.74117213487625122 0.74117213487625122 0.74117213487625122
0.74894624948501587 0.74894624948501587 0.74894624948501587
0.75856697559356689 0.75856697559356689 0.75856697559356689
0.77046918869018555 0.77046918869018555 0.77046918869018555
0.78533858060836792 0.78533858060836792 0.78533858060836792
0.80315804481506348 0.80315804481506348 0.80315804481506348
0.82400423288345337 0.82400423288345337 0.82400423288345337
0.02907828614115715 0.02907828614115715 0.02907828614115715
0.036975562572479248 0.036975562572479248 0.036975562572479248
0.050732467323541641 0.050732467323541641 0.050732467323541641
0.069296754896640778 0.069296754896640778 0.069296754896640778
0.092681035399436951 0.092681035399436951 0.092681035399436951
0.12139056622982025 0.12139056622982025 0.12139056622982025
0.1556490957736969 0.1556490957736969 0.1556490957736969
0.19317418336868286 0.19317418336868286 0.19317418336868286
0.23008923232555389 0.23008923232555389 0.23008923232555389
0.26784530282020569 0.26784530282020569 0.26784530282020569
0.31169235706329346 0.31169235706329346 0.31169235706329346
0.36148145794868469 0.36148145794868469 0.36148145794868469
0.41410639882087708 0.41410639882087708 0.41410639882087708
0.067079924046993256 0.067079924046993256 0.067079924046993256
0.076289050281047821 0.076289050281047821 0.076289050281047821
0.091662764549255371 0.091662764549255371 0.091662764549255371
0.11178752034902573 0.11178752034902573 0.11178752034902573
0.13654319941997528 0.13654319941997528 0.13654319941997528
0.16599911451339722 0.16599911451339722 0.16599911451339722
0.19976677000522614 0.19976677000522614 0.19976677000522614
0.23589864373207092 0.23589864373207092 0.23589864373207092
0.27093410491943359 0.27093410491943359 0.27093410491943359
0.306100994348526 0.306100994348526 0.306100994348526
0.34591102600097656 0.34591102600097656 0.34591102600097656
0.39159822463989258 0.39159822463989258 0.39159822463989258
0.44034066796302795 0.44034066796302795 0.44034066796302795
0.11346800625324249 0.11346800625324249 0.11346800625324249
0.12326750159263611 0.12326750159263611 0.12326750159263611
0.13919791579246521 0.13919791579246521 0.13919791579246521
0.15953108668327332 0.15953108668327332 0.15953108668327332
0.18376398086547852 0.18376398086547852 0.18376398086547852
0.21163852512836456 0.21163852512836456 0.21163852512836456
0.24290761351585388 0.24290761351585388 0.24290761351585388
0.2756730318069458 0.2756730318069458 0.2756730318069458
0.30817136168479919 0.30817136168479919 0.30817136168479919
0.3413124680519104 0.3413124680519104 0.3413124680519104
0.3779354989528656 0.3779354989528656 0.3779354989528656
0.41941019892692566 0.41941019892692566 0.41941019892692566
0.46396690607070923 0.46396690607070923 0.46396690607070923
0.17016902565956116 0.17016902565956116 0.17016902565956116
0.17915342748165131 0.17915342748165131 0.17915342748165131
0.19358453154563904 0.19358453154563904 0.19358453154563904
0.21203508973121643 0.21203508973121643 0.21203508973121643
0.23386445641517639 0.23386445641517639 0.23386445641517639
0.25883215665817261 0.25883215665817261 0.25883215665817261
0.28627899289131165 0.28627899289131165 0.28627899289131165
0.31511414051055908 0.31511414051055908 0.31511414051055908
0.34453538060188293 0.34453538060188293 0.34453538060188293
0.37523174285888672 0.37523174285888672 0.37523174285888672
0.40867280960083008 0.40867280960083008 0.40867280960083008
0.44589054584503174 0.44589054584503174 0.44589054584503174
0.48668470978736877 0.48668470978736877 0.48668470978736877
0.2356930673122406 0.2356930673122406 0.2356930673122406
0.2424275279045105 0.2424275279045105 0.2424275279045105
0.25366783142089844 0.25366783142089844 0.25366783142089844
0.26874521374702454 0.26874521374702454 0.26874521374702454
0.28679534792900085 0.28679534792900085 0.28679534792900085
0.3077690601348877 0.3077690601348877 0.3077690601348877
0.331014484167099 0.331014484167099 0.331014484167099
