luts/negative_new/kodak_tri-x_400_++.cube
# Created by: G'MIC (https://gmic.eu)
TITLE "kodak_tri-x_400_++"
# LUT size
LUT_3D_SIZE 5
# Data domain
DOMAIN_MIN 0.0 0.0 0.0
DOMAIN_MAX 1.0 1.0 1.0
# LUT data points
0.1357308030128479 0.1357308030128479 0.1357308030128479
0.15703901648521423 0.15703901648521423 0.15703901648521423
0.18463294208049774 0.18463294208049774 0.18463294208049774
0.24745167791843414 0.24745167791843414 0.24745167791843414
0.3946625292301178 0.3946625292301178 0.3946625292301178
0.18850228190422058 0.18850228190422058 0.18850228190422058
0.20555658638477325 0.20555658638477325 0.20555658638477325
0.28114503622055054 0.28114503622055054 0.28114503622055054
0.34806877374649048 0.34806877374649048 0.34806877374649048
0.50024533271789551 0.50024533271789551 0.50024533271789551
0.32244610786437988 0.32244610786437988 0.32244610786437988
0.30205211043357849 0.30205211043357849 0.30205211043357849
0.4490199089050293 0.4490199089050293 0.4490199089050293
0.5923997163772583 0.5923997163772583 0.5923997163772583
0.73145461082458496 0.73145461082458496 0.73145461082458496
0.58861982822418213 0.58861982822418213 0.58861982822418213
0.55452966690063477 0.55452966690063477 0.55452966690063477
0.61223328113555908 0.61223328113555908 0.61223328113555908
0.74257725477218628 0.74257725477218628 0.74257725477218628
0.88052058219909668 0.88052058219909668 0.88052058219909668
0.89354658126831055 0.89354658126831055 0.89354658126831055
0.88858425617218018 0.88858425617218018 0.88858425617218018
0.88926500082015991 0.88926500082015991 0.88926500082015991
0.93609732389450073 0.93609732389450073 0.93609732389450073
0.96664232015609741 0.96664232015609741 0.96664232015609741
0.13886094093322754 0.13886094093322754 0.13886094093322754
0.19045703113079071 0.19045703113079071 0.19045703113079071
0.2474798709154129 0.2474798709154129 0.2474798709154129
0.27810266613960266 0.27810266613960266 0.27810266613960266
0.38855871558189392 0.38855871558189392 0.38855871558189392
0.20799146592617035 0.20799146592617035 0.20799146592617035
0.22988422214984894 0.22988422214984894 0.22988422214984894
0.28691789507865906 0.28691789507865906 0.28691789507865906
0.34471249580383301 0.34471249580383301 0.34471249580383301
0.51030594110488892 0.51030594110488892 0.51030594110488892
0.40726527571678162 0.40726527571678162 0.40726527571678162
0.37460759282112122 0.37460759282112122 0.37460759282112122
0.46285364031791687 0.46285364031791687 0.46285364031791687
0.60275095701217651 0.60275095701217651 0.60275095701217651
0.74273157119750977 0.74273157119750977 0.74273157119750977
0.63620626926422119 0.63620626926422119 0.63620626926422119
0.61576217412948608 0.61576217412948608 0.61576217412948608
0.62245267629623413 0.62245267629623413 0.62245267629623413
0.76362675428390503 0.76362675428390503 0.76362675428390503
0.89627659320831299 0.89627659320831299 0.89627659320831299
0.90688151121139526 0.90688151121139526 0.90688151121139526
0.91042172908782959 0.91042172908782959 0.91042172908782959
0.8965141773223877 0.8965141773223877 0.8965141773223877
0.93339431285858154 0.93339431285858154 0.93339431285858154
0.9716336727142334 0.9716336727142334 0.9716336727142334
0.21197324991226196 0.21197324991226196 0.21197324991226196
0.27187666296958923 0.27187666296958923 0.27187666296958923
0.34121641516685486 0.34121641516685486 0.34121641516685486
0.52445214986801147 0.52445214986801147 0.52445214986801147
0.63770186901092529 0.63770186901092529 0.63770186901092529
0.2703186571598053 0.2703186571598053 0.2703186571598053
0.32031559944152832 0.32031559944152832 0.32031559944152832
0.39248830080032349 0.39248830080032349 0.39248830080032349
0.55280941724777222 0.55280941724777222 0.55280941724777222
0.62725180387496948 0.62725180387496948 0.62725180387496948
0.46290862560272217 0.46290862560272217 0.46290862560272217
0.48946201801300049 0.48946201801300049 0.48946201801300049
0.52266836166381836 0.52266836166381836 0.52266836166381836
0.58841723203659058 0.58841723203659058 0.58841723203659058
0.69416540861129761 0.69416540861129761 0.69416540861129761
0.7722238302230835 0.7722238302230835 0.7722238302230835
0.77316641807556152 0.77316641807556152 0.77316641807556152
0.70792031288146973 0.70792031288146973 0.70792031288146973
0.79306870698928833 0.79306870698928833 0.79306870698928833
0.90137970447540283 0.90137970447540283 0.90137970447540283
0.94154995679855347 0.94154995679855347 0.94154995679855347
0.95511913299560547 0.95511913299560547 0.95511913299560547
0.92531174421310425 0.92531174421310425 0.92531174421310425
0.93702316284179688 0.93702316284179688 0.93702316284179688
0.97830057144165039 0.97830057144165039 0.97830057144165039
0.39508292078971863 0.39508292078971863 0.39508292078971863
0.44377735257148743 0.44377735257148743 0.44377735257148743
0.55028879642486572 0.55028879642486572 0.55028879642486572
0.62438946962356567 0.62438946962356567 0.62438946962356567
0.79066336154937744 0.79066336154937744 0.79066336154937744
0.46735665202140808 0.46735665202140808 0.46735665202140808
0.50883632898330688 0.50883632898330688 0.50883632898330688
0.5973857045173645 0.5973857045173645 0.5973857045173645
0.66569024324417114 0.66569024324417114 0.66569024324417114
0.81787478923797607 0.81787478923797607 0.81787478923797607
0.49937495589256287 0.49937495589256287 0.49937495589256287
0.54985189437866211 0.54985189437866211 0.54985189437866211
0.64384299516677856 0.64384299516677856 0.64384299516677856
0.72460639476776123 0.72460639476776123 0.72460639476776123
0.85706764459609985 0.85706764459609985 0.85706764459609985
0.78151816129684448 0.78151816129684448 0.78151816129684448
0.80208766460418701 0.80208766460418701 0.80208766460418701
0.81196075677871704 0.81196075677871704 0.81196075677871704
0.82830631732940674 0.82830631732940674 0.82830631732940674
0.8798518180847168 0.8798518180847168 0.8798518180847168
0.97880685329437256 0.97880685329437256 0.97880685329437256
0.97592771053314209 0.97592771053314209 0.97592771053314209
0.97033476829528809 0.97033476829528809 0.97033476829528809
0.97068768739700317 0.97068768739700317 0.97068768739700317
0.99437576532363892 0.99437576532363892 0.99437576532363892
0.75504404306411743 0.75504404306411743 0.75504404306411743
0.75980609655380249 0.75980609655380249 0.75980609655380249
0.81784188747406006 0.81784188747406006 0.81784188747406006
0.8995019793510437 0.8995019793510437 0.8995019793510437
0.91423827409744263 0.91423827409744263 0.91423827409744263
0.78047239780426025 0.78047239780426025 0.78047239780426025
0.80100953578948975 0.80100953578948975 0.80100953578948975
0.8287053108215332 0.8287053108215332 0.8287053108215332
0.90068650245666504 0.90068650245666504 0.90068650245666504
0.90558826923370361 0.90558826923370361 0.90558826923370361
0.78677290678024292 0.78677290678024292 0.78677290678024292
0.80995208024978638 0.80995208024978638 0.80995208024978638
0.85808628797531128 0.85808628797531128 0.85808628797531128
0.91337460279464722 0.91337460279464722 0.91337460279464722
0.93314379453659058 0.93314379453659058 0.93314379453659058
0.85638809204101562 0.85638809204101562 0.85638809204101562
0.84581446647644043 0.84581446647644043 0.84581446647644043
0.87446761131286621 0.87446761131286621 0.87446761131286621
0.92602205276489258 0.92602205276489258 0.92602205276489258
0.95938903093338013 0.95938903093338013 0.95938903093338013
0.97379899024963379 0.97379899024963379 0.97379899024963379
0.9862326979637146 0.9862326979637146 0.9862326979637146
0.97241437435150146 0.97241437435150146 0.97241437435150146
0.98860037326812744 0.98860037326812744 0.98860037326812744
0.98391044139862061 0.98391044139862061 0.98391044139862061
