luts/negative_new/kodak_tmax_3200_+.cube
# Created by: G'MIC (https://gmic.eu)
TITLE "kodak_tmax_3200_+"
# LUT size
LUT_3D_SIZE 13
# Data domain
DOMAIN_MIN 0.0 0.0 0.0
DOMAIN_MAX 1.0 1.0 1.0
# LUT data points
0.22025369107723236 0.22025369107723236 0.22025369107723236
0.21828190982341766 0.21828190982341766 0.21828190982341766
0.21846175193786621 0.21846175193786621 0.21846175193786621
0.22148445248603821 0.22148445248603821 0.22148445248603821
0.22707180678844452 0.22707180678844452 0.22707180678844452
0.23486083745956421 0.23486083745956421 0.23486083745956421
0.24330002069473267 0.24330002069473267 0.24330002069473267
0.25165265798568726 0.25165265798568726 0.25165265798568726
0.25820460915565491 0.25820460915565491 0.25820460915565491
0.2673085629940033 0.2673085629940033 0.2673085629940033
0.2831481397151947 0.2831481397151947 0.2831481397151947
0.30871188640594482 0.30871188640594482 0.30871188640594482
0.34288963675498962 0.34288963675498962 0.34288963675498962
0.22763645648956299 0.22763645648956299 0.22763645648956299
0.22642526030540466 0.22642526030540466 0.22642526030540466
0.2269430011510849 0.2269430011510849 0.2269430011510849
0.23107965290546417 0.23107965290546417 0.23107965290546417
0.23800079524517059 0.23800079524517059 0.23800079524517059
0.24690867960453033 0.24690867960453033 0.24690867960453033
0.25689426064491272 0.25689426064491272 0.25689426064491272
0.26617294549942017 0.26617294549942017 0.26617294549942017
0.27427035570144653 0.27427035570144653 0.27427035570144653
0.28361278772354126 0.28361278772354126 0.28361278772354126
0.29908257722854614 0.29908257722854614 0.29908257722854614
0.32649418711662292 0.32649418711662292 0.32649418711662292
0.36464610695838928 0.36464610695838928 0.36464610695838928
0.23828618228435516 0.23828618228435516 0.23828618228435516
0.2364884614944458 0.2364884614944458 0.2364884614944458
0.23880782723426819 0.23880782723426819 0.23880782723426819
0.24456892907619476 0.24456892907619476 0.24456892907619476
0.25371962785720825 0.25371962785720825 0.25371962785720825
0.26525428891181946 0.26525428891181946 0.26525428891181946
0.27804392576217651 0.27804392576217651 0.27804392576217651
0.29087436199188232 0.29087436199188232 0.29087436199188232
0.30276381969451904 0.30276381969451904 0.30276381969451904
0.3143259584903717 0.3143259584903717 0.3143259584903717
0.32974967360496521 0.32974967360496521 0.32974967360496521
0.35866531729698181 0.35866531729698181 0.35866531729698181
0.40152376890182495 0.40152376890182495 0.40152376890182495
0.25531062483787537 0.25531062483787537 0.25531062483787537
0.25394096970558167 0.25394096970558167 0.25394096970558167
0.25706589221954346 0.25706589221954346 0.25706589221954346
0.26484709978103638 0.26484709978103638 0.26484709978103638
0.27667853236198425 0.27667853236198425 0.27667853236198425
0.2916620671749115 0.2916620671749115 0.2916620671749115
0.30949538946151733 0.30949538946151733 0.30949538946151733
0.32804542779922485 0.32804542779922485 0.32804542779922485
0.34744584560394287 0.34744584560394287 0.34744584560394287
0.36633497476577759 0.36633497476577759 0.36633497476577759
0.38606065511703491 0.38606065511703491 0.38606065511703491
0.4168953001499176 0.4168953001499176 0.4168953001499176
0.45984047651290894 0.45984047651290894 0.45984047651290894
0.28183472156524658 0.28183472156524658 0.28183472156524658
0.28032559156417847 0.28032559156417847 0.28032559156417847
0.28441688418388367 0.28441688418388367 0.28441688418388367
0.29387691617012024 0.29387691617012024 0.29387691617012024
0.3082328736782074 0.3082328736782074 0.3082328736782074
0.32650342583656311 0.32650342583656311 0.32650342583656311
0.34908145666122437 0.34908145666122437 0.34908145666122437
0.37509998679161072 0.37509998679161072 0.37509998679161072
0.40515387058258057 0.40515387058258057 0.40515387058258057
0.4363616406917572 0.4363616406917572 0.4363616406917572
0.46594414114952087 0.46594414114952087 0.46594414114952087
0.49846011400222778 0.49846011400222778 0.49846011400222778
0.53715956211090088 0.53715956211090088 0.53715956211090088
0.32108807563781738 0.32108807563781738 0.32108807563781738
0.31980451941490173 0.31980451941490173 0.31980451941490173
0.323915034532547 0.323915034532547 0.323915034532547
0.33412528038024902 0.33412528038024902 0.33412528038024902
0.35055184364318848 0.35055184364318848 0.35055184364318848
0.37115710973739624 0.37115710973739624 0.37115710973739624
0.396220862865448 0.396220862865448 0.396220862865448
0.42728877067565918 0.42728877067565918 0.42728877067565918
0.46609583497047424 0.46609583497047424 0.46609583497047424
0.51036602258682251 0.51036602258682251 0.51036602258682251
0.54959064722061157 0.54959064722061157 0.54959064722061157
0.58468496799468994 0.58468496799468994 0.58468496799468994
0.62113291025161743 0.62113291025161743 0.62113291025161743
0.37732890248298645 0.37732890248298645 0.37732890248298645
0.37525695562362671 0.37525695562362671 0.37525695562362671
0.37859058380126953 0.37859058380126953 0.37859058380126953
0.38848549127578735 0.38848549127578735 0.38848549127578735
0.40500670671463013 0.40500670671463013 0.40500670671463013
0.425333172082901 0.425333172082901 0.425333172082901
0.44972434639930725 0.44972434639930725 0.44972434639930725
0.4806428849697113 0.4806428849697113 0.4806428849697113
0.52255386114120483 0.52255386114120483 0.52255386114120483
0.57216519117355347 0.57216519117355347 0.57216519117355347
0.61876249313354492 0.61876249313354492 0.61876249313354492
0.66030991077423096 0.66030991077423096 0.66030991077423096
0.69837784767150879 0.69837784767150879 0.69837784767150879
0.44892099499702454 0.44892099499702454 0.44892099499702454
0.4467189610004425 0.4467189610004425 0.4467189610004425
0.44906109571456909 0.44906109571456909 0.44906109571456909
0.4577084481716156 0.4577084481716156 0.4577084481716156
0.47179698944091797 0.47179698944091797 0.47179698944091797
0.49002331495285034 0.49002331495285034 0.49002331495285034
0.51142627000808716 0.51142627000808716 0.51142627000808716
0.53839308023452759 0.53839308023452759 0.53839308023452759
0.57736533880233765 0.57736533880233765 0.57736533880233765
0.62617051601409912 0.62617051601409912 0.62617051601409912
0.67485529184341431 0.67485529184341431 0.67485529184341431
0.7201569676399231 0.7201569676399231 0.7201569676399231
0.76002013683319092 0.76002013683319092 0.76002013683319092
0.53069019317626953 0.53069019317626953 0.53069019317626953
0.52842694520950317 0.52842694520950317 0.52842694520950317
0.53061443567276001 0.53061443567276001 0.53061443567276001
0.53760266304016113 0.53760266304016113 0.53760266304016113
0.54926955699920654 0.54926955699920654 0.54926955699920654
0.56460732221603394 0.56460732221603394 0.56460732221603394
0.583454430103302 0.583454430103302 0.583454430103302
0.60669052600860596 0.60669052600860596 0.60669052600860596
0.63949596881866455 0.63949596881866455 0.63949596881866455
0.68082857131958008 0.68082857131958008 0.68082857131958008
0.7241595983505249 0.7241595983505249 0.7241595983505249
0.766826331615448 0.766826331615448 0.766826331615448
0.80488353967666626 0.80488353967666626 0.80488353967666626
0.61804252862930298 0.61804252862930298 0.61804252862930298
0.61635744571685791 0.61635744571685791 0.61635744571685791
0.61781066656112671 0.61781066656112671 0.61781066656112671
0.6232837438583374 0.6232837438583374 0.6232837438583374
0.63287872076034546 0.63287872076034546 0.63287872076034546
0.64591729640960693 0.64591729640960693 0.64591729640960693
0.66210293769836426 0.66210293769836426 0.66210293769836426
0.6815221905708313 0.6815221905708313 0.6815221905708313
0.70666182041168213 0.70666182041168213 0.70666182041168213
0.73694062232971191 0.73694062232971191 0.73694062232971191
0.77100223302841187 0.77100223302841187 0.77100223302841187
0.8062363862991333 0.8062363862991333 0.8062363862991333
0.83995085954666138 0.83995085954666138 0.83995085954666138
0.70750659704208374 0.70750659704208374 0.70750659704208374
0.70589643716812134 0.70589643716812134 0.70589643716812134
0.70692920684814453 0.70692920684814453 0.70692920684814453
0.71112167835235596 0.71112167835235596 0.71112167835235596
0.71907514333724976 0.71907514333724976 0.71907514333724976
0.73036009073257446 0.73036009073257446 0.73036009073257446
0.74447280168533325 0.74447280168533325 0.74447280168533325
0.75965875387191772 0.75965875387191772 0.75965875387191772
0.77607476711273193 0.77607476711273193 0.77607476711273193
0.7952122688293457 0.7952122688293457 0.7952122688293457
0.81822240352630615 0.81822240352630615 0.81822240352630615
0.84435033798217773 0.84435033798217773 0.84435033798217773
0.87165790796279907 0.87165790796279907 0.87165790796279907
0.79599678516387939 0.79599678516387939 0.79599678516387939
0.79430103302001953 0.79430103302001953 0.79430103302001953
0.79432117938995361 0.79432117938995361 0.79432117938995361
0.79711979627609253 0.79711979627609253 0.79711979627609253
0.80350804328918457 0.80350804328918457 0.80350804328918457
0.81320315599441528 0.81320315599441528 0.81320315599441528
0.82522010803222656 0.82522010803222656 0.82522010803222656
0.83649057149887085 0.83649057149887085 0.83649057149887085
0.84486103057861328 0.84486103057861328 0.84486103057861328
0.85406851768493652 0.85406851768493652 0.85406851768493652
0.86702054738998413 0.86702054738998413 0.86702054738998413
0.88379406929016113 0.88379406929016113 0.88379406929016113
0.90382659435272217 0.90382659435272217 0.90382659435272217
0.8809695839881897 0.8809695839881897 0.8809695839881897
0.87844455242156982 0.87844455242156982 0.87844455242156982
0.8776584267616272 0.8776584267616272 0.8776584267616272
0.87873584032058716 0.87873584032058716 0.87873584032058716
0.88368099927902222 0.88368099927902222 0.88368099927902222
0.89063161611557007 0.89063161611557007 0.89063161611557007
0.89972394704818726 0.89972394704818726 0.89972394704818726
0.90678185224533081 0.90678185224533081 0.90678185224533081
0.90927684307098389 0.90927684307098389 0.90927684307098389
0.91167598962783813 0.91167598962783813 0.91167598962783813
0.91664588451385498 0.91664588451385498 0.91664588451385498
0.92563092708587646 0.92563092708587646 0.92563092708587646
0.93856674432754517 0.93856674432754517 0.93856674432754517
0.21807421743869781 0.21807421743869781 0.21807421743869781
0.21777388453483582 0.21777388453483582 0.21777388453483582
0.21929164230823517 0.21929164230823517 0.21929164230823517
0.22324101626873016 0.22324101626873016 0.22324101626873016
0.22914429008960724 0.22914429008960724 0.22914429008960724
0.23648039996623993 0.23648039996623993 0.23648039996623993
0.24415412545204163 0.24415412545204163 0.24415412545204163
0.25137436389923096 0.25137436389923096 0.25137436389923096
0.2581503689289093 0.2581503689289093 0.2581503689289093
0.2675015926361084 0.2675015926361084 0.2675015926361084
0.28343141078948975 0.28343141078948975 0.28343141078948975
0.30788946151733398 0.30788946151733398 0.30788946151733398
0.34099036455154419 0.34099036455154419 0.34099036455154419
0.22665785253047943 0.22665785253047943 0.22665785253047943
0.22648599743843079 0.22648599743843079 0.22648599743843079
0.22825896739959717 0.22825896739959717 0.22825896739959717
0.23316118121147156 0.23316118121147156 0.23316118121147156
0.2403731644153595 0.2403731644153595 0.2403731644153595
0.24891386926174164 0.24891386926174164 0.24891386926174164
0.25786933302879333 0.25786933302879333 0.25786933302879333
0.26640155911445618 0.26640155911445618 0.26640155911445618
0.27449119091033936 0.27449119091033936 0.27449119091033936
0.28468614816665649 0.28468614816665649 0.28468614816665649
0.30105394124984741 0.30105394124984741 0.30105394124984741
0.32760655879974365 0.32760655879974365 0.32760655879974365
0.36353969573974609 0.36353969573974609 0.36353969573974609
0.23888002336025238 0.23888002336025238 0.23888002336025238
0.23830437660217285 0.23830437660217285 0.23830437660217285
0.24133582413196564 0.24133582413196564 0.24133582413196564
0.24768738448619843 0.24768738448619843 0.24768738448619843
0.25682571530342102 0.25682571530342102 0.25682571530342102
0.26787909865379333 0.26787909865379333 0.26787909865379333
0.27971789240837097 0.27971789240837097 0.27971789240837097
0.29171288013458252 0.29171288013458252 0.29171288013458252
0.30375418066978455 0.30375418066978455 0.30375418066978455
0.31681311130523682 0.31681311130523682 0.31681311130523682
0.3350517749786377 0.3350517749786377 0.3350517749786377
0.36352306604385376 0.36352306604385376 0.36352306604385376
0.40240541100502014 0.40240541100502014 0.40240541100502014
0.25760403275489807 0.25760403275489807 0.25760403275489807
0.25705423951148987 0.25705423951148987 0.25705423951148987
0.26121243834495544 0.26121243834495544 0.26121243834495544
0.26928183436393738 0.26928183436393738 0.26928183436393738
0.28100526332855225 0.28100526332855225 0.28100526332855225
0.29552218317985535 0.29552218317985535 0.29552218317985535
0.31180843710899353 0.31180843710899353 0.31180843710899353
0.32978814840316772 0.32978814840316772 0.32978814840316772
0.34881854057312012 0.34881854057312012 0.34881854057312012
0.36886906623840332 0.36886906623840332 0.36886906623840332
0.39185920357704163 0.39185920357704163 0.39185920357704163
0.42283958196640015 0.42283958196640015 0.42283958196640015
0.46239820122718811 0.46239820122718811 0.46239820122718811
0.28633195161819458 0.28633195161819458 0.28633195161819458
0.28573253750801086 0.28573253750801086 0.28573253750801086
0.29063421487808228 0.29063421487808228 0.29063421487808228
0.30041474103927612 0.30041474103927612 0.30041474103927612
0.31460347771644592 0.31460347771644592 0.31460347771644592
0.33254417777061462 0.33254417777061462 0.33254417777061462
0.35376286506652832 0.35376286506652832 0.35376286506652832
0.37861436605453491 0.37861436605453491 0.37861436605453491
0.40711727738380432 0.40711727738380432 0.40711727738380432
0.43765905499458313 0.43765905499458313 0.43765905499458313
0.4686526358127594 0.4686526358127594 0.4686526358127594
0.50271058082580566 0.50271058082580566 0.50271058082580566
0.54071313142776489 0.54071313142776489 0.54071313142776489
0.32830032706260681 0.32830032706260681 0.32830032706260681
0.32761159539222717 0.32761159539222717 0.32761159539222717
0.33262920379638672 0.33262920379638672 0.33262920379638672
0.34321391582489014 0.34321391582489014 0.34321391582489014
0.35889139771461487 0.35889139771461487 0.35889139771461487
0.37883439660072327 0.37883439660072327 0.37883439660072327
0.40307265520095825 0.40307265520095825 0.40307265520095825
0.43296131491661072 0.43296131491661072 0.43296131491661072
0.46969231963157654 0.46969231963157654 0.46969231963157654
0.51067155599594116 0.51067155599594116 0.51067155599594116
0.55099350214004517 0.55099350214004517 0.55099350214004517
0.58935850858688354 0.58935850858688354 0.58935850858688354
0.62758088111877441 0.62758088111877441 0.62758088111877441
0.38589990139007568 0.38589990139007568 0.38589990139007568
0.38497668504714966 0.38497668504714966 0.38497668504714966
0.38917768001556396 0.38917768001556396 0.38917768001556396
0.39923521876335144 0.39923521876335144 0.39923521876335144
0.41469663381576538 0.41469663381576538 0.41469663381576538
0.43425413966178894 0.43425413966178894 0.43425413966178894
0.45815137028694153 0.45815137028694153 0.45815137028694153
0.48835703730583191 0.48835703730583191 0.48835703730583191
0.52805346250534058 0.52805346250534058 0.52805346250534058
0.57514578104019165 0.57514578104019165 0.57514578104019165
0.62242871522903442 0.62242871522903442 0.62242871522903442
0.66780847311019897 0.66780847311019897 0.66780847311019897
0.70944726467132568 0.70944726467132568 0.70944726467132568
0.45774966478347778 0.45774966478347778 0.45774966478347778
0.45633167028427124 0.45633167028427124 0.45633167028427124
0.45995989441871643 0.45995989441871643 0.45995989441871643
0.46841666102409363 0.46841666102409363 0.46841666102409363
0.48186323046684265 0.48186323046684265 0.48186323046684265
0.49896743893623352 0.49896743893623352 0.49896743893623352
0.51986831426620483 0.51986831426620483 0.51986831426620483
0.54649114608764648 0.54649114608764648 0.54649114608764648
0.58385413885116577 0.58385413885116577 0.58385413885116577
0.6305127739906311 0.6305127739906311 0.6305127739906311
0.67998403310775757 0.67998403310775757 0.67998403310775757
0.72879821062088013 0.72879821062088013 0.72879821062088013
0.77304577827453613 0.77304577827453613 0.77304577827453613
0.53939801454544067 0.53939801454544067 0.53939801454544067
0.53802621364593506 0.53802621364593506 0.53802621364593506
0.54059553146362305 0.54059553146362305 0.54059553146362305
0.54733729362487793 0.54733729362487793 0.54733729362487793
0.55806833505630493 0.55806833505630493 0.55806833505630493
0.57230961322784424 0.57230961322784424 0.57230961322784424
0.58954215049743652 0.58954215049743652 0.58954215049743652
0.61211371421813965 0.61211371421813965 0.61211371421813965
0.64305740594863892 0.64305740594863892 0.64305740594863892
0.68257439136505127 0.68257439136505127 0.68257439136505127
0.72696757316589355 0.72696757316589355 0.72696757316589355
0.77299755811691284 0.77299755811691284 0.77299755811691284
0.81488692760467529 0.81488692760467529 0.81488692760467529
0.62608790397644043 0.62608790397644043 0.62608790397644043
0.62483501434326172 0.62483501434326172 0.62483501434326172
0.62647855281829834 0.62647855281829834 0.62647855281829834
0.63154047727584839 0.63154047727584839 0.63154047727584839
0.63996607065200806 0.63996607065200806 0.63996607065200806
0.65140193700790405 0.65140193700790405 0.65140193700790405
0.66575890779495239 0.66575890779495239 0.66575890779495239
0.68334466218948364 0.68334466218948364 0.68334466218948364
0.70631015300750732 0.70631015300750732 0.70631015300750732
0.73559045791625977 0.73559045791625977 0.73559045791625977
0.77020442485809326 0.77020442485809326 0.77020442485809326
0.80882054567337036 0.80882054567337036 0.80882054567337036
0.84590983390808105 0.84590983390808105 0.84590983390808105
0.7139962911605835 0.7139962911605835 0.7139962911605835
0.71250057220458984 0.71250057220458984 0.71250057220458984
0.71354585886001587 0.71354585886001587 0.71354585886001587
0.71705371141433716 0.71705371141433716 0.71705371141433716
0.72363948822021484 0.72363948822021484 0.72363948822021484
0.73319953680038452 0.73319953680038452 0.73319953680038452
0.74477750062942505 0.74477750062942505 0.74477750062942505
0.7576177716255188 0.7576177716255188 0.7576177716255188
0.77247792482376099 0.77247792482376099 0.77247792482376099
0.79133391380310059 0.79133391380310059 0.79133391380310059
0.81549245119094849 0.81549245119094849 0.81549245119094849
0.84447741508483887 0.84447741508483887 0.84447741508483887
0.8744921088218689 0.8744921088218689 0.8744921088218689
0.80002200603485107 0.80002200603485107 0.80002200603485107
0.79881924390792847 0.79881924390792847 0.79881924390792847
0.79863977432250977 0.79863977432250977 0.79863977432250977
0.80079120397567749 0.80079120397567749 0.80079120397567749
0.80592882633209229 0.80592882633209229 0.80592882633209229
0.81346714496612549 0.81346714496612549 0.81346714496612549
0.82271933555603027 0.82271933555603027 0.82271933555603027
0.83140707015991211 0.83140707015991211 0.83140707015991211
0.83930236101150513 0.83930236101150513 0.83930236101150513
0.84887582063674927 0.84887582063674927 0.84887582063674927
0.86311155557632446 0.86311155557632446 0.86311155557632446
0.88267379999160767 0.88267379999160767 0.88267379999160767
0.90475863218307495 0.90475863218307495 0.90475863218307495
0.88240164518356323 0.88240164518356323 0.88240164518356323
0.8805774450302124 0.8805774450302124 0.8805774450302124
0.87904059886932373 0.87904059886932373 0.87904059886932373
0.88016611337661743 0.88016611337661743 0.88016611337661743
0.88378298282623291 0.88378298282623291 0.88378298282623291
0.88912606239318848 0.88912606239318848 0.88912606239318848
0.89528828859329224 0.89528828859329224 0.89528828859329224
0.90022367238998413 0.90022367238998413 0.90022367238998413
0.9029306173324585 0.9029306173324585 0.9029306173324585
0.90586334466934204 0.90586334466934204 0.90586334466934204
0.91237390041351318 0.91237390041351318 0.91237390041351318
0.9234321117401123 0.9234321117401123 0.9234321117401123
0.93805700540542603 0.93805700540542603 0.93805700540542603
0.21740712225437164 0.21740712225437164 0.21740712225437164
0.21892933547496796 0.21892933547496796 0.21892933547496796
0.22201476991176605 0.22201476991176605 0.22201476991176605
0.22702467441558838 0.22702467441558838 0.22702467441558838
0.23349115252494812 0.23349115252494812 0.23349115252494812
0.24053613841533661 0.24053613841533661 0.24053613841533661
0.24728532135486603 0.24728532135486603 0.24728532135486603
0.25356554985046387 0.25356554985046387 0.25356554985046387
0.26067033410072327 0.26067033410072327 0.26067033410072327
0.27074804902076721 0.27074804902076721 0.27074804902076721
0.28692066669464111 0.28692066669464111 0.28692066669464111
0.31055411696434021 0.31055411696434021 0.31055411696434021
0.34111303091049194 0.34111303091049194 0.34111303091049194
0.22769610583782196 0.22769610583782196 0.22769610583782196
0.2287621796131134 0.2287621796131134 0.2287621796131134
0.23226438462734222 0.23226438462734222 0.23226438462734222
0.23820632696151733 0.23820632696151733 0.23820632696151733
0.2453770786523819 0.2453770786523819 0.2453770786523819
0.25355640053749084 0.25355640053749084 0.25355640053749084
0.26144587993621826 0.26144587993621826 0.26144587993621826
0.26895195245742798 0.26895195245742798 0.26895195245742798
0.27715253829956055 0.27715253829956055 0.27715253829956055
0.28842854499816895 0.28842854499816895 0.28842854499816895
0.30578306317329407 0.30578306317329407 0.30578306317329407
0.33127537369728088 0.33127537369728088 0.33127537369728088
0.36433041095733643 0.36433041095733643 0.36433041095733643
0.24201203882694244 0.24201203882694244 0.24201203882694244
0.24307067692279816 0.24307067692279816 0.24307067692279816
0.2471126914024353 0.2471126914024353 0.2471126914024353
0.25411826372146606 0.25411826372146606 0.25411826372146606
0.26329058408737183 0.26329058408737183 0.26329058408737183
0.27363765239715576 0.27363765239715576 0.27363765239715576
0.28430753946304321 0.28430753946304321 0.28430753946304321
0.29510322213172913 0.29510322213172913 0.29510322213172913
0.30667826533317566 0.30667826533317566 0.30667826533317566
0.3210178017616272 0.3210178017616272 0.3210178017616272
0.34079593420028687 0.34079593420028687 0.34079593420028687
0.36849391460418701 0.36849391460418701 0.36849391460418701
0.40384551882743835 0.40384551882743835 0.40384551882743835
0.26338186860084534 0.26338186860084534 0.26338186860084534
0.26439601182937622 0.26439601182937622 0.26439601182937622
0.26939874887466431 0.26939874887466431 0.26939874887466431
0.27801179885864258 0.27801179885864258 0.27801179885864258
0.289682537317276 0.289682537317276 0.289682537317276
0.30327436327934265 0.30327436327934265 0.30327436327934265
0.31814932823181152 0.31814932823181152 0.31814932823181152
0.3343975841999054 0.3343975841999054 0.3343975841999054
0.35221385955810547 0.35221385955810547 0.35221385955810547
0.37258481979370117 0.37258481979370117 0.37258481979370117
0.39675489068031311 0.39675489068031311 0.39675489068031311
0.42682474851608276 0.42682474851608276 0.42682474851608276
0.46286523342132568 0.46286523342132568 0.46286523342132568
0.2950650155544281 0.2950650155544281 0.2950650155544281
0.29600545763969421 0.29600545763969421 0.29600545763969421
0.30182063579559326 0.30182063579559326 0.30182063579559326
0.31202268600463867 0.31202268600463867 0.31202268600463867
0.32619580626487732 0.32619580626487732 0.32619580626487732
0.34311684966087341 0.34311684966087341 0.34311684966087341
0.36300340294837952 0.36300340294837952 0.36300340294837952
0.38596698641777039 0.38596698641777039 0.38596698641777039
0.41194450855255127 0.41194450855255127 0.41194450855255127
