luts/negative_new/kodak_portra_400.cube
# Created by: G'MIC (https://gmic.eu)
TITLE "kodak_portra_400"
# LUT size
LUT_3D_SIZE 13
# Data domain
DOMAIN_MIN 0.0 0.0 0.0
DOMAIN_MAX 1.0 1.0 1.0
# LUT data points
0.028550285845994949 0.036040645092725754 0.035365428775548935
0.070555023849010468 0.037105977535247803 0.034077975898981094
0.14938101172447205 0.034317344427108765 0.033913511782884598
0.25378915667533875 0.024430593475699425 0.028910020366311073
0.37413901090621948 0.013312949799001217 0.021655034273862839
0.49919554591178894 0.013729529455304146 0.011799441650509834
0.62135756015777588 0.0053300447762012482 0.0081985173746943474
0.73287910223007202 0.0038711996749043465 0.0032223421148955822
0.83053606748580933 0.0069123213179409504 0.0012514301342889667
0.90965002775192261 0.018603559583425522 0.0004414427385199815
0.97330331802368164 0.067435413599014282 0.0010585112031549215
0.99863559007644653 0.14436380565166473 0.0022471409756690264
1 0.20488640666007996 0.0014130386989563704
0.020456366240978241 0.076697900891304016 0.044566884636878967
0.066508784890174866 0.082755006849765778 0.041989464312791824
0.14804485440254211 0.085821174085140228 0.033334501087665558
0.25470694899559021 0.083273716270923615 0.022228151559829712
0.37902745604515076 0.066642165184020996 0.012128538452088833
0.50177782773971558 0.049471236765384674 0.0067827263846993446
0.62617015838623047 0.037072408944368362 0.0028750102501362562
0.73686891794204712 0.039992596954107285 0.00078750308603048325
0.83447301387786865 0.05349547415971756 0.0022741728462278843
0.90814441442489624 0.097455121576786041 0.0010888492688536644
0.96845173835754395 0.1555778980255127 0.00088711909484118223
0.99770253896713257 0.20723749697208405 0.0014173769159242511
1 0.24977925419807434 0.0011088801547884941
0.0075990264303982258 0.13094277679920197 0.052035853266716003
0.047151453793048859 0.1364109218120575 0.049162950366735458
0.12615817785263062 0.14431069791316986 0.036618057638406754
0.24116179347038269 0.16028310358524323 0.019052661955356598
0.374482661485672 0.16725626587867737 0.01087290421128273
0.50168895721435547 0.1649901419878006 0.0081220734864473343
0.6240619421005249 0.16588637232780457 0.0029860553331673145
0.73297667503356934 0.1751551479101181 0.00065244786674156785
0.82432806491851807 0.19209513068199158 0.0017611484508961439
0.89517772197723389 0.21567255258560181 0.0014422099338844419
0.95853781700134277 0.24878831207752228 0.0011147742625325918
0.99650853872299194 0.28313982486724854 0.00097988347988575697
0.99946969747543335 0.31319254636764526 0.00028294580988585949
0.00080774346133694053 0.21141231060028076 0.060882136225700378
0.012274439446628094 0.20637038350105286 0.067902825772762299
0.091247737407684326 0.2178085595369339 0.057637818157672882
0.20637720823287964 0.23664750158786774 0.029190422967076302
0.34425899386405945 0.25621211528778076 0.012904148548841476
0.48515847325325012 0.27246111631393433 0.0082062967121601105
0.61248588562011719 0.28455182909965515 0.0045215832069516182
0.72006493806838989 0.29319685697555542 0.0020349989645183086
0.80454552173614502 0.29957228899002075 0.0015318627702072263
0.87674719095230103 0.31728953123092651 0.0019110884750261903
0.94296127557754517 0.3401513397693634 0.0016038183821365237
0.98955118656158447 0.36309310793876648 0.0017500633839517832
0.99668347835540771 0.38362842798233032 0.001236650045029819
0 0.29933011531829834 0.083783529698848724
0.0036334318574517965 0.29392701387405396 0.092892616987228394
0.041538506746292114 0.29657113552093506 0.087516650557518005
0.16079355776309967 0.31554830074310303 0.058092962950468063
0.3004564642906189 0.34223714470863342 0.019625989720225334
0.4482085108757019 0.36826404929161072 0.007991536520421505
0.58437490463256836 0.38596546649932861 0.0059245838783681393
0.69621658325195312 0.39330792427062988 0.0038025202229619026
0.78688144683837891 0.40254008769989014 0.0015355577925220132
0.858742356300354 0.41392350196838379 0.0013737548142671585
0.92862868309020996 0.42698660492897034 0.0015318627702072263
0.98605972528457642 0.44194570183753967 0.0017356722382828593
0.99607843160629272 0.45095053315162659 0.0016314338427037001
0 0.39249518513679504 0.11694592982530594
0.0026127384044229984 0.38627186417579651 0.12022221833467484
0.012206432409584522 0.38021558523178101 0.1209506019949913
0.10133596509695053 0.38986614346504211 0.10477190464735031
0.2480137050151825 0.41588303446769714 0.058363821357488632
0.39771997928619385 0.44399827718734741 0.020466793328523636
0.54525786638259888 0.46844339370727539 0.0092561161145567894
0.66743624210357666 0.48326873779296875 0.0041934894397854805
0.76361727714538574 0.49287444353103638 0.0021279279608279467
0.83965080976486206 0.50142312049865723 0.0015268063871189952
0.91134345531463623 0.51142948865890503 0.0017226424533873796
0.97564905881881714 0.51663941144943237 0.0019890728872269392
0.99403971433639526 0.52000361680984497 0.0024978187866508961
0 0.48163416981697083 0.14827162027359009
0.0015337925869971514 0.47752806544303894 0.14801913499832153
0.0069209379144012928 0.46570998430252075 0.15608817338943481
0.054788596928119659 0.46163934469223022 0.15079367160797119
0.20268787443637848 0.48197022080421448 0.11802716553211212
0.35340198874473572 0.50561141967773438 0.075714185833930969
0.49346336722373962 0.53241950273513794 0.022230589762330055
0.63038408756256104 0.55539512634277344 0.0046074064448475838
0.73766279220581055 0.56950986385345459 0.0027067447081208229
0.82136070728302002 0.57941967248916626 0.0024213902652263641
0.89580816030502319 0.58426105976104736 0.003011426655575633
0.9641258716583252 0.58695101737976074 0.0021162594202905893
0.99184787273406982 0.58906704187393188 0.0026520374231040478
2.2439395252149552e-05 0.56157636642456055 0.18582649528980255
0.0022077672183513641 0.5580214262008667 0.19235846400260925
0.0059401718899607658 0.54548043012619019 0.19966813921928406
0.032972715795040131 0.53376466035842896 0.20018856227397919
0.17486229538917542 0.54514133930206299 0.18445706367492676
0.32082125544548035 0.56423711776733398 0.15836387872695923
0.45503401756286621 0.58591759204864502 0.10804881900548935
0.58347541093826294 0.60808038711547852 0.044068131595849991
0.70635753870010376 0.63163620233535767 0.010791958309710026
0.80129426717758179 0.64403480291366577 0.0069082970730960369
0.87794643640518188 0.64861637353897095 0.0048714131116867065
0.95182675123214722 0.65342342853546143 0.002726326696574688
0.99188941717147827 0.65530800819396973 0.0023284314665943384
0.001913227722980082 0.63496178388595581 0.23535846173763275
0.0041964813135564327 0.63092058897018433 0.24436098337173462
0.0052963555790483952 0.62232893705368042 0.24666178226470947
0.035027060657739639 0.61110168695449829 0.24497400224208832
0.18343724310398102 0.61344760656356812 0.24124820530414581
0.31346437335014343 0.62197989225387573 0.22866944968700409
0.43340951204299927 0.63982701301574707 0.2040695995092392
0.55033761262893677 0.65907728672027588 0.16216345131397247
0.66481232643127441 0.6792106032371521 0.10150523483753204
0.77113384008407593 0.69791001081466675 0.034232538193464279
0.8584253191947937 0.70814520120620728 0.0077771502546966076
0.93492025136947632 0.71515905857086182 0.0041578253731131554
0.98190522193908691 0.71765291690826416 0.0026839312631636858
0.0036437090020626783 0.70491337776184082 0.29954171180725098
0.0047504501417279243 0.70150220394134521 0.30173623561859131
0.011488567106425762 0.69515711069107056 0.29903006553649902
0.092289403080940247 0.68534606695175171 0.30112099647521973
0.22725342214107513 0.6782829761505127 0.30989354848861694
0.33567297458648682 0.6813393235206604 0.30485737323760986
0.44334232807159424 0.69598698616027832 0.28875398635864258
0.53608125448226929 0.71204030513763428 0.26993706822395325
0.63465076684951782 0.72791564464569092 0.23156416416168213
0.73595303297042847 0.74329441785812378 0.17656572163105011
0.83237534761428833 0.7594139575958252 0.10504334419965744
0.92011749744415283 0.77186274528503418 0.050347793847322464
0.97723263502120972 0.77627259492874146 0.015069176442921162
0.031500108540058136 0.77195268869400024 0.36437094211578369
0.057949621230363846 0.76978105306625366 0.36667755246162415
0.12527695298194885 0.76417440176010132 0.3713938295841217
0.21678908169269562 0.75782734155654907 0.3802771270275116
0.30133906006813049 0.7501835823059082 0.390522301197052
0.38060367107391357 0.7446557879447937 0.38880783319473267
0.46113094687461853 0.75296086072921753 0.37709647417068481
0.54287999868392944 0.76634865999221802 0.36635640263557434
0.62723076343536377 0.78044325113296509 0.34703829884529114
0.71987342834472656 0.79481446743011475 0.31062299013137817
0.80665367841720581 0.80897337198257446 0.27362054586410522
0.89932769536972046 0.8234785795211792 0.22614170610904694
0.97009772062301636 0.83282655477523804 0.17850179970264435
0.25053200125694275 0.84197133779525757 0.46622273325920105
0.27271312475204468 0.83838528394699097 0.46944129467010498
0.30958476662635803 0.83479106426239014 0.47390130162239075
0.35287439823150635 0.83089196681976318 0.48625665903091431
0.4061940610408783 0.82500487565994263 0.49362361431121826
0.45882651209831238 0.8157382607460022 0.49159631133079529
0.51836800575256348 0.81871688365936279 0.48902174830436707
0.58445572853088379 0.83004027605056763 0.4850466251373291
0.64694613218307495 0.84166747331619263 0.47217771410942078
0.71973097324371338 0.85307484865188599 0.4498324990272522
0.80315476655960083 0.86668515205383301 0.42667540907859802
0.88207840919494629 0.87927424907684326 0.39620497822761536
0.95100057125091553 0.88883316516876221 0.36719900369644165
0.44548502564430237 0.91067296266555786 0.58915048837661743
0.45654422044754028 0.9090576171875 0.59142851829528809
0.47645938396453857 0.90743571519851685 0.5945320725440979
0.50568652153015137 0.9049486517906189 0.60344260931015015
0.5410621166229248 0.90143966674804688 0.61085206270217896
0.57540774345397949 0.89434009790420532 0.61438250541687012
0.619914710521698 0.89589571952819824 0.62077176570892334
0.65759187936782837 0.90171301364898682 0.61984580755233765
0.70312958955764771 0.91095000505447388 0.61285394430160522
0.75090599060058594 0.9192425012588501 0.60241568088531494
0.81289863586425781 0.92971521615982056 0.58954393863677979
0.87497794628143311 0.9405103325843811 0.5725213885307312
0.93581801652908325 0.94865447282791138 0.55450928211212158
0.03070545569062233 0.039285428822040558 0.078979611396789551
0.077628009021282196 0.033928994089365005 0.081629812717437744
0.15525452792644501 0.027138175442814827 0.085906043648719788
0.26118525862693787 0.013072668574750423 0.083021558821201324
0.38825321197509766 0.011581046506762505 0.081247039139270782
0.50835150480270386 0.0086289802566170692 0.06869061291217804
0.63075989484786987 0.0081598171964287758 0.056685324758291245
0.746165931224823 0.0065098181366920471 0.039146319031715393
0.83881127834320068 0.0049462262541055679 0.023554230108857155
0.91412287950515747 0.010513125918805599 0.014472826384007931
0.97421818971633911 0.039406076073646545 0.0088937049731612206
0.99692189693450928 0.11849462240934372 0.0080050304532051086
1 0.1897771954536438 0.0041385428048670292
0.019344151020050049 0.084120459854602814 0.087181061506271362
0.066526629030704498 0.085964366793632507 0.089323453605175018
0.15722483396530151 0.082277499139308929 0.083808675408363342
0.26491802930831909 0.068445049226284027 0.077057778835296631
0.38761517405509949 0.050620283931493759 0.06879851222038269
0.50896775722503662 0.032672926783561707 0.058680426329374313
0.63417148590087891 0.023671019822359085 0.04453837126493454
0.74730426073074341 0.023884164169430733 0.02840149775147438
0.83930498361587524 0.035719495266675949 0.018342141062021255
0.91142404079437256 0.072061948478221893 0.0095708658918738365
0.97157526016235352 0.13275349140167236 0.0059965695254504681
0.99649012088775635 0.18950988352298737 0.0063248281367123127
1 0.23813585937023163 0.0040319706313312054
0.0090402942150831223 0.15432305634021759 0.10091465711593628
0.047684688121080399 0.15596969425678253 0.098882459104061127
0.14383974671363831 0.15928970277309418 0.09359411895275116
0.25631096959114075 0.16388118267059326 0.074391819536685944
0.38191130757331848 0.16274434328079224 0.050943844020366669
0.50906580686569214 0.15649387240409851 0.039507113397121429
0.63253259658813477 0.15370948612689972 0.026517845690250397
0.74129468202590942 0.16132858395576477 0.016077557578682899
0.82990890741348267 0.17924503982067108 0.010713345371186733
0.90050214529037476 0.2042483389377594 0.0083425780758261681
0.96005690097808838 0.23556326329708099 0.006514186505228281
0.99516135454177856 0.27365610003471375 0.0053938324563205242
0.99997055530548096 0.30700910091400146 0.0025254641659557819
0.0027290345169603825 0.23695586621761322 0.10875583440065384
0.019843650981783867 0.23316697776317596 0.11308390647172928
0.10648549348115921 0.23523639142513275 0.11417397856712341
0.22417463362216949 0.24812664091587067 0.092200472950935364
0.36075904965400696 0.265860915184021 0.056440599262714386
0.49929404258728027 0.27624404430389404 0.02504284493625164
0.62322425842285156 0.28207671642303467 0.012390929274260998
0.72599834203720093 0.28885915875434875 0.0097849974408745766
0.81268972158432007 0.2988848090171814 0.0067974613048136234
0.88737505674362183 0.31398129463195801 0.005999591201543808
0.9497944712638855 0.33427774906158447 0.0048793717287480831
0.99198824167251587 0.35652482509613037 0.0059137381613254547
0.99834775924682617 0.37780636548995972 0.0044761807657778263
0.0022387634962797165 0.32525220513343811 0.12720584869384766
0.0071591692976653576 0.3178960382938385 0.13491044938564301
0.061622932553291321 0.31592071056365967 0.13424189388751984
0.18538948893547058 0.32983586192131042 0.1182069331407547
0.32060563564300537 0.35245007276535034 0.080856531858444214
0.46827602386474609 0.37638416886329651 0.031256835907697678
0.59675967693328857 0.38874787092208862 0.012145652435719967
0.70363551378250122 0.39355510473251343 0.0083478139713406563
0.79238027334213257 0.40201079845428467 0.0054337745532393456
0.86882436275482178 0.41206750273704529 0.0044009038247168064
0.93482917547225952 0.42597553133964539 0.005441583227366209
0.98584306240081787 0.44099172949790955 0.0071785571053624153
0.99641638994216919 0.45121803879737854 0.0061737960204482079
0.00068178365472704172 0.4149174690246582 0.15322579443454742
0.0025878008455038071 0.40612739324569702 0.15995067358016968
0.022093350067734718 0.39732319116592407 0.16294808685779572
0.13778592646121979 0.40218344330787659 0.15348123013973236
0.26859232783317566 0.42468646168708801 0.1266808956861496
0.41433387994766235 0.45205974578857422 0.075626417994499207
0.55940151214599609 0.47704681754112244 0.021497942507266998
0.67281228303909302 0.4877166748046875 0.008912060409784317
0.76666170358657837 0.49471840262413025 0.0059860977344214916
0.84659606218338013 0.50179243087768555 0.0044604134745895863
0.916828453540802 0.50959348678588867 0.0053907954134047031
0.97502619028091431 0.51613712310791016 0.0079203583300113678
0.9947163462638855 0.51978772878646851 0.007941107265651226
0 0.49991771578788757 0.18260464072227478
0.001688594464212656 0.49423894286155701 0.185268834233284
0.0076785818673670292 0.48021808266639709 0.19311857223510742
0.083092063665390015 0.47385686635971069 0.19067688286304474
0.22706416249275208 0.49108025431632996 0.17054343223571777
0.36666235327720642 0.51214474439620972 0.13616049289703369
0.50661176443099976 0.53763842582702637 0.075469046831130981
0.63708865642547607 0.56057929992675781 0.024457430467009544
0.74094319343566895 0.57312214374542236 0.0086257336661219597
0.82488363981246948 0.58002108335494995 0.0057691833935678005
0.8998725414276123 0.58308702707290649 0.0050220414996147156
0.96450114250183105 0.58573418855667114 0.0051523991860449314
0.9917609691619873 0.58700388669967651 0.0062931585125625134
9.3811635451857001e-05 0.57474476099014282 0.21852928400039673
0.0027134015690535307 0.57095158100128174 0.22548072040081024
0.0069436617195606232 0.5580558180809021 0.23058131337165833
0.052539482712745667 0.54480242729187012 0.22959065437316895
0.20615881681442261 0.54769861698150635 0.22027629613876343
0.33592784404754639 0.56741070747375488 0.20089295506477356
0.46247240900993347 0.58876407146453857 0.16560126841068268
0.59196090698242188 0.61209464073181152 0.10331404209136963
0.71192961931228638 0.63519799709320068 0.041285287588834763
0.80623513460159302 0.64636147022247314 0.013540933839976788
0.88276761770248413 0.65077668428421021 0.0080507313832640648
0.94996905326843262 0.65358340740203857 0.0044761658646166325
0.98614269495010376 0.65428239107131958 0.0043970146216452122
0.002478371374309063 0.64505881071090698 0.26558169722557068
0.0054436479695141315 0.64111876487731934 0.27242964506149292
0.0059221154078841209 0.63147681951522827 0.27275696396827698
0.061710912734270096 0.61775392293930054 0.27138209342956543
0.20884640514850616 0.61130112409591675 0.27201226353645325
0.32827496528625488 0.62274754047393799 0.26011812686920166
0.43941891193389893 0.64113003015518188 0.24133208394050598
0.55681437253952026 0.6608394980430603 0.21016135811805725
0.66903287172317505 0.68099570274353027 0.1560399979352951
0.77588111162185669 0.69967752695083618 0.08571498841047287
0.86353152990341187 0.71065974235534668 0.03709971159696579
0.93579250574111938 0.71666598320007324 0.0096882693469524384
0.98082727193832397 0.71768534183502197 0.0092261964455246925
0.0039563197642564774 0.71217894554138184 0.32242539525032043
0.0084433462470769882 0.70808368921279907 0.32288429141044617
0.021670173853635788 0.70173919200897217 0.32008659839630127
0.12053873389959335 0.69139158725738525 0.32227048277854919
0.24291625618934631 0.68185007572174072 0.32723513245582581
0.34464135766029358 0.68199175596237183 0.32681089639663696
0.44798997044563293 0.69592320919036865 0.31789007782936096
0.5422014594078064 0.7127615213394165 0.29927268624305725
0.64055764675140381 0.72953337430953979 0.2658964991569519
0.73738056421279907 0.7452196478843689 0.22041718661785126
0.83520156145095825 0.76054614782333374 0.16878338158130646
0.92106068134307861 0.77189648151397705 0.10859803110361099
0.98095804452896118 0.77635127305984497 0.048328220844268799
0.045776128768920898 0.77629274129867554 0.38201716542243958
0.077998310327529907 0.77380812168121338 0.38388988375663757
0.14813174307346344 0.76860469579696655 0.388560950756073
0.22764071822166443 0.76125723123550415 0.39895659685134888
0.30688998103141785 0.75065195560455322 0.40225860476493835
0.38551086187362671 0.74310702085494995 0.40144896507263184
0.46924403309822083 0.75292104482650757 0.39707726240158081
0.54854577779769897 0.76717561483383179 0.38733220100402832
0.62735658884048462 0.7812761664390564 0.36935263872146606
0.71533405780792236 0.79513251781463623 0.34226810932159424
0.80937159061431885 0.8092084527015686 0.3029651939868927
0.90020740032196045 0.82241743803024292 0.26016330718994141
0.97132247686386108 0.83204501867294312 0.22559790313243866
0.25829175114631653 0.84440118074417114 0.48071613907814026
0.28154358267784119 0.84286653995513916 0.48550620675086975
0.31486979126930237 0.83915954828262329 0.49244648218154907
0.35679122805595398 0.83362042903900146 0.49820935726165771
0.40953657031059265 0.82586121559143066 0.49816045165061951
0.46532675623893738 0.81840014457702637 0.49982413649559021
0.52232611179351807 0.8196147084236145 0.5000041127204895
0.58487284183502197 0.83000677824020386 0.49650776386260986
0.64909261465072632 0.84199851751327515 0.48647418618202209
0.71615755558013916 0.85326236486434937 0.46765533089637756
0.79460293054580688 0.8664742112159729 0.44231417775154114
0.87849795818328857 0.87694364786148071 0.40921306610107422
0.95078760385513306 0.88737785816192627 0.38365653157234192
0.44808948040008545 0.91345363855361938 0.59580820798873901
0.460539311170578 0.91303455829620361 0.59942024946212769
0.47967040538787842 0.90996938943862915 0.60436457395553589
0.50535035133361816 0.90603804588317871 0.60860341787338257
0.54100877046585083 0.9030422568321228 0.61354535818099976
0.57954514026641846 0.89841121435165405 0.62145048379898071
0.61943620443344116 0.89577770233154297 0.62628829479217529
0.65793836116790771 0.90122491121292114 0.62582391500473022
0.70381194353103638 0.91196304559707642 0.62062966823577881
0.74985283613204956 0.92023324966430664 0.60986953973770142
0.80732053518295288 0.92961776256561279 0.59698837995529175
0.8741227388381958 0.93853509426116943 0.57882839441299438
0.93667638301849365 0.94821923971176147 0.56125330924987793
0.02361571416258812 0.039826039224863052 0.16115544736385345
0.08462582528591156 0.033714849501848221 0.16719113290309906
0.17065981030464172 0.021285112947225571 0.17530694603919983
0.27765509486198425 0.010180260054767132 0.18046201765537262
0.40117129683494568 0.0087150121107697487 0.18189775943756104
0.52419757843017578 0.0082301720976829529 0.17259706556797028
0.64594858884811401 0.0092082452028989792 0.16481253504753113
0.75592553615570068 0.01136226300150156 0.15325884521007538
0.84720486402511597 0.0068033556453883648 0.13457208871841431
0.92032074928283691 0.0058473325334489346 0.12186002731323242
0.97822338342666626 0.023589683696627617 0.10956139862537384
0.99870437383651733 0.10379267483949661 0.093023680150508881
1 0.18248997628688812 0.077460162341594696
0.010145359672605991 0.090214855968952179 0.1598396897315979
0.06692485511302948 0.089341975748538971 0.17014352977275848
0.17099928855895996 0.081639230251312256 0.18010735511779785
0.28180781006813049 0.067415408790111542 0.18227562308311462
0.39996111392974854 0.035818003118038177 0.17344510555267334
0.52470779418945312 0.020192209631204605 0.16665969789028168
0.64851135015487671 0.015621230006217957 0.15885061025619507
0.75728482007980347 0.01876373216509819 0.14677122235298157
0.84493064880371094 0.024706432595849037 0.13404354453086853
0.91625499725341797 0.057308122515678406 0.11793338507413864
0.97424924373626709 0.11950217187404633 0.10094653815031052
0.997669517993927 0.18434655666351318 0.081813722848892212
1 0.23371340334415436 0.068299703299999237
0.005742046982049942 0.170329749584198 0.17212346196174622
0.041910387575626373 0.17117863893508911 0.17365820705890656
0.1554986834526062 0.17058277130126953 0.17913486063480377
0.27110230922698975 0.16957427561283112 0.17808529734611511
0.39919257164001465 0.1586967408657074 0.16525420546531677
0.52485138177871704 0.14802983403205872 0.15718084573745728
0.64574652910232544 0.14104722440242767 0.14427709579467773
0.75087016820907593 0.14625239372253418 0.12927035987377167
0.83709448575973511 0.16474178433418274 0.11429782956838608
0.90730398893356323 0.19493523240089417 0.099412180483341217
0.96440935134887695 0.22767123579978943 0.084604822099208832
0.99751895666122437 0.26851537823677063 0.066423051059246063
1 0.30135047435760498 0.057223241776227951
0.0037221421953290701 0.26586267352104187 0.19274608790874481
0.026348847895860672 0.26733168959617615 0.1894746720790863
0.12953338027000427 0.26266664266586304 0.19000473618507385
0.24910625815391541 0.26649916172027588 0.18143516778945923
0.38458871841430664 0.27743527293205261 0.15937115252017975
0.51443612575531006 0.27883461117744446 0.13829359412193298
0.63334560394287109 0.27798870205879211 0.11112841218709946
0.73458242416381836 0.28536847233772278 0.095364183187484741
0.82172495126724243 0.2972143292427063 0.082764014601707458
0.89597034454345703 0.30997154116630554 0.067501649260520935
0.95677894353866577 0.33138984441757202 0.058375909924507141
0.99707436561584473 0.35302084684371948 0.046604681760072708
1 0.37484246492385864 0.039443910121917725
0.003743399865925312 0.36704555153846741 0.21282944083213806
0.011932836845517159 0.35960981249809265 0.20719608664512634
0.092907972633838654 0.34901759028434753 0.20870159566402435
0.21229945123195648 0.34935227036476135 0.20403316617012024
