luts/negative_new/kodak_portra_400_++.cube
# Created by: G'MIC (https://gmic.eu)
TITLE "kodak_portra_400_++"
# LUT size
LUT_3D_SIZE 13
# Data domain
DOMAIN_MIN 0.0 0.0 0.0
DOMAIN_MAX 1.0 1.0 1.0
# LUT data points
0.092288821935653687 0.096826247870922089 0.089207544922828674
0.11623258143663406 0.094744138419628143 0.084047578275203705
0.17809118330478668 0.095652021467685699 0.079446636140346527
0.25977259874343872 0.085362106561660767 0.072857260704040527
0.3766903281211853 0.054851021617650986 0.062378078699111938
0.49841806292533875 0.026321575045585632 0.05070209875702858
0.62224388122558594 0.0097936894744634628 0.032888226211071014
0.73804765939712524 0.0081483433023095131 0.017312996089458466
0.82953715324401855 0.015049025416374207 0.0071609648875892162
0.8974120020866394 0.056314956396818161 0.0071076336316764355
0.95738333463668823 0.13189150393009186 0.004238128662109375
0.99459642171859741 0.18457195162773132 0.0013624603161588311
0.99734872579574585 0.20610526204109192 0
0.075705267488956451 0.12329474091529846 0.086156792938709259
0.10815717279911041 0.12713360786437988 0.084441691637039185
0.16879132390022278 0.13397075235843658 0.078514337539672852
0.25725072622299194 0.12817934155464172 0.068631358444690704
0.37561166286468506 0.11604766547679901 0.056741796433925629
0.49968141317367554 0.10274647921323776 0.041956044733524323
0.62233608961105347 0.080102674663066864 0.024028239771723747
0.73751389980316162 0.069705292582511902 0.011712107807397842
0.82843798398971558 0.095943063497543335 0.0055325827561318874
0.8936997652053833 0.13414891064167023 0.0071920356713235378
0.95090144872665405 0.18538679182529449 0.0069019091315567493
0.98957532644271851 0.22721149027347565 0.0053133796900510788
0.9961887001991272 0.25963661074638367 0.0037692799232900143
0.048997588455677032 0.17300994694232941 0.092136189341545105
0.084921129047870636 0.17288295924663544 0.088900499045848846
0.14213006198406219 0.17766770720481873 0.078994154930114746
0.23812004923820496 0.1912013441324234 0.066833347082138062
0.35941395163536072 0.1975674033164978 0.045484371483325958
0.49026751518249512 0.19634877145290375 0.025205396115779877
0.61736780405044556 0.19299976527690887 0.012769347988069057
0.72933977842330933 0.19600324332714081 0.0064695621840655804
0.819435715675354 0.21039964258670807 0.0058510871604084969
0.88908731937408447 0.23268996179103851 0.0070076738484203815
0.94640582799911499 0.26047196984291077 0.0078431377187371254
0.98476505279541016 0.28793790936470032 0.0076743182726204395
0.99520760774612427 0.3162473738193512 0.0041382135823369026
0.010746510699391365 0.23458202183246613 0.10072202235460281
0.048526059836149216 0.22956784069538116 0.10268709063529968
0.11369859427213669 0.23707535862922668 0.094376251101493835
0.20602041482925415 0.25814375281333923 0.075889229774475098
0.33780205249786377 0.27938926219940186 0.037466369569301605
0.47570404410362244 0.2922980785369873 0.010375273413956165
0.60521525144577026 0.29793927073478699 0.0057002948597073555
0.71461194753646851 0.30498340725898743 0.0042538810521364212
0.8018568754196167 0.3126007616519928 0.0070827407762408257
0.87748152017593384 0.32974565029144287 0.0072702295146882534
0.9368932843208313 0.35001513361930847 0.0049268533475697041
0.97931414842605591 0.37061703205108643 0.0061905952170491219
0.99485772848129272 0.3859352171421051 0.0069738500751554966
0.0029327243100851774 0.31436541676521301 0.11323004215955734
0.013351605273783207 0.30735039710998535 0.12130951136350632
0.071824111044406891 0.31204673647880554 0.11989330500364304
0.16692104935646057 0.33004844188690186 0.10338348895311356
0.30143198370933533 0.35766589641571045 0.054552115499973297
0.44718506932258606 0.38381496071815491 0.011135056614875793
0.58219313621520996 0.39809301495552063 0.0035152060445398092
0.69430196285247803 0.40585938096046448 0.0037306840531527996
0.7800866961479187 0.41182136535644531 0.0061673331074416637
0.85865449905395508 0.42106533050537109 0.0068411882966756821
0.92232918739318848 0.43485891819000244 0.004678389523178339
0.97219949960708618 0.44751629233360291 0.0041348324157297611
0.99321287870407104 0.45906779170036316 0.0056108962744474411
0.0012872135266661644 0.400522381067276 0.1290784627199173
0.0051244995556771755 0.39316526055335999 0.13825799524784088
0.023920515552163124 0.38709601759910583 0.14243073761463165
0.11344302445650101 0.39761406183242798 0.12788893282413483
0.25191095471382141 0.42364123463630676 0.086284860968589783
0.39483845233917236 0.45103582739830017 0.034534886479377747
0.54130178689956665 0.47867852449417114 0.0064504435285925865
0.6665920615196228 0.49509498476982117 0.0038409512490034103
0.75627994537353516 0.49647265672683716 0.005004463717341423
0.8361620306968689 0.50244039297103882 0.0048458175733685493
0.90473049879074097 0.50981622934341431 0.0031369377393275499
0.96208596229553223 0.51751744747161865 0.0035498077049851418
0.98992520570755005 0.5261419415473938 0.0038335463032126427
0.0013309703208506107 0.4856361448764801 0.15067344903945923
0.0046625025570392609 0.47774344682693481 0.1588740199804306
0.0072428383864462376 0.46600225567817688 0.16352461278438568
0.063120104372501373 0.46411076188087463 0.15748323500156403
0.20886972546577454 0.48802214860916138 0.1298324316740036
0.35000202059745789 0.51253777742385864 0.083329968154430389
0.48600739240646362 0.5360836386680603 0.031023392453789711
0.6261589527130127 0.56127232313156128 0.0096354167908430099
0.73338645696640015 0.57367157936096191 0.0047602336853742599
0.81327152252197266 0.57724153995513916 0.0017882253741845489
0.88258635997772217 0.58080798387527466 9.2091278929729015e-05
0.94838786125183105 0.58648574352264404 0.0010431476403027773
0.98943805694580078 0.59237712621688843 0.0014079823158681393
0.0022930370178073645 0.56242740154266357 0.17675305902957916
0.0076286164112389088 0.55575430393218994 0.18724048137664795
0.010395543649792671 0.54477667808532715 0.19253088533878326
0.038170743733644485 0.53510332107543945 0.19293858110904694
0.18113745748996735 0.54718732833862305 0.18060819804668427
0.3200954794883728 0.56723564863204956 0.15263055264949799
0.4488118588924408 0.58700227737426758 0.11076959222555161
0.57852375507354736 0.6095583438873291 0.051037389785051346
0.69856202602386475 0.63283461332321167 0.0084653664380311966
0.79179954528808594 0.64612084627151489 0.0015551698161289096
0.86128979921340942 0.64972770214080811 0.0015237845946103334
0.92908364534378052 0.65265238285064697 0.0036399243399500847
0.98386549949645996 0.65575975179672241 0.0015555886784568429
0.0024153615813702345 0.63398545980453491 0.21782700717449188
0.0065048667602241039 0.62822800874710083 0.22784748673439026
0.0078587848693132401 0.61911892890930176 0.22890818119049072
0.043289333581924438 0.61116808652877808 0.22997614741325378
0.18532353639602661 0.61112594604492188 0.22953547537326813
0.31294453144073486 0.62111806869506836 0.21778509020805359
0.43107855319976807 0.6386604905128479 0.19014418125152588
0.54765200614929199 0.65682399272918701 0.14286607503890991
0.65908670425415039 0.67626833915710449 0.075731270015239716
0.75908190011978149 0.69544398784637451 0.024478329345583916
0.8415379524230957 0.70705217123031616 0.0084467120468616486
0.91310876607894897 0.71183520555496216 0.007988903671503067
0.9756920337677002 0.71587091684341431 0.0025794983375817537
0.0035883286036550999 0.70054823160171509 0.27279078960418701
0.0065304925665259361 0.69865018129348755 0.28087741136550903
0.025321241468191147 0.69102007150650024 0.27834513783454895
0.12729522585868835 0.68324357271194458 0.28303447365760803
0.24919840693473816 0.67834341526031494 0.28812173008918762
0.34260362386703491 0.6789165735244751 0.28466078639030457
0.44317233562469482 0.68956953287124634 0.26723423600196838
0.5408216118812561 0.70404267311096191 0.24376614391803741
0.63940721750259399 0.72159427404403687 0.20570746064186096
0.72846049070358276 0.73796689510345459 0.15586067736148834
0.82014691829681396 0.75589513778686523 0.079105466604232788
0.90080535411834717 0.76964044570922852 0.034586049616336823
0.96965533494949341 0.77695542573928833 0.013530042953789234
0.0795554518699646 0.76411193609237671 0.34531101584434509
0.11468195915222168 0.76338803768157959 0.35062447190284729
0.18654723465442657 0.75748634338378906 0.35504981875419617
0.26040762662887573 0.74945825338363647 0.36154797673225403
0.33954277634620667 0.74329966306686401 0.36695897579193115
0.40496394038200378 0.74047791957855225 0.36480149626731873
0.47423055768013 0.74393808841705322 0.35786736011505127
0.55251359939575195 0.75541645288467407 0.34428367018699646
0.63121515512466431 0.76892590522766113 0.32360661029815674
0.71024221181869507 0.78393089771270752 0.29430735111236572
0.79092180728912354 0.80029642581939697 0.25686159729957581
0.87433910369873047 0.81770050525665283 0.20628365874290466
0.95347851514816284 0.83044463396072388 0.15079605579376221
0.29687768220901489 0.82885414361953735 0.45362842082977295
0.31582155823707581 0.8294672966003418 0.4609433114528656
0.35290533304214478 0.82621616125106812 0.46473363041877747
0.39486044645309448 0.8187563419342041 0.46757537126541138
0.43673980236053467 0.81255137920379639 0.47110223770141602
0.48777225613594055 0.80957943201065063 0.4733988344669342
0.5323183536529541 0.81013798713684082 0.47559019923210144
0.58567255735397339 0.8176800012588501 0.4677983820438385
0.64986753463745117 0.82836949825286865 0.45320135354995728
0.71376943588256836 0.84129947423934937 0.44149318337440491
0.78009307384490967 0.85519152879714966 0.42177686095237732
0.84962433576583862 0.86802256107330322 0.38957840204238892
0.92602312564849854 0.88080835342407227 0.34559258818626404
0.46271595358848572 0.89768695831298828 0.57831203937530518
0.47468709945678711 0.89895898103713989 0.58372253179550171
0.4970935583114624 0.89751917123794556 0.58739513158798218
0.51925963163375854 0.89180088043212891 0.58986711502075195
0.54860544204711914 0.88796019554138184 0.59726798534393311
0.58349424600601196 0.88417118787765503 0.60162389278411865
0.61596834659576416 0.88469415903091431 0.60835790634155273
0.65255516767501831 0.89095252752304077 0.60815930366516113
0.69539493322372437 0.89754986763000488 0.59941333532333374
0.74220407009124756 0.9066130518913269 0.5902334451675415
0.79422193765640259 0.91946345567703247 0.58455586433410645
0.84999793767929077 0.92940747737884521 0.56711220741271973
0.91123849153518677 0.93977576494216919 0.54307305812835693
0.083296865224838257 0.098414689302444458 0.11079314351081848
0.11880766600370407 0.097052000463008881 0.11724035441875458
0.19296617805957794 0.093232065439224243 0.12933042645454407
0.27929708361625671 0.076671257615089417 0.12702462077140808
0.38260886073112488 0.0417136549949646 0.10926780104637146
0.50527983903884888 0.016278928145766258 0.10079601407051086
0.62860006093978882 0.0069054099731147289 0.094823546707630157
0.74248653650283813 0.0075087156146764755 0.078581191599369049
0.83413231372833252 0.0099842594936490059 0.053262569010257721
0.90393561124801636 0.034996256232261658 0.035116516053676605
0.96079337596893311 0.11301720142364502 0.022957790642976761
0.99711418151855469 0.1750798225402832 0.0094606438651680946
0.99996519088745117 0.22234837710857391 0.0055804983712732792
0.06616578996181488 0.13416203856468201 0.11560247093439102
0.11230193823575974 0.13837766647338867 0.12295281141996384
0.18015819787979126 0.13735710084438324 0.12485529482364655
0.26903566718101501 0.12940783798694611 0.11736954003572464
0.3833402693271637 0.11024307459592819 0.10779856890439987
0.50852864980697632 0.087957210838794708 0.10019746422767639
0.63113558292388916 0.065704300999641418 0.085081256926059723
0.74428629875183105 0.058608110994100571 0.066084198653697968
0.83187949657440186 0.075610354542732239 0.04300650954246521
0.90120041370391846 0.12490705400705338 0.025498304516077042
0.95744889974594116 0.17919528484344482 0.01702485978603363
0.9938855767250061 0.22571982443332672 0.008540433831512928
0.9980817437171936 0.265127032995224 0.0040699676610529423
0.039698224514722824 0.18842723965644836 0.12391701340675354
0.092932112514972687 0.1879505068063736 0.12613022327423096
0.15496072173118591 0.18756237626075745 0.12386814504861832
0.25170868635177612 0.19284877181053162 0.11384506523609161
0.37445679306983948 0.19515684247016907 0.095807000994682312
0.50299280881881714 0.18869449198246002 0.081819288432598114
0.62913721799850464 0.18369975686073303 0.060907758772373199
0.73671281337738037 0.18718022108078003 0.040748357772827148
0.82422167062759399 0.20351183414459229 0.024618096649646759
0.8945496678352356 0.23248033225536346 0.015489151701331139
0.95149856805801392 0.26243412494659424 0.01089896447956562
0.98969370126724243 0.29286253452301025 0.0084962733089923859
0.9965093731880188 0.32408872246742249 0.0050923367962241173
0.010877497494220734 0.25619974732398987 0.13502877950668335
0.058396045118570328 0.25053495168685913 0.13860525190830231
0.12942411005496979 0.25250405073165894 0.13710099458694458
0.22459544241428375 0.26766598224639893 0.12579140067100525
0.35668724775314331 0.28375819325447083 0.094245940446853638
0.49218866229057312 0.29124152660369873 0.055115777999162674
0.6169314980506897 0.2941468358039856 0.029212562367320061
0.72069770097732544 0.30221998691558838 0.020070064812898636
0.81007963418960571 0.31292048096656799 0.011843842454254627
0.88090205192565918 0.33196789026260376 0.0093155950307846069
0.93980586528778076 0.35105326771736145 0.0069031058810651302
0.98490291833877563 0.37217310070991516 0.0054194731637835503
0.99651658535003662 0.38989678025245667 0.0062978258356451988
0.0041444967500865459 0.33668014407157898 0.15024499595165253
0.013237014412879944 0.32807636260986328 0.15003058314323425
0.085625261068344116 0.32450944185256958 0.15290157496929169
0.18732507526874542 0.33665716648101807 0.14156851172447205
0.31519544124603271 0.36052024364471436 0.10886821150779724
0.46259960532188416 0.38868674635887146 0.053396441042423248
0.59243977069854736 0.40041729807853699 0.018460143357515335
0.70256245136260986 0.40689319372177124 0.010319115594029427
0.79076212644577026 0.4116922914981842 0.0080736493691802025
0.8631475567817688 0.42202967405319214 0.0083445226773619652
0.92530816793441772 0.43601492047309875 0.0084760924801230431
0.97637033462524414 0.44883313775062561 0.0080707771703600883
0.99528986215591431 0.46093031764030457 0.0087741930037736893
0.0019066155655309558 0.4230133593082428 0.16406294703483582
0.0045164967887103558 0.41232696175575256 0.16732876002788544
0.031464040279388428 0.40360939502716064 0.1699976921081543
0.14188246428966522 0.4063810408115387 0.16354817152023315
0.26786971092224121 0.42953795194625854 0.13798065483570099
0.40777570009231567 0.45818760991096497 0.088780857622623444
0.55557835102081299 0.48394545912742615 0.026387397199869156
0.67509973049163818 0.49717161059379578 0.0091923587024211884
0.76473653316497803 0.50006818771362305 0.0085712959989905357
0.84054797887802124 0.50550693273544312 0.0093450210988521576
0.90892773866653442 0.51257264614105225 0.0053507485426962376
0.9649689793586731 0.52017241716384888 0.0081037934869527817
0.99197912216186523 0.52797365188598633 0.005781764630228281
0.0016139311483129859 0.50343179702758789 0.18320821225643158
0.0055922563187777996 0.49528390169143677 0.1907973438501358
0.0094343293458223343 0.48287144303321838 0.19179263710975647
0.092368870973587036 0.47493508458137512 0.18986377120018005
0.22847151756286621 0.49340987205505371 0.17425738275051117
0.36002466082572937 0.51669937372207642 0.14107440412044525
0.49647983908653259 0.54039973020553589 0.084598332643508911
0.63250941038131714 0.56541150808334351 0.024942375719547272
0.73781037330627441 0.57800430059432983 0.010770955123007298
0.81874781847000122 0.58169817924499512 0.0060172285884618759
0.88820439577102661 0.58446061611175537 0.0041477875784039497
0.94934487342834473 0.58890539407730103 0.0046406914480030537
0.98652464151382446 0.59316200017929077 0.0039719226770102978
0.00223566684871912 0.57612901926040649 0.20701467990875244
0.0073600471951067448 0.56930655241012573 0.21632815897464752
0.010396441444754601 0.55810797214508057 0.21878214180469513
0.062187328934669495 0.546356201171875 0.21975286304950714
0.20684090256690979 0.55313879251480103 0.21570079028606415
0.33299964666366577 0.57203781604766846 0.1942068338394165
0.45499059557914734 0.59065079689025879 0.15742126107215881
0.58411979675292969 0.61301863193511963 0.098590508103370667
0.70556241273880005 0.63663589954376221 0.032663680613040924
0.7953333854675293 0.64798921346664429 0.0066959904506802559
0.86693674325942993 0.65263205766677856 0.004863739013671875
0.93151086568832397 0.65488070249557495 0.0048285839147865772
0.97752755880355835 0.65560340881347656 0.0042914594523608685
0.0035499273799359798 0.64315497875213623 0.24940849840641022
0.005624045617878437 0.63755083084106445 0.25303781032562256
0.0077462587505578995 0.62961608171463013 0.2526477575302124
0.071254700422286987 0.62016010284423828 0.25426352024078369
0.21344353258609772 0.61538100242614746 0.2577718198299408
0.32644832134246826 0.62492853403091431 0.24796761572360992
0.43641841411590576 0.64020389318466187 0.22509507834911346
0.55247730016708374 0.65781307220458984 0.19021959602832794
0.66446292400360107 0.67868542671203613 0.13305474817752838
0.76504403352737427 0.69945597648620605 0.070406801998615265
0.84821689128875732 0.71302956342697144 0.025840504094958305
0.91758418083190918 0.71519392728805542 0.011700320057570934
0.97404545545578003 0.71659517288208008 0.0048009534366428852
0.0039251288399100304 0.70666015148162842 0.29940250515937805
0.011904623359441757 0.70373076200485229 0.3005044162273407
0.05080781877040863 0.69761443138122559 0.30029028654098511
0.15432998538017273 0.6876220703125 0.30614960193634033
0.26588529348373413 0.68183332681655884 0.31210413575172424
0.35588929057121277 0.68302422761917114 0.30671599507331848
0.44604641199111938 0.6907494068145752 0.29383918642997742
0.54634147882461548 0.70545738935470581 0.27351930737495422
0.64368981122970581 0.72271978855133057 0.23855216801166534
0.73157334327697754 0.73924386501312256 0.20060363411903381
0.82129174470901489 0.75744402408599854 0.14421650767326355
0.90428030490875244 0.77127033472061157 0.082374751567840576
0.96984726190567017 0.77579325437545776 0.030467493459582329
0.099641330540180206 0.76816874742507935 0.36459508538246155
0.14123116433620453 0.76667630672454834 0.36791574954986572
0.20426732301712036 0.76190042495727539 0.37393668293952942
0.27253085374832153 0.75428915023803711 0.38108932971954346
0.35118594765663147 0.74748361110687256 0.38710722327232361
0.41776686906814575 0.74447989463806152 0.38745954632759094
0.48473355174064636 0.74681973457336426 0.38059446215629578
0.55597257614135742 0.75689935684204102 0.36644124984741211
0.63560128211975098 0.77018505334854126 0.34474641084671021
0.71643316745758057 0.7848811149597168 0.32237809896469116
0.79292768239974976 0.8011665940284729 0.29331615567207336
0.87720781564712524 0.81926065683364868 0.2479112297296524
0.95032000541687012 0.82963114976882935 0.19093737006187439
0.30829241871833801 0.83147561550140381 0.46675527095794678
0.32632267475128174 0.83186799287796021 0.47362604737281799
0.35284185409545898 0.82853442430496216 0.47946909070014954
0.39638018608093262 0.82072019577026367 0.47926971316337585
0.44053953886032104 0.81406092643737793 0.48242470622062683
0.48900946974754333 0.80881369113922119 0.48767334222793579
0.5406872034072876 0.81030988693237305 0.48846188187599182
0.59504836797714233 0.81906378269195557 0.48165681958198547
0.65109550952911377 0.82896262407302856 0.46635246276855469
0.71685218811035156 0.84165072441101074 0.45461168885231018
0.77980685234069824 0.85500741004943848 0.43785291910171509
0.84943312406539917 0.86829173564910889 0.40758386254310608
0.92556989192962646 0.88075500726699829 0.36797869205474854
0.46725684404373169 0.90058493614196777 0.58626306056976318
0.47884660959243774 0.89961045980453491 0.59023725986480713
0.49615475535392761 0.89567059278488159 0.5915064811706543
0.51778709888458252 0.89157992601394653 0.59403020143508911
0.54988253116607666 0.88895022869110107 0.60330015420913696
0.58438467979431152 0.88379579782485962 0.60920852422714233
0.61757844686508179 0.88353556394577026 0.61423194408416748
0.65682542324066162 0.89009964466094971 0.61296939849853516
0.69467687606811523 0.89708095788955688 0.60423791408538818
0.74273556470870972 0.90712910890579224 0.59840387105941772
0.79376155138015747 0.91944801807403564 0.59240067005157471
0.84943687915802002 0.92877227067947388 0.57309448719024658
0.91401165723800659 0.93916577100753784 0.55378049612045288
0.074579142034053802 0.10083699226379395 0.17224361002445221
0.12206998467445374 0.097846224904060364 0.18133385479450226
0.20460507273674011 0.090054333209991455 0.19845236837863922
0.29429620504379272 0.072031714022159576 0.19839039444923401
0.39472663402557373 0.037297777831554413 0.19017994403839111
0.5185430645942688 0.01021861657500267 0.18303324282169342
0.64452314376831055 0.0056930691935122013 0.17860473692417145
0.75502669811248779 0.0042588626965880394 0.17122179269790649
0.84496951103210449 0.005029341671615839 0.15721894800662994
0.91118437051773071 0.013268205337226391 0.14751240611076355
0.96526652574539185 0.074196971952915192 0.12887977063655853
0.99613106250762939 0.1663161963224411 0.10726400464773178
1 0.23373225331306458 0.084456607699394226
0.06459914892911911 0.13889425992965698 0.17241090536117554
0.11510758101940155 0.14012868702411652 0.17978614568710327
0.19248558580875397 0.13938808441162109 0.18973980844020844
0.27901750802993774 0.12918971478939056 0.19038745760917664
0.39382722973823547 0.10680644959211349 0.18694214522838593
0.52147656679153442 0.067369662225246429 0.17964044213294983
0.64780652523040771 0.037575859576463699 0.17218159139156342
0.75706106424331665 0.036654572933912277 0.16224521398544312
0.84040898084640503 0.050570633262395859 0.1514577716588974
0.90709960460662842 0.097742937505245209 0.13953426480293274
0.96215933561325073 0.16127209365367889 0.11648599803447723
0.99461710453033447 0.22247394919395447 0.094681262969970703
0.99983501434326172 0.26785716414451599 0.072933048009872437
0.028430115431547165 0.20065952837467194 0.18187166750431061
0.077636078000068665 0.20229843258857727 0.18432186543941498
0.16449268162250519 0.20135566592216492 0.1889498233795166
0.26770949363708496 0.19997470080852509 0.18643078207969666
0.39412632584571838 0.19479101896286011 0.18188270926475525
0.52169263362884521 0.18250644207000732 0.17457988858222961
0.64304494857788086 0.17142353951931 0.16091591119766235
0.74860274791717529 0.17281313240528107 0.14443774521350861
0.8321196436882019 0.18853145837783813 0.12874686717987061
0.89981186389923096 0.22177070379257202 0.11291801929473877
0.95529139041900635 0.25753310322761536 0.094654753804206848
0.9922797679901123 0.29508876800537109 0.076278403401374817
0.99966084957122803 0.32911035418510437 0.05687275156378746
0.0047445259988307953 0.2816656231880188 0.19812442362308502
0.043144974857568741 0.2828345000743866 0.19707398116588593
0.14157582819461823 0.27733650803565979 0.19816616177558899
0.24632629752159119 0.2774333655834198 0.19001199305057526
0.37976258993148804 0.28931382298469543 0.17254616320133209
0.51013588905334473 0.29221993684768677 0.15671345591545105
0.62880253791809082 0.29071357846260071 0.1362876296043396
0.73279273509979248 0.29555666446685791 0.11083448678255081
0.81818646192550659 0.31210851669311523 0.094954997301101685
0.88536858558654785 0.32949995994567871 0.078965023159980774
0.94369745254516602 0.34989464282989502 0.064541518688201904
0.9908631443977356 0.37273222208023071 0.047484949231147766
0.99976050853729248 0.39333459734916687 0.037827644497156143
0.0027777429204434156 0.37115940451622009 0.21272389590740204
0.014110609889030457 0.36716419458389282 0.20789200067520142
0.1076800599694252 0.3567466139793396 0.21023854613304138
