luts/negative_new/kodak_portra_800_hc.cube
# Created by: G'MIC (https://gmic.eu)
TITLE "kodak_portra_800_hc"
# LUT size
LUT_3D_SIZE 5
# Data domain
DOMAIN_MIN 0.0 0.0 0.0
DOMAIN_MAX 1.0 1.0 1.0
# LUT data points
0.016240483149886131 0.023368924856185913 0.024979759007692337
0.20986582338809967 0.01008371077477932 0.020677005872130394
0.65985441207885742 0.0028843299951404333 0.0021565007045865059
0.95556640625 0.0022767011541873217 0.00061356788501143456
1 0.047888137400150299 0
0.003523718100041151 0.17907731235027313 0.028273848816752434
0.14788679778575897 0.21693909168243408 0.006493796594440937
0.65509724617004395 0.23203615844249725 0.0012503380421549082
0.92127978801727295 0.28477102518081665 0
0.99922138452529907 0.37127923965454102 0.00034571628202684224
0 0.49897852540016174 0.014585263095796108
0.0095548145473003387 0.50629901885986328 0.0054572159424424171
0.51148569583892822 0.58639907836914062 0
0.8519129753112793 0.62335813045501709 0.001922173541970551
0.99164509773254395 0.62576615810394287 0.0023284314665943384
0.00038743860204704106 0.73386579751968384 0.021934794262051582
0.00046287986333481967 0.72706061601638794 0.014565696008503437
0.40334227681159973 0.74637174606323242 0.0074862460605800152
0.76368618011474609 0.80211889743804932 0.0040853763930499554
0.98756879568099976 0.82407069206237793 0
0.30825620889663696 0.93692260980606079 0.44783619046211243
0.3759007453918457 0.93328386545181274 0.44668716192245483
0.53265225887298584 0.93421846628189087 0.43624973297119141
0.71688586473464966 0.95114654302597046 0.36854392290115356
0.93503022193908691 0.96856611967086792 0.13538837432861328
0.0043188654817640781 0.027582788839936256 0.22988280653953552
0.22291173040866852 0.0094047542661428452 0.25089046359062195
0.66665017604827881 0.0025841656606644392 0.22843730449676514
0.95049762725830078 0.00055980309844017029 0.19525688886642456
1 0.10310543328523636 0.16666033864021301
0.0036567987408488989 0.21719086170196533 0.23557408154010773
0.22370228171348572 0.23387320339679718 0.23748131096363068
0.66990005970001221 0.21699090301990509 0.21917735040187836
0.93081164360046387 0.28702718019485474 0.18046835064888
1 0.38497522473335266 0.13523827493190765
0.0047238967381417751 0.5354735255241394 0.2573506236076355
0.048802617937326431 0.53504651784896851 0.23103728890419006
0.55198931694030762 0.58829021453857422 0.1468166708946228
0.86284875869750977 0.62425237894058228 0.12129419296979904
0.99920427799224854 0.62767374515533447 0.12051020562648773
0.014720901846885681 0.74875533580780029 0.2927367091178894
0.044652033597230911 0.74256366491317749 0.27415645122528076
0.43505918979644775 0.74688065052032471 0.23361386358737946
0.75790524482727051 0.79540348052978516 0.14764143526554108
0.99326950311660767 0.82350313663482666 0.083365224301815033
0.3443046510219574 0.93576109409332275 0.52867615222930908
0.40963590145111084 0.93300807476043701 0.52935892343521118
0.54411381483078003 0.93327897787094116 0.52298593521118164
0.72534537315368652 0.95093601942062378 0.48890301585197449
0.93239706754684448 0.96702933311462402 0.35514107346534729
0.00334192905575037 0.012558821588754654 0.61139899492263794
0.22719490528106689 0.0015113980043679476 0.62936568260192871
0.69179755449295044 0.0020938948728144169 0.64613479375839233
0.93065458536148071 0.0021743325050920248 0.60910975933074951
1 0.0049232933670282364 0.56744861602783203
0.0031090232077986002 0.23249506950378418 0.60288113355636597
0.24149452149868011 0.23274651169776917 0.62212973833084106
0.68549627065658569 0.21304644644260406 0.64186543226242065
0.91615104675292969 0.22444938123226166 0.61216431856155396
1 0.35310617089271545 0.57912600040435791
0.01250139158219099 0.5800594687461853 0.58749055862426758
0.28854843974113464 0.5873790979385376 0.59304201602935791
0.59421086311340332 0.59027779102325439 0.59663200378417969
0.84672826528549194 0.62472236156463623 0.58599734306335449
0.99723005294799805 0.65124416351318359 0.59706497192382812
0.35456648468971252 0.77805179357528687 0.61900633573532104
0.43386760354042053 0.77606093883514404 0.61499613523483276
0.53691476583480835 0.76313811540603638 0.5673251748085022
0.77058768272399902 0.79897838830947876 0.55828893184661865
0.97835272550582886 0.81802618503570557 0.57342994213104248
0.48393809795379639 0.94110786914825439 0.69173651933670044
0.48996022343635559 0.93777215480804443 0.67026537656784058
0.5813223123550415 0.93478679656982422 0.66313338279724121
0.72788316011428833 0.94417637586593628 0.64533966779708862
0.93050944805145264 0.96628910303115845 0.60179227590560913
0.06671423465013504 0.00014473410556092858 0.85658007860183716
0.38561013340950012 0.001422822242602706 0.85445839166641235
0.68963217735290527 0.0089251203462481499 0.85973364114761353
0.92448574304580688 0.0072496002539992332 0.86182975769042969
1 0.015533297322690487 0.84018605947494507
0.12363393604755402 0.2476038783788681 0.84780299663543701
0.40730106830596924 0.24546507000923157 0.84592092037200928
0.68754476308822632 0.26654690504074097 0.85539716482162476
0.90277695655822754 0.33200088143348694 0.86145550012588501
0.99860638380050659 0.38659012317657471 0.83580774068832397
0.012807569466531277 0.56819403171539307 0.81399017572402954
0.28724294900894165 0.57662612199783325 0.81471830606460571
0.61823314428329468 0.5971759557723999 0.82412445545196533
0.85389214754104614 0.63160747289657593 0.83476442098617554
0.9913056492805481 0.64488798379898071 0.8315848708152771
0.38192138075828552 0.79207360744476318 0.80803108215332031
0.47069308161735535 0.7887231707572937 0.81034046411514282
0.6303638219833374 0.79671251773834229 0.81141096353530884
0.80590826272964478 0.80991667509078979 0.80992347002029419
0.9740404486656189 0.82892221212387085 0.8190954327583313
0.60741895437240601 0.94835323095321655 0.84711724519729614
0.63225704431533813 0.94480746984481812 0.83899343013763428
0.7024233341217041 0.94753211736679077 0.83981823921203613
0.77626341581344604 0.94393646717071533 0.81461578607559204
0.93944430351257324 0.96496301889419556 0.80856096744537354
0.47427499294281006 0.032752227038145065 0.99117225408554077
0.57039123773574829 0.034658096730709076 0.99258536100387573
0.7333570122718811 0.082487814128398895 0.99155217409133911
0.89852988719940186 0.26528516411781311 0.98721468448638916
0.99846816062927246 0.35785666108131409 0.98453003168106079
0.47394096851348877 0.34043997526168823 0.9825059175491333
0.56360620260238647 0.34830233454704285 0.9799809455871582
0.71392697095870972 0.38709524273872375 0.98332709074020386
0.88116681575775146 0.46771737933158875 0.98456883430480957
0.99087142944335938 0.51389890909194946 0.97887760400772095
0.40645310282707214 0.61370021104812622 0.97730535268783569
0.51392281055450439 0.62101048231124878 0.97590464353561401
0.67068672180175781 0.63122785091400146 0.97223401069641113
0.85209053754806519 0.66135913133621216 0.97222775220870972
0.98094016313552856 0.69416660070419312 0.97736048698425293
0.41714668273925781 0.79539108276367188 0.96404248476028442
0.48812714219093323 0.79022997617721558 0.96507596969604492
0.60913705825805664 0.79287469387054443 0.96366250514984131
0.81813722848892212 0.81550335884094238 0.9667893648147583
0.97879117727279663 0.84525066614151001 0.97009050846099854
0.61656659841537476 0.95375573635101318 0.95873540639877319
0.66022098064422607 0.95620119571685791 0.96537297964096069
0.74112653732299805 0.9554905891418457 0.96698439121246338
0.83950561285018921 0.95659476518630981 0.96519392728805542
0.964793860912323 0.96732026338577271 0.96655893325805664
