luts/negative_new/kodak_portra_800_+.cube
# Created by: G'MIC (https://gmic.eu)
TITLE "kodak_portra_800_+"
# LUT size
LUT_3D_SIZE 7
# Data domain
DOMAIN_MIN 0.0 0.0 0.0
DOMAIN_MAX 1.0 1.0 1.0
# LUT data points
0.085555300116539001 0.10267872363328934 0.075848869979381561
0.18753041326999664 0.10275337100028992 0.074048899114131927
0.37608450651168823 0.069747775793075562 0.063117966055870056
0.61618965864181519 0.015645390376448631 0.03747914731502533
0.84122425317764282 0.0098648965358734131 0.0084150424227118492
0.98759561777114868 0.013297136873006821 0.0019227570155635476
1 0.14081442356109619 0.0024071936495602131
0.063164696097373962 0.1824137419462204 0.088415734469890594
0.16306310892105103 0.1907678097486496 0.073318004608154297
0.35893100500106812 0.19816750288009644 0.055844727903604507
0.59243679046630859 0.17867569625377655 0.030631719157099724
0.82187515497207642 0.18169917166233063 0.0081044668331742287
0.97934430837631226 0.21565306186676025 0.0027483622543513775
1 0.27669492363929749 0.0023284314665943384
0.0082006864249706268 0.31261155009269714 0.10883461683988571
0.080252237617969513 0.3191758394241333 0.089618295431137085
0.31672266125679016 0.36204063892364502 0.032154623419046402
0.57290911674499512 0.38750237226486206 0.0043829823844134808
0.7767796516418457 0.38540428876876831 0.0083071989938616753
0.94591218233108521 0.40061584115028381 0.0042152106761932373
0.99464678764343262 0.43160256743431091 0.0039215688593685627
0.0031275281216949224 0.46609753370285034 0.11562991887331009
0.0063923257403075695 0.46549895405769348 0.11096348613500595
0.19120271503925323 0.48986101150512695 0.056366819888353348
0.50434339046478271 0.55688989162445068 0.0050591412000358105
0.76069563627243042 0.59205394983291626 0.0021329245064407587
0.91027683019638062 0.58239364624023438 0.0039169010706245899
0.99385964870452881 0.59192454814910889 0.0022741728462278843
0.0011061574332416058 0.6282697319984436 0.12783063948154449
0.0063018198125064373 0.62804305553436279 0.13103264570236206
0.070650853216648102 0.625244140625 0.096898339688777924
0.40034282207489014 0.66742193698883057 0.012674698606133461
0.68576091527938843 0.72401297092437744 0.003651533043012023
0.88469499349594116 0.75878995656967163 6.8634632043540478e-05
0.98763775825500488 0.7503400444984436 0
0 0.79384058713912964 0.18416959047317505
0.0052390904165804386 0.79332846403121948 0.19098077714443207
0.054994828999042511 0.78682541847229004 0.1675032377243042
0.38281705975532532 0.80218422412872314 0.11983565986156464
0.61754727363586426 0.83021348714828491 0.024462098255753517
0.82378298044204712 0.8646320104598999 0.0056077544577419758
0.98217159509658813 0.89028328657150269 0.00041717829299159348
0.19470414519309998 0.94765591621398926 0.40905338525772095
0.26272329688072205 0.94499450922012329 0.40789279341697693
0.37929487228393555 0.942047119140625 0.40982997417449951
0.51027423143386841 0.94063276052474976 0.40095385909080505
0.6541517972946167 0.95043623447418213 0.36625149846076965
0.79640406370162964 0.96455061435699463 0.28781303763389587
0.93327599763870239 0.97448199987411499 0.10772901028394699
0.081861205399036407 0.10556118190288544 0.19090813398361206
0.18955628573894501 0.1025991216301918 0.19396261870861053
0.37523120641708374 0.059153135865926743 0.18547244369983673
0.6240236759185791 0.008080560714006424 0.16719084978103638
0.84997671842575073 0.0049307728186249733 0.14707258343696594
0.98561227321624756 0.0076165590435266495 0.12086588889360428
1 0.11311362683773041 0.076827719807624817
0.083191543817520142 0.19122730195522308 0.1880488246679306
0.17934475839138031 0.19861958920955658 0.192842036485672
0.37821662425994873 0.18950361013412476 0.18033967912197113
0.6177670955657959 0.16411355137825012 0.16812886297702789
0.83590662479400635 0.14280615746974945 0.13895297050476074
0.9837842583656311 0.1944790780544281 0.10324817895889282
1 0.25898835062980652 0.05995604395866394
0.052679877728223801 0.33361637592315674 0.20477984845638275
0.14471934735774994 0.33778604865074158 0.20178847014904022
0.34132182598114014 0.3614523708820343 0.17048735916614532
0.58257228136062622 0.37888416647911072 0.13180086016654968
0.78695148229598999 0.37697958946228027 0.10195232927799225
0.95360487699508667 0.40113222599029541 0.053474441170692444
0.99860584735870361 0.42974317073822021 0.026349430903792381
0.0073744682595133781 0.4877544641494751 0.21130064129829407
0.01773751899600029 0.4860367476940155 0.20089372992515564
0.23591820895671844 0.499370276927948 0.18224790692329407
0.51566183567047119 0.55296880006790161 0.10447903722524643
0.76264363527297974 0.5849602222442627 0.035715814679861069
0.91355276107788086 0.57590341567993164 0.01784801110625267
0.99725717306137085 0.58881831169128418 0.0077267065644264221
7.4797986599151045e-05 0.64280354976654053 0.22089292109012604
0.0075454264879226685 0.63850891590118408 0.22036880254745483
0.11819775402545929 0.63767999410629272 0.19611994922161102
0.41837465763092041 0.67145770788192749 0.1350802481174469
0.68123924732208252 0.71973508596420288 0.039182208478450775
0.89175784587860107 0.75719988346099854 0.0045380536466836929
0.99158012866973877 0.74628138542175293 0.0041358498856425285
0.00034761615097522736 0.79985696077346802 0.26918914914131165
0.0057418672367930412 0.79660230875015259 0.26926156878471375
0.099171414971351624 0.79253089427947998 0.24660256505012512
0.393189936876297 0.79987341165542603 0.22340364754199982
0.62555336952209473 0.82793301343917847 0.15461033582687378
0.823627769947052 0.85982859134674072 0.045537941157817841
0.98439711332321167 0.88702642917633057 0.0032775879371911287
0.23071923851966858 0.94765567779541016 0.45096239447593689
0.2895323634147644 0.94597673416137695 0.45036473870277405
0.39977920055389404 0.94132363796234131 0.45494496822357178
0.51553058624267578 0.94065070152282715 0.44513389468193054
0.66288691759109497 0.95012938976287842 0.4221038818359375
0.80041748285293579 0.96253615617752075 0.36484232544898987
0.93215394020080566 0.97235536575317383 0.21528421342372894
0.028231272473931313 0.10812056064605713 0.37182790040969849
0.1831267774105072 0.095876656472682953 0.3778538703918457
0.39412835240364075 0.03962269052863121 0.3815900981426239
0.63321405649185181 0.0065508224070072174 0.37595725059509277
0.85313302278518677 0.0019696254748851061 0.36765024065971375
0.98892092704772949 0.0019299525301903486 0.33767873048782349
1 0.06131376326084137 0.33539840579032898
0.017446421086788177 0.19602029025554657 0.36355885863304138
0.17980676889419556 0.19672165811061859 0.37079143524169922
0.40336960554122925 0.18167397379875183 0.38170450925827026
0.63577169179916382 0.10500980168581009 0.37782147526741028
0.85905331373214722 0.042231258004903793 0.35829916596412659
0.99483668804168701 0.10149361193180084 0.34378805756568909
1 0.2543632984161377 0.34384879469871521
0.034314472228288651 0.35566592216491699 0.36008772253990173
0.18446916341781616 0.36329430341720581 0.36781477928161621
0.37757378816604614 0.3675994873046875 0.37039205431938171
0.60439872741699219 0.36221092939376831 0.3592255711555481
0.82173901796340942 0.36952430009841919 0.34933096170425415
0.96960145235061646 0.40050876140594482 0.33360493183135986
1 0.43734395503997803 0.32059100270271301
0.078306190669536591 0.52876359224319458 0.38368105888366699
0.20088718831539154 0.5319555401802063 0.38417410850524902
0.33678996562957764 0.53034716844558716 0.36493441462516785
0.54375970363616943 0.56003290414810181 0.33938503265380859
0.77339428663253784 0.57813161611557007 0.31276071071624756
0.92109370231628418 0.58513015508651733 0.29081401228904724
0.99628585577011108 0.59416115283966064 0.27131035923957825
0.051254782825708389 0.67888122797012329 0.39615499973297119
0.063999071717262268 0.67614865303039551 0.37689894437789917
0.25507506728172302 0.66645413637161255 0.36072197556495667
0.46142566204071045 0.67663741111755371 0.33202439546585083
0.70679134130477905 0.72751307487487793 0.30009335279464722
0.89502626657485962 0.75721651315689087 0.26302257180213928
0.99453270435333252 0.74618929624557495 0.24424837529659271
0.0064019295386970043 0.81505829095840454 0.41150376200675964
0.021023081615567207 0.81212979555130005 0.3999212384223938
0.23107577860355377 0.8055076003074646 0.38607242703437805
0.42494657635688782 0.80183225870132446 0.36747628450393677
0.64095115661621094 0.83296853303909302 0.34678786993026733
0.8315771222114563 0.86149793863296509 0.30610477924346924
0.98395198583602905 0.88252335786819458 0.23954451084136963
0.31486967206001282 0.94852906465530396 0.53839743137359619
0.35776937007904053 0.94573873281478882 0.5383453369140625
0.44148316979408264 0.94366645812988281 0.53558593988418579
0.53888392448425293 0.94219374656677246 0.52895736694335938
0.66215527057647705 0.94835066795349121 0.51316899061203003
0.80128878355026245 0.96000868082046509 0.48325872421264648
0.93480074405670166 0.97251391410827637 0.40585729479789734
0.0047511681914329529 0.097709819674491882 0.58980196714401245
0.18869675695896149 0.074123397469520569 0.58926987648010254
0.43518543243408203 0.018548209220170975 0.60482132434844971
0.66727197170257568 0.0077643301337957382 0.61956125497817993
0.84854280948638916 0.0046674390323460102 0.59891116619110107
0.98875623941421509 0.0034188663121312857 0.58035719394683838
1 0.0044950596056878567 0.54781121015548706
0.013726312667131424 0.20052053034305573 0.58363401889801025
0.18316113948822021 0.19533468782901764 0.58983093500137329
0.42040842771530151 0.16922673583030701 0.59957098960876465
0.66199153661727905 0.12474336475133896 0.61908859014511108
0.85101318359375 0.042980402708053589 0.60359114408493042
0.98877781629562378 0.040551368147134781 0.57872837781906128
1 0.14248549938201904 0.55221503973007202
0.015510080382227898 0.36835324764251709 0.56375771760940552
0.087801046669483185 0.36653313040733337 0.57364588975906372
0.38842698931694031 0.37486076354980469 0.58189290761947632
0.63451451063156128 0.37819352746009827 0.59308558702468872
0.82627201080322266 0.35562971234321594 0.57934892177581787
0.97172898054122925 0.37747299671173096 0.571186363697052
0.99889731407165527 0.43810698390007019 0.56662273406982422
0.026572583243250847 0.55295312404632568 0.55532610416412354
0.17883658409118652 0.55714994668960571 0.5644068717956543
0.3941531777381897 0.56114017963409424 0.57033079862594604
0.59057629108428955 0.56806808710098267 0.56416875123977661
0.77664816379547119 0.57331794500350952 0.5584835410118103
0.92412549257278442 0.59717744588851929 0.55359339714050293
0.99472057819366455 0.62201130390167236 0.54472577571868896
0.24314446747303009 0.70947813987731934 0.57891196012496948
0.31316268444061279 0.70946967601776123 0.57790189981460571
0.43509802222251892 0.70678901672363281 0.57702362537384033
0.53031915426254272 0.6976744532585144 0.54781591892242432
0.72171157598495483 0.73122161626815796 0.53727763891220093
0.89068931341171265 0.75617587566375732 0.52366572618484497
0.98841679096221924 0.75176501274108887 0.50720417499542236
0.34307333827018738 0.83156979084014893 0.60793644189834595
0.37547221779823303 0.83124738931655884 0.60244417190551758
0.4162520170211792 0.82737147808074951 0.5777207612991333
0.49765059351921082 0.81569463014602661 0.54540348052978516
0.64398646354675293 0.82616519927978516 0.52783596515655518
0.8384087085723877 0.86720031499862671 0.53132754564285278
0.9750710129737854 0.87746739387512207 0.5108456015586853
0.45342421531677246 0.94867759943008423 0.66801261901855469
0.4721546471118927 0.94488489627838135 0.66283822059631348
0.50658047199249268 0.94686853885650635 0.64898025989532471
0.5761985182762146 0.94258362054824829 0.63975727558135986
0.67209702730178833 0.94562488794326782 0.6270255446434021
0.79778653383255005 0.9587169885635376 0.61533069610595703
0.93437021970748901 0.97236257791519165 0.57960325479507446
0.061914019286632538 0.081332534551620483 0.77474617958068848
0.25858083367347717 0.048845060169696808 0.77758783102035522
0.47689670324325562 0.015858938917517662 0.78545600175857544
0.68447577953338623 0.0079679898917675018 0.79499536752700806
0.85577493906021118 0.0061126560904085636 0.79426097869873047
0.97918039560317993 0.0058397781103849411 0.7749631404876709
0.99897170066833496 0.0091505758464336395 0.75512087345123291
0.048357661813497543 0.20042833685874939 0.77204358577728271
0.2480328232049942 0.19401858747005463 0.77437406778335571
0.4564436674118042 0.16489134728908539 0.77721190452575684
0.67450767755508423 0.14752757549285889 0.79375666379928589
0.85615247488021851 0.11029428243637085 0.79794269800186157
0.98054808378219604 0.079627454280853271 0.77940410375595093
1 0.15588028728961945 0.75599634647369385
0.011429371312260628 0.36703518033027649 0.75250327587127686
0.15734104812145233 0.36681142449378967 0.76182335615158081
0.41866311430931091 0.37467926740646362 0.75821268558502197
0.64480209350585938 0.39259052276611328 0.76622366905212402
0.8327978253364563 0.39541250467300415 0.78115338087081909
0.96172058582305908 0.38471794128417969 0.76794171333312988
0.99656760692596436 0.42443433403968811 0.74905925989151001
0.006245078518986702 0.54915720224380493 0.73322969675064087
0.064515762031078339 0.55122679471969604 0.73396885395050049
0.36373734474182129 0.5577625036239624 0.73662203550338745
0.58891570568084717 0.57263863086700439 0.74605715274810791
0.78954982757568359 0.59671294689178467 0.76407706737518311
0.92718833684921265 0.6041642427444458 0.75574374198913574
0.99453914165496826 0.62377709150314331 0.75318533182144165
0.18645361065864563 0.72006136178970337 0.72720956802368164
0.2973836362361908 0.71822160482406616 0.73091757297515869
0.45254352688789368 0.71763831377029419 0.73671740293502808
0.59701454639434814 0.72291547060012817 0.73911350965499878
0.7483443021774292 0.74095273017883301 0.73917204141616821
0.88850194215774536 0.7569197416305542 0.73214066028594971
0.98243850469589233 0.76978397369384766 0.74075794219970703
0.44522663950920105 0.84696382284164429 0.7550201416015625
0.48695704340934753 0.84918028116226196 0.75569832324981689
0.54322266578674316 0.84657949209213257 0.74980276823043823
0.62967610359191895 0.84524381160736084 0.74535423517227173
0.69694113731384277 0.83566969633102417 0.71505546569824219
0.84441494941711426 0.86781013011932373 0.72222554683685303
0.96768540143966675 0.87563902139663696 0.7237774133682251
0.58139139413833618 0.95066636800765991 0.80248236656188965
0.59877336025238037 0.95115834474563599 0.80269807577133179
0.62803292274475098 0.95016402006149292 0.79600387811660767
0.66505545377731323 0.94855636358261108 0.78061169385910034
0.71293610334396362 0.94929653406143188 0.75604861974716187
0.81013983488082886 0.95531058311462402 0.74364429712295532
0.93722003698348999 0.97187060117721558 0.7424890398979187
0.26966163516044617 0.082474097609519958 0.90714085102081299
0.36827090382575989 0.057220607995986938 0.91048574447631836
0.52451980113983154 0.018924668431282043 0.91372001171112061
0.69663000106811523 0.011028454639017582 0.91862565279006958
0.85607898235321045 0.01224048063158989 0.9223291277885437
0.98153162002563477 0.034952305257320404 0.92409271001815796
1 0.033432696014642715 0.90989559888839722
0.25845402479171753 0.21897494792938232 0.90259605646133423
0.35638946294784546 0.22019778192043304 0.89699643850326538
0.51519131660461426 0.19400583207607269 0.90267562866210938
0.69277703762054443 0.17044886946678162 0.91213995218276978
0.85340768098831177 0.21838362514972687 0.91840595006942749
0.97440916299819946 0.23956595361232758 0.92253643274307251
1 0.23829188942909241 0.90242058038711548
0.20430848002433777 0.37865439057350159 0.90040439367294312
0.32245415449142456 0.38232138752937317 0.8987351655960083
0.48575413227081299 0.39204394817352295 0.89358198642730713
0.66987401247024536 0.3982069194316864 0.90387982130050659
0.82739067077636719 0.43652281165122986 0.90883952379226685
0.95646524429321289 0.45758777856826782 0.91355866193771362
0.99906498193740845 0.45562490820884705 0.90129542350769043
0.020824911072850227 0.54312312602996826 0.88130593299865723
0.16897691786289215 0.54722708463668823 0.88166636228561401
0.42785993218421936 0.55844980478286743 0.8806566596031189
0.62538057565689087 0.57236641645431519 0.88407987356185913
0.79715448617935181 0.60918313264846802 0.89502757787704468
0.92301058769226074 0.6302260160446167 0.90082740783691406
0.99250799417495728 0.63237637281417847 0.90003025531768799
0.10046153515577316 0.71671140193939209 0.86650067567825317
0.23708592355251312 0.71132838726043701 0.86521065235137939
0.40456363558769226 0.71176683902740479 0.86804032325744629
0.57708770036697388 0.71983224153518677 0.86683732271194458
0.74773234128952026 0.74396622180938721 0.87291479110717773
0.88928449153900146 0.77285146713256836 0.88521993160247803
0.9813075065612793 0.78178513050079346 0.88533121347427368
0.42420497536659241 0.85391521453857422 0.86655008792877197
0.46862933039665222 0.85317409038543701 0.86969190835952759
0.55768764019012451 0.85165059566497803 0.87209028005599976
0.65170598030090332 0.85312426090240479 0.8669503927230835
0.75381505489349365 0.86026817560195923 0.87265586853027344
0.86566460132598877 0.87457442283630371 0.87471860647201538
0.96633100509643555 0.88659524917602539 0.87846273183822632
0.63717508316040039 0.95907300710678101 0.89217585325241089
0.64993739128112793 0.95800948143005371 0.89207702875137329
0.68441164493560791 0.95547592639923096 0.88991671800613403
0.72533655166625977 0.95391857624053955 0.88736045360565186
0.78742688894271851 0.95628124475479126 0.88828200101852417
0.84101027250289917 0.95696514844894409 0.87048035860061646
0.9479261040687561 0.96423125267028809 0.87129610776901245
0.43410909175872803 0.16196441650390625 0.98978745937347412
0.48709937930107117 0.15187296271324158 0.99240678548812866
0.58910316228866577 0.13641735911369324 0.98710179328918457
0.71888428926467896 0.14357052743434906 0.98932784795761108
0.85067486763000488 0.18411409854888916 0.98790836334228516
0.96543973684310913 0.26957762241363525 0.99229627847671509
1 0.29860994219779968 0.98736077547073364
0.43355470895767212 0.26974448561668396 0.98861533403396606
0.48687523603439331 0.26683390140533447 0.98808842897415161
0.58936846256256104 0.2632286548614502 0.99142920970916748
0.71669512987136841 0.27870967984199524 0.98633986711502075
0.84625458717346191 0.31056815385818481 0.98506331443786621
0.95545423030853271 0.37253129482269287 0.98587751388549805
1 0.39031475782394409 0.98289591073989868
0.41949176788330078 0.42836704850196838 0.9830852746963501
0.47576189041137695 0.42889070510864258 0.98332273960113525
0.58136308193206787 0.43135315179824829 0.98428070545196533
0.70436102151870728 0.44266960024833679 0.98376357555389404
0.82879078388214111 0.48066219687461853 0.98134779930114746
0.94108980894088745 0.52463746070861816 0.9840131402015686
0.99706029891967773 0.53747302293777466 0.9862099289894104
0.36406615376472473 0.58121925592422485 0.98387354612350464
0.43745344877243042 0.58710670471191406 0.98088806867599487
0.55563187599182129 0.59406822919845581 0.98000258207321167
0.68479681015014648 0.60498172044754028 0.97910463809967041
0.8089526891708374 0.62740659713745117 0.97825765609741211
0.91898393630981445 0.65781652927398682 0.98065507411956787
0.99367231130599976 0.68163752555847168 0.98248547315597534
0.28176048398017883 0.72062945365905762 0.97791767120361328
0.35538652539253235 0.72041559219360352 0.97634345293045044
0.48279783129692078 0.72354376316070557 0.97633445262908936
0.63728970289230347 0.73565632104873657 0.97586387395858765
0.76834005117416382 0.75691050291061401 0.96980100870132446
0.89254564046859741 0.78215038776397705 0.9731629490852356
0.9805983304977417 0.80076128244400024 0.97217804193496704
0.45964810252189636 0.8614802360534668 0.96822905540466309
0.49414548277854919 0.85763531923294067 0.96804201602935791
0.55730181932449341 0.85599982738494873 0.96951603889465332
0.65497714281082153 0.85525411367416382 0.96784693002700806
0.74861288070678711 0.86039143800735474 0.96545505523681641
0.87124460935592651 0.88121408224105835 0.97078555822372437
0.96906602382659912 0.8988303542137146 0.97052323818206787
0.62961524724960327 0.96256572008132935 0.96716892719268799
0.65003842115402222 0.96313464641571045 0.96798944473266602
0.68531060218811035 0.96166497468948364 0.96812742948532104
0.74478566646575928 0.96056652069091797 0.96886003017425537
0.81176155805587769 0.95924615859985352 0.96517926454544067
0.87837046384811401 0.96448624134063721 0.96844565868377686
0.96319103240966797 0.97013801336288452 0.96975409984588623
