luts/negative_new/kodak_portra_400_++.cube
# Created by: G'MIC (https://gmic.eu)
TITLE "kodak_portra_400_++"
# LUT size
LUT_3D_SIZE 5
# Data domain
DOMAIN_MIN 0.0 0.0 0.0
DOMAIN_MAX 1.0 1.0 1.0
# LUT data points
0.092288821935653687 0.096826247870922089 0.089207544922828674
0.25977259874343872 0.085362106561660767 0.072857260704040527
0.62224388122558594 0.0097936894744634628 0.032888226211071014
0.8974120020866394 0.056314956396818161 0.0071076336316764355
0.99734872579574585 0.20610526204109192 0
0.010746510699391365 0.23458202183246613 0.10072202235460281
0.20602041482925415 0.25814375281333923 0.075889229774475098
0.60521525144577026 0.29793927073478699 0.0057002948597073555
0.87748152017593384 0.32974565029144287 0.0072702295146882534
0.99485772848129272 0.3859352171421051 0.0069738500751554966
0.0013309703208506107 0.4856361448764801 0.15067344903945923
0.063120104372501373 0.46411076188087463 0.15748323500156403
0.48600739240646362 0.5360836386680603 0.031023392453789711
0.81327152252197266 0.57724153995513916 0.0017882253741845489
0.98943805694580078 0.59237712621688843 0.0014079823158681393
0.0035883286036550999 0.70054823160171509 0.27279078960418701
0.12729522585868835 0.68324357271194458 0.28303447365760803
0.44317233562469482 0.68956953287124634 0.26723423600196838
0.72846049070358276 0.73796689510345459 0.15586067736148834
0.96965533494949341 0.77695542573928833 0.013530042953789234
0.46271595358848572 0.89768695831298828 0.57831203937530518
0.51925963163375854 0.89180088043212891 0.58986711502075195
0.61596834659576416 0.88469415903091431 0.60835790634155273
0.74220407009124756 0.9066130518913269 0.5902334451675415
0.91123849153518677 0.93977576494216919 0.54307305812835693
0.051420025527477264 0.10350887477397919 0.25929999351501465
0.31992658972740173 0.062109179794788361 0.30110132694244385
0.66555625200271606 0.0034622191451489925 0.30235853791236877
0.91844838857650757 0.0051192487590014935 0.26367002725601196
1 0.22941738367080688 0.23582169413566589
0.0039735380560159683 0.2950749397277832 0.27746084332466125
0.26907539367675781 0.30068132281303406 0.28770053386688232
0.64203429222106934 0.28594017028808594 0.2675568163394928
0.88902848958969116 0.33009272813796997 0.23352751135826111
0.99929201602935791 0.3973274827003479 0.20045600831508636
0.0029870425350964069 0.57065165042877197 0.33471375703811646
0.20344601571559906 0.53804677724838257 0.32072335481643677
0.54721188545227051 0.56196939945220947 0.28564560413360596
0.82946181297302246 0.58781945705413818 0.17071734368801117
0.99417573213577271 0.59051871299743652 0.091901727020740509
0.044062327593564987 0.73305881023406982 0.39128369092941284
0.2613275945186615 0.7140306830406189 0.39882776141166687
0.47898223996162415 0.69800519943237305 0.3956640362739563
0.73828428983688354 0.74463868141174316 0.34559667110443115
0.96910452842712402 0.77384597063064575 0.24180814623832703
0.47757473587989807 0.90625911951065063 0.61219626665115356
0.5260235071182251 0.89825892448425293 0.61779534816741943
0.62525326013565063 0.88774371147155762 0.63970643281936646
0.74544638395309448 0.90592122077941895 0.63119232654571533
0.9133715033531189 0.93808174133300781 0.59768122434616089
0.011477750726044178 0.11719008535146713 0.57995378971099854
0.37336462736129761 0.04839102178812027 0.62183576822280884
0.7614557147026062 0.003946356475353241 0.6801038384437561
0.92481321096420288 0.013146239332854748 0.64889764785766602
0.99981206655502319 0.21563068032264709 0.60096508264541626
0.0056676976382732391 0.30269926786422729 0.54182058572769165
0.30665317177772522 0.31427061557769775 0.59336304664611816
0.72228503227233887 0.3475496768951416 0.65936565399169922
0.89679962396621704 0.35539671778678894 0.63186115026473999
0.99761998653411865 0.42583775520324707 0.59764516353607178
0.0019174612825736403 0.62505769729614258 0.60384279489517212
0.26503381133079529 0.6198803186416626 0.60637468099594116
0.62701284885406494 0.61886763572692871 0.61565744876861572
0.83434557914733887 0.61417824029922485 0.58884263038635254
0.98917669057846069 0.6202855110168457 0.56740164756774902
0.34312519431114197 0.79748976230621338 0.64396011829376221
0.46096006035804749 0.78202646970748901 0.63888555765151978
0.5803636908531189 0.74510419368743896 0.61045199632644653
0.76458746194839478 0.75977218151092529 0.58940911293029785
0.96426534652709961 0.76784718036651611 0.53569751977920532
0.52418237924575806 0.92647624015808105 0.70501279830932617
0.56338304281234741 0.92099106311798096 0.69945991039276123
0.63889199495315552 0.90754526853561401 0.70479226112365723
0.75226950645446777 0.90603554248809814 0.70891731977462769
0.91635674238204956 0.93774890899658203 0.69117206335067749
0.26324212551116943 0.16360069811344147 0.80222445726394653
0.47899305820465088 0.14317479729652405 0.816028892993927
0.75367432832717896 0.14705277979373932 0.84651434421539307
0.94129562377929688 0.28546100854873657 0.8638036847114563
0.99969679117202759 0.36709558963775635 0.83060359954833984
0.1599547415971756 0.33692005276679993 0.78533899784088135
0.41714370250701904 0.35819432139396667 0.79693299531936646
0.7165568470954895 0.41310855746269226 0.83347517251968384
0.92244440317153931 0.48671731352806091 0.86023414134979248
0.99602186679840088 0.5017666220664978 0.83258175849914551
0.0033446666784584522 0.56320422887802124 0.72984534502029419
0.25932615995407104 0.56970345973968506 0.74465972185134888
0.61887603998184204 0.614146888256073 0.78737646341323853
0.86673367023468018 0.67386776208877563 0.83278322219848633
0.98951786756515503 0.66790413856506348 0.81966817378997803
0.28010967373847961 0.80090540647506714 0.79688018560409546
0.41932567954063416 0.80324637889862061 0.80219346284866333
0.60648423433303833 0.79592090845108032 0.79976165294647217
0.80896234512329102 0.80373895168304443 0.80676543712615967
0.97494339942932129 0.80141395330429077 0.78778934478759766
0.52328187227249146 0.96390444040298462 0.83518356084823608
0.58030623197555542 0.95593404769897461 0.83786827325820923
0.69204860925674438 0.94929349422454834 0.83632493019104004
0.78695344924926758 0.92450499534606934 0.82192665338516235
0.93223124742507935 0.93489605188369751 0.80733078718185425
0.53025913238525391 0.37284162640571594 0.96362423896789551
0.61062163114547729 0.38781392574310303 0.96608752012252808
0.75168323516845703 0.42464163899421692 0.97208571434020996
0.91564297676086426 0.4991658627986908 0.98127466440200806
0.99946969747543335 0.5483022928237915 0.97612917423248291
0.50996410846710205 0.49199795722961426 0.95461142063140869
0.58675527572631836 0.51164621114730835 0.95727163553237915
0.73642736673355103 0.53890335559844971 0.96417546272277832
0.90357941389083862 0.59396582841873169 0.97497421503067017
0.9960860013961792 0.62732481956481934 0.97844606637954712
0.43625566363334656 0.64921665191650391 0.93870037794113159
0.52828395366668701 0.65030431747436523 0.94106191396713257
0.69252306222915649 0.66802847385406494 0.95163804292678833
0.87258231639862061 0.71393251419067383 0.9654882550239563
0.99500203132629395 0.73191684484481812 0.95838600397109985
0.35422644019126892 0.7854124903678894 0.92838537693023682
0.43062549829483032 0.78052234649658203 0.92774993181228638
0.57635682821273804 0.77700912952423096 0.92978394031524658
0.80532354116439819 0.80904471874237061 0.949249267578125
0.9858555793762207 0.86188280582427979 0.96872276067733765
0.46431145071983337 0.94547200202941895 0.94686621427536011
0.52604418992996216 0.96314877271652222 0.9592786431312561
0.65232259035110474 0.95854377746582031 0.96041560173034668
0.80443137884140015 0.96011841297149658 0.96473366022109985
0.95401334762573242 0.95841628313064575 0.95498514175415039
