luts/negative_new/kodak_portra_800_++.cube
# Created by: G'MIC (https://gmic.eu)
TITLE "kodak_portra_800_++"
# LUT size
LUT_3D_SIZE 7
# Data domain
DOMAIN_MIN 0.0 0.0 0.0
DOMAIN_MAX 1.0 1.0 1.0
# LUT data points
0.070072025060653687 0.14488174021244049 0.19163678586483002
0.17887194454669952 0.14869853854179382 0.18749025464057922
0.34557661414146423 0.14886412024497986 0.18478314578533173
0.58419996500015259 0.15115946531295776 0.18418057262897491
0.81942170858383179 0.16087606549263 0.16538025438785553
0.98315626382827759 0.22199882566928864 0.13502132892608643
0.99980145692825317 0.29980155825614929 0.098655417561531067
0.057886790484189987 0.20466057956218719 0.20121538639068604
0.15451189875602722 0.21075296401977539 0.19535236060619354
0.33392655849456787 0.22334578633308411 0.18431486189365387
0.56632143259048462 0.25079387426376343 0.1727583259344101
0.79621315002441406 0.2710970938205719 0.14992085099220276
0.97185266017913818 0.30899322032928467 0.11747252196073532
1 0.37085559964179993 0.066844016313552856
0.010128440335392952 0.31715330481529236 0.21341115236282349
0.091455630958080292 0.32385888695716858 0.20767499506473541
0.30412432551383972 0.3677106499671936 0.18041537702083588
0.54924535751342773 0.41237097978591919 0.13354751467704773
0.77103251218795776 0.41085851192474365 0.10757184773683548
0.9456060528755188 0.44166263937950134 0.046379223465919495
0.99855750799179077 0.47147288918495178 0.015354395844042301
0.003907566424459219 0.46177241206169128 0.22772683203220367
0.016068626195192337 0.45569655299186707 0.22098957002162933
0.20344844460487366 0.49550947546958923 0.19508439302444458
0.48165425658226013 0.55557101964950562 0.12157107889652252
0.75177520513534546 0.60824143886566162 0.008703179657459259
0.91810792684555054 0.59937143325805664 0.0093527399003505707
0.99221831560134888 0.60951077938079834 0.012650433927774429
0.0018066555494442582 0.62303721904754639 0.22957998514175415
0.010734543204307556 0.61809557676315308 0.23278814554214478
0.088036179542541504 0.62197369337081909 0.21759697794914246
0.39363032579421997 0.67183387279510498 0.16282428801059723
0.66705197095870972 0.72630101442337036 0.027563581243157387
0.90169829130172729 0.77240318059921265 0.0031754437368363142
0.99003380537033081 0.76254791021347046 0.0055031571537256241
1.9088445696979761e-05 0.7934456467628479 0.2788536548614502
0.0036953645758330822 0.7899736762046814 0.27884656190872192
0.10565561056137085 0.78635412454605103 0.26862487196922302
0.3854030966758728 0.8005794882774353 0.24480673670768738
0.62209826707839966 0.8342052698135376 0.17698115110397339
0.83113771677017212 0.86581712961196899 0.032786201685667038
0.98581469058990479 0.89101606607437134 0.00063926848815754056
0.33215996623039246 0.94459736347198486 0.4765467643737793
0.37471684813499451 0.94184815883636475 0.47733238339424133
0.45714446902275085 0.9362226128578186 0.48014873266220093
0.56877714395523071 0.936920166015625 0.4777069091796875
0.68806272745132446 0.94788384437561035 0.44580802321434021
0.82339471578598022 0.96174013614654541 0.38372921943664551
0.95185494422912598 0.97194498777389526 0.21475927531719208
0.067653626203536987 0.14740659296512604 0.25770655274391174
0.18443930149078369 0.14547562599182129 0.26272103190422058
0.36230236291885376 0.12630563974380493 0.25394946336746216
0.59154927730560303 0.077037036418914795 0.24338634312152863
0.83353680372238159 0.1156071200966835 0.24891833961009979
0.98515087366104126 0.1978464275598526 0.23220938444137573
1 0.29160222411155701 0.21532592177391052
0.0723753422498703 0.2184184342622757 0.25939556956291199
0.17048019170761108 0.21821399033069611 0.26282107830047607
0.35128694772720337 0.21528246998786926 0.25739717483520508
0.58555430173873901 0.23322094976902008 0.25093236565589905
0.81220561265945435 0.24540789425373077 0.24641583859920502
0.97615200281143188 0.29594171047210693 0.22532142698764801
0.99962258338928223 0.35897049307823181 0.20166999101638794
0.032942887395620346 0.33842438459396362 0.26886087656021118
0.12647914886474609 0.33889147639274597 0.26829737424850464
0.31478250026702881 0.36186492443084717 0.25442266464233398
0.56309884786605835 0.40442901849746704 0.23076024651527405
0.7804456353187561 0.40774407982826233 0.20825953781604767
0.94677102565765381 0.4405987560749054 0.17999720573425293
0.99791193008422852 0.47384735941886902 0.13434785604476929
0.0038834067527204752 0.4874592125415802 0.28613448143005371
0.02329355850815773 0.48429393768310547 0.27398383617401123
0.23718808591365814 0.50176912546157837 0.26169309020042419
0.50544959306716919 0.56389373540878296 0.2102767676115036
0.75932681560516357 0.60064691305160522 0.13030321896076202
0.92189103364944458 0.59327226877212524 0.09198307991027832
0.99705207347869873 0.6011195182800293 0.047796405851840973
0.0012489169603213668 0.64120519161224365 0.29134684801101685
0.0070805866271257401 0.63811701536178589 0.28997862339019775
0.12975211441516876 0.63530105352401733 0.27331006526947021
0.41395154595375061 0.67313253879547119 0.24059490859508514
0.67860335111618042 0.72719329595565796 0.15826776623725891
0.9033818244934082 0.76661092042922974 0.027188081294298172
0.99349170923233032 0.75301480293273926 0.0069324267096817493
0.0028739180415868759 0.79833638668060303 0.33992865681648254
0.0048935385420918465 0.79911649227142334 0.33139777183532715
0.14544111490249634 0.79424208402633667 0.32149335741996765
0.40333518385887146 0.80297136306762695 0.30773964524269104
0.6236802339553833 0.83388221263885498 0.25898796319961548
0.83383333683013916 0.86501562595367432 0.15494169294834137
0.98852777481079102 0.89122766256332397 0.0095009449869394302
0.3573620617389679 0.94474035501480103 0.50881493091583252
0.39567077159881592 0.94241541624069214 0.51074552536010742
0.47470051050186157 0.93707704544067383 0.51666533946990967
0.57832866907119751 0.9364616870880127 0.51345598697662354
0.69635540246963501 0.94699358940124512 0.49176350235939026
0.82713168859481812 0.96015000343322754 0.43982481956481934
0.95256608724594116 0.97101742029190063 0.3037678599357605
0.030952738597989082 0.14733541011810303 0.4007117748260498
0.191180020570755 0.13930878043174744 0.40846222639083862
0.37348389625549316 0.1158902645111084 0.4108155369758606
0.60444021224975586 0.015540508553385735 0.41648662090301514
0.84394443035125732 0.0048541948199272156 0.38876554369926453
0.99417126178741455 0.016184413805603981 0.36384278535842896
1 0.25795742869377136 0.3859921395778656
0.014821909368038177 0.22235715389251709 0.39790034294128418
0.16532252728939056 0.22283287346363068 0.40295222401618958
0.37803152203559875 0.20837284624576569 0.40833377838134766
0.62003999948501587 0.1617685854434967 0.40964767336845398
0.85083764791488647 0.098052754998207092 0.38657024502754211
0.99303442239761353 0.22181496024131775 0.38374972343444824
1 0.37837615609169006 0.39945989847183228
0.0063368403352797031 0.36244514584541321 0.39255547523498535
0.14600372314453125 0.37126332521438599 0.39855855703353882
0.35757932066917419 0.3802742063999176 0.40694430470466614
0.58975952863693237 0.39570915699005127 0.39508342742919922
0.80550414323806763 0.41190585494041443 0.3894897997379303
0.96182233095169067 0.44846072793006897 0.38626757264137268
0.99973267316818237 0.49827983975410461 0.36721521615982056
0.0057123070582747459 0.53424280881881714 0.41281810402870178
0.14390601217746735 0.53657722473144531 0.41051343083381653
0.30793017148971558 0.53502416610717773 0.39709621667861938
0.53006809949874878 0.56619489192962646 0.37018945813179016
0.76016408205032349 0.58063286542892456 0.34017688035964966
0.92787867784500122 0.58557522296905518 0.32730945944786072
0.99686563014984131 0.61115407943725586 0.32281398773193359
0.014578351750969887 0.68440258502960205 0.42243707180023193
0.034611660987138748 0.68105840682983398 0.41059181094169617
0.23831534385681152 0.67118942737579346 0.40106344223022461
0.43917360901832581 0.67730021476745605 0.37732920050621033
0.69625717401504517 0.73561269044876099 0.34580495953559875
0.90501338243484497 0.75666356086730957 0.30261829495429993
0.99501317739486694 0.74140197038650513 0.24486871063709259
0.0061157676391303539 0.81936603784561157 0.44395220279693604
0.046276677399873734 0.81647998094558716 0.43603983521461487
0.2633441686630249 0.80820918083190918 0.43367031216621399
0.43043151497840881 0.80264878273010254 0.41569936275482178
0.63426351547241211 0.83446437120437622 0.39440366625785828
0.84820836782455444 0.86908376216888428 0.35506933927536011
0.99010741710662842 0.88634294271469116 0.2731020450592041
0.41337421536445618 0.94587188959121704 0.57955306768417358
0.44236394762992859 0.94152837991714478 0.58157885074615479
0.51054620742797852 0.94062966108322144 0.58058571815490723
0.59703898429870605 0.93810778856277466 0.57646858692169189
0.70608246326446533 0.94399011135101318 0.56366622447967529
0.82476401329040527 0.95809352397918701 0.53438806533813477
0.95018208026885986 0.96992748975753784 0.45400163531303406
0.013849535025656223 0.14271607995033264 0.60446774959564209
0.1939159631729126 0.13290482759475708 0.60796636343002319
0.42598575353622437 0.085158057510852814 0.61941581964492798
0.65088146924972534 0.0088136410340666771 0.62548857927322388
0.84689003229141235 0.0058517158031463623 0.60753905773162842
0.99136114120483398 0.003253936767578125 0.58705997467041016
0.99971872568130493 0.0076443841680884361 0.54623079299926758
0.0103645920753479 0.22331279516220093 0.59370177984237671
0.15578199923038483 0.2192365825176239 0.60182017087936401
0.40322965383529663 0.20330332219600677 0.61808562278747559
0.64448922872543335 0.15307508409023285 0.62952297925949097
0.84799927473068237 0.056616377085447311 0.6149216890335083
0.98927336931228638 0.055388133972883224 0.58687877655029297
1 0.19404314458370209 0.55369395017623901
0.0069108251482248306 0.37178245186805725 0.58294844627380371
0.036963190883398056 0.3748420774936676 0.58710026741027832
0.35789656639099121 0.38423475623130798 0.59910112619400024
0.6210707426071167 0.38292589783668518 0.61240255832672119
0.82787525653839111 0.36759647727012634 0.59922343492507935
0.9742501974105835 0.40211215615272522 0.58175927400588989
1 0.48689022660255432 0.58334773778915405
0.0069389641284942627 0.56329250335693359 0.57677417993545532
0.085411220788955688 0.56592416763305664 0.57383495569229126
0.35937583446502686 0.56878954172134399 0.57977789640426636
0.56874525547027588 0.57905620336532593 0.5773811936378479
0.77203512191772461 0.59476989507675171 0.5766405463218689
0.92895221710205078 0.62322831153869629 0.58063513040542603
0.9963376522064209 0.65215712785720825 0.57892036437988281
0.16379892826080322 0.72099012136459351 0.58963108062744141
0.27465689182281494 0.72016710042953491 0.59021896123886108
0.41091823577880859 0.71383923292160034 0.58645904064178467
0.52792108058929443 0.70683306455612183 0.56637048721313477
0.71827614307403564 0.73988837003707886 0.55207151174545288
0.89930266141891479 0.75013554096221924 0.53127515316009521
0.9940112829208374 0.74257171154022217 0.5046011209487915
0.34185010194778442 0.8386651873588562 0.61835294961929321
0.37883397936820984 0.83859944343566895 0.6134224534034729
0.42535400390625 0.83152163028717041 0.59233075380325317
0.51638889312744141 0.81900691986083984 0.56955152750015259
0.65604174137115479 0.82875591516494751 0.55619686841964722
0.84417438507080078 0.86528122425079346 0.54750549793243408
0.97918581962585449 0.87822479009628296 0.5183568000793457
0.50626003742218018 0.94766640663146973 0.68307304382324219
0.52325880527496338 0.94725233316421509 0.68054413795471191
0.55869346857070923 0.94407778978347778 0.67092227935791016
0.62631350755691528 0.94128072261810303 0.66634809970855713
0.71327406167984009 0.94086760282516479 0.65738487243652344
0.82712256908416748 0.95448434352874756 0.64294791221618652
0.94725722074508667 0.97058439254760742 0.60837382078170776
0.071591317653656006 0.13381248712539673 0.77790528535842896
0.26107591390609741 0.11433655768632889 0.77887052297592163
0.45458686351776123 0.050002768635749817 0.78714722394943237
0.66738200187683105 0.0079519683495163918 0.79629617929458618
0.85875380039215088 0.0056812809780240059 0.79788273572921753
0.9885374903678894 0.0034706564620137215 0.78462940454483032
0.99948799610137939 0.0070188934914767742 0.75677216053009033
0.021860010921955109 0.22171472012996674 0.77657818794250488
0.2215428352355957 0.21677392721176147 0.77798014879226685
0.42861005663871765 0.19245059788227081 0.7788621187210083
0.66514503955841064 0.16795523464679718 0.79387593269348145
0.86080414056777954 0.12252204865217209 0.80187636613845825
0.99006015062332153 0.076973095536231995 0.78162163496017456
1 0.14561176300048828 0.75453293323516846
0.0063956016674637794 0.37036687135696411 0.75894641876220703
0.09237276017665863 0.37458890676498413 0.76696145534515381
0.38851103186607361 0.38361382484436035 0.76653069257736206
0.62851035594940186 0.39047062397003174 0.77901381254196167
0.83331584930419922 0.39608418941497803 0.78175234794616699
0.97365611791610718 0.40139871835708618 0.76896935701370239
0.99618810415267944 0.43605178594589233 0.75333642959594727
0.0076565011404454708 0.55566585063934326 0.74027514457702637
0.012591223232448101 0.55845910310745239 0.74004620313644409
0.31746700406074524 0.56153851747512817 0.74270349740982056
0.57742953300476074 0.5791548490524292 0.74815785884857178
0.79384839534759521 0.60833841562271118 0.76719433069229126
0.93785065412521362 0.61861836910247803 0.76144534349441528
0.99358344078063965 0.65361422300338745 0.76635104417800903
0.09223734587430954 0.73347097635269165 0.72919100522994995
0.2287476509809494 0.7318909764289856 0.73551261425018311
0.4109443724155426 0.72566932439804077 0.7408711314201355
0.5934298038482666 0.737884521484375 0.73947787284851074
0.75104480981826782 0.74867647886276245 0.74219876527786255
0.89782172441482544 0.7717510461807251 0.75071835517883301
0.98693478107452393 0.78841096162796021 0.74702972173690796
0.44814935326576233 0.85746282339096069 0.75968015193939209
0.48486790060997009 0.85755997896194458 0.75739264488220215
0.55640548467636108 0.855976402759552 0.7540438175201416
0.63489145040512085 0.85498619079589844 0.74595743417739868
0.71505868434906006 0.84270769357681274 0.72165369987487793
0.86005431413650513 0.86672258377075195 0.72552776336669922
0.98107814788818359 0.87884414196014404 0.71616697311401367
0.61362063884735107 0.95194345712661743 0.80458617210388184
0.62939101457595825 0.95133459568023682 0.80427414178848267
0.66062402725219727 0.9507296085357666 0.79774636030197144
0.6987539529800415 0.94892632961273193 0.78447848558425903
0.75270664691925049 0.94559812545776367 0.77192306518554688
0.84339594841003418 0.95441740751266479 0.7614753246307373
0.95213383436203003 0.96965062618255615 0.75119990110397339
0.25101301074028015 0.1347106546163559 0.91033381223678589
0.35787791013717651 0.11961707472801208 0.90943551063537598
0.50689268112182617 0.075881823897361755 0.91051250696182251
0.68067485094070435 0.020176487043499947 0.91661792993545532
0.85894179344177246 0.015845729038119316 0.92347985506057739
0.98993277549743652 0.031961478292942047 0.92527085542678833
1 0.028275059536099434 0.90949529409408569
0.22089689970016479 0.23782806098461151 0.90537053346633911
0.32991459965705872 0.23193217813968658 0.90625512599945068
0.48536878824234009 0.22234709560871124 0.9021415114402771
0.67785507440567017 0.20439319312572479 0.90751183032989502
0.85754930973052979 0.22456648945808411 0.91697263717651367
0.97857892513275146 0.23655524849891663 0.91953229904174805
0.99986928701400757 0.25202259421348572 0.90224415063858032
0.12724350392818451 0.3848533034324646 0.89943790435791016
0.26910638809204102 0.38815546035766602 0.89801687002182007
0.45231533050537109 0.39944985508918762 0.89098644256591797
0.66105455160140991 0.4154229462146759 0.89664024114608765
0.83913898468017578 0.44209063053131104 0.90457946062088013
0.96663469076156616 0.45956352353096008 0.91079932451248169
0.99478918313980103 0.47232618927955627 0.89953792095184326
0.0065311058424413204 0.55321246385574341 0.8797723650932312
0.088912084698677063 0.55252695083618164 0.88215363025665283
0.38973280787467957 0.56796014308929443 0.88102620840072632
0.61242812871932983 0.58941972255706787 0.88148528337478638
0.80312621593475342 0.62153619527816772 0.89116001129150391
0.93977487087249756 0.64201956987380981 0.89904546737670898
0.98942822217941284 0.65157997608184814 0.89929282665252686
0.033404301851987839 0.72745048999786377 0.86565709114074707
0.16421067714691162 0.72536969184875488 0.8668440580368042
0.38054826855659485 0.72208636999130249 0.86592274904251099
0.57296550273895264 0.73212039470672607 0.86638820171356201
0.74988305568695068 0.75238418579101562 0.87517595291137695
0.90502309799194336 0.78385823965072632 0.88683301210403442
0.99308621883392334 0.78910058736801147 0.88812583684921265
0.40419703722000122 0.85867661237716675 0.86749649047851562
0.4539887011051178 0.86058956384658813 0.86592310667037964
0.55098354816436768 0.86302655935287476 0.8656231164932251
0.67152863740921021 0.86235505342483521 0.86768871545791626
0.7742915153503418 0.8670579195022583 0.87156659364700317
0.88446581363677979 0.87919384241104126 0.87592685222625732
0.97735106945037842 0.89657354354858398 0.88383108377456665
0.65226525068283081 0.95768064260482788 0.89071536064147949
0.67387408018112183 0.95941662788391113 0.89148318767547607
0.70683568716049194 0.95664852857589722 0.89005434513092041
0.76224523782730103 0.95486176013946533 0.88819700479507446
0.81534159183502197 0.95516163110733032 0.88772308826446533
0.86384814977645874 0.94775068759918213 0.86994105577468872
0.96459025144577026 0.9659043550491333 0.87421369552612305
0.40337517857551575 0.19221833348274231 0.98852133750915527
0.46262705326080322 0.1884990930557251 0.98919832706451416
0.57158118486404419 0.17707575857639313 0.99187463521957397
0.71015751361846924 0.17288066446781158 0.98844003677368164
0.85381102561950684 0.19813546538352966 0.98845994472503662
0.97409951686859131 0.27380412817001343 0.99203777313232422
1 0.30268356204032898 0.98686426877975464
0.39878824353218079 0.28635942935943604 0.98917800188064575
0.45955494046211243 0.2814393937587738 0.9902496337890625
0.57279253005981445 0.28622370958328247 0.98847079277038574
0.70722883939743042 0.28979596495628357 0.99185085296630859
0.84744471311569214 0.31925958395004272 0.99062544107437134
0.96690618991851807 0.37605506181716919 0.99062055349349976
1 0.40198591351509094 0.98101359605789185
0.38527190685272217 0.4355863630771637 0.98376059532165527
0.45284190773963928 0.43706208467483521 0.98259711265563965
0.56335270404815674 0.44148775935173035 0.98468637466430664
0.69673925638198853 0.45771485567092896 0.98268246650695801
0.83461421728134155 0.48787960410118103 0.98356133699417114
0.94731664657592773 0.52928251028060913 0.98285466432571411
0.99694150686264038 0.55985641479492188 0.9826887845993042
0.32815122604370117 0.5901871919631958 0.98352432250976562
0.41203188896179199 0.59695667028427124 0.98151785135269165
0.54060930013656616 0.60448634624481201 0.9789658784866333
0.68420487642288208 0.61931252479553223 0.97786766290664673
0.81291508674621582 0.64689630270004272 0.9756399393081665
0.91953074932098389 0.68008095026016235 0.96789848804473877
0.9930071234703064 0.70156854391098022 0.97618812322616577
0.24093931913375854 0.73012810945510864 0.97653335332870483
0.33142855763435364 0.72805494070053101 0.97412246465682983
0.47095033526420593 0.73313325643539429 0.9729233980178833
0.64383721351623535 0.74789071083068848 0.97081500291824341
0.78804987668991089 0.767689049243927 0.97089415788650513
0.9045097827911377 0.79513657093048096 0.96953833103179932
0.98639976978302002 0.81116598844528198 0.9723936915397644
0.45881682634353638 0.86314243078231812 0.96382713317871094
0.50039571523666382 0.86545157432556152 0.96564644575119019
0.56302309036254883 0.85976535081863403 0.96720749139785767
0.65807723999023438 0.85619819164276123 0.96294426918029785
0.75835341215133667 0.86320871114730835 0.96228516101837158
0.88072496652603149 0.88262224197387695 0.96785938739776611
0.97116589546203613 0.8983350396156311 0.96437317132949829
0.65759444236755371 0.96287268400192261 0.96578294038772583
0.66845500469207764 0.96288937330245972 0.96383434534072876
0.70559775829315186 0.95961034297943115 0.96537882089614868
0.76690185070037842 0.95822149515151978 0.96625632047653198
0.82583522796630859 0.95798563957214355 0.96542799472808838
0.89984339475631714 0.96445769071578979 0.96728891134262085
0.97131705284118652 0.97031790018081665 0.96614640951156616
