luts/negative_new/kodak_tmax_3200_+.cube
# Created by: G'MIC (https://gmic.eu)
TITLE "kodak_tmax_3200_+"
# LUT size
LUT_3D_SIZE 5
# Data domain
DOMAIN_MIN 0.0 0.0 0.0
DOMAIN_MAX 1.0 1.0 1.0
# LUT data points
0.22025369107723236 0.22025369107723236 0.22025369107723236
0.22148445248603821 0.22148445248603821 0.22148445248603821
0.24330002069473267 0.24330002069473267 0.24330002069473267
0.2673085629940033 0.2673085629940033 0.2673085629940033
0.34288963675498962 0.34288963675498962 0.34288963675498962
0.25531062483787537 0.25531062483787537 0.25531062483787537
0.26484709978103638 0.26484709978103638 0.26484709978103638
0.30949538946151733 0.30949538946151733 0.30949538946151733
0.36633497476577759 0.36633497476577759 0.36633497476577759
0.45984047651290894 0.45984047651290894 0.45984047651290894
0.37732890248298645 0.37732890248298645 0.37732890248298645
0.38848549127578735 0.38848549127578735 0.38848549127578735
0.44972434639930725 0.44972434639930725 0.44972434639930725
0.57216519117355347 0.57216519117355347 0.57216519117355347
0.69837784767150879 0.69837784767150879 0.69837784767150879
0.61804252862930298 0.61804252862930298 0.61804252862930298
0.6232837438583374 0.6232837438583374 0.6232837438583374
0.66210293769836426 0.66210293769836426 0.66210293769836426
0.73694062232971191 0.73694062232971191 0.73694062232971191
0.83995085954666138 0.83995085954666138 0.83995085954666138
0.8809695839881897 0.8809695839881897 0.8809695839881897
0.87873584032058716 0.87873584032058716 0.87873584032058716
0.89972394704818726 0.89972394704818726 0.89972394704818726
0.91167598962783813 0.91167598962783813 0.91167598962783813
0.93856674432754517 0.93856674432754517 0.93856674432754517
0.21912236511707306 0.21912236511707306 0.21912236511707306
0.23300927877426147 0.23300927877426147 0.23300927877426147
0.25369861721992493 0.25369861721992493 0.25369861721992493
0.27632763981819153 0.27632763981819153 0.27632763981819153
0.34389463067054749 0.34389463067054749 0.34389463067054749
0.27089345455169678 0.27089345455169678 0.27089345455169678
0.28901451826095581 0.28901451826095581 0.28901451826095581
0.32655566930770874 0.32655566930770874 0.32655566930770874
0.37466627359390259 0.37466627359390259 0.37466627359390259
0.4573521614074707 0.4573521614074707 0.4573521614074707
0.41373470425605774 0.41373470425605774 0.41373470425605774
0.43553429841995239 0.43553429841995239 0.43553429841995239
0.49467533826828003 0.49467533826828003 0.49467533826828003
0.59346961975097656 0.59346961975097656 0.59346961975097656
0.70154672861099243 0.70154672861099243 0.70154672861099243
0.65509986877441406 0.65509986877441406 0.65509986877441406
0.66228723526000977 0.66228723526000977 0.66228723526000977
0.68863624334335327 0.68863624334335327 0.68863624334335327
0.7398228645324707 0.7398228645324707 0.7398228645324707
0.85339736938476562 0.85339736938476562 0.85339736938476562
0.8889428973197937 0.8889428973197937 0.8889428973197937
0.88799148797988892 0.88799148797988892 0.88799148797988892
0.8939400315284729 0.8939400315284729 0.8939400315284729
0.90155678987503052 0.90155678987503052 0.90155678987503052
0.94168394804000854 0.94168394804000854 0.94168394804000854
0.2310231477022171 0.2310231477022171 0.2310231477022171
0.25573751330375671 0.25573751330375671 0.25573751330375671
0.29397255182266235 0.29397255182266235 0.29397255182266235
0.31619349122047424 0.31619349122047424 0.31619349122047424
0.36716124415397644 0.36716124415397644 0.36716124415397644
0.29162099957466125 0.29162099957466125 0.29162099957466125
0.31679433584213257 0.31679433584213257 0.31679433584213257
0.36289772391319275 0.36289772391319275 0.36289772391319275
0.38196730613708496 0.38196730613708496 0.38196730613708496
0.43719443678855896 0.43719443678855896 0.43719443678855896
0.42692264914512634 0.42692264914512634 0.42692264914512634
0.47027966380119324 0.47027966380119324 0.47027966380119324
0.55180662870407104 0.55180662870407104 0.55180662870407104
0.61774474382400513 0.61774474382400513 0.61774474382400513
0.66889780759811401 0.66889780759811401 0.66889780759811401
0.71067404747009277 0.71067404747009277 0.71067404747009277
0.7252623438835144 0.7252623438835144 0.7252623438835144
0.75082314014434814 0.75082314014434814 0.75082314014434814
0.78392165899276733 0.78392165899276733 0.78392165899276733
0.87471950054168701 0.87471950054168701 0.87471950054168701
0.90640139579772949 0.90640139579772949 0.90640139579772949
0.91501730680465698 0.91501730680465698 0.91501730680465698
0.92386364936828613 0.92386364936828613 0.92386364936828613
0.92743086814880371 0.92743086814880371 0.92743086814880371
0.95112437009811401 0.95112437009811401 0.95112437009811401
0.24974016845226288 0.24974016845226288 0.24974016845226288
0.27372691035270691 0.27372691035270691 0.27372691035270691
0.34316903352737427 0.34316903352737427 0.34316903352737427
0.42612442374229431 0.42612442374229431 0.42612442374229431
0.423848956823349 0.423848956823349 0.423848956823349
0.31658023595809937 0.31658023595809937 0.31658023595809937
0.33410155773162842 0.33410155773162842 0.33410155773162842
0.42364600300788879 0.42364600300788879 0.42364600300788879
0.50947153568267822 0.50947153568267822 0.50947153568267822
0.50866240262985229 0.50866240262985229 0.50866240262985229
0.41747239232063293 0.41747239232063293 0.41747239232063293
0.46229889988899231 0.46229889988899231 0.46229889988899231
0.58942568302154541 0.58942568302154541 0.58942568302154541
0.66660809516906738 0.66660809516906738 0.66660809516906738
0.66884982585906982 0.66884982585906982 0.66884982585906982
0.68545824289321899 0.68545824289321899 0.68545824289321899
0.70393174886703491 0.70393174886703491 0.70393174886703491
0.75189667940139771 0.75189667940139771 0.75189667940139771
0.81319695711135864 0.81319695711135864 0.81319695711135864
0.84868872165679932 0.84868872165679932 0.84868872165679932
0.91014188528060913 0.91014188528060913 0.91014188528060913
0.92298710346221924 0.92298710346221924 0.92298710346221924
0.9382818341255188 0.9382818341255188 0.9382818341255188
0.95099836587905884 0.95099836587905884 0.95099836587905884
0.95596432685852051 0.95596432685852051 0.95596432685852051
0.30699223279953003 0.30699223279953003 0.30699223279953003
0.33884352445602417 0.33884352445602417 0.33884352445602417
0.43110683560371399 0.43110683560371399 0.43110683560371399
0.61121028661727905 0.61121028661727905 0.61121028661727905
0.68891716003417969 0.68891716003417969 0.68891716003417969
0.37598192691802979 0.37598192691802979 0.37598192691802979
0.41228702664375305 0.41228702664375305 0.41228702664375305
0.51333951950073242 0.51333951950073242 0.51333951950073242
0.67780214548110962 0.67780214548110962 0.67780214548110962
0.73983943462371826 0.73983943462371826 0.73983943462371826
0.50069600343704224 0.50069600343704224 0.50069600343704224
0.55553853511810303 0.55553853511810303 0.55553853511810303
0.64227753877639771 0.64227753877639771 0.64227753877639771
0.75997620820999146 0.75997620820999146 0.75997620820999146
0.80289655923843384 0.80289655923843384 0.80289655923843384
0.62222850322723389 0.62222850322723389 0.62222850322723389
0.64021605253219604 0.64021605253219604 0.64021605253219604
0.72348761558532715 0.72348761558532715 0.72348761558532715
0.83987492322921753 0.83987492322921753 0.83987492322921753
0.87989169359207153 0.87989169359207153 0.87989169359207153
0.90900611877441406 0.90900611877441406 0.90900611877441406
0.90747171640396118 0.90747171640396118 0.90747171640396118
0.92295902967453003 0.92295902967453003 0.92295902967453003
0.95186573266983032 0.95186573266983032 0.95186573266983032
0.95821559429168701 0.95821559429168701 0.95821559429168701
