luts/negative_new/kodak_portra_160_+.cube
# Created by: G'MIC (https://gmic.eu)
TITLE "kodak_portra_160_+"
# LUT size
LUT_3D_SIZE 5
# Data domain
DOMAIN_MIN 0.0 0.0 0.0
DOMAIN_MAX 1.0 1.0 1.0
# LUT data points
0.044566210359334946 0.055955953896045685 0.046456489711999893
0.24010759592056274 0.046488668769598007 0.040853150188922882
0.57035022974014282 0.006402378436177969 0.013579005375504494
0.84009134769439697 0.0037300109397619963 0.0037418140564113855
0.99580389261245728 0.1028762087225914 0.00038329479866661131
0.0091994786635041237 0.23702923953533173 0.03517557680606842
0.22017878293991089 0.25693005323410034 0.016565779224038124
0.58515441417694092 0.28131145238876343 0.0029574823565781116
0.83614975214004517 0.27169176936149597 0.0040602888911962509
0.99702441692352295 0.31305623054504395 0.0017134572844952345
0.0023785161320120096 0.4965912401676178 0.0077716601081192493
0.21222122013568878 0.48617717623710632 0.0061033209785819054
0.51414436101913452 0.54189294576644897 0.0037203321699053049
0.80420899391174316 0.56492888927459717 0.0021085552871227264
0.9910246729850769 0.55437737703323364 0
0.23396815359592438 0.70544326305389404 0.086808100342750549
0.31956657767295837 0.690318763256073 0.056255415081977844
0.50207829475402832 0.70139110088348389 0.041472252458333969
0.73625093698501587 0.743613600730896 0.064754262566566467
0.97171038389205933 0.78824466466903687 0.02086670882999897
0.5285038948059082 0.91177266836166382 0.37967276573181152
0.56337457895278931 0.90665322542190552 0.37234604358673096
0.65019816160202026 0.90345823764801025 0.36433523893356323
0.79231148958206177 0.91835492849349976 0.38721653819084167
0.95033764839172363 0.94397038221359253 0.42218968272209167
0.010002271272242069 0.077636420726776123 0.26425698399543762
0.25956013798713684 0.060891754925251007 0.27711945772171021
0.60934466123580933 0.0089987507089972496 0.28115200996398926
0.84368973970413208 0.0044054067693650723 0.25539276003837585
0.99295914173126221 0.11632232367992401 0.2453511655330658
0.0070867054164409637 0.28871890902519226 0.2663758397102356
0.27342450618743896 0.29218971729278564 0.27998006343841553
0.60350555181503296 0.28469213843345642 0.25868839025497437
0.83870887756347656 0.28352570533752441 0.23364518582820892
0.99844855070114136 0.31334343552589417 0.21614626049995422
0.11686805635690689 0.55694550275802612 0.28543752431869507
0.29518067836761475 0.53337651491165161 0.27437141537666321
0.54434669017791748 0.55273598432540894 0.26583981513977051
0.81642317771911621 0.56294268369674683 0.18359902501106262
0.99639707803726196 0.54978936910629272 0.093881495296955109
0.30888763070106506 0.72852730751037598 0.31175526976585388
0.37444677948951721 0.71459865570068359 0.29551321268081665
0.51424038410186768 0.70277148485183716 0.27169039845466614
0.74678343534469604 0.74979329109191895 0.31044232845306396
0.97661417722702026 0.78404498100280762 0.25500577688217163
0.54090207815170288 0.91452872753143311 0.4618944525718689
0.57026076316833496 0.90998274087905884 0.45326337218284607
0.64946770668029785 0.90373319387435913 0.43860349059104919
0.79216885566711426 0.91760933399200439 0.46091160178184509
0.95017021894454956 0.94492775201797485 0.49513986706733704
0.0038941476959735155 0.12082896381616592 0.59912943840026855
0.30951711535453796 0.13503731787204742 0.60373979806900024
0.63237953186035156 0.1470533162355423 0.6097673773765564
0.87361735105514526 0.25824776291847229 0.60247802734375
0.997600257396698 0.32626622915267944 0.57670944929122925
0.022703567519783974 0.32928353548049927 0.59030485153198242
0.33071199059486389 0.34696125984191895 0.59317564964294434
0.62420296669006348 0.38592541217803955 0.6072009801864624
0.85351842641830444 0.42776700854301453 0.59978020191192627
0.99300301074981689 0.41900795698165894 0.5656248927116394
0.13163523375988007 0.61602747440338135 0.58373463153839111
0.37532499432563782 0.61022192239761353 0.58485919237136841
0.60357248783111572 0.59805452823638916 0.57861936092376709
0.81470465660095215 0.58290529251098633 0.5572320818901062
0.98710328340530396 0.56875777244567871 0.51947057247161865
0.42180287837982178 0.77964049577713013 0.57047969102859497
0.48993119597434998 0.77103990316390991 0.57184481620788574
0.58278661966323853 0.7396971583366394 0.54333889484405518
0.77129238843917847 0.76476335525512695 0.55371242761611938
0.97693550586700439 0.7687913179397583 0.51608550548553467
0.57636672258377075 0.92527574300765991 0.61889326572418213
0.60501831769943237 0.92620599269866943 0.61354345083236694
0.66975980997085571 0.91705286502838135 0.59283262491226196
0.79070675373077393 0.92075353860855103 0.58675706386566162
0.95105481147766113 0.94597649574279785 0.62159430980682373
0.26655906438827515 0.24972420930862427 0.80745810270309448
0.43350133299827576 0.27325978875160217 0.80699825286865234
0.64663630723953247 0.33438047766685486 0.81062811613082886
0.8567049503326416 0.41854134202003479 0.81030392646789551
0.99673068523406982 0.49812078475952148 0.80704659223556519
0.32694914937019348 0.41820278763771057 0.7988886833190918
0.45570588111877441 0.43662717938423157 0.79798877239227295
0.65079164505004883 0.47959014773368835 0.80171436071395874
0.84812361001968384 0.52941173315048218 0.80756682157516479
0.99114620685577393 0.58771014213562012 0.80525195598602295
0.33516761660575867 0.60621935129165649 0.77640575170516968
0.45551535487174988 0.61248195171356201 0.77830737829208374
0.64543771743774414 0.64265483617782593 0.78497713804244995
0.83517688512802124 0.67798060178756714 0.79423040151596069
0.98589581251144409 0.7031434178352356 0.80345571041107178
0.47693029046058655 0.81712812185287476 0.78311729431152344
0.54716122150421143 0.81292194128036499 0.78186970949172974
0.67494678497314453 0.80114585161209106 0.78129762411117554
0.81270772218704224 0.78983598947525024 0.77362799644470215
0.97953164577484131 0.77999991178512573 0.75565898418426514
0.65010684728622437 0.95523935556411743 0.7858843207359314
0.67290151119232178 0.95522469282150269 0.78552210330963135
0.73474371433258057 0.94711339473724365 0.78201431035995483
0.8093370795249939 0.93126362562179565 0.75053507089614868
0.96208876371383667 0.95472371578216553 0.77494263648986816
0.52973741292953491 0.47440025210380554 0.96383523941040039
0.59538894891738892 0.49095234274864197 0.96124577522277832
0.71937865018844604 0.53560137748718262 0.96184873580932617
0.85583913326263428 0.59562760591506958 0.96064263582229614
0.98314774036407471 0.64037525653839111 0.95853883028030396
0.56288355588912964 0.5737767219543457 0.96048510074615479
0.61278694868087769 0.57864785194396973 0.95602500438690186
0.72650665044784546 0.61077576875686646 0.95876270532608032
0.85494822263717651 0.65289020538330078 0.95540612936019897
0.98287510871887207 0.68719315528869629 0.95871871709823608
0.57563787698745728 0.69655299186706543 0.95259958505630493
0.62506771087646484 0.69915521144866943 0.95345926284790039
0.73184323310852051 0.71615582704544067 0.95536792278289795
0.85830420255661011 0.74399614334106445 0.95064759254455566
0.98279356956481934 0.76585572957992554 0.95626235008239746
0.56261223554611206 0.81778150796890259 0.94613349437713623
0.60859185457229614 0.81650400161743164 0.94918614625930786
0.70803290605545044 0.813740074634552 0.94665622711181641
0.85281682014465332 0.83579522371292114 0.95427656173706055
0.98135155439376831 0.86570620536804199 0.96112513542175293
0.66929566860198975 0.97504901885986328 0.95646125078201294
0.6972234845161438 0.97142910957336426 0.95306289196014404
0.77212268114089966 0.97295534610748291 0.9599878191947937
0.87010008096694946 0.96887236833572388 0.9603581428527832
0.97406560182571411 0.97001004219055176 0.96078228950500488
