luts/negative_new/kodak_tri-x_400.cube
# Created by: G'MIC (https://gmic.eu)
TITLE "kodak_tri-x_400"
# LUT size
LUT_3D_SIZE 7
# Data domain
DOMAIN_MIN 0.0 0.0 0.0
DOMAIN_MAX 1.0 1.0 1.0
# LUT data points
0.071213603019714355 0.071213603019714355 0.071213603019714355
0.08590080589056015 0.08590080589056015 0.08590080589056015
0.1153557151556015 0.1153557151556015 0.1153557151556015
0.16401652991771698 0.16401652991771698 0.16401652991771698
0.23971082270145416 0.23971082270145416 0.23971082270145416
0.34767228364944458 0.34767228364944458 0.34767228364944458
0.46704360842704773 0.46704360842704773 0.46704360842704773
0.13495758175849915 0.13495758175849915 0.13495758175849915
0.15619179606437683 0.15619179606437683 0.15619179606437683
0.20109996199607849 0.20109996199607849 0.20109996199607849
0.25559297204017639 0.25559297204017639 0.25559297204017639
0.31272038817405701 0.31272038817405701 0.31272038817405701
0.40295913815498352 0.40295913815498352 0.40295913815498352
0.52275210618972778 0.52275210618972778 0.52275210618972778
0.22859016060829163 0.22859016060829163 0.22859016060829163
0.23003517091274261 0.23003517091274261 0.23003517091274261
0.32096192240715027 0.32096192240715027 0.32096192240715027
0.40551388263702393 0.40551388263702393 0.40551388263702393
0.46047818660736084 0.46047818660736084 0.46047818660736084
0.53410232067108154 0.53410232067108154 0.53410232067108154
0.6313469409942627 0.6313469409942627 0.6313469409942627
0.37038400769233704 0.37038400769233704 0.37038400769233704
0.35432368516921997 0.35432368516921997 0.35432368516921997
0.40467020869255066 0.40467020869255066 0.40467020869255066
0.5179743766784668 0.5179743766784668 0.5179743766784668
0.61801743507385254 0.61801743507385254 0.61801743507385254
0.6879352331161499 0.6879352331161499 0.6879352331161499
0.7642098069190979 0.7642098069190979 0.7642098069190979
0.54961484670639038 0.54961484670639038 0.54961484670639038
0.52279162406921387 0.52279162406921387 0.52279162406921387
0.52136325836181641 0.52136325836181641 0.52136325836181641
0.60778921842575073 0.60778921842575073 0.60778921842575073
0.71242243051528931 0.71242243051528931 0.71242243051528931
0.78907442092895508 0.78907442092895508 0.78907442092895508
0.85633569955825806 0.85633569955825806 0.85633569955825806
0.7357182502746582 0.7357182502746582 0.7357182502746582
0.7215302586555481 0.7215302586555481 0.7215302586555481
0.69747650623321533 0.69747650623321533 0.69747650623321533
0.72777986526489258 0.72777986526489258 0.72777986526489258
0.80146932601928711 0.80146932601928711 0.80146932601928711
0.86170077323913574 0.86170077323913574 0.86170077323913574
0.91277754306793213 0.91277754306793213 0.91277754306793213
0.90407514572143555 0.90407514572143555 0.90407514572143555
0.90446615219116211 0.90446615219116211 0.90446615219116211
0.88941484689712524 0.88941484689712524 0.88941484689712524
0.88481605052947998 0.88481605052947998 0.88481605052947998
0.91844367980957031 0.91844367980957031 0.91844367980957031
0.94434064626693726 0.94434064626693726 0.94434064626693726
0.96719443798065186 0.96719443798065186 0.96719443798065186
0.10165773332118988 0.10165773332118988 0.10165773332118988
0.12301058322191238 0.12301058322191238 0.12301058322191238
0.18904863297939301 0.18904863297939301 0.18904863297939301
0.22090375423431396 0.22090375423431396 0.22090375423431396
0.26679730415344238 0.26679730415344238 0.26679730415344238
0.34296771883964539 0.34296771883964539 0.34296771883964539
0.47580650448799133 0.47580650448799133 0.47580650448799133
0.16310118138790131 0.16310118138790131 0.16310118138790131
0.16985361278057098 0.16985361278057098 0.16985361278057098
0.20690780878067017 0.20690780878067017 0.20690780878067017
0.25958773493766785 0.25958773493766785 0.25958773493766785
0.3091910183429718 0.3091910183429718 0.3091910183429718
0.39263331890106201 0.39263331890106201 0.39263331890106201
0.53010988235473633 0.53010988235473633 0.53010988235473633
0.29993969202041626 0.29993969202041626 0.29993969202041626
0.28061211109161377 0.28061211109161377 0.28061211109161377
0.32129645347595215 0.32129645347595215 0.32129645347595215
0.40171515941619873 0.40171515941619873 0.40171515941619873
0.46502161026000977 0.46502161026000977 0.46502161026000977
0.53346079587936401 0.53346079587936401 0.53346079587936401
0.6301579475402832 0.6301579475402832 0.6301579475402832
0.43360763788223267 0.43360763788223267 0.43360763788223267
0.41429433226585388 0.41429433226585388 0.41429433226585388
0.4224247932434082 0.4224247932434082 0.4224247932434082
0.52651441097259521 0.52651441097259521 0.52651441097259521
0.62125015258789062 0.62125015258789062 0.62125015258789062
0.69494783878326416 0.69494783878326416 0.69494783878326416
0.76555174589157104 0.76555174589157104 0.76555174589157104
0.58493483066558838 0.58493483066558838 0.58493483066558838
0.567482590675354 0.567482590675354 0.567482590675354
0.55172246694564819 0.55172246694564819 0.55172246694564819
0.61276167631149292 0.61276167631149292 0.61276167631149292
0.70925062894821167 0.70925062894821167 0.70925062894821167
0.79014092683792114 0.79014092683792114 0.79014092683792114
0.8614656925201416 0.8614656925201416 0.8614656925201416
0.75928151607513428 0.75928151607513428 0.75928151607513428
0.75039434432983398 0.75039434432983398 0.75039434432983398
0.73109287023544312 0.73109287023544312 0.73109287023544312
0.74051439762115479 0.74051439762115479 0.74051439762115479
0.79333692789077759 0.79333692789077759 0.79333692789077759
0.85540246963500977 0.85540246963500977 0.85540246963500977
0.9185786247253418 0.9185786247253418 0.9185786247253418
0.91487675905227661 0.91487675905227661 0.91487675905227661
0.91252261400222778 0.91252261400222778 0.91252261400222778
0.89600902795791626 0.89600902795791626 0.89600902795791626
0.88743472099304199 0.88743472099304199 0.88743472099304199
0.90789777040481567 0.90789777040481567 0.90789777040481567
0.93913799524307251 0.93913799524307251 0.93913799524307251
0.97364300489425659 0.97364300489425659 0.97364300489425659
0.1676294207572937 0.1676294207572937 0.1676294207572937
0.19113454222679138 0.19113454222679138 0.19113454222679138
0.24678789079189301 0.24678789079189301 0.24678789079189301
0.34962451457977295 0.34962451457977295 0.34962451457977295
0.42286780476570129 0.42286780476570129 0.42286780476570129
0.44140157103538513 0.44140157103538513 0.44140157103538513
0.49515476822853088 0.49515476822853088 0.49515476822853088
0.19563040137290955 0.19563040137290955 0.19563040137290955
0.22593888640403748 0.22593888640403748 0.22593888640403748
0.2933506965637207 0.2933506965637207 0.2933506965637207
0.37002959847450256 0.37002959847450256 0.37002959847450256
0.41038015484809875 0.41038015484809875 0.41038015484809875
0.44116997718811035 0.44116997718811035 0.44116997718811035
0.52697092294692993 0.52697092294692993 0.52697092294692993
0.33499649167060852 0.33499649167060852 0.33499649167060852
0.33541449904441833 0.33541449904441833 0.33541449904441833
0.36492452025413513 0.36492452025413513 0.36492452025413513
0.40852105617523193 0.40852105617523193 0.40852105617523193
0.45710870623588562 0.45710870623588562 0.45710870623588562
0.51787847280502319 0.51787847280502319 0.51787847280502319
0.60965049266815186 0.60965049266815186 0.60965049266815186
0.51814097166061401 0.51814097166061401 0.51814097166061401
0.52366995811462402 0.52366995811462402 0.52366995811462402
0.48630663752555847 0.48630663752555847 0.48630663752555847
0.52544111013412476 0.52544111013412476 0.52544111013412476
0.6204906702041626 0.6204906702041626 0.6204906702041626
0.69078868627548218 0.69078868627548218 0.69078868627548218
0.76484405994415283 0.76484405994415283 0.76484405994415283
0.65665346384048462 0.65665346384048462 0.65665346384048462
0.65769773721694946 0.65769773721694946 0.65769773721694946
0.62123829126358032 0.62123829126358032 0.62123829126358032
0.63036900758743286 0.63036900758743286 0.63036900758743286
0.71755015850067139 0.71755015850067139 0.71755015850067139
0.80499172210693359 0.80499172210693359 0.80499172210693359
0.8713986873626709 0.8713986873626709 0.8713986873626709
0.80161458253860474 0.80161458253860474 0.80161458253860474
0.79200100898742676 0.79200100898742676 0.79200100898742676
0.77096730470657349 0.77096730470657349 0.77096730470657349
0.75971901416778564 0.75971901416778564 0.75971901416778564
0.79988348484039307 0.79988348484039307 0.79988348484039307
0.87040191888809204 0.87040191888809204 0.87040191888809204
0.93123650550842285 0.93123650550842285 0.93123650550842285
0.92829382419586182 0.92829382419586182 0.92829382419586182
0.92126697301864624 0.92126697301864624 0.92126697301864624
0.90671926736831665 0.90671926736831665 0.90671926736831665
0.89528590440750122 0.89528590440750122 0.89528590440750122
0.90867400169372559 0.90867400169372559 0.90867400169372559
0.94412910938262939 0.94412910938262939 0.94412910938262939
0.98269766569137573 0.98269766569137573 0.98269766569137573
0.26466500759124756 0.26466500759124756 0.26466500759124756
0.29678747057914734 0.29678747057914734 0.29678747057914734
0.35916897654533386 0.35916897654533386 0.35916897654533386
0.40960693359375 0.40960693359375 0.40960693359375
0.51188081502914429 0.51188081502914429 0.51188081502914429
0.63911795616149902 0.63911795616149902 0.63911795616149902
0.69027018547058105 0.69027018547058105 0.69027018547058105
0.30544927716255188 0.30544927716255188 0.30544927716255188
0.33141550421714783 0.33141550421714783 0.33141550421714783
0.38842669129371643 0.38842669129371643 0.38842669129371643
0.4411625862121582 0.4411625862121582 0.4411625862121582
0.55157017707824707 0.55157017707824707 0.55157017707824707
0.64199638366699219 0.64199638366699219 0.64199638366699219
0.67595815658569336 0.67595815658569336 0.67595815658569336
0.35246357321739197 0.35246357321739197 0.35246357321739197
0.379395991563797 0.379395991563797 0.379395991563797
0.42523100972175598 0.42523100972175598 0.42523100972175598
0.49399417638778687 0.49399417638778687 0.49399417638778687
0.58288776874542236 0.58288776874542236 0.58288776874542236
0.63208317756652832 0.63208317756652832 0.63208317756652832
0.66420125961303711 0.66420125961303711 0.66420125961303711
0.53393089771270752 0.53393089771270752 0.53393089771270752
0.55718576908111572 0.55718576908111572 0.55718576908111572
0.56563490629196167 0.56563490629196167 0.56563490629196167
0.58000952005386353 0.58000952005386353 0.58000952005386353
0.63251864910125732 0.63251864910125732 0.63251864910125732
0.66244977712631226 0.66244977712631226 0.66244977712631226
0.73700094223022461 0.73700094223022461 0.73700094223022461
0.74415755271911621 0.74415755271911621 0.74415755271911621
0.73414307832717896 0.73414307832717896 0.73414307832717896
0.72231638431549072 0.72231638431549072 0.72231638431549072
0.68703687191009521 0.68703687191009521 0.68703687191009521
0.73004424571990967 0.73004424571990967 0.73004424571990967
0.80684596300125122 0.80684596300125122 0.80684596300125122
0.8593025803565979 0.8593025803565979 0.8593025803565979
0.86255323886871338 0.86255323886871338 0.86255323886871338
0.84196645021438599 0.84196645021438599 0.84196645021438599
0.83036071062088013 0.83036071062088013 0.83036071062088013
0.80237269401550293 0.80237269401550293 0.80237269401550293
0.82076960802078247 0.82076960802078247 0.82076960802078247
0.8895576000213623 0.8895576000213623 0.8895576000213623
0.93657875061035156 0.93657875061035156 0.93657875061035156
0.94951921701431274 0.94951921701431274 0.94951921701431274
0.9403386116027832 0.9403386116027832 0.9403386116027832
0.93346339464187622 0.93346339464187622 0.93346339464187622
0.92224514484405518 0.92224514484405518 0.92224514484405518
0.92770051956176758 0.92770051956176758 0.92770051956176758
0.95694929361343384 0.95694929361343384 0.95694929361343384
0.98722648620605469 0.98722648620605469 0.98722648620605469
0.38029682636260986 0.38029682636260986 0.38029682636260986
0.41605207324028015 0.41605207324028015 0.41605207324028015
0.47486469149589539 0.47486469149589539 0.47486469149589539
0.54849177598953247 0.54849177598953247 0.54849177598953247
0.58857762813568115 0.58857762813568115 0.58857762813568115
0.67890262603759766 0.67890262603759766 0.67890262603759766
0.80847775936126709 0.80847775936126709 0.80847775936126709
0.43101131916046143 0.43101131916046143 0.43101131916046143
0.45345878601074219 0.45345878601074219 0.45345878601074219
0.49500954151153564 0.49500954151153564 0.49500954151153564
0.56710386276245117 0.56710386276245117 0.56710386276245117
0.60347223281860352 0.60347223281860352 0.60347223281860352
0.69561421871185303 0.69561421871185303 0.69561421871185303
0.81125009059906006 0.81125009059906006 0.81125009059906006
0.46032673120498657 0.46032673120498657 0.46032673120498657
0.48659783601760864 0.48659783601760864 0.48659783601760864
0.54518532752990723 0.54518532752990723 0.54518532752990723
0.59651261568069458 0.59651261568069458 0.59651261568069458
0.64778655767440796 0.64778655767440796 0.64778655767440796
0.73201775550842285 0.73201775550842285 0.73201775550842285
0.81984192132949829 0.81984192132949829 0.81984192132949829
0.53752022981643677 0.53752022981643677 0.53752022981643677
0.55113434791564941 0.55113434791564941 0.55113434791564941
0.5948638916015625 0.5948638916015625 0.5948638916015625
0.65169531106948853 0.65169531106948853 0.65169531106948853
0.70958441495895386 0.70958441495895386 0.70958441495895386
0.77763974666595459 0.77763974666595459 0.77763974666595459
0.80411845445632935 0.80411845445632935 0.80411845445632935
0.7251054048538208 0.7251054048538208 0.7251054048538208
0.72787433862686157 0.72787433862686157 0.72787433862686157
0.74640244245529175 0.74640244245529175 0.74640244245529175
0.75351530313491821 0.75351530313491821 0.75351530313491821
0.77108323574066162 0.77108323574066162 0.77108323574066162
0.80812633037567139 0.80812633037567139 0.80812633037567139
0.84349054098129272 0.84349054098129272 0.84349054098129272
0.88504201173782349 0.88504201173782349 0.88504201173782349
0.8906823992729187 0.8906823992729187 0.8906823992729187
0.88250225782394409 0.88250225782394409 0.88250225782394409
0.87270838022232056 0.87270838022232056 0.87270838022232056
0.86473089456558228 0.86473089456558228 0.86473089456558228
0.90188181400299072 0.90188181400299072 0.90188181400299072
0.93093407154083252 0.93093407154083252 0.93093407154083252
0.96901500225067139 0.96901500225067139 0.96901500225067139
0.96231812238693237 0.96231812238693237 0.96231812238693237
0.96450704336166382 0.96450704336166382 0.96450704336166382
0.96221250295639038 0.96221250295639038 0.96221250295639038
0.95925962924957275 0.95925962924957275 0.95925962924957275
0.9687272310256958 0.9687272310256958 0.9687272310256958
0.98415428400039673 0.98415428400039673 0.98415428400039673
0.56136089563369751 0.56136089563369751 0.56136089563369751
0.57817000150680542 0.57817000150680542 0.57817000150680542
0.62122780084609985 0.62122780084609985 0.62122780084609985
0.68833243846893311 0.68833243846893311 0.68833243846893311
0.73735803365707397 0.73735803365707397 0.73735803365707397
0.76623320579528809 0.76623320579528809 0.76623320579528809
0.82356119155883789 0.82356119155883789 0.82356119155883789
0.5873417854309082 0.5873417854309082 0.5873417854309082
0.60528206825256348 0.60528206825256348 0.60528206825256348
0.63696813583374023 0.63696813583374023 0.63696813583374023
0.69599616527557373 0.69599616527557373 0.69599616527557373
0.74208706617355347 0.74208706617355347 0.74208706617355347
0.76293009519577026 0.76293009519577026 0.76293009519577026
0.83123767375946045 0.83123767375946045 0.83123767375946045
0.62956827878952026 0.62956827878952026 0.62956827878952026
0.63841265439987183 0.63841265439987183 0.63841265439987183
0.68206691741943359 0.68206691741943359 0.68206691741943359
0.7288936972618103 0.7288936972618103 0.7288936972618103
0.78280544281005859 0.78280544281005859 0.78280544281005859
0.79926007986068726 0.79926007986068726 0.79926007986068726
0.85471773147583008 0.85471773147583008 0.85471773147583008
0.63597762584686279 0.63597762584686279 0.63597762584686279
0.65871471166610718 0.65871471166610718 0.65871471166610718
0.70388948917388916 0.70388948917388916 0.70388948917388916
0.7475476861000061 0.7475476861000061 0.7475476861000061
0.79401487112045288 0.79401487112045288 0.79401487112045288
0.8265385627746582 0.8265385627746582 0.8265385627746582
0.889903724193573 0.889903724193573 0.889903724193573
0.74678653478622437 0.74678653478622437 0.74678653478622437
0.75364619493484497 0.75364619493484497 0.75364619493484497
0.76221650838851929 0.76221650838851929 0.76221650838851929
0.78145551681518555 0.78145551681518555 0.78145551681518555
0.81836163997650146 0.81836163997650146 0.81836163997650146
0.87701410055160522 0.87701410055160522 0.87701410055160522
0.9162977933883667 0.9162977933883667 0.9162977933883667
0.89078742265701294 0.89078742265701294 0.89078742265701294
0.87778812646865845 0.87778812646865845 0.87778812646865845
0.87596052885055542 0.87596052885055542 0.87596052885055542
0.88208329677581787 0.88208329677581787 0.88208329677581787
0.89025461673736572 0.89025461673736572 0.89025461673736572
0.92063069343566895 0.92063069343566895 0.92063069343566895
0.94681364297866821 0.94681364297866821 0.94681364297866821
0.97359859943389893 0.97359859943389893 0.97359859943389893
0.96653574705123901 0.96653574705123901 0.96653574705123901
0.96907508373260498 0.96907508373260498 0.96907508373260498
0.97927391529083252 0.97927391529083252 0.97927391529083252
0.98248255252838135 0.98248255252838135 0.98248255252838135
0.97534346580505371 0.97534346580505371 0.97534346580505371
0.97903358936309814 0.97903358936309814 0.97903358936309814
0.78266304731369019 0.78266304731369019 0.78266304731369019
0.78293722867965698 0.78293722867965698 0.78293722867965698
0.80081528425216675 0.80081528425216675 0.80081528425216675
0.84028869867324829 0.84028869867324829 0.84028869867324829
0.88488757610321045 0.88488757610321045 0.88488757610321045
0.91001898050308228 0.91001898050308228 0.91001898050308228
0.91976392269134521 0.91976392269134521 0.91976392269134521
0.79502981901168823 0.79502981901168823 0.79502981901168823
0.79935300350189209 0.79935300350189209 0.79935300350189209
0.81134247779846191 0.81134247779846191 0.81134247779846191
0.84063291549682617 0.84063291549682617 0.84063291549682617
0.88653063774108887 0.88653063774108887 0.88653063774108887
0.91337978839874268 0.91337978839874268 0.91337978839874268
0.92582398653030396 0.92582398653030396 0.92582398653030396
0.8186798095703125 0.8186798095703125 0.8186798095703125
0.82087963819503784 0.82087963819503784 0.82087963819503784
0.8354867696762085 0.8354867696762085 0.8354867696762085
0.8606799840927124 0.8606799840927124 0.8606799840927124
0.90014290809631348 0.90014290809631348 0.90014290809631348
0.9204326868057251 0.9204326868057251 0.9204326868057251
0.9241633415222168 0.9241633415222168 0.9241633415222168
0.81276869773864746 0.81276869773864746 0.81276869773864746
0.81776314973831177 0.81776314973831177 0.81776314973831177
0.84704053401947021 0.84704053401947021 0.84704053401947021
0.86441880464553833 0.86441880464553833 0.86441880464553833
0.8967747688293457 0.8967747688293457 0.8967747688293457
0.9248996376991272 0.9248996376991272 0.9248996376991272
0.94245642423629761 0.94245642423629761 0.94245642423629761
0.80140030384063721 0.80140030384063721 0.80140030384063721
0.81624031066894531 0.81624031066894531 0.81624031066894531
0.83897686004638672 0.83897686004638672 0.83897686004638672
0.85114073753356934 0.85114073753356934 0.85114073753356934
0.886055588722229 0.886055588722229 0.886055588722229
0.92958623170852661 0.92958623170852661 0.92958623170852661
0.96681153774261475 0.96681153774261475 0.96681153774261475
0.91302955150604248 0.91302955150604248 0.91302955150604248
0.89437663555145264 0.89437663555145264 0.89437663555145264
0.89338946342468262 0.89338946342468262 0.89338946342468262
0.90219223499298096 0.90219223499298096 0.90219223499298096
0.92156153917312622 0.92156153917312622 0.92156153917312622
0.94820588827133179 0.94820588827133179 0.94820588827133179
0.97305089235305786 0.97305089235305786 0.97305089235305786
0.97123903036117554 0.97123903036117554 0.97123903036117554
0.96897310018539429 0.96897310018539429 0.96897310018539429
0.97340351343154907 0.97340351343154907 0.97340351343154907
0.98456734418869019 0.98456734418869019 0.98456734418869019
0.98983877897262573 0.98983877897262573 0.98983877897262573
0.98382508754730225 0.98382508754730225 0.98382508754730225
0.98190557956695557 0.98190557956695557 0.98190557956695557
