luts/negative_new/kodak_tmax_3200.cube
# Created by: G'MIC (https://gmic.eu)
TITLE "kodak_tmax_3200"
# LUT size
LUT_3D_SIZE 7
# Data domain
DOMAIN_MIN 0.0 0.0 0.0
DOMAIN_MAX 1.0 1.0 1.0
# LUT data points
0.11348158866167068 0.11348158866167068 0.11348158866167068
0.11521196365356445 0.11521196365356445 0.11521196365356445
0.12822191417217255 0.12822191417217255 0.12822191417217255
0.16053396463394165 0.16053396463394165 0.16053396463394165
0.21327826380729675 0.21327826380729675 0.21327826380729675
0.26416730880737305 0.26416730880737305 0.26416730880737305
0.33343350887298584 0.33343350887298584 0.33343350887298584
0.1609661877155304 0.1609661877155304 0.1609661877155304
0.1747734546661377 0.1747734546661377 0.1747734546661377
0.19940990209579468 0.19940990209579468 0.19940990209579468
0.24236907064914703 0.24236907064914703 0.24236907064914703
0.29223930835723877 0.29223930835723877 0.29223930835723877
0.32958710193634033 0.32958710193634033 0.32958710193634033
0.40895277261734009 0.40895277261734009 0.40895277261734009
0.2508828341960907 0.2508828341960907 0.2508828341960907
0.2684224545955658 0.2684224545955658 0.2684224545955658
0.3002626895904541 0.3002626895904541 0.3002626895904541
0.35775840282440186 0.35775840282440186 0.35775840282440186
0.42024266719818115 0.42024266719818115 0.42024266719818115
0.46730497479438782 0.46730497479438782 0.46730497479438782
0.55031847953796387 0.55031847953796387 0.55031847953796387
0.38367387652397156 0.38367387652397156 0.38367387652397156
0.39281973242759705 0.39281973242759705 0.39281973242759705
0.41589576005935669 0.41589576005935669 0.41589576005935669
0.46804249286651611 0.46804249286651611 0.46804249286651611
0.53674972057342529 0.53674972057342529 0.53674972057342529
0.62127542495727539 0.62127542495727539 0.62127542495727539
0.7170986533164978 0.7170986533164978 0.7170986533164978
0.54186093807220459 0.54186093807220459 0.54186093807220459
0.54984325170516968 0.54984325170516968 0.54984325170516968
0.56762677431106567 0.56762677431106567 0.56762677431106567
0.60358601808547974 0.60358601808547974 0.60358601808547974
0.65963202714920044 0.65963202714920044 0.65963202714920044
0.73881679773330688 0.73881679773330688 0.73881679773330688
0.82561272382736206 0.82561272382736206 0.82561272382736206
0.72132444381713867 0.72132444381713867 0.72132444381713867
0.72612696886062622 0.72612696886062622 0.72612696886062622
0.73789197206497192 0.73789197206497192 0.73789197206497192
0.76159250736236572 0.76159250736236572 0.76159250736236572
0.79370218515396118 0.79370218515396118 0.79370218515396118
0.83394467830657959 0.83394467830657959 0.83394467830657959
0.88809299468994141 0.88809299468994141 0.88809299468994141
0.89582055807113647 0.89582055807113647 0.89582055807113647
0.89448314905166626 0.89448314905166626 0.89448314905166626
0.8978201150894165 0.8978201150894165 0.8978201150894165
0.90975445508956909 0.90975445508956909 0.90975445508956909
0.92127633094787598 0.92127633094787598 0.92127633094787598
0.92758285999298096 0.92758285999298096 0.92758285999298096
0.94928127527236938 0.94928127527236938 0.94928127527236938
0.10985385626554489 0.10985385626554489 0.10985385626554489
0.12561263144016266 0.12561263144016266 0.12561263144016266
0.1491895467042923 0.1491895467042923 0.1491895467042923
0.18202218413352966 0.18202218413352966 0.18202218413352966
0.22721059620380402 0.22721059620380402 0.22721059620380402
0.27394691109657288 0.27394691109657288 0.27394691109657288
0.33918038010597229 0.33918038010597229 0.33918038010597229
0.17092703282833099 0.17092703282833099 0.17092703282833099
0.19356004893779755 0.19356004893779755 0.19356004893779755
0.22299277782440186 0.22299277782440186 0.22299277782440186
0.25594806671142578 0.25594806671142578 0.25594806671142578
0.29288506507873535 0.29288506507873535 0.29288506507873535
0.33582642674446106 0.33582642674446106 0.33582642674446106
0.40896937251091003 0.40896937251091003 0.40896937251091003
0.28380337357521057 0.28380337357521057 0.28380337357521057
0.30301928520202637 0.30301928520202637 0.30301928520202637
0.33183884620666504 0.33183884620666504 0.33183884620666504
0.36927744746208191 0.36927744746208191 0.36927744746208191
0.41399964690208435 0.41399964690208435 0.41399964690208435
0.46838602423667908 0.46838602423667908 0.46838602423667908
0.54412293434143066 0.54412293434143066 0.54412293434143066
0.42078080773353577 0.42078080773353577 0.42078080773353577
0.43514165282249451 0.43514165282249451 0.43514165282249451
0.45555073022842407 0.45555073022842407 0.45555073022842407
0.48592880368232727 0.48592880368232727 0.48592880368232727
0.54119718074798584 0.54119718074798584 0.54119718074798584
0.62538373470306396 0.62538373470306396 0.62538373470306396
0.70660126209259033 0.70660126209259033 0.70660126209259033
0.57352268695831299 0.57352268695831299 0.57352268695831299
0.58770453929901123 0.58770453929901123 0.58770453929901123
0.60154038667678833 0.60154038667678833 0.60154038667678833
0.62173408269882202 0.62173408269882202 0.62173408269882202
0.66421592235565186 0.66421592235565186 0.66421592235565186
0.73643034696578979 0.73643034696578979 0.73643034696578979
0.81851077079772949 0.81851077079772949 0.81851077079772949
0.74871516227722168 0.74871516227722168 0.74871516227722168
0.75497651100158691 0.75497651100158691 0.75497651100158691
0.76126670837402344 0.76126670837402344 0.76126670837402344
0.77157306671142578 0.77157306671142578 0.77157306671142578
0.78903782367706299 0.78903782367706299 0.78903782367706299
0.82191354036331177 0.82191354036331177 0.82191354036331177
0.88124829530715942 0.88124829530715942 0.88124829530715942
0.9114457368850708 0.9114457368850708 0.9114457368850708
0.91077905893325806 0.91077905893325806 0.91077905893325806
0.9091113805770874 0.9091113805770874 0.9091113805770874
0.90920007228851318 0.90920007228851318 0.90920007228851318
0.91008448600769043 0.91008448600769043 0.91008448600769043
0.91594952344894409 0.91594952344894409 0.91594952344894409
0.9428253173828125 0.9428253173828125 0.9428253173828125
0.11422594636678696 0.11422594636678696 0.11422594636678696
0.14233052730560303 0.14233052730560303 0.14233052730560303
0.17870791256427765 0.17870791256427765 0.17870791256427765
0.20993314683437347 0.20993314683437347 0.20993314683437347
0.23918904364109039 0.23918904364109039 0.23918904364109039
0.28498977422714233 0.28498977422714233 0.28498977422714233
0.35198956727981567 0.35198956727981567 0.35198956727981567
0.17178621888160706 0.17178621888160706 0.17178621888160706
0.20841465890407562 0.20841465890407562 0.20841465890407562
0.24925853312015533 0.24925853312015533 0.24925853312015533
0.27384734153747559 0.27384734153747559 0.27384734153747559
0.29561951756477356 0.29561951756477356 0.29561951756477356
0.34155404567718506 0.34155404567718506 0.34155404567718506
0.41012877225875854 0.41012877225875854 0.41012877225875854
0.28436237573623657 0.28436237573623657 0.28436237573623657
0.31968635320663452 0.31968635320663452 0.31968635320663452
0.36610904335975647 0.36610904335975647 0.36610904335975647
0.39413067698478699 0.39413067698478699 0.39413067698478699
0.42478737235069275 0.42478737235069275 0.42478737235069275
0.47126045823097229 0.47126045823097229 0.47126045823097229
0.53338354825973511 0.53338354825973511 0.53338354825973511
0.44254666566848755 0.44254666566848755 0.44254666566848755
0.46389514207839966 0.46389514207839966 0.46389514207839966
0.49587643146514893 0.49587643146514893 0.49587643146514893
0.52917230129241943 0.52917230129241943 0.52917230129241943
0.57791990041732788 0.57791990041732788 0.57791990041732788
0.6490817666053772 0.6490817666053772 0.6490817666053772
0.70461559295654297 0.70461559295654297 0.70461559295654297
0.61727786064147949 0.61727786064147949 0.61727786064147949
0.63109159469604492 0.63109159469604492 0.63109159469604492
0.64698302745819092 0.64698302745819092 0.64698302745819092
0.66813111305236816 0.66813111305236816 0.66813111305236816
0.70594203472137451 0.70594203472137451 0.70594203472137451
0.76681864261627197 0.76681864261627197 0.76681864261627197
0.83241432905197144 0.83241432905197144 0.83241432905197144
0.78534805774688721 0.78534805774688721 0.78534805774688721
0.79231566190719604 0.79231566190719604 0.79231566190719604
0.79651659727096558 0.79651659727096558 0.79651659727096558
0.8022080659866333 0.8022080659866333 0.8022080659866333
0.81423711776733398 0.81423711776733398 0.81423711776733398
0.84288835525512695 0.84288835525512695 0.84288835525512695
0.89536643028259277 0.89536643028259277 0.89536643028259277
0.92983686923980713 0.92983686923980713 0.92983686923980713
0.92822039127349854 0.92822039127349854 0.92822039127349854
0.92474275827407837 0.92474275827407837 0.92474275827407837
0.92043787240982056 0.92043787240982056 0.92043787240982056
0.91691219806671143 0.91691219806671143 0.91691219806671143
0.92330431938171387 0.92330431938171387 0.92330431938171387
0.94848692417144775 0.94848692417144775 0.94848692417144775
0.13534414768218994 0.13534414768218994 0.13534414768218994
0.16795819997787476 0.16795819997787476 0.16795819997787476
0.21752309799194336 0.21752309799194336 0.21752309799194336
0.26242902874946594 0.26242902874946594 0.26242902874946594
0.28122696280479431 0.28122696280479431 0.28122696280479431
0.30684033036231995 0.30684033036231995 0.30684033036231995
0.36341118812561035 0.36341118812561035 0.36341118812561035
0.19554224610328674 0.19554224610328674 0.19554224610328674
0.22708439826965332 0.22708439826965332 0.22708439826965332
0.27330160140991211 0.27330160140991211 0.27330160140991211
0.30911955237388611 0.30911955237388611 0.30911955237388611
0.32598325610160828 0.32598325610160828 0.32598325610160828
0.35547351837158203 0.35547351837158203 0.35547351837158203
0.40940570831298828 0.40940570831298828 0.40940570831298828
0.2909427285194397 0.2909427285194397 0.2909427285194397
0.3181096613407135 0.3181096613407135 0.3181096613407135
0.37038698792457581 0.37038698792457581 0.37038698792457581
0.42022982239723206 0.42022982239723206 0.42022982239723206
0.44971659779548645 0.44971659779548645 0.44971659779548645
0.47016742825508118 0.47016742825508118 0.47016742825508118
0.51332575082778931 0.51332575082778931 0.51332575082778931
0.43573594093322754 0.43573594093322754 0.43573594093322754
0.45527812838554382 0.45527812838554382 0.45527812838554382
0.50392216444015503 0.50392216444015503 0.50392216444015503
0.56025093793869019 0.56025093793869019 0.56025093793869019
0.60270029306411743 0.60270029306411743 0.60270029306411743
0.63701832294464111 0.63701832294464111 0.63701832294464111
0.68222594261169434 0.68222594261169434 0.68222594261169434
0.64119863510131836 0.64119863510131836 0.64119863510131836
0.65016007423400879 0.65016007423400879 0.65016007423400879
0.67600935697555542 0.67600935697555542 0.67600935697555542
0.70606893301010132 0.70606893301010132 0.70606893301010132
0.740478515625 0.740478515625 0.740478515625
0.78224658966064453 0.78224658966064453 0.78224658966064453
0.83680456876754761 0.83680456876754761 0.83680456876754761
0.81099033355712891 0.81099033355712891 0.81099033355712891
0.81550836563110352 0.81550836563110352 0.81550836563110352
0.82385289669036865 0.82385289669036865 0.82385289669036865
0.83341467380523682 0.83341467380523682 0.83341467380523682
0.84779667854309082 0.84779667854309082 0.84779667854309082
0.87503713369369507 0.87503713369369507 0.87503713369369507
0.91761040687561035 0.91761040687561035 0.91761040687561035
0.94089293479919434 0.94089293479919434 0.94089293479919434
0.93551075458526611 0.93551075458526611 0.93551075458526611
0.93546116352081299 0.93546116352081299 0.93546116352081299
0.93506801128387451 0.93506801128387451 0.93506801128387451
0.93512237071990967 0.93512237071990967 0.93512237071990967
0.94352877140045166 0.94352877140045166 0.94352877140045166
0.9656376838684082 0.9656376838684082 0.9656376838684082
0.1699361652135849 0.1699361652135849 0.1699361652135849
0.2005513459444046 0.2005513459444046 0.2005513459444046
0.25814229249954224 0.25814229249954224 0.25814229249954224
0.32722353935241699 0.32722353935241699 0.32722353935241699
0.36129796504974365 0.36129796504974365 0.36129796504974365
0.36273276805877686 0.36273276805877686 0.36273276805877686
0.39382520318031311 0.39382520318031311 0.39382520318031311
0.24187138676643372 0.24187138676643372 0.24187138676643372
0.25968459248542786 0.25968459248542786 0.25968459248542786
0.30525925755500793 0.30525925755500793 0.30525925755500793
0.36413756012916565 0.36413756012916565 0.36413756012916565
0.40133056044578552 0.40133056044578552 0.40133056044578552
0.41383540630340576 0.41383540630340576 0.41383540630340576
0.43854805827140808 0.43854805827140808 0.43854805827140808
0.33293893933296204 0.33293893933296204 0.33293893933296204
0.34870484471321106 0.34870484471321106 0.34870484471321106
0.39823621511459351 0.39823621511459351 0.39823621511459351
0.46361532807350159 0.46361532807350159 0.46361532807350159
0.51026034355163574 0.51026034355163574 0.51026034355163574
0.52081215381622314 0.52081215381622314 0.52081215381622314
0.53206110000610352 0.53206110000610352 0.53206110000610352
0.41877329349517822 0.41877329349517822 0.41877329349517822
0.44920480251312256 0.44920480251312256 0.44920480251312256
0.51318252086639404 0.51318252086639404 0.51318252086639404
0.58558088541030884 0.58558088541030884 0.58558088541030884
0.63336306810379028 0.63336306810379028 0.63336306810379028
0.64548259973526001 0.64548259973526001 0.64548259973526001
0.66971135139465332 0.66971135139465332 0.66971135139465332
0.61164695024490356 0.61164695024490356 0.61164695024490356
0.62518858909606934 0.62518858909606934 0.62518858909606934
0.66204941272735596 0.66204941272735596 0.66204941272735596
0.7121126651763916 0.7121126651763916 0.7121126651763916
0.75473529100418091 0.75473529100418091 0.75473529100418091
0.77970176935195923 0.77970176935195923 0.77970176935195923
0.82175207138061523 0.82175207138061523 0.82175207138061523
0.80704116821289062 0.80704116821289062 0.80704116821289062
0.80489706993103027 0.80489706993103027 0.80489706993103027
0.82078522443771362 0.82078522443771362 0.82078522443771362
0.83964824676513672 0.83964824676513672 0.83964824676513672
0.86095976829528809 0.86095976829528809 0.86095976829528809
0.88770198822021484 0.88770198822021484 0.88770198822021484
0.92729896306991577 0.92729896306991577 0.92729896306991577
0.93837565183639526 0.93837565183639526 0.93837565183639526
0.92491459846496582 0.92491459846496582 0.92491459846496582
0.93393921852111816 0.93393921852111816 0.93393921852111816
0.94022011756896973 0.94022011756896973 0.94022011756896973
0.94462049007415771 0.94462049007415771 0.94462049007415771
0.95601069927215576 0.95601069927215576 0.95601069927215576
0.97857725620269775 0.97857725620269775 0.97857725620269775
0.22139982879161835 0.22139982879161835 0.22139982879161835
0.24376200139522552 0.24376200139522552 0.24376200139522552
0.29526177048683167 0.29526177048683167 0.29526177048683167
0.37504929304122925 0.37504929304122925 0.37504929304122925
0.4663068950176239 0.4663068950176239 0.4663068950176239
0.51024901866912842 0.51024901866912842 0.51024901866912842
0.49457466602325439 0.49457466602325439 0.49457466602325439
0.28188687562942505 0.28188687562942505 0.28188687562942505
0.2972504198551178 0.2972504198551178 0.2972504198551178
0.33609548211097717 0.33609548211097717 0.33609548211097717
0.4104054868221283 0.4104054868221283 0.4104054868221283
0.49168863892555237 0.49168863892555237 0.49168863892555237
0.54242193698883057 0.54242193698883057 0.54242193698883057
0.53913331031799316 0.53913331031799316 0.53913331031799316
0.37498876452445984 0.37498876452445984 0.37498876452445984
0.40242189168930054 0.40242189168930054 0.40242189168930054
0.44097378849983215 0.44097378849983215 0.44097378849983215
0.50695407390594482 0.50695407390594482 0.50695407390594482
0.58874619007110596 0.58874619007110596 0.58874619007110596
0.62250977754592896 0.62250977754592896 0.62250977754592896
0.61105477809906006 0.61105477809906006 0.61105477809906006
0.44447410106658936 0.44447410106658936 0.44447410106658936
0.47333469986915588 0.47333469986915588 0.47333469986915588
0.53231406211853027 0.53231406211853027 0.53231406211853027
0.61326318979263306 0.61326318979263306 0.61326318979263306
0.68548417091369629 0.68548417091369629 0.68548417091369629
0.70790040493011475 0.70790040493011475 0.70790040493011475
0.70933812856674194 0.70933812856674194 0.70933812856674194
0.57238918542861938 0.57238918542861938 0.57238918542861938
0.58577412366867065 0.58577412366867065 0.58577412366867065
0.6208038330078125 0.6208038330078125 0.6208038330078125
0.70153355598449707 0.70153355598449707 0.70153355598449707
0.77281492948532104 0.77281492948532104 0.77281492948532104
0.80515307188034058 0.80515307188034058 0.80515307188034058
0.82942050695419312 0.82942050695419312 0.82942050695419312
0.78482204675674438 0.78482204675674438 0.78482204675674438
0.78413647413253784 0.78413647413253784 0.78413647413253784
0.80974000692367554 0.80974000692367554 0.80974000692367554
0.82506793737411499 0.82506793737411499 0.82506793737411499
0.85821115970611572 0.85821115970611572 0.85821115970611572
0.89181768894195557 0.89181768894195557 0.89181768894195557
0.91960269212722778 0.91960269212722778 0.91960269212722778
0.92840933799743652 0.92840933799743652 0.92840933799743652
0.91849762201309204 0.91849762201309204 0.91849762201309204
0.93285077810287476 0.93285077810287476 0.93285077810287476
0.93755459785461426 0.93755459785461426 0.93755459785461426
0.94061774015426636 0.94061774015426636 0.94061774015426636
0.9540715217590332 0.9540715217590332 0.9540715217590332
0.97362446784973145 0.97362446784973145 0.97362446784973145
0.29393154382705688 0.29393154382705688 0.29393154382705688
0.3115597665309906 0.3115597665309906 0.3115597665309906
0.35546940565109253 0.35546940565109253 0.35546940565109253
0.43284440040588379 0.43284440040588379 0.43284440040588379
0.55565553903579712 0.55565553903579712 0.55565553903579712
0.67389428615570068 0.67389428615570068 0.67389428615570068
0.70172011852264404 0.70172011852264404 0.70172011852264404
0.33723616600036621 0.33723616600036621 0.33723616600036621
0.35351431369781494 0.35351431369781494 0.35351431369781494
0.39067950844764709 0.39067950844764709 0.39067950844764709
0.46504351496696472 0.46504351496696472 0.46504351496696472
0.57629978656768799 0.57629978656768799 0.57629978656768799
0.6954338550567627 0.6954338550567627 0.6954338550567627
0.7283288836479187 0.7283288836479187 0.7283288836479187
0.42314967513084412 0.42314967513084412 0.42314967513084412
0.44167497754096985 0.44167497754096985 0.44167497754096985
0.48268419504165649 0.48268419504165649 0.48268419504165649
0.54966765642166138 0.54966765642166138 0.54966765642166138
0.65327000617980957 0.65327000617980957 0.65327000617980957
0.74594330787658691 0.74594330787658691 0.74594330787658691
0.77716630697250366 0.77716630697250366 0.77716630697250366
0.50553500652313232 0.50553500652313232 0.50553500652313232
0.53084689378738403 0.53084689378738403 0.53084689378738403
0.59084826707839966 0.59084826707839966 0.59084826707839966
0.66520392894744873 0.66520392894744873 0.66520392894744873
0.74420982599258423 0.74420982599258423 0.74420982599258423
0.79724389314651489 0.79724389314651489 0.79724389314651489
0.81741958856582642 0.81741958856582642 0.81741958856582642
0.52171891927719116 0.52171891927719116 0.52171891927719116
0.54678821563720703 0.54678821563720703 0.54678821563720703
0.61257892847061157 0.61257892847061157 0.61257892847061157
0.71582317352294922 0.71582317352294922 0.71582317352294922
0.8096204400062561 0.8096204400062561 0.8096204400062561
0.85503935813903809 0.85503935813903809 0.85503935813903809
0.8770604133605957 0.8770604133605957 0.8770604133605957
0.75917160511016846 0.75917160511016846 0.75917160511016846
0.7620500922203064 0.7620500922203064 0.7620500922203064
0.7846987247467041 0.7846987247467041 0.7846987247467041
0.79467988014221191 0.79467988014221191 0.79467988014221191
0.85651999711990356 0.85651999711990356 0.85651999711990356
0.90790838003158569 0.90790838003158569 0.90790838003158569
0.93024146556854248 0.93024146556854248 0.93024146556854248
0.91261011362075806 0.91261011362075806 0.91261011362075806
0.91263258457183838 0.91263258457183838 0.91263258457183838
0.92416512966156006 0.92416512966156006 0.92416512966156006
0.93079233169555664 0.93079233169555664 0.93079233169555664
0.93347263336181641 0.93347263336181641 0.93347263336181641
0.95387202501296997 0.95387202501296997 0.95387202501296997
0.97150146961212158 0.97150146961212158 0.97150146961212158
