luts/negative_new/kodak_portra_800.cube
# Created by: G'MIC (https://gmic.eu)
TITLE "kodak_portra_800"
# LUT size
LUT_3D_SIZE 5
# Data domain
DOMAIN_MIN 0.0 0.0 0.0
DOMAIN_MAX 1.0 1.0 1.0
# LUT data points
0.034757517278194427 0.046882167458534241 0.049364816397428513
0.24334633350372314 0.04328937828540802 0.038712549954652786
0.62346112728118896 0.0075151482596993446 0.011877666227519512
0.93163293600082397 0.0075606550090014935 0.003312473651021719
1 0.13361229002475739 0.00011435116175562143
0.0033835018984973431 0.21007236838340759 0.069527417421340942
0.18881386518478394 0.24861665070056915 0.023921726271510124
0.59928011894226074 0.28246274590492249 0.005042102187871933
0.90469098091125488 0.32006856799125671 0.0011265773791819811
0.99841195344924927 0.36928188800811768 0.0009476605337113142
0.0015913720708340406 0.46557354927062988 0.078957170248031616
0.015267645008862019 0.46915823221206665 0.040893658995628357
0.49406537413597107 0.55233103036880493 0.0043129418045282364
0.83710223436355591 0.60467040538787842 4.5237822632770985e-05
0.99971628189086914 0.61654835939407349 0
0 0.71388953924179077 0.092949874699115753
0.0043041454628109932 0.70409309864044189 0.076207838952541351
0.37116381525993347 0.7347252368927002 0.013627490028738976
0.75138503313064575 0.80492484569549561 0.0050327824428677559
0.98657357692718506 0.82541638612747192 0
0.17076274752616882 0.94741535186767578 0.39921706914901733
0.29142853617668152 0.94389963150024414 0.39583751559257507
0.48743647336959839 0.94098746776580811 0.38770952820777893
0.70738005638122559 0.95850557088851929 0.32116249203681946
0.93312418460845947 0.97420364618301392 0.087764650583267212
0.017884109169244766 0.053439106792211533 0.26436105370521545
0.24639976024627686 0.025393377989530563 0.26022842526435852
0.61739474534988403 0.0081173470243811607 0.24870187044143677
0.93417000770568848 0.0016956254839897156 0.21975646913051605
1 0.069046527147293091 0.20403775572776794
0.0085938544943928719 0.2496810108423233 0.25580865144729614
0.22590929269790649 0.24910397827625275 0.2573564350605011
0.62839382886886597 0.24351230263710022 0.24456509947776794
0.92061734199523926 0.2788008451461792 0.21871742606163025
1 0.35111084580421448 0.17859707772731781
0.0049183564260601997 0.50626480579376221 0.27655449509620667
0.10283753275871277 0.50078046321868896 0.25706332921981812
0.53198188543319702 0.5584835410118103 0.19620333611965179
0.85990571975708008 0.60114747285842896 0.15567298233509064
0.99838930368423462 0.6111568808555603 0.13805951178073883
0.0008490618783980608 0.7367323637008667 0.28470128774642944
0.0081616565585136414 0.72693902254104614 0.26974490284919739
0.39565441012382507 0.73416417837142944 0.23390896618366241
0.74638897180557251 0.79528558254241943 0.13573743402957916
0.99379467964172363 0.82910811901092529 0.06241646409034729
0.24521920084953308 0.94821977615356445 0.48249262571334839
0.33950436115264893 0.94440025091171265 0.47994908690452576
0.50597989559173584 0.94011205434799194 0.47307881712913513
0.71545940637588501 0.95481419563293457 0.4341428279876709
0.92863142490386963 0.97039222717285156 0.29809582233428955
0.0072060381062328815 0.031593009829521179 0.5897601842880249
0.29447734355926514 0.0084926234558224678 0.59172111749649048
0.67209172248840332 0.0042301849462091923 0.61404883861541748
0.92845159769058228 0.0017895417986437678 0.58340680599212646
1 0.0067372638732194901 0.53358173370361328
0.01272105798125267 0.2568870484828949 0.57761353254318237
0.25622481107711792 0.25514993071556091 0.59010571241378784
0.64968186616897583 0.23143748939037323 0.60482597351074219
0.91727811098098755 0.1941886693239212 0.58520114421844482
1 0.28943011164665222 0.54773294925689697
0.013981778174638748 0.55378168821334839 0.55407166481018066
0.28148376941680908 0.55802130699157715 0.56484663486480713
0.59081625938415527 0.57241809368133545 0.5641096830368042
0.85567009449005127 0.59313088655471802 0.5653730034828186
0.99602079391479492 0.62848383188247681 0.56743824481964111
0.28707507252693176 0.77352321147918701 0.58741933107376099
0.38560822606086731 0.77169686555862427 0.58059102296829224
0.49982428550720215 0.7577587366104126 0.53460407257080078
0.76656156778335571 0.80035537481307983 0.52707135677337646
0.98784530162811279 0.82434415817260742 0.53818368911743164
0.43192005157470703 0.94681680202484131 0.6604236364364624
0.45874342322349548 0.94675910472869873 0.64682817459106445
0.55527198314666748 0.93894308805465698 0.63017010688781738
0.7263912558555603 0.95240849256515503 0.61872053146362305
0.93456262350082397 0.97188848257064819 0.57366263866424561
0.1351582407951355 0.0065498054027557373 0.84783834218978882
0.39391157031059265 0.0078557031229138374 0.84948521852493286
0.6835860013961792 0.0080248964950442314 0.85556674003601074
0.92209494113922119 0.0051201763562858105 0.86700999736785889
0.99798858165740967 0.0042898887768387794 0.83204025030136108
0.080261096358299255 0.26425814628601074 0.83953428268432617
0.36742410063743591 0.25826850533485413 0.84062367677688599
0.66634088754653931 0.25792422890663147 0.84752064943313599
0.90859121084213257 0.29732745885848999 0.8602479100227356
0.99933052062988281 0.31749951839447021 0.82620656490325928
0.0079084960743784904 0.54315245151519775 0.80710935592651367
0.23242434859275818 0.54582506418228149 0.81054389476776123
0.59793204069137573 0.5738985538482666 0.81710147857666016
0.8553009033203125 0.61074590682983398 0.83668971061706543
0.99151152372360229 0.61748600006103516 0.82325845956802368
0.29508116841316223 0.78873997926712036 0.80206084251403809
0.41314840316772461 0.78611534833908081 0.80406826734542847
0.61454093456268311 0.79504311084747314 0.80583381652832031
0.79559624195098877 0.81149274110794067 0.80616503953933716
0.9802665114402771 0.83131313323974609 0.81693094968795776
0.5939900279045105 0.95411378145217896 0.84502291679382324
0.62228083610534668 0.94707620143890381 0.83845663070678711
0.69775485992431641 0.95353019237518311 0.83984929323196411
0.77184814214706421 0.95122772455215454 0.81097882986068726
0.93973028659820557 0.96745294332504272 0.80735510587692261
0.42382588982582092 0.10565019398927689 0.990489661693573
0.52580845355987549 0.087196454405784607 0.99124526977539062
0.7061188817024231 0.099592022597789764 0.99150294065475464
0.89743918180465698 0.20992588996887207 0.98820644617080688
1 0.29062601923942566 0.99068105220794678
0.41749545931816101 0.33371874690055847 0.98363214731216431
0.51963138580322266 0.33868446946144104 0.98780757188796997
0.69683104753494263 0.35456827282905579 0.98342430591583252
0.8821638822555542 0.41248571872711182 0.98040664196014404
0.99678796529769897 0.4672929048538208 0.99100220203399658
0.35121855139732361 0.57814329862594604 0.98229563236236572
0.47460052371025085 0.58969694375991821 0.97987276315689087
0.66323971748352051 0.60384243726730347 0.97570192813873291
0.85500061511993408 0.6449284553527832 0.97590583562850952
0.99322080612182617 0.68414342403411865 0.98255026340484619
0.33707073330879211 0.78849631547927856 0.96793454885482788
0.43818160891532898 0.7918897271156311 0.96712088584899902
0.59486007690429688 0.79435491561889648 0.96891659498214722
0.81101322174072266 0.82365167140960693 0.96761977672576904
0.97814571857452393 0.85102587938308716 0.97244751453399658
0.61737936735153198 0.96154093742370605 0.96529620885848999
0.65439885854721069 0.95826977491378784 0.96606314182281494
0.73180687427520752 0.95807915925979614 0.96733421087265015
0.83983594179153442 0.96415233612060547 0.96792429685592651
0.96234655380249023 0.96965372562408447 0.9681084156036377
