luts/negative_new/kodak_portra_160_++.cube
# Created by: G'MIC (https://gmic.eu)
TITLE "kodak_portra_160_++"
# LUT size
LUT_3D_SIZE 13
# Data domain
DOMAIN_MIN 0.0 0.0 0.0
DOMAIN_MAX 1.0 1.0 1.0
# LUT data points
0.13419154286384583 0.086283817887306213 0.078873574733734131
0.15777771174907684 0.083210140466690063 0.078172303736209869
0.21113947033882141 0.081279009580612183 0.084435120224952698
0.28083455562591553 0.07434207946062088 0.080146268010139465
0.36971297860145569 0.063128679990768433 0.07166513055562973
0.47343564033508301 0.041446611285209656 0.064237527549266815
0.58204442262649536 0.019504981115460396 0.052567336708307266
0.68219107389450073 0.017576105892658234 0.038713626563549042
0.76552063226699829 0.027301877737045288 0.023734761402010918
0.83655565977096558 0.05277189239859581 0.011708981357514858
0.90329331159591675 0.098402731120586395 0.0052314908243715763
0.96441823244094849 0.14418475329875946 0.0029131870251148939
0.99864476919174194 0.17985871434211731 0.0022020228207111359
0.13431577384471893 0.11874713003635406 0.07945677638053894
0.1577044278383255 0.11829555779695511 0.077749095857143402
0.21380913257598877 0.12267787009477615 0.082016021013259888
0.28456461429595947 0.124256432056427 0.074305467307567596
0.37727758288383484 0.12229630351066589 0.060667134821414948
0.4790804386138916 0.11261888593435287 0.049941688776016235
0.58763700723648071 0.10355133563280106 0.036396369338035583
0.68730437755584717 0.10431090742349625 0.023189693689346313
0.76738137006759644 0.11486590653657913 0.011905430816113949
0.83377259969711304 0.13420675694942474 0.0069688535295426846
0.90039598941802979 0.16389244794845581 0.0045319949276745319
0.96208757162094116 0.19629867374897003 0.0035009197890758514
0.99735307693481445 0.22160016000270844 0.0016977796331048012
0.13147781789302826 0.17529357969760895 0.079704701900482178
0.15457794070243835 0.17386788129806519 0.078273653984069824
0.20471572875976562 0.18474365770816803 0.081517480313777924
0.27975368499755859 0.19583801925182343 0.068148866295814514
0.38236784934997559 0.2035355269908905 0.042117472738027573
0.48911744356155396 0.20751778781414032 0.024286592379212379
0.59602683782577515 0.20945395529270172 0.014824616722762585
0.69234544038772583 0.20951712131500244 0.009140942245721817
0.76597505807876587 0.21309947967529297 0.006586022675037384
0.83177441358566284 0.21849489212036133 0.0044731888920068741
0.89763754606246948 0.23504325747489929 0.0038808186072856188
0.96004784107208252 0.26139369606971741 0.002236474771052599
0.99639588594436646 0.2836247980594635 0.00089239981025457382
0.12190050631761551 0.25047126412391663 0.075061768293380737
0.14901304244995117 0.24673289060592651 0.075758673250675201
0.19628928601741791 0.25509941577911377 0.072093099355697632
0.26514548063278198 0.27007171511650085 0.058688819408416748
0.36987453699111938 0.29559776186943054 0.027443066239356995
0.49011605978012085 0.3094603419303894 0.0062702554278075695
0.5983893871307373 0.31184488534927368 0.0050404719077050686
0.6936800479888916 0.30953899025917053 0.0041740415617823601
0.76597732305526733 0.31031441688537598 0.0050577800720930099
0.83148080110549927 0.31060394644737244 0.0059119430370628834
0.89668774604797363 0.31667369604110718 0.0044522304087877274
0.9571642279624939 0.33409327268600464 0.0045179030857980251
0.99302160739898682 0.34823164343833923 0.0023721882607787848
0.10588652640581131 0.3386739194393158 0.063315235078334808
0.13811863958835602 0.3364720344543457 0.063925892114639282
0.19048234820365906 0.33845087885856628 0.058988265693187714
0.26457050442695618 0.35376602411270142 0.045112758874893188
0.35271534323692322 0.37422063946723938 0.022778455168008804
0.46893519163131714 0.40196684002876282 0.0052251480519771576
0.58279049396514893 0.41189843416213989 0.0034723917488008738
0.68170881271362305 0.40905648469924927 0.0010361465392634273
0.76059830188751221 0.40356814861297607 0.0024940790608525276
0.82788199186325073 0.40031659603118896 0.0052775065414607525
0.8944208025932312 0.40238466858863831 0.0038461722433567047
0.95347809791564941 0.40663567185401917 0.0041163577698171139
0.99202078580856323 0.41676998138427734 0.0017457850044593215
0.088852182030677795 0.42890927195549011 0.043726079165935516
0.13261646032333374 0.4261382520198822 0.045710112899541855
0.19114649295806885 0.42254406213760376 0.045092474669218063
0.26189020276069641 0.43156293034553528 0.033805817365646362
0.34558355808258057 0.44840243458747864 0.015379139222204685
0.44388118386268616 0.46878638863563538 0.0058099785819649696
0.55752140283584595 0.49495613574981689 0.0028612324967980385
0.65746891498565674 0.50220417976379395 0.0016308503691107035
0.7437434196472168 0.49570575356483459 0.0031526153907179832
0.81801402568817139 0.48971149325370789 0.0019359064754098654
0.88396424055099487 0.48753702640533447 0.00029799516778439283
0.94736403226852417 0.48654288053512573 0.0011967826867476106
0.99402904510498047 0.49011123180389404 0.00012950523523613811
0.10303010791540146 0.50878727436065674 0.031328387558460236
0.14588069915771484 0.50747060775756836 0.032014690339565277
0.20023760199546814 0.50085902214050293 0.032380539923906326
0.26071542501449585 0.49880543351173401 0.025434277951717377
0.3429257869720459 0.51248323917388916 0.018515687435865402
0.43062898516654968 0.52952831983566284 0.0067782830446958542
0.52612364292144775 0.54754042625427246 0.0053127212449908257
0.62840735912322998 0.56645917892456055 0.0050511825829744339
0.72246605157852173 0.5782853364944458 0.0048707998357713223
0.79984205961227417 0.57907962799072266 0.0041596805676817894
0.86836642026901245 0.57459074258804321 0.00054832908790558577
0.93561351299285889 0.57065707445144653 0.0010329302167519927
0.99034208059310913 0.56693112850189209 6.8933826696593314e-05
0.15115940570831299 0.57997238636016846 0.039906058460474014
0.1825900673866272 0.57858699560165405 0.037674505263566971
0.22709488868713379 0.57204234600067139 0.037919856607913971
0.27549862861633301 0.56354820728302002 0.030898001044988632
0.34450200200080872 0.56987309455871582 0.02517038956284523
0.42516270279884338 0.58504629135131836 0.020155139267444611
0.51057744026184082 0.60053950548171997 0.013461737893521786
0.60086166858673096 0.61981260776519775 0.0098226806148886681
0.6902775764465332 0.6380886435508728 0.0079338224604725838
0.77887928485870361 0.65597885847091675 0.0056514963507652283
0.85440331697463989 0.65711289644241333 0.0012272404273971915
0.92575454711914062 0.6525992751121521 0.0003226485860068351
0.98600959777832031 0.64833152294158936 0
0.21970824897289276 0.64568650722503662 0.077558569610118866
0.2370922863483429 0.64452624320983887 0.070832423865795135
0.27029061317443848 0.63959318399429321 0.067705444991588593
0.31359228491783142 0.63087135553359985 0.062637031078338623
0.36316949129104614 0.62914568185806274 0.04848765954375267
0.43479794263839722 0.64066988229751587 0.046363785862922668
0.51150965690612793 0.65452492237091064 0.038225643336772919
0.58738851547241211 0.66979271173477173 0.034325424581766129
0.66842949390411377 0.68900841474533081 0.037962369620800018
0.75494790077209473 0.71315097808837891 0.040972091257572174
0.84146112203598022 0.7318006157875061 0.026326078921556473
0.9173470139503479 0.73247009515762329 0.0066333245486021042
0.98236900568008423 0.73000270128250122 0.00061174278380349278
0.28412792086601257 0.71097123622894287 0.13362950086593628
0.2984766960144043 0.70987266302108765 0.12719735503196716
0.32381543517112732 0.70720666646957397 0.12245897948741913
0.35766181349754333 0.70013684034347534 0.11441317945718765
0.39322543144226074 0.69355994462966919 0.097239486873149872
0.45105710625648499 0.69831550121307373 0.095071814954280853
0.52057075500488281 0.70989620685577393 0.099052250385284424
0.59074109792709351 0.72398722171783447 0.10168415307998657
0.66215240955352783 0.74094831943511963 0.11695103347301483
0.73592180013656616 0.75734782218933105 0.12679289281368256
0.81605511903762817 0.77776223421096802 0.13639619946479797
0.90252178907394409 0.80065804719924927 0.1165057048201561
0.97443723678588867 0.80463343858718872 0.054013930261135101
0.35037052631378174 0.77960246801376343 0.20283085107803345
0.36516335606575012 0.77853405475616455 0.20338182151317596
0.383370041847229 0.77583181858062744 0.19409702718257904
0.40673086047172546 0.77053248882293701 0.18344902992248535
0.43887162208557129 0.76435232162475586 0.17668218910694122
0.48108845949172974 0.7635771632194519 0.1715322881937027
0.53993886709213257 0.77126777172088623 0.17236427962779999
0.60195279121398926 0.78279483318328857 0.18285484611988068
0.66709375381469727 0.79732853174209595 0.19587074220180511
0.73333293199539185 0.81025993824005127 0.21013250946998596
0.80271965265274048 0.8239821195602417 0.22639413177967072
0.87659639120101929 0.84027403593063354 0.24219097197055817
0.95835083723068237 0.86326628923416138 0.23773251473903656
0.42521339654922485 0.85075771808624268 0.29587891697883606
0.43702954053878784 0.85260677337646484 0.29579207301139832
0.45253521203994751 0.85093784332275391 0.28958582878112793
0.47214442491531372 0.84652101993560791 0.28350409865379333
0.49748164415359497 0.8428078293800354 0.27823296189308167
0.53002816438674927 0.83992505073547363 0.26850831508636475
0.57609885931015015 0.84234684705734253 0.26864689588546753
0.63082200288772583 0.85070884227752686 0.28012892603874207
0.68818718194961548 0.86187112331390381 0.29183366894721985
0.74722254276275635 0.87218648195266724 0.30574247241020203
0.80791306495666504 0.88139563798904419 0.31876614689826965
0.87119793891906738 0.89098232984542847 0.33129271864891052
0.93599557876586914 0.90510267019271851 0.34382322430610657
0.51450061798095703 0.92589092254638672 0.41462287306785583
0.52178788185119629 0.92764741182327271 0.41417264938354492
0.53315520286560059 0.92686724662780762 0.41190096735954285
0.54964232444763184 0.92494547367095947 0.40968441963195801
0.57083910703659058 0.92170143127441406 0.40555328130722046
0.59935128688812256 0.92052727937698364 0.40365898609161377
0.63452798128128052 0.92128664255142212 0.40288552641868591
0.67776525020599365 0.92499047517776489 0.40859854221343994
0.72602564096450806 0.93252056837081909 0.4185117781162262
0.77877026796340942 0.94089561700820923 0.43164092302322388
0.83146160840988159 0.946452796459198 0.44133880734443665
0.88549560308456421 0.95272082090377808 0.45113292336463928
0.93833184242248535 0.9582984447479248 0.46161988377571106
0.13359212875366211 0.088364832103252411 0.11476477980613708
0.15827690064907074 0.087202005088329315 0.11499904841184616
0.20982497930526733 0.084904104471206665 0.11669203639030457
0.28486335277557373 0.075482524931430817 0.11905429512262344
0.37804111838340759 0.05020180344581604 0.11562108248472214
0.47999072074890137 0.025676533579826355 0.11110915988683701
0.58887642621994019 0.01235357578843832 0.10609796643257141
0.68680638074874878 0.01096762903034687 0.09807007759809494
0.76862853765487671 0.014128098264336586 0.086074322462081909
0.83830553293228149 0.03590310737490654 0.073547452688217163
0.90238362550735474 0.080253884196281433 0.059880904853343964
0.96253377199172974 0.13151949644088745 0.049571271985769272
0.99828320741653442 0.18045088648796082 0.036045506596565247
0.13421909511089325 0.12436888366937637 0.11586326360702515
0.16036540269851685 0.12538985908031464 0.11916220933198929
0.21300008893013 0.12652106583118439 0.11836913228034973
0.28886592388153076 0.12384932488203049 0.11493979394435883
0.38296011090278625 0.11490748077630997 0.11194612085819244
0.48607534170150757 0.095452882349491119 0.10510506480932236
0.59345102310180664 0.083630338311195374 0.095805183053016663
0.68965792655944824 0.082680687308311462 0.085202299058437347
0.76755416393280029 0.091566361486911774 0.075138524174690247
0.83536344766616821 0.11520808935165405 0.061203945428133011
0.90021675825119019 0.15233077108860016 0.04520721361041069
0.96150928735733032 0.18798078596591949 0.034732863306999207
0.99827772378921509 0.21528951823711395 0.027303881943225861
0.13148380815982819 0.18731944262981415 0.11824635416269302
0.15938533842563629 0.18405504524707794 0.11991505324840546
0.20899878442287445 0.18953913450241089 0.11791712790727615
0.28798210620880127 0.19591245055198669 0.11050132662057877
0.39086231589317322 0.20230785012245178 0.099443651735782623
0.49587127566337585 0.19929501414299011 0.082188688218593597
0.59992426633834839 0.19744643568992615 0.067544378340244293
0.69296365976333618 0.19720891118049622 0.055345378816127777
0.76548105478286743 0.20232155919075012 0.051771350204944611
0.83329427242279053 0.21109619736671448 0.040380187332630157
0.90009528398513794 0.23188687860965729 0.027251539751887321
0.96017825603485107 0.25642156600952148 0.021893355995416641
0.99542355537414551 0.27799829840660095 0.014527653343975544
0.12116923928260803 0.26670011878013611 0.11857116967439651
0.15425913035869598 0.26261663436889648 0.11850538104772568
0.20199489593505859 0.26383373141288757 0.11549519747495651
0.27691835165023804 0.27667787671089172 0.10885612666606903
0.38223087787628174 0.29357078671455383 0.089187294244766235
0.50064802169799805 0.30579656362533569 0.055980458855628967
0.60662704706192017 0.30418646335601807 0.030894052237272263
0.69513344764709473 0.30427736043930054 0.02525043860077858
0.76623803377151489 0.30612215399742126 0.025793680921196938
0.83428090810775757 0.30758565664291382 0.017815817147493362
0.89917683601379395 0.31632176041603088 0.014073420315980911
0.95723152160644531 0.32963860034942627 0.011649397201836109
0.99132806062698364 0.34561589360237122 0.0092396903783082962
0.10636575520038605 0.35874307155609131 0.11550650745630264
0.14409758150577545 0.35365229845046997 0.11275191605091095
0.1985146552324295 0.34812834858894348 0.11108908802270889
0.27409270405769348 0.36012923717498779 0.10585780441761017
0.36497509479522705 0.37969735264778137 0.09087110310792923
0.48085537552833557 0.40573170781135559 0.053496059030294418
0.59401988983154297 0.41246491670608521 0.01904723234474659
0.6888774037361145 0.40711832046508789 0.0069778440520167351
0.76457488536834717 0.40208593010902405 0.0073333592154085636
0.83152931928634644 0.39782661199569702 0.0072012809105217457
0.89570510387420654 0.4004875123500824 0.0047388561069965363
0.95465612411499023 0.40457552671432495 0.0065801283344626427
0.99395805597305298 0.41489467024803162 0.0038291183300316334
0.099728167057037354 0.44310691952705383 0.10592908412218094
0.14462384581565857 0.43925738334655762 0.10756909102201462
0.19984076917171478 0.43146228790283203 0.10563954710960388
0.27024266123771667 0.43780690431594849 0.098172098398208618
0.35763520002365112 0.45396125316619873 0.085014268755912781
0.45444533228874207 0.47430834174156189 0.063589416444301605
0.56520938873291016 0.49725085496902466 0.02878773957490921
0.66617637872695923 0.50620156526565552 0.008636055514216423
0.74946945905685425 0.49747827649116516 0.0048456229269504547
0.8223259449005127 0.48752686381340027 0.0026982026174664497
0.88687598705291748 0.48556309938430786 0.0022863501217216253
0.94752639532089233 0.48363429307937622 0.0036673902068287134
0.99220192432403564 0.48859274387359619 0.00067792407935485244
0.11937767267227173 0.5205274224281311 0.10252868384122849
0.16001875698566437 0.51786899566650391 0.10423600673675537
0.21172086894512177 0.50964200496673584 0.10217449814081192
0.27188444137573242 0.50555497407913208 0.094016022980213165
0.35246407985687256 0.51752209663391113 0.085225813090801239
0.43991586565971375 0.53429275751113892 0.07210223376750946
0.53360772132873535 0.55324244499206543 0.054796136915683746
0.63601720333099365 0.57695311307907104 0.032043620944023132
0.72805368900299072 0.58670181035995483 0.011376399546861649
0.80379331111907959 0.58057969808578491 0.0041713640093803406
0.87217158079147339 0.57345521450042725 0.0030976838897913694
0.9388701319694519 0.5674140453338623 0.003970456775277853
0.98952877521514893 0.56459301710128784 0.0016667235177010298
0.16863322257995605 0.58931100368499756 0.11529907584190369
0.20015484094619751 0.58684486150741577 0.11544124782085419
0.23990622162818909 0.5802951455116272 0.11046817153692245
0.2868049144744873 0.56999784708023071 0.10059898346662521
0.35058042407035828 0.57306623458862305 0.094558671116828918
0.43073976039886475 0.58783739805221558 0.091006964445114136
0.51669090986251831 0.60434174537658691 0.081560499966144562
0.60517787933349609 0.62362074851989746 0.069966904819011688
0.69724297523498535 0.64690238237380981 0.057025101035833359
0.78501319885253906 0.66094058752059937 0.026039227843284607
0.85863661766052246 0.65916115045547485 0.0089359506964683533
0.92917478084564209 0.65249109268188477 0.004751257598400116
0.98904573917388916 0.64703774452209473 0.0007187039009295404
0.22977165877819061 0.65268421173095703 0.14202579855918884
0.24953563511371613 0.65085881948471069 0.13741077482700348
0.28086414933204651 0.64530074596405029 0.1326100081205368
0.32252436876296997 0.63555479049682617 0.12617526948451996
0.37046587467193604 0.63163399696350098 0.12004948407411575
0.43649667501449585 0.64268368482589722 0.11732485890388489
0.51157480478286743 0.65676891803741455 0.1098906546831131
0.58962619304656982 0.672232985496521 0.11001337319612503
0.67074394226074219 0.69031292200088501 0.11624749749898911
0.75482738018035889 0.71196448802947998 0.11491790413856506
0.84378945827484131 0.73269116878509521 0.083472728729248047
0.91953092813491821 0.73301565647125244 0.028865499421954155
0.98279237747192383 0.72869759798049927 0.0042922524735331535
0.29152962565422058 0.71537905931472778 0.18051318824291229
0.30742821097373962 0.71458971500396729 0.17840178310871124
0.3309306800365448 0.71149331331253052 0.17198276519775391
0.36395210027694702 0.70448130369186401 0.16389724612236023
0.40398558974266052 0.69824928045272827 0.15971796214580536
0.45548555254936218 0.70167571306228638 0.15361696481704712
0.51966649293899536 0.71215498447418213 0.15409120917320251
0.58932334184646606 0.72530841827392578 0.15960228443145752
0.66165828704833984 0.74076855182647705 0.17054291069507599
0.73818516731262207 0.75724416971206665 0.18082201480865479
0.82247632741928101 0.78298115730285645 0.192617267370224
0.90328443050384521 0.80087703466415405 0.17481756210327148
0.97501277923583984 0.80370134115219116 0.10655634105205536
0.35888293385505676 0.78213119506835938 0.2464965432882309
0.37069368362426758 0.78225219249725342 0.24005486071109772
0.389067143201828 0.77856582403182983 0.23104356229305267
0.41345742344856262 0.77313917875289917 0.2216360867023468
0.4449707567691803 0.76754993200302124 0.21234226226806641
0.4821363091468811 0.76462078094482422 0.20136359333992004
0.53914135694503784 0.77303308248519897 0.20845091342926025
0.60108369588851929 0.7836911678314209 0.21817372739315033
0.66692590713500977 0.79694879055023193 0.23072515428066254
0.73297983407974243 0.80916386842727661 0.2450631856918335
0.80652803182601929 0.82630753517150879 0.26073655486106873
0.87914586067199707 0.84353440999984741 0.27677133679389954
0.95744609832763672 0.86400628089904785 0.27710410952568054
0.43327954411506653 0.85406315326690674 0.32609972357749939
0.44206321239471436 0.85410028696060181 0.32118123769760132
0.4564051628112793 0.85170507431030273 0.31529983878135681
0.47635558247566223 0.84779614210128784 0.30992746353149414
0.50051242113113403 0.84427422285079956 0.30239155888557434
0.53139156103134155 0.84053844213485718 0.29018762707710266
0.57669240236282349 0.84330779314041138 0.29314139485359192
0.63123571872711182 0.85166633129119873 0.30519026517868042
0.68823707103729248 0.86132234334945679 0.31673118472099304
0.74724185466766357 0.87098067998886108 0.33011561632156372
0.80854755640029907 0.8806958794593811 0.3434033989906311
0.87241655588150024 0.89116030931472778 0.35514187812805176
0.9351087212562561 0.90480023622512817 0.3675256073474884
0.51732176542282104 0.92798793315887451 0.43068894743919373
0.5230826735496521 0.9260941743850708 0.4270223081111908
0.53489995002746582 0.92686039209365845 0.42718273401260376
0.54979437589645386 0.92422163486480713 0.42250481247901917
0.57176631689071655 0.92286044359207153 0.42217832803726196
0.60075187683105469 0.92062664031982422 0.4191516637802124
0.63458842039108276 0.92091661691665649 0.41607227921485901
0.67649906873703003 0.92357295751571655 0.42023751139640808
0.72609210014343262 0.93217462301254272 0.43179091811180115
0.77772063016891479 0.93929183483123779 0.44316327571868896
0.83182889223098755 0.94574463367462158 0.45416471362113953
0.88549280166625977 0.95184963941574097 0.46418917179107666
0.93719488382339478 0.95666450262069702 0.47338753938674927
0.13146595656871796 0.093791976571083069 0.18415586650371552
0.16154944896697998 0.09400012344121933 0.1818595826625824
0.21811294555664062 0.091532357037067413 0.182927206158638
0.28987222909927368 0.083711139857769012 0.18600784242153168
0.38875925540924072 0.058083835989236832 0.18912966549396515
0.49551400542259216 0.020949883386492729 0.18844160437583923
0.60128909349441528 0.0075343414209783077 0.18561601638793945
0.69541376829147339 0.0041411304846405983 0.17697148025035858
0.77143204212188721 0.0071580922231078148 0.17267705500125885
0.8399849534034729 0.017075197771191597 0.1639740914106369
0.90125834941864014 0.060081899166107178 0.15954932570457458
0.96137195825576782 0.12324022501707077 0.15473705530166626
0.99709326028823853 0.17876911163330078 0.14563077688217163
0.13101258873939514 0.13606467843055725 0.19198061525821686
0.16344192624092102 0.13462613523006439 0.18627113103866577
0.21657288074493408 0.13463515043258667 0.18524070084095001
0.29461669921875 0.13247071206569672 0.18762141466140747
0.39169162511825562 0.11867003887891769 0.18779921531677246
0.49867969751358032 0.088251270353794098 0.18357712030410767
0.60335487127304077 0.064093753695487976 0.17946489155292511
0.6942298412322998 0.056542355567216873 0.17170242965221405
0.77033215761184692 0.072625406086444855 0.16757717728614807
0.83781063556671143 0.098991349339485168 0.15599691867828369
0.90010565519332886 0.14174370467662811 0.14781992137432098
0.95992112159729004 0.18153756856918335 0.142917200922966
0.99716013669967651 0.21869255602359772 0.13680896162986755
0.12427905201911926 0.20247505605220795 0.18800102174282074
0.15955770015716553 0.19999700784683228 0.18626345694065094
0.21640677750110626 0.20201678574085236 0.18776223063468933
0.2978309690952301 0.20158800482749939 0.18649476766586304
0.39825913310050964 0.19768872857093811 0.1799720823764801
0.50589549541473389 0.19135189056396484 0.17437508702278137
0.60552376508712769 0.18809282779693604 0.1676679402589798
0.69328981637954712 0.18604730069637299 0.1563839316368103
0.76722514629364014 0.19017569720745087 0.15044024586677551
0.83583539724349976 0.20232897996902466 0.14248096942901611
0.90131878852844238 0.22655712068080902 0.13598252832889557
0.96178323030471802 0.25063833594322205 0.12862423062324524
0.99692749977111816 0.27322345972061157 0.12228979915380478
0.1060885414481163 0.28527909517288208 0.18258126080036163
0.15420056879520416 0.28366288542747498 0.1873117983341217
0.21147342026233673 0.27909103035926819 0.1890639066696167
0.29620403051376343 0.28805440664291382 0.18639495968818665
0.39976975321769714 0.29837912321090698 0.17596060037612915
0.51268059015274048 0.30037900805473328 0.15760050714015961
0.61071783304214478 0.29994690418243408 0.13968050479888916
0.69607466459274292 0.29802453517913818 0.12977735698223114
0.76799070835113525 0.29850113391876221 0.12353551387786865
0.83592647314071655 0.30185496807098389 0.11615891009569168
0.9004976749420166 0.31227436661720276 0.10926011204719543
0.95930975675582886 0.32554954290390015 0.10124592483043671
0.99271202087402344 0.34229961037635803 0.095235161483287811
0.090752109885215759 0.38318437337875366 0.18720321357250214
0.15161369740962982 0.37923157215118408 0.1921478807926178
0.21523012220859528 0.37135368585586548 0.19000785052776337
0.2864033579826355 0.37233981490135193 0.18564534187316895
