luts/negative_new/kodak_tmax_3200_alt.cube
# Created by: G'MIC (https://gmic.eu)
TITLE "kodak_tmax_3200_alt"
# LUT size
LUT_3D_SIZE 7
# Data domain
DOMAIN_MIN 0.0 0.0 0.0
DOMAIN_MAX 1.0 1.0 1.0
# LUT data points
0.017549656331539154 0.017549656331539154 0.017549656331539154
0.019115284085273743 0.019115284085273743 0.019115284085273743
0.030828183516860008 0.030828183516860008 0.030828183516860008
0.046872321516275406 0.046872321516275406 0.046872321516275406
0.079799994826316833 0.079799994826316833 0.079799994826316833
0.13964486122131348 0.13964486122131348 0.13964486122131348
0.21579553186893463 0.21579553186893463 0.21579553186893463
0.10722491890192032 0.10722491890192032 0.10722491890192032
0.10773960500955582 0.10773960500955582 0.10773960500955582
0.12677961587905884 0.12677961587905884 0.12677961587905884
0.14642056822776794 0.14642056822776794 0.14642056822776794
0.1827477365732193 0.1827477365732193 0.1827477365732193
0.25237932801246643 0.25237932801246643 0.25237932801246643
0.33276143670082092 0.33276143670082092 0.33276143670082092
0.23423536121845245 0.23423536121845245 0.23423536121845245
0.23509266972541809 0.23509266972541809 0.23509266972541809
0.26401683688163757 0.26401683688163757 0.26401683688163757
0.28750330209732056 0.28750330209732056 0.28750330209732056
0.32316380739212036 0.32316380739212036 0.32316380739212036
0.39079344272613525 0.39079344272613525 0.39079344272613525
0.46423748135566711 0.46423748135566711 0.46423748135566711
0.42091101408004761 0.42091101408004761 0.42091101408004761
0.43245947360992432 0.43245947360992432 0.43245947360992432
0.45177748799324036 0.45177748799324036 0.45177748799324036
0.47495508193969727 0.47495508193969727 0.47495508193969727
0.5055619478225708 0.5055619478225708 0.5055619478225708
0.54774439334869385 0.54774439334869385 0.54774439334869385
0.60095149278640747 0.60095149278640747 0.60095149278640747
0.6109585165977478 0.6109585165977478 0.6109585165977478
0.62949085235595703 0.62949085235595703 0.62949085235595703
0.638022780418396 0.638022780418396 0.638022780418396
0.6518547534942627 0.6518547534942627 0.6518547534942627
0.67033928632736206 0.67033928632736206 0.67033928632736206
0.69132018089294434 0.69132018089294434 0.69132018089294434
0.72164875268936157 0.72164875268936157 0.72164875268936157
0.765758216381073 0.765758216381073 0.765758216381073
0.77744197845458984 0.77744197845458984 0.77744197845458984
0.78461939096450806 0.78461939096450806 0.78461939096450806
0.79191344976425171 0.79191344976425171 0.79191344976425171
0.80024081468582153 0.80024081468582153 0.80024081468582153
0.81043004989624023 0.81043004989624023 0.81043004989624023
0.82709050178527832 0.82709050178527832 0.82709050178527832
0.89531785249710083 0.89531785249710083 0.89531785249710083
0.90059739351272583 0.90059739351272583 0.90059739351272583
0.90481901168823242 0.90481901168823242 0.90481901168823242
0.90806752443313599 0.90806752443313599 0.90806752443313599
0.91115361452102661 0.91115361452102661 0.91115361452102661
0.91484010219573975 0.91484010219573975 0.91484010219573975
0.92403227090835571 0.92403227090835571 0.92403227090835571
0.021776311099529266 0.021776311099529266 0.021776311099529266
0.035826828330755234 0.035826828330755234 0.035826828330755234
0.06068851426243782 0.06068851426243782 0.06068851426243782
0.076863594353199005 0.076863594353199005 0.076863594353199005
0.10832823067903519 0.10832823067903519 0.10832823067903519
0.16714146733283997 0.16714146733283997 0.16714146733283997
0.2455180287361145 0.2455180287361145 0.2455180287361145
0.11843910813331604 0.11843910813331604 0.11843910813331604
0.12855660915374756 0.12855660915374756 0.12855660915374756
0.15579067170619965 0.15579067170619965 0.15579067170619965
0.18133255839347839 0.18133255839347839 0.18133255839347839
0.21949510276317596 0.21949510276317596 0.21949510276317596
0.2840476930141449 0.2840476930141449 0.2840476930141449
0.36331740021705627 0.36331740021705627 0.36331740021705627
0.25456103682518005 0.25456103682518005 0.25456103682518005
0.26079016923904419 0.26079016923904419 0.26079016923904419
0.29025429487228394 0.29025429487228394 0.29025429487228394
0.32013782858848572 0.32013782858848572 0.32013782858848572
0.35979527235031128 0.35979527235031128 0.35979527235031128
0.42041203379631042 0.42041203379631042 0.42041203379631042
0.49063447117805481 0.49063447117805481 0.49063447117805481
0.44188970327377319 0.44188970327377319 0.44188970327377319
0.44930076599121094 0.44930076599121094 0.44930076599121094
0.46820297837257385 0.46820297837257385 0.46820297837257385
0.49270215630531311 0.49270215630531311 0.49270215630531311
0.52443790435791016 0.52443790435791016 0.52443790435791016
0.56724387407302856 0.56724387407302856 0.56724387407302856
0.61852025985717773 0.61852025985717773 0.61852025985717773
0.62669694423675537 0.62669694423675537 0.62669694423675537
0.63448959589004517 0.63448959589004517 0.63448959589004517
0.64406532049179077 0.64406532049179077 0.64406532049179077
0.65906107425689697 0.65906107425689697 0.65906107425689697
0.6782650351524353 0.6782650351524353 0.6782650351524353
0.70249330997467041 0.70249330997467041 0.70249330997467041
0.7340971827507019 0.7340971827507019 0.7340971827507019
0.77295088768005371 0.77295088768005371 0.77295088768005371
0.77735525369644165 0.77735525369644165 0.77735525369644165
0.78507941961288452 0.78507941961288452 0.78507941961288452
0.79453015327453613 0.79453015327453613 0.79453015327453613
0.80445754528045654 0.80445754528045654 0.80445754528045654
0.81693726778030396 0.81693726778030396 0.81693726778030396
0.83567041158676147 0.83567041158676147 0.83567041158676147
0.89448529481887817 0.89448529481887817 0.89448529481887817
0.89593744277954102 0.89593744277954102 0.89593744277954102
0.90170282125473022 0.90170282125473022 0.90170282125473022
0.90744280815124512 0.90744280815124512 0.90744280815124512
0.91209650039672852 0.91209650039672852 0.91209650039672852
0.91812127828598022 0.91812127828598022 0.91812127828598022
0.93006473779678345 0.93006473779678345 0.93006473779678345
0.036872759461402893 0.036872759461402893 0.036872759461402893
0.056004602462053299 0.056004602462053299 0.056004602462053299
0.084025755524635315 0.084025755524635315 0.084025755524635315
0.10841470211744308 0.10841470211744308 0.10841470211744308
0.14371433854103088 0.14371433854103088 0.14371433854103088
0.20367647707462311 0.20367647707462311 0.20367647707462311
0.28593569993972778 0.28593569993972778 0.28593569993972778
0.14582355320453644 0.14582355320453644 0.14582355320453644
0.16390751302242279 0.16390751302242279 0.16390751302242279
0.19406989216804504 0.19406989216804504 0.19406989216804504
0.22442974150180817 0.22442974150180817 0.22442974150180817
0.26485979557037354 0.26485979557037354 0.26485979557037354
0.32672035694122314 0.32672035694122314 0.32672035694122314
0.40579614043235779 0.40579614043235779 0.40579614043235779
0.29297584295272827 0.29297584295272827 0.29297584295272827
0.30742663145065308 0.30742663145065308 0.30742663145065308
0.33398079872131348 0.33398079872131348 0.33398079872131348
0.3648017942905426 0.3648017942905426 0.3648017942905426
0.40450838208198547 0.40450838208198547 0.40450838208198547
0.4597913920879364 0.4597913920879364 0.4597913920879364
0.52620577812194824 0.52620577812194824 0.52620577812194824
0.48408868908882141 0.48408868908882141 0.48408868908882141
0.48651027679443359 0.48651027679443359 0.48651027679443359
0.50035929679870605 0.50035929679870605 0.50035929679870605
0.52314311265945435 0.52314311265945435 0.52314311265945435
0.55262023210525513 0.55262023210525513 0.55262023210525513
0.59302973747253418 0.59302973747253418 0.59302973747253418
0.64141476154327393 0.64141476154327393 0.64141476154327393
0.65731817483901978 0.65731817483901978 0.65731817483901978
0.65527570247650146 0.65527570247650146 0.65527570247650146
0.66040116548538208 0.66040116548538208 0.66040116548538208
0.67365074157714844 0.67365074157714844 0.67365074157714844
0.6916426420211792 0.6916426420211792 0.6916426420211792
0.71563506126403809 0.71563506126403809 0.71563506126403809
0.74724292755126953 0.74724292755126953 0.74724292755126953
0.78698217868804932 0.78698217868804932 0.78698217868804932
0.78626769781112671 0.78626769781112671 0.78626769781112671
0.79123991727828979 0.79123991727828979 0.79123991727828979
0.79981428384780884 0.79981428384780884 0.79981428384780884
0.80970317125320435 0.80970317125320435 0.80970317125320435
0.82316392660140991 0.82316392660140991 0.82316392660140991
0.84321349859237671 0.84321349859237671 0.84321349859237671
0.89974159002304077 0.89974159002304077 0.89974159002304077
0.89811927080154419 0.89811927080154419 0.89811927080154419
0.90194690227508545 0.90194690227508545 0.90194690227508545
0.90747678279876709 0.90747678279876709 0.90747678279876709
0.91269546747207642 0.91269546747207642 0.91269546747207642
0.92036372423171997 0.92036372423171997 0.92036372423171997
0.93452060222625732 0.93452060222625732 0.93452060222625732
0.070940323173999786 0.070940323173999786 0.070940323173999786
0.089953452348709106 0.089953452348709106 0.089953452348709106
0.11683262884616852 0.11683262884616852 0.11683262884616852
0.1471296101808548 0.1471296101808548 0.1471296101808548
0.18884037435054779 0.18884037435054779 0.18884037435054779
0.25044965744018555 0.25044965744018555 0.25044965744018555
0.34320187568664551 0.34320187568664551 0.34320187568664551
0.19310835003852844 0.19310835003852844 0.19310835003852844
0.21279849112033844 0.21279849112033844 0.21279849112033844
0.24147535860538483 0.24147535860538483 0.24147535860538483
0.27375152707099915 0.27375152707099915 0.27375152707099915
0.31690496206283569 0.31690496206283569 0.31690496206283569
0.38068419694900513 0.38068419694900513 0.38068419694900513
0.46448796987533569 0.46448796987533569 0.46448796987533569
0.34609547257423401 0.34609547257423401 0.34609547257423401
0.36293971538543701 0.36293971538543701 0.36293971538543701
0.3872893750667572 0.3872893750667572 0.3872893750667572
0.41623741388320923 0.41623741388320923 0.41623741388320923
0.45426419377326965 0.45426419377326965 0.45426419377326965
0.50717496871948242 0.50717496871948242 0.50717496871948242
0.57175195217132568 0.57175195217132568 0.57175195217132568
0.52718299627304077 0.52718299627304077 0.52718299627304077
0.53167712688446045 0.53167712688446045 0.53167712688446045
0.54421341419219971 0.54421341419219971 0.54421341419219971
0.56408786773681641 0.56408786773681641 0.56408786773681641
0.58969289064407349 0.58969289064407349 0.58969289064407349
0.62495118379592896 0.62495118379592896 0.62495118379592896
0.67046880722045898 0.67046880722045898 0.67046880722045898
0.68509781360626221 0.68509781360626221 0.68509781360626221
0.68397289514541626 0.68397289514541626 0.68397289514541626
0.68828761577606201 0.68828761577606201 0.68828761577606201
0.69955152273178101 0.69955152273178101 0.69955152273178101
0.71307456493377686 0.71307456493377686 0.71307456493377686
0.73350995779037476 0.73350995779037476 0.73350995779037476
0.76315474510192871 0.76315474510192871 0.76315474510192871
0.8052295446395874 0.8052295446395874 0.8052295446395874
0.80464416742324829 0.80464416742324829 0.80464416742324829
0.80681800842285156 0.80681800842285156 0.80681800842285156
0.81238090991973877 0.81238090991973877 0.81238090991973877
0.8195793628692627 0.8195793628692627 0.8195793628692627
0.83125215768814087 0.83125215768814087 0.83125215768814087
0.85111105442047119 0.85111105442047119 0.85111105442047119
0.90964525938034058 0.90964525938034058 0.90964525938034058
0.90810728073120117 0.90810728073120117 0.90810728073120117
0.90916001796722412 0.90916001796722412 0.90916001796722412
0.91191178560256958 0.91191178560256958 0.91191178560256958
0.91562163829803467 0.91562163829803467 0.91562163829803467
0.92294931411743164 0.92294931411743164 0.92294931411743164
0.93795359134674072 0.93795359134674072 0.93795359134674072
0.13287617266178131 0.13287617266178131 0.13287617266178131
0.15299750864505768 0.15299750864505768 0.15299750864505768
0.17667271196842194 0.17667271196842194 0.17667271196842194
0.2075057327747345 0.2075057327747345 0.2075057327747345
0.25802308320999146 0.25802308320999146 0.25802308320999146
0.32856261730194092 0.32856261730194092 0.32856261730194092
0.42474132776260376 0.42474132776260376 0.42474132776260376
0.26832562685012817 0.26832562685012817 0.26832562685012817
0.28607615828514099 0.28607615828514099 0.28607615828514099
0.30945998430252075 0.30945998430252075 0.30945998430252075
0.33926355838775635 0.33926355838775635 0.33926355838775635
0.3849940299987793 0.3849940299987793 0.3849940299987793
0.45169275999069214 0.45169275999069214 0.45169275999069214
0.53534227609634399 0.53534227609634399 0.53534227609634399
0.41991141438484192 0.41991141438484192 0.41991141438484192
0.43411931395530701 0.43411931395530701 0.43411931395530701
0.45357748866081238 0.45357748866081238 0.45357748866081238
0.47816598415374756 0.47816598415374756 0.47816598415374756
0.51271712779998779 0.51271712779998779 0.51271712779998779
0.56153732538223267 0.56153732538223267 0.56153732538223267
0.6211971640586853 0.6211971640586853 0.6211971640586853
0.57522058486938477 0.57522058486938477 0.57522058486938477
0.5836605429649353 0.5836605429649353 0.5836605429649353
0.59545040130615234 0.59545040130615234 0.59545040130615234
0.61152726411819458 0.61152726411819458 0.61152726411819458
0.6320117712020874 0.6320117712020874 0.6320117712020874
0.66166597604751587 0.66166597604751587 0.66166597604751587
0.70179086923599243 0.70179086923599243 0.70179086923599243
0.71186584234237671 0.71186584234237671 0.71186584234237671
0.71567839384078979 0.71567839384078979 0.71567839384078979
0.72133553028106689 0.72133553028106689 0.72133553028106689
0.72987109422683716 0.72987109422683716 0.72987109422683716
0.73898607492446899 0.73898607492446899 0.73898607492446899
0.75506752729415894 0.75506752729415894 0.75506752729415894
0.78157246112823486 0.78157246112823486 0.78157246112823486
0.82288980484008789 0.82288980484008789 0.82288980484008789
0.82467377185821533 0.82467377185821533 0.82467377185821533
0.82675498723983765 0.82675498723983765 0.82675498723983765
0.82973700761795044 0.82973700761795044 0.82973700761795044
0.83342385292053223 0.83342385292053223 0.83342385292053223
0.84205955266952515 0.84205955266952515 0.84205955266952515
0.86042588949203491 0.86042588949203491 0.86042588949203491
0.92081624269485474 0.92081624269485474 0.92081624269485474
0.92034852504730225 0.92034852504730225 0.92034852504730225
0.9206804633140564 0.9206804633140564 0.9206804633140564
0.9210822582244873 0.9210822582244873 0.9210822582244873
0.92231845855712891 0.92231845855712891 0.92231845855712891
0.92776399850845337 0.92776399850845337 0.92776399850845337
0.94222915172576904 0.94222915172576904 0.94222915172576904
0.23134011030197144 0.23134011030197144 0.23134011030197144
0.25273022055625916 0.25273022055625916 0.25273022055625916
0.27203837037086487 0.27203837037086487 0.27203837037086487
0.29646974802017212 0.29646974802017212 0.29646974802017212
0.357503741979599 0.357503741979599 0.357503741979599
0.43027952313423157 0.43027952313423157 0.43027952313423157
0.50824892520904541 0.50824892520904541 0.50824892520904541
0.36860370635986328 0.36860370635986328 0.36860370635986328
0.38678169250488281 0.38678169250488281 0.38678169250488281
0.40570223331451416 0.40570223331451416 0.40570223331451416
0.42996001243591309 0.42996001243591309 0.42996001243591309
0.47380995750427246 0.47380995750427246 0.47380995750427246
0.53192305564880371 0.53192305564880371 0.53192305564880371
0.59745186567306519 0.59745186567306519 0.59745186567306519
0.50828009843826294 0.50828009843826294 0.50828009843826294
0.52163302898406982 0.52163302898406982 0.52163302898406982
0.53614366054534912 0.53614366054534912 0.53614366054534912
0.55463641881942749 0.55463641881942749 0.55463641881942749
0.58199930191040039 0.58199930191040039 0.58199930191040039
0.6196179986000061 0.6196179986000061 0.6196179986000061
0.66680562496185303 0.66680562496185303 0.66680562496185303
0.63686209917068481 0.63686209917068481 0.63686209917068481
0.64633607864379883 0.64633607864379883 0.64633607864379883
0.65548598766326904 0.65548598766326904 0.65548598766326904
0.6662784218788147 0.6662784218788147 0.6662784218788147
0.68022054433822632 0.68022054433822632 0.68022054433822632
0.70153039693832397 0.70153039693832397 0.70153039693832397
0.73356163501739502 0.73356163501739502 0.73356163501739502
0.74920117855072021 0.74920117855072021 0.74920117855072021
0.75525546073913574 0.75525546073913574 0.75525546073913574
0.7602115273475647 0.7602115273475647 0.7602115273475647
0.76484221220016479 0.76484221220016479 0.76484221220016479
0.77015620470046997 0.77015620470046997 0.77015620470046997
0.78109025955200195 0.78109025955200195 0.78109025955200195
0.80327862501144409 0.80327862501144409 0.80327862501144409
0.84584534168243408 0.84584534168243408 0.84584534168243408
0.84903949499130249 0.84903949499130249 0.84903949499130249
0.8513602614402771 0.8513602614402771 0.8513602614402771
0.852519690990448 0.852519690990448 0.852519690990448
0.85316914319992065 0.85316914319992065 0.85316914319992065
0.85839462280273438 0.85839462280273438 0.85839462280273438
0.87444400787353516 0.87444400787353516 0.87444400787353516
0.93535816669464111 0.93535816669464111 0.93535816669464111
0.93621349334716797 0.93621349334716797 0.93621349334716797
0.93685054779052734 0.93685054779052734 0.93685054779052734
0.93647909164428711 0.93647909164428711 0.93647909164428711
0.93564969301223755 0.93564969301223755 0.93564969301223755
0.93824440240859985 0.93824440240859985 0.93824440240859985
0.95089125633239746 0.95089125633239746 0.95089125633239746
0.34767031669616699 0.34767031669616699 0.34767031669616699
0.37517619132995605 0.37517619132995605 0.37517619132995605
0.40310010313987732 0.40310010313987732 0.40310010313987732
0.4281582236289978 0.4281582236289978 0.4281582236289978
0.48165398836135864 0.48165398836135864 0.48165398836135864
0.53472256660461426 0.53472256660461426 0.53472256660461426
0.59028202295303345 0.59028202295303345 0.59028202295303345
0.47918921709060669 0.47918921709060669 0.47918921709060669
0.50090295076370239 0.50090295076370239 0.50090295076370239
0.52240300178527832 0.52240300178527832 0.52240300178527832
0.54361003637313843 0.54361003637313843 0.54361003637313843
0.57768875360488892 0.57768875360488892 0.57768875360488892
0.61657536029815674 0.61657536029815674 0.61657536029815674
0.66026455163955688 0.66026455163955688 0.66026455163955688
0.60229259729385376 0.60229259729385376 0.60229259729385376
0.61587470769882202 0.61587470769882202 0.61587470769882202
0.6284441351890564 0.6284441351890564 0.6284441351890564
0.64221584796905518 0.64221584796905518 0.64221584796905518
0.66004401445388794 0.66004401445388794 0.66004401445388794
0.68241554498672485 0.68241554498672485 0.68241554498672485
0.71297341585159302 0.71297341585159302 0.71297341585159302
0.70575582981109619 0.70575582981109619 0.70575582981109619
0.71584200859069824 0.71584200859069824 0.71584200859069824
0.72296297550201416 0.72296297550201416 0.72296297550201416
0.72932451963424683 0.72932451963424683 0.72932451963424683
0.73682409524917603 0.73682409524917603 0.73682409524917603
0.74837654829025269 0.74837654829025269 0.74837654829025269
0.77091813087463379 0.77091813087463379 0.77091813087463379
0.79626500606536865 0.79626500606536865 0.79626500606536865
0.80314177274703979 0.80314177274703979 0.80314177274703979
0.80725544691085815 0.80725544691085815 0.80725544691085815
0.80906534194946289 0.80906534194946289 0.80906534194946289
0.81094765663146973 0.81094765663146973 0.81094765663146973
0.81690889596939087 0.81690889596939087 0.81690889596939087
0.83473294973373413 0.83473294973373413 0.83473294973373413
0.87795156240463257 0.87795156240463257 0.87795156240463257
0.88257795572280884 0.88257795572280884 0.88257795572280884
0.88394606113433838 0.88394606113433838 0.88394606113433838
0.88394606113433838 0.88394606113433838 0.88394606113433838
0.8839227557182312 0.8839227557182312 0.8839227557182312
0.88600462675094604 0.88600462675094604 0.88600462675094604
0.89967906475067139 0.89967906475067139 0.89967906475067139
0.95806038379669189 0.95806038379669189 0.95806038379669189
0.96095460653305054 0.96095460653305054 0.96095460653305054
0.96253448724746704 0.96253448724746704 0.96253448724746704
0.96180510520935059 0.96180510520935059 0.96180510520935059
0.95958483219146729 0.95958483219146729 0.95958483219146729
0.96038693189620972 0.96038693189620972 0.96038693189620972
0.9706234335899353 0.9706234335899353 0.9706234335899353
