luts/negative_new/kodak_portra_160_-.cube
# Created by: G'MIC (https://gmic.eu)
TITLE "kodak_portra_160_-"
# LUT size
LUT_3D_SIZE 13
# Data domain
DOMAIN_MIN 0.0 0.0 0.0
DOMAIN_MAX 1.0 1.0 1.0
# LUT data points
0.015113292261958122 0.0234540905803442 0.017801875248551369
0.064556822180747986 0.021759048104286194 0.01922137662768364
0.1544269323348999 0.021841550245881081 0.02500489167869091
0.26473364233970642 0.013693655841052532 0.014059417881071568
0.3930199146270752 0.0067854486405849457 0.0080346055328845978
0.512237548828125 0.0038795620203018188 0.004704195074737072
0.6136171817779541 0.003037680871784687 0.0018902648007497191
0.69760406017303467 0.0044801002368330956 0.0034420986194163561
0.76335042715072632 0.004307212308049202 0.0011640511220321059
0.82051342725753784 0.0072562126442790031 0.00012368595344014466
0.87273043394088745 0.020971005782485008 0.00064879772253334522
0.9248078465461731 0.079196691513061523 0.0033838460221886635
0.97376102209091187 0.15183441340923309 0.0013175515923649073
0.012567093595862389 0.072440743446350098 0.017710307613015175
0.058951150625944138 0.077207840979099274 0.019364539533853531
0.15621396899223328 0.087505578994750977 0.018146365880966187
0.28132688999176025 0.088402584195137024 0.0081552546471357346
0.40796712040901184 0.072936251759529114 0.004107755608856678
0.52463692426681519 0.053719013929367065 0.002791176550090313
0.62225526571273804 0.041754435747861862 0.0011999092530459166
0.70225107669830322 0.04143872857093811 0.0015072542009875178
0.76761740446090698 0.046582583338022232 0.001031344523653388
0.82186233997344971 0.06201394647359848 0.0015052047092467546
0.87326449155807495 0.10511460900306702 0.0027564254123717546
0.92426669597625732 0.15702083706855774 0.0058258655481040478
0.97336500883102417 0.20398974418640137 0.0050199618563055992
0.0050068874843418598 0.15821148455142975 0.012399127706885338
0.041597884148359299 0.15984037518501282 0.012741627171635628
0.13671682775020599 0.17122092843055725 0.0095086041837930679
0.26888513565063477 0.18803369998931885 0.0048788632266223431
0.41598469018936157 0.19638527929782867 0.0025740829296410084
0.53916609287261963 0.19334419071674347 0.0011692121624946594
0.6331322193145752 0.18325294554233551 0.0011285220971331
0.70755207538604736 0.17918515205383301 0.0020396362524479628
0.77010953426361084 0.18046033382415771 0.0031856612768024206
0.82033240795135498 0.18824480473995209 0.0045916838571429253
0.87236315011978149 0.21357481181621552 0.0047255870886147022
0.92392915487289429 0.2371201366186142 0.0038877299521118402
0.97497111558914185 0.26429986953735352 0.0033309487625956535
0.0015843709697946906 0.25758445262908936 0.0067842821590602398
0.021208878606557846 0.25622627139091492 0.0080028912052512169
0.12341151386499405 0.26506820321083069 0.0056967642158269882
0.24294854700565338 0.28392350673675537 0.0043490240350365639
0.38861826062202454 0.31035703420639038 0.0020579618867486715
0.52839392423629761 0.31808945536613464 0.0011713065905496478
0.63397008180618286 0.31166991591453552 0.0019029205432161689
0.71061134338378906 0.30193996429443359 0.002253558486700058
0.76978522539138794 0.2953852117061615 0.0037224413827061653
0.8191865086555481 0.29383307695388794 0.0056676077656447887
0.86943739652633667 0.30386596918106079 0.007460485678166151
0.9224090576171875 0.31870901584625244 0.0056363274343311787
0.97520017623901367 0.33644372224807739 0.0021590439137071371
0.00058406754396855831 0.35934087634086609 0.0042546889744699001
0.0130373639985919 0.35701322555541992 0.0031313279177993536
0.11478706449270248 0.35829204320907593 0.001905344077385962
0.23500697314739227 0.37093225121498108 0.0038635702803730965
0.35727831721305847 0.39160275459289551 0.0015288109425455332
0.49037379026412964 0.41443312168121338 0.00093177345115691423
0.60440522432327271 0.41967087984085083 0.00043821148574352264
0.69741064310073853 0.41063094139099121 0.0006918065482750535
0.76478230953216553 0.40005123615264893 0.00075462192762643099
0.81864583492279053 0.39118480682373047 0.0023092532064765692
0.86977559328079224 0.39117389917373657 0.0032141741830855608
0.9230002760887146 0.39908406138420105 0.0045337001793086529
0.97522860765457153 0.40984392166137695 0.0020028806757181883
0.0013803967740386724 0.44760033488273621 0.0049682469107210636
0.01787903718650341 0.44398432970046997 0.0044853212311863899
0.11860622465610504 0.43881016969680786 0.0042744055390357971
0.23076850175857544 0.44340914487838745 0.0034021863248199224
0.33858337998390198 0.4569697380065918 0.0031031889375299215
0.44797122478485107 0.47416439652442932 0.0025083804503083229
0.55984377861022949 0.49619081616401672 0.00084548653103411198
0.65754610300064087 0.49753835797309875 0.00094447418814525008
0.73632973432540894 0.48901975154876709 0.00016329895879607648
0.80540233850479126 0.4840533435344696 0
0.86964213848114014 0.48057317733764648 0.00039850870962254703
0.92483186721801758 0.47980192303657532 0.001800043391995132
0.97631192207336426 0.48338791728019714 0.0010627895826473832
0.02143363282084465 0.51477688550949097 0.016215365380048752
0.073267273604869843 0.51105934381484985 0.012746354565024376
0.15541274845600128 0.50384873151779175 0.010281342081725597
0.23656466603279114 0.50175213813781738 0.0066691827960312366
0.3302437961101532 0.51052349805831909 0.0084010707214474678
0.42518690228462219 0.52168112993240356 0.0076996595598757267
0.51672399044036865 0.5390436053276062 0.0050508389249444008
0.61343669891357422 0.55830138921737671 0.0046224109828472137
0.69944143295288086 0.56621235609054565 0.0014265920035541058
0.77529633045196533 0.5636250376701355 0.00040525547228753567
0.84846806526184082 0.55948543548583984 0.0013605753192678094
0.91640818119049072 0.55497872829437256 0.0016164592234417796
0.97769486904144287 0.55382454395294189 0.00054665358038619161
0.1172475591301918 0.56849569082260132 0.055030375719070435
0.15649805963039398 0.566478431224823 0.050145465880632401
0.20342852175235748 0.55944949388504028 0.044624760746955872
0.26015958189964294 0.55222755670547485 0.036987829953432083
0.33303582668304443 0.55711817741394043 0.034185685217380524
0.41311579942703247 0.56738853454589844 0.033297102898359299
0.49585753679275513 0.58118963241577148 0.034179583191871643
0.57719606161117554 0.59616565704345703 0.031881265342235565
0.65900790691375732 0.61321425437927246 0.033576861023902893
0.74119317531585693 0.62784463167190552 0.021247819066047668
0.81883507966995239 0.63180261850357056 0.0055029178038239479
0.89206767082214355 0.62871366739273071 0.0033644132781773806
0.96682584285736084 0.62763160467147827 0.0015402251156046987
0.20340514183044434 0.62086760997772217 0.11570485681295395
0.22837807238101959 0.61791175603866577 0.11093160510063171
0.26091310381889343 0.6120191216468811 0.10728469491004944
0.3007911741733551 0.606201171875 0.099475160241127014
0.35442599654197693 0.60535335540771484 0.092017136514186859
0.42106145620346069 0.6132889986038208 0.092585183680057526
0.49457570910453796 0.62505817413330078 0.097927212715148926
0.56652873754501343 0.63815712928771973 0.10322397202253342
0.63299369812011719 0.65092575550079346 0.11468596756458282
0.70715796947479248 0.66945022344589233 0.11944841593503952
0.79010617733001709 0.6903151273727417 0.096541941165924072
0.86920815706253052 0.69694370031356812 0.048526253551244736
0.94808721542358398 0.70057690143585205 0.012789932079613209
0.27679705619812012 0.67609798908233643 0.1789819747209549
0.29412302374839783 0.67132735252380371 0.17532148957252502
0.32193785905838013 0.6663702130317688 0.17237052321434021
0.35052573680877686 0.66159838438034058 0.16466028988361359
0.38353073596954346 0.6553417444229126 0.15392446517944336
0.43504533171653748 0.65860766172409058 0.15425699949264526
0.49677830934524536 0.66762948036193848 0.16064360737800598
0.56040400266647339 0.67998367547988892 0.17004777491092682
0.6204647421836853 0.69059610366821289 0.17719623446464539
0.68542426824569702 0.70329654216766357 0.18745021522045135
0.75881475210189819 0.72452408075332642 0.19973337650299072
0.84316533803939819 0.74853038787841797 0.19139315187931061
0.92625463008880615 0.76099348068237305 0.14097453653812408
0.34964838624000549 0.73308277130126953 0.2442842423915863
0.35931900143623352 0.72695982456207275 0.2373184859752655
0.37877863645553589 0.72364407777786255 0.23375090956687927
0.40450277924537659 0.72138422727584839 0.23005582392215729
0.42980632185935974 0.71594613790512085 0.22112575173377991
0.46415948867797852 0.71260553598403931 0.21463026106357574
0.51110851764678955 0.71745544672012329 0.21769686043262482
0.56617540121078491 0.72711235284805298 0.22620934247970581
0.6245841383934021 0.73901265859603882 0.23487477004528046
0.68602555990219116 0.75102138519287109 0.24480313062667847
0.74819207191467285 0.76347488164901733 0.25550854206085205
0.81822770833969116 0.7839997410774231 0.26711347699165344
0.90461409091949463 0.81110036373138428 0.26618686318397522
0.41995364427566528 0.79548633098602295 0.31280159950256348
0.42763018608093262 0.79511469602584839 0.31222930550575256
0.43878141045570374 0.79337102174758911 0.30907723307609558
0.45771309733390808 0.788857102394104 0.30349671840667725
0.48157474398612976 0.7849113941192627 0.29709532856941223
0.50956720113754272 0.78191018104553223 0.28988689184188843
0.5448344349861145 0.78259557485580444 0.28767156600952148
0.59215337038040161 0.79043757915496826 0.29552710056304932
0.64589548110961914 0.80237150192260742 0.30576777458190918
0.70089292526245117 0.81249421834945679 0.31304046511650085
0.75990176200866699 0.82397937774658203 0.32209262251853943
0.82196879386901855 0.83878797292709351 0.33254283666610718
0.88739562034606934 0.85650289058685303 0.3425498902797699
0.49065902829170227 0.87592571973800659 0.39986807107925415
0.49547937512397766 0.87421315908432007 0.39860749244689941
0.50666683912277222 0.87471824884414673 0.39793717861175537
0.52262800931930542 0.87291115522384644 0.39385011792182922
0.54284745454788208 0.87088519334793091 0.38943427801132202
0.56807196140289307 0.87015283107757568 0.38647717237472534
0.59665948152542114 0.86852347850799561 0.38332155346870422
0.6377759575843811 0.87455379962921143 0.38940620422363281
0.68606871366500854 0.88478147983551025 0.39796793460845947
0.73617154359817505 0.89260470867156982 0.40387260913848877
0.78963732719421387 0.90240389108657837 0.40865412354469299
0.84827470779418945 0.916412353515625 0.41977450251579285
0.90641361474990845 0.92878550291061401 0.42995420098304749
0.017743203788995743 0.026184096932411194 0.0719476118683815
0.066147208213806152 0.025673540309071541 0.072390206158161163
0.15362852811813354 0.018670370802283287 0.072545386850833893
0.27264028787612915 0.010357756167650223 0.075143732130527496
0.40085676312446594 0.0067425896413624287 0.07243424654006958
0.51362752914428711 0.0039178435690701008 0.065284475684165955
0.61259192228317261 0.0011172425001859665 0.058483634144067764
0.69437277317047119 0.0019293093355372548 0.052296746522188187
0.75980108976364136 0.0034787196200340986 0.048687011003494263
0.81688970327377319 0.0042908014729619026 0.038120944052934647
0.86820560693740845 0.032596871256828308 0.035768084228038788
0.92042213678359985 0.10392291843891144 0.037968967109918594
0.97350382804870605 0.16700272262096405 0.036859937012195587
0.013062181882560253 0.08360791951417923 0.070938587188720703
0.064298190176486969 0.088404051959514618 0.075200356543064117
0.16539612412452698 0.086809404194355011 0.071124181151390076
0.28342536091804504 0.079317666590213776 0.06572221964597702
0.40821796655654907 0.058844022452831268 0.060138043016195297
0.52206635475158691 0.041689988225698471 0.052867379039525986
0.61914545297622681 0.031233126297593117 0.04543730616569519
0.69949054718017578 0.032863274216651917 0.03980686143040657
0.76422262191772461 0.046776328235864639 0.035715710371732712
0.81817030906677246 0.073513180017471313 0.031017199158668518
0.86998099088668823 0.11716894805431366 0.032348185777664185
0.92269802093505859 0.16530135273933411 0.029379121959209442
0.97330754995346069 0.20888075232505798 0.032069817185401917
0.0052729588933289051 0.17640034854412079 0.073641128838062286
0.054021302610635757 0.17763367295265198 0.076104439795017242
0.15560449659824371 0.18137814104557037 0.068428501486778259
0.28625944256782532 0.19131651520729065 0.053326010704040527
0.42218172550201416 0.18931396305561066 0.039458688348531723
0.53883785009384155 0.18137991428375244 0.033776842057704926
0.63089323043823242 0.17460939288139343 0.027320757508277893
0.70370829105377197 0.17420816421508789 0.029073931276798248
0.7662690281867981 0.18115004897117615 0.025953389704227448
0.81891703605651855 0.19594672322273254 0.023844640702009201
0.87140369415283203 0.21746240556240082 0.02202880010008812
0.92299926280975342 0.24040822684764862 0.020214693620800972
0.97574442625045776 0.26786324381828308 0.020704979076981544
0.0016127492999657989 0.27926698327064514 0.071745671331882477
0.039434649050235748 0.27655059099197388 0.068821564316749573
0.14195361733436584 0.2763550877571106 0.062280930578708649
0.26194003224372864 0.29377418756484985 0.050440516322851181
0.40289092063903809 0.31371784210205078 0.031170099973678589
0.53792083263397217 0.31514760851860046 0.017135171219706535
0.63577669858932495 0.3075142502784729 0.01399465836584568
0.70966887474060059 0.30058282613754272 0.013346039690077305
0.76786375045776367 0.29680225253105164 0.014250482432544231
0.81945061683654785 0.29807212948799133 0.01343403197824955
0.86906015872955322 0.30580943822860718 0.01399567537009716
0.92270326614379883 0.32014155387878418 0.013415123336017132
0.97582030296325684 0.33753731846809387 0.012387383729219437
0.0018728368449956179 0.37726429104804993 0.063738711178302765
0.032517809420824051 0.37364086508750916 0.062652513384819031
0.14002372324466705 0.36896544694900513 0.059787001460790634
0.2516532838344574 0.37874701619148254 0.051020137965679169
0.36760511994361877 0.39679476618766785 0.039432927966117859
0.49691754579544067 0.41808268427848816 0.025490449741482735
0.60921424627304077 0.42061853408813477 0.011718870140612125
0.69827651977539062 0.4118589460849762 0.0071515850722789764
0.76382601261138916 0.40253967046737671 0.0049809771589934826
0.81840646266937256 0.3949333131313324 0.0053238663822412491
0.86903893947601318 0.39512047171592712 0.0054189343936741352
0.9220123291015625 0.40165698528289795 0.0097741223871707916
0.97537386417388916 0.41175961494445801 0.005915279034525156
0.0094875562936067581 0.4580741822719574 0.072585038840770721
0.055538896471261978 0.45620724558830261 0.070521771907806396
0.15458302199840546 0.44968879222869873 0.067217178642749786
0.24775898456573486 0.44991251826286316 0.058045540004968643
0.3507264256477356 0.46132767200469971 0.050505109131336212
0.45565035939216614 0.48003128170967102 0.044470515102148056
0.56421518325805664 0.4988519549369812 0.031213318929076195
0.66015088558197021 0.50280272960662842 0.016213959082961082
0.73935884237289429 0.4963286817073822 0.0053983051329851151
0.80750095844268799 0.4877663254737854 0.0021666134707629681
0.86675602197647095 0.48237383365631104 0.0030933604575693607
0.92245537042617798 0.48152661323547363 0.004380454309284687
0.97596985101699829 0.48451414704322815 0.0035910513252019882
0.065291523933410645 0.5214608907699585 0.098924405872821808
0.12025007605552673 0.51804739236831665 0.096419207751750946
0.18765377998352051 0.51130425930023193 0.087536230683326721
0.25448080897331238 0.50601065158843994 0.081279858946800232
0.34315046668052673 0.51367092132568359 0.077093355357646942
0.43181309103965759 0.52545464038848877 0.077854886651039124
0.52121663093566895 0.54080241918563843 0.068500325083732605
0.61484247446060181 0.55915349721908569 0.064434230327606201
0.70236647129058838 0.57102406024932861 0.034604359418153763
0.7783014178276062 0.56910133361816406 0.016339469701051712
0.84914624691009521 0.56333297491073608 0.0071870242245495319
0.91520553827285767 0.55824023485183716 0.0052660326473414898
0.97539502382278442 0.55519676208496094 0.0031145133543759584
0.15873537957668304 0.57643598318099976 0.13936026394367218
0.19296371936798096 0.57235115766525269 0.13631241023540497
0.2313268780708313 0.5648617148399353 0.12613470852375031
0.27701711654663086 0.55680400133132935 0.11813311278820038
0.34421268105506897 0.55811947584152222 0.11180900037288666
0.42422378063201904 0.56777101755142212 0.10860149562358856
0.50252789258956909 0.5807950496673584 0.11362657696008682
0.5807841420173645 0.59682703018188477 0.12032797187566757
0.66165143251419067 0.61711990833282471 0.11792448163032532
0.74357962608337402 0.63101941347122192 0.088515937328338623
0.82047653198242188 0.6347658634185791 0.048960592597723007
0.89562755823135376 0.63298904895782471 0.018778003752231598
0.96425503492355347 0.62871056795120239 0.0061816046945750713
0.23009529709815979 0.62777340412139893 0.17896118760108948
0.2536163330078125 0.62415289878845215 0.17716294527053833
0.28188979625701904 0.61777186393737793 0.16995953023433685
0.3141096830368042 0.61004137992858887 0.15999819338321686
0.36040061712265015 0.60489732027053833 0.14925204217433929
0.42791640758514404 0.61228293180465698 0.15168951451778412
0.49859607219696045 0.62391704320907593 0.16137202084064484
0.56704670190811157 0.63770562410354614 0.17040497064590454
0.63327962160110474 0.65155488252639771 0.17371088266372681
0.70596778392791748 0.66887325048446655 0.17885173857212067
0.7892378568649292 0.68926322460174561 0.16386161744594574
0.86875045299530029 0.69711422920227051 0.11607246845960617
0.94907242059707642 0.70040690898895264 0.056314878165721893
0.29255115985870361 0.67742431163787842 0.22093982994556427
0.30880257487297058 0.67525559663772583 0.21856217086315155
0.33248227834701538 0.67046976089477539 0.21506115794181824
0.36033803224563599 0.66415470838546753 0.20655731856822968
0.39016926288604736 0.65599501132965088 0.1942780464887619
0.4375627338886261 0.65833133459091187 0.19498668611049652
0.49712669849395752 0.66713565587997437 0.20079758763313293
0.55924910306930542 0.67945140600204468 0.21170720458030701
0.61965709924697876 0.69111865758895874 0.21801230311393738
0.68460428714752197 0.70378708839416504 0.2277267724275589
0.75806725025177002 0.72367966175079346 0.23733147978782654
0.84255337715148926 0.74745875597000122 0.22957025468349457
0.92519527673721313 0.76092684268951416 0.1964239776134491
0.35753226280212402 0.73149412870407104 0.27231261134147644
0.36795780062675476 0.72822999954223633 0.26764202117919922
0.38625746965408325 0.72588634490966797 0.26625210046768188
0.41016378998756409 0.72284531593322754 0.26067847013473511
0.43456575274467468 0.71475023031234741 0.2486518919467926
0.46475741267204285 0.7116895318031311 0.2400040477514267
0.51588338613510132 0.72032922506332397 0.24933724105358124
0.56856822967529297 0.7284005880355835 0.25700837373733521
0.6247369647026062 0.73944944143295288 0.26380729675292969
0.68340718746185303 0.75064343214035034 0.27336719632148743
0.74639242887496948 0.76373153924942017 0.28332352638244629
0.81931054592132568 0.78628408908843994 0.29556742310523987
0.9034658670425415 0.81245237588882446 0.29818055033683777
0.42403647303581238 0.79514217376708984 0.33292701840400696
0.43065360188484192 0.79453235864639282 0.33075961470603943
0.44290629029273987 0.79245632886886597 0.32871171832084656
0.46129569411277771 0.7897530198097229 0.323751300573349
0.4847833514213562 0.78544193506240845 0.31659227609634399
0.50921785831451416 0.78066718578338623 0.3064149022102356
0.54780870676040649 0.78387826681137085 0.30913403630256653
0.59428489208221436 0.7916792631149292 0.31646275520324707
0.64604741334915161 0.80226504802703857 0.32489305734634399
0.69936031103134155 0.81154328584671021 0.33222481608390808
0.75920802354812622 0.82453823089599609 0.34372487664222717
0.82097697257995605 0.84010165929794312 0.35483333468437195
0.88639599084854126 0.85529607534408569 0.35976716876029968
0.49127566814422607 0.87524658441543579 0.41286376118659973
0.49563401937484741 0.87291634082794189 0.40830057859420776
0.50679439306259155 0.87401622533798218 0.40894094109535217
0.5225340723991394 0.8723907470703125 0.40649929642677307
0.54296863079071045 0.8709750771522522 0.40201866626739502
0.56637012958526611 0.86918842792510986 0.39626434445381165
0.59753578901290894 0.86901938915252686 0.39542415738105774
0.63729679584503174 0.87399441003799438 0.40081554651260376
0.68484562635421753 0.88317346572875977 0.40901315212249756
0.73360788822174072 0.88960510492324829 0.4115445613861084
0.78908932209014893 0.90211325883865356 0.42168352007865906
0.84766560792922974 0.91636365652084351 0.43227162957191467
0.90438252687454224 0.92719042301177979 0.43876940011978149
0.0098734535276889801 0.030754523351788521 0.16765125095844269
0.062216725200414658 0.032941363751888275 0.17269408702850342
0.15844923257827759 0.027192119508981705 0.17554166913032532
0.28087550401687622 0.015558370389044285 0.17842026054859161
0.41133898496627808 0.0066183502785861492 0.18131253123283386
0.52043873071670532 0.0050254222005605698 0.1774049699306488
0.61574429273605347 0.0026486115530133247 0.16937156021595001
0.69166809320449829 0.004757989663630724 0.16936120390892029
0.75358670949935913 0.011602588929235935 0.16715772449970245
0.80817848443984985 0.032812651246786118 0.16414844989776611
0.86008656024932861 0.082054421305656433 0.1627056896686554
0.91335833072662354 0.14517852663993835 0.16206920146942139
0.96831589937210083 0.19487358629703522 0.16505414247512817
0.0052003748714923859 0.095241531729698181 0.17339833080768585
0.056854967027902603 0.098640918731689453 0.17641952633857727
0.16948562860488892 0.10005539655685425 0.17938631772994995
0.29170382022857666 0.093035288155078888 0.17867054045200348
0.41304108500480652 0.069644197821617126 0.17680260539054871
0.5223853588104248 0.051207583397626877 0.1728743314743042
0.61706829071044922 0.042496070265769958 0.16714262962341309
0.69188892841339111 0.057413589209318161 0.16578716039657593
0.75385868549346924 0.080842174589633942 0.16272611916065216
0.80786222219467163 0.11737159639596939 0.15867601335048676
0.8609309196472168 0.16060002148151398 0.15766125917434692
0.91570013761520386 0.19337378442287445 0.15683616697788239
0.97016400098800659 0.23147709667682648 0.16058960556983948
0.0043296962976455688 0.19248566031455994 0.17547138035297394
0.050387214869260788 0.19310076534748077 0.17775453627109528
0.17246034741401672 0.19544483721256256 0.17930576205253601
0.29929190874099731 0.19775666296482086 0.1754336804151535
0.41929873824119568 0.19269682466983795 0.1715744286775589
0.53292810916900635 0.18703450262546539 0.16565193235874176
0.62311124801635742 0.18413247168064117 0.15738174319267273
0.69575375318527222 0.19008029997348785 0.1542077511548996
0.75733548402786255 0.19961588084697723 0.15409377217292786
0.81112492084503174 0.21711757779121399 0.15117925405502319
0.86363339424133301 0.23857420682907104 0.14944633841514587
0.91637128591537476 0.26031380891799927 0.14952920377254486
0.97021222114562988 0.28840950131416321 0.1496843695640564
0.0021718342322856188 0.29951637983322144 0.17189498245716095
0.054575886577367783 0.29954534769058228 0.17792588472366333
0.17542837560176849 0.2973693311214447 0.18201020359992981
0.28586384654045105 0.30124273896217346 0.17825418710708618
0.4140399694442749 0.31416302919387817 0.17133583128452301
0.54072839021682739 0.31489992141723633 0.15210525691509247
0.62905222177505493 0.30906546115875244 0.1421055942773819
0.70126187801361084 0.30608031153678894 0.1386430412530899
0.75980466604232788 0.30556371808052063 0.13873684406280518
0.81315624713897705 0.30946215987205505 0.1348835676908493
0.86422264575958252 0.31774097681045532 0.13402059674263
0.91705095767974854 0.33222442865371704 0.13316819071769714
0.97165435552597046 0.35048395395278931 0.13669793307781219
0.014604171738028526 0.40103060007095337 0.18509994447231293
0.090026780962944031 0.39909949898719788 0.18997985124588013
