luts/negative_new/kodak_tri-x_400_alt.cube
# Created by: G'MIC (https://gmic.eu)
TITLE "kodak_tri-x_400_alt"
# LUT size
LUT_3D_SIZE 5
# Data domain
DOMAIN_MIN 0.0 0.0 0.0
DOMAIN_MAX 1.0 1.0 1.0
# LUT data points
0.0098708653822541237 0.0098708653822541237 0.0098708653822541237
0.014361407607793808 0.014361407607793808 0.014361407607793808
0.068253412842750549 0.068253412842750549 0.068253412842750549
0.1873481422662735 0.1873481422662735 0.1873481422662735
0.37347704172134399 0.37347704172134399 0.37347704172134399
0.11231642961502075 0.11231642961502075 0.11231642961502075
0.15351496636867523 0.15351496636867523 0.15351496636867523
0.22266389429569244 0.22266389429569244 0.22266389429569244
0.32073462009429932 0.32073462009429932 0.32073462009429932
0.45240628719329834 0.45240628719329834 0.45240628719329834
0.33956065773963928 0.33956065773963928 0.33956065773963928
0.34388527274131775 0.34388527274131775 0.34388527274131775
0.38321816921234131 0.38321816921234131 0.38321816921234131
0.45036822557449341 0.45036822557449341 0.45036822557449341
0.54604566097259521 0.54604566097259521 0.54604566097259521
0.54343080520629883 0.54343080520629883 0.54343080520629883
0.53562146425247192 0.53562146425247192 0.53562146425247192
0.55419552326202393 0.55419552326202393 0.55419552326202393
0.5988275408744812 0.5988275408744812 0.5988275408744812
0.67071646451950073 0.67071646451950073 0.67071646451950073
0.73818498849868774 0.73818498849868774 0.73818498849868774
0.72478669881820679 0.72478669881820679 0.72478669881820679
0.73295968770980835 0.73295968770980835 0.73295968770980835
0.76333087682723999 0.76333087682723999 0.76333087682723999
0.81908464431762695 0.81908464431762695 0.81908464431762695
0.046748187392950058 0.046748187392950058 0.046748187392950058
0.10328970849514008 0.10328970849514008 0.10328970849514008
0.19450892508029938 0.19450892508029938 0.19450892508029938
0.30339506268501282 0.30339506268501282 0.30339506268501282
0.43491443991661072 0.43491443991661072 0.43491443991661072
0.20713059604167938 0.20713059604167938 0.20713059604167938
0.2485140860080719 0.2485140860080719 0.2485140860080719
0.31911182403564453 0.31911182403564453 0.31911182403564453
0.40221840143203735 0.40221840143203735 0.40221840143203735
0.50423681735992432 0.50423681735992432 0.50423681735992432
0.39941227436065674 0.39941227436065674 0.39941227436065674
0.41402679681777954 0.41402679681777954 0.41402679681777954
0.45166921615600586 0.45166921615600586 0.45166921615600586
0.50583916902542114 0.50583916902542114 0.50583916902542114
0.58258229494094849 0.58258229494094849 0.58258229494094849
0.57529085874557495 0.57529085874557495 0.57529085874557495
0.57662010192871094 0.57662010192871094 0.57662010192871094
0.60000908374786377 0.60000908374786377 0.60000908374786377
0.63701218366622925 0.63701218366622925 0.63701218366622925
0.69777375459671021 0.69777375459671021 0.69777375459671021
0.75302249193191528 0.75302249193191528 0.75302249193191528
0.74910116195678711 0.74910116195678711 0.74910116195678711
0.76344484090805054 0.76344484090805054 0.76344484090805054
0.78902179002761841 0.78902179002761841 0.78902179002761841
0.83699148893356323 0.83699148893356323 0.83699148893356323
0.18284660577774048 0.18284660577774048 0.18284660577774048
0.24128395318984985 0.24128395318984985 0.24128395318984985
0.31620174646377563 0.31620174646377563 0.31620174646377563
0.40322452783584595 0.40322452783584595 0.40322452783584595
0.50456434488296509 0.50456434488296509 0.50456434488296509
0.34875360131263733 0.34875360131263733 0.34875360131263733
0.37776157259941101 0.37776157259941101 0.37776157259941101
0.42543911933898926 0.42543911933898926 0.42543911933898926
0.48809978365898132 0.48809978365898132 0.48809978365898132
0.56991219520568848 0.56991219520568848 0.56991219520568848
0.49889519810676575 0.49889519810676575 0.49889519810676575
0.51178121566772461 0.51178121566772461 0.51178121566772461
0.53766179084777832 0.53766179084777832 0.53766179084777832
0.57784157991409302 0.57784157991409302 0.57784157991409302
0.64145725965499878 0.64145725965499878 0.64145725965499878
0.64017081260681152 0.64017081260681152 0.64017081260681152
0.64578211307525635 0.64578211307525635 0.64578211307525635
0.66313052177429199 0.66313052177429199 0.66313052177429199
0.68963718414306641 0.68963718414306641 0.68963718414306641
0.73914986848831177 0.73914986848831177 0.73914986848831177
0.79326146841049194 0.79326146841049194 0.79326146841049194
0.79558932781219482 0.79558932781219482 0.79558932781219482
0.80964070558547974 0.80964070558547974 0.80964070558547974
0.82526439428329468 0.82526439428329468 0.82526439428329468
0.86437273025512695 0.86437273025512695 0.86437273025512695
0.37965726852416992 0.37965726852416992 0.37965726852416992
0.40638002753257751 0.40638002753257751 0.40638002753257751
0.44770023226737976 0.44770023226737976 0.44770023226737976
0.50856703519821167 0.50856703519821167 0.50856703519821167
0.5878562331199646 0.5878562331199646 0.5878562331199646
0.49551919102668762 0.49551919102668762 0.49551919102668762
0.51351553201675415 0.51351553201675415 0.51351553201675415
0.53907608985900879 0.53907608985900879 0.53907608985900879
0.58270519971847534 0.58270519971847534 0.58270519971847534
0.64793795347213745 0.64793795347213745 0.64793795347213745
0.60528111457824707 0.60528111457824707 0.60528111457824707
0.6146855354309082 0.6146855354309082 0.6146855354309082
0.62974327802658081 0.62974327802658081 0.62974327802658081
0.65871673822402954 0.65871673822402954 0.65871673822402954
0.71126967668533325 0.71126967668533325 0.71126967668533325
0.71764928102493286 0.71764928102493286 0.71764928102493286
0.72181695699691772 0.72181695699691772 0.72181695699691772
0.73187780380249023 0.73187780380249023 0.73187780380249023
0.75028759241104126 0.75028759241104126 0.75028759241104126
0.79213380813598633 0.79213380813598633 0.79213380813598633
0.84713965654373169 0.84713965654373169 0.84713965654373169
0.84816116094589233 0.84816116094589233 0.84816116094589233
0.85594117641448975 0.85594117641448975 0.85594117641448975
0.86728709936141968 0.86728709936141968 0.86728709936141968
0.9011605978012085 0.9011605978012085 0.9011605978012085
0.53129816055297852 0.53129816055297852 0.53129816055297852
0.54882729053497314 0.54882729053497314 0.54882729053497314
0.57398736476898193 0.57398736476898193 0.57398736476898193
0.6177983283996582 0.6177983283996582 0.6177983283996582
0.68250453472137451 0.68250453472137451 0.68250453472137451
0.62285715341567993 0.62285715341567993 0.62285715341567993
0.63454306125640869 0.63454306125640869 0.63454306125640869
0.65025091171264648 0.65025091171264648 0.65025091171264648
0.68230783939361572 0.68230783939361572 0.68230783939361572
0.73663729429244995 0.73663729429244995 0.73663729429244995
0.70865386724472046 0.70865386724472046 0.70865386724472046
0.71427148580551147 0.71427148580551147 0.71427148580551147
0.72400933504104614 0.72400933504104614 0.72400933504104614
0.74665737152099609 0.74665737152099609 0.74665737152099609
0.79266524314880371 0.79266524314880371 0.79266524314880371
0.80118685960769653 0.80118685960769653 0.80118685960769653
0.80199164152145386 0.80199164152145386 0.80199164152145386
0.80806773900985718 0.80806773900985718 0.80806773900985718
0.8230777382850647 0.8230777382850647 0.8230777382850647
0.86100614070892334 0.86100614070892334 0.86100614070892334
0.91281312704086304 0.91281312704086304 0.91281312704086304
0.91158378124237061 0.91158378124237061 0.91158378124237061
0.91564923524856567 0.91564923524856567 0.91564923524856567
0.92542111873626709 0.92542111873626709 0.92542111873626709
0.95569539070129395 0.95569539070129395 0.95569539070129395
