luts/negative_new/kodak_portra_400_+.cube
# Created by: G'MIC (https://gmic.eu)
TITLE "kodak_portra_400_+"
# LUT size
LUT_3D_SIZE 13
# Data domain
DOMAIN_MIN 0.0 0.0 0.0
DOMAIN_MAX 1.0 1.0 1.0
# LUT data points
0.064967691898345947 0.067169517278671265 0.060739226639270782
0.10939516872167587 0.06601589173078537 0.061569631099700928
0.18877294659614563 0.059787392616271973 0.058854661881923676
0.29236677289009094 0.042678099125623703 0.051473431289196014
0.40729433298110962 0.01571248285472393 0.045181844383478165
0.52407270669937134 0.0082257287576794624 0.035248804837465286
0.64068704843521118 0.0068087261170148849 0.018793247640132904
0.74888378381729126 0.0039229299873113632 0.0065836589783430099
0.8342779278755188 0.010095005854964256 0.0019501181086525321
0.90503567457199097 0.035771209746599197 0.0003425149479880929
0.96469926834106445 0.10961387306451797 0.0018951415549963713
0.98903512954711914 0.17064103484153748 0.0017500633839517832
0.99530190229415894 0.21854096651077271 0.0011096580419689417
0.05542856827378273 0.10416795313358307 0.063831955194473267
0.1059139296412468 0.10621285438537598 0.064065523445606232
0.1840118020772934 0.11376166343688965 0.06042104959487915
0.29233938455581665 0.11429708451032639 0.046392388641834259
0.40491363406181335 0.089389398694038391 0.035425793379545212
0.52188950777053833 0.066450022161006927 0.025904756039381027
0.6422308087348938 0.047459620982408524 0.0091563509777188301
0.74739456176757812 0.057202387601137161 0.0049869311042129993
0.83393830060958862 0.083792082965373993 0.002634444972500205
0.89864134788513184 0.13176098465919495 0.0034482469782233238
0.95680123567581177 0.18413221836090088 0.0061440560966730118
0.9895288348197937 0.22377148270606995 0.0058647007681429386
0.99703097343444824 0.26163709163665771 0.0068448535166680813
0.036108624190092087 0.16594921052455902 0.071294166147708893
0.087638407945632935 0.16609261929988861 0.069965511560440063
0.16965223848819733 0.17311348021030426 0.057932596653699875
0.28009602427482605 0.18656867742538452 0.035719104111194611
0.39738452434539795 0.18564283847808838 0.017865722998976707
0.51992028951644897 0.17776785790920258 0.014133618213236332
0.63858979940414429 0.18151645362377167 0.0061938567087054253
0.74000775814056396 0.19064353406429291 0.0045557506382465363
0.82532697916030884 0.20815552771091461 0.0051801195368170738
0.89557504653930664 0.2336418628692627 0.0078907981514930725
0.95110577344894409 0.26659002900123596 0.010978833772242069
0.98897123336791992 0.29432520270347595 0.011693826876580715
0.99924999475479126 0.31963208317756653 0.0090805655345320702
0.011497601866722107 0.24001428484916687 0.086054287850856781
0.06261482834815979 0.23594416677951813 0.089885517954826355
0.14263646304607391 0.24111893773078918 0.080289103090763092
0.24972760677337646 0.26149088144302368 0.050710879266262054
0.37862411141395569 0.28065335750579834 0.017090845853090286
0.50787448883056641 0.29171746969223022 0.009111456573009491
0.62560153007507324 0.29886206984519958 0.0047889109700918198
0.72665470838546753 0.30147916078567505 0.0077559077180922031
0.81492888927459717 0.31424561142921448 0.0072438707575201988
0.88957768678665161 0.33299380540847778 0.011805007234215736
0.94601953029632568 0.35265079140663147 0.016638213768601418
0.98529309034347534 0.37026381492614746 0.016467539593577385
0.99685502052307129 0.38410136103630066 0.009691605344414711
0.0039987005293369293 0.32436510920524597 0.10603202134370804
0.022934738546609879 0.31762444972991943 0.1103203147649765
0.10816698521375656 0.32073348760604858 0.10971076786518097
0.21545220911502838 0.33807840943336487 0.086205035448074341
0.34028327465057373 0.36149081587791443 0.037397213280200958
0.47641026973724365 0.38364103436470032 0.0083835972473025322
0.59855180978775024 0.39552846550941467 0.0047944909892976284
0.70188784599304199 0.40268254280090332 0.0049444609321653843
0.79445928335189819 0.41143503785133362 0.0055165309458971024
0.87095582485198975 0.41955703496932983 0.0093772141262888908
0.93299537897109985 0.43152406811714172 0.013508112169802189
0.97869056463241577 0.44406595826148987 0.014454142190515995
0.99537116289138794 0.45319542288780212 0.0092754289507865906
0.0025135714095085859 0.40667298436164856 0.13135236501693726
0.0063171535730361938 0.40151476860046387 0.13730719685554504
0.066748738288879395 0.40109619498252869 0.1390843540430069
0.18568000197410583 0.41184249520301819 0.12554652988910675
0.29933315515518188 0.430267333984375 0.089934796094894409
0.42932626605033875 0.45594373345375061 0.0369454026222229
0.56599313020706177 0.48018535971641541 0.007955603301525116
0.67353063821792603 0.49024784564971924 0.0058619631454348564
0.76889008283615112 0.4958336353302002 0.0066506178118288517
0.84384781122207642 0.50161582231521606 0.0079285567626357079
0.91304945945739746 0.50854641199111938 0.009606439620256424
0.9693031907081604 0.51470416784286499 0.0091704120859503746
0.99333643913269043 0.5195581316947937 0.0063917422667145729
0.0022992601152509451 0.48314490914344788 0.16310608386993408
0.0045318156480789185 0.47976711392402649 0.16800430417060852
0.039484795182943344 0.47464987635612488 0.17255593836307526
0.16144417226314545 0.47428324818611145 0.16860306262969971
0.26805934309959412 0.4898865818977356 0.14766520261764526
0.3867526650428772 0.5121767520904541 0.10480408370494843
0.51400130987167358 0.53775125741958618 0.044773701578378677
0.63961625099182129 0.55933129787445068 0.01012833509594202
0.74132680892944336 0.57150781154632568 0.0049575208686292171
0.81635969877243042 0.57567900419235229 0.0072193071246147156
0.88904678821563721 0.58026516437530518 0.0094873765483498573
0.95507001876831055 0.58211815357208252 0.0065514207817614079
0.99058037996292114 0.58475619554519653 0.0040230844169855118
0.0014540728880092502 0.55977636575698853 0.19416451454162598
0.0046704909764230251 0.55323344469070435 0.19977818429470062
0.022166503593325615 0.54795712232589722 0.20444206893444061
0.14565783739089966 0.53971016407012939 0.20795336365699768
0.25755098462104797 0.54858171939849854 0.19620002806186676
0.36027047038078308 0.56492465734481812 0.17617468535900116
0.47762212157249451 0.5867915153503418 0.13733689486980438
0.5946623682975769 0.60983365774154663 0.076025135815143585
0.70768368244171143 0.63181871175765991 0.018368605524301529
0.79299807548522949 0.64028775691986084 0.0073826657608151436
0.86908763647079468 0.64451789855957031 0.010943633504211903
0.93821001052856445 0.64817655086517334 0.0063826167024672031
0.98864966630935669 0.65118151903152466 0.0020203832536935806
0.0034814721439033747 0.63070303201675415 0.23771354556083679
0.0052583883516490459 0.62622547149658203 0.24132634699344635
0.031491387635469437 0.6217074990272522 0.24503675103187561
0.15419626235961914 0.61195772886276245 0.24982458353042603
0.26309484243392944 0.61015909910202026 0.24859218299388885
0.36014249920845032 0.61883985996246338 0.24198468029499054
0.46773639321327209 0.63758587837219238 0.21587672829627991
0.57285147905349731 0.65800255537033081 0.17772997915744781
0.67259585857391357 0.67765063047409058 0.12217672169208527
0.77114486694335938 0.69567549228668213 0.052645184099674225
0.8542291522026062 0.70538890361785889 0.01599445752799511
0.92398667335510254 0.70994263887405396 0.0057478663511574268
0.98057860136032104 0.71350264549255371 0.002311512129381299
0.010928764007985592 0.70002841949462891 0.29488334059715271
0.029085960239171982 0.69733768701553345 0.29502221941947937
0.11290766298770905 0.6907646656036377 0.30045437812805176
0.21008960902690887 0.68055331707000732 0.30563151836395264
0.29336851835250854 0.67240047454833984 0.31049826741218567
0.37416473031044006 0.67404460906982422 0.30707463622093201
0.46592056751251221 0.6889229416847229 0.29374998807907104
0.56139057874679565 0.70700109004974365 0.27114942669868469
0.64799231290817261 0.72343361377716064 0.24115420877933502
0.73813873529434204 0.73966103792190552 0.1946399062871933
0.82805085182189941 0.75520247220993042 0.13328485190868378
0.90957349538803101 0.76626092195510864 0.073626920580863953
0.9750247597694397 0.77212655544281006 0.02596811018884182
0.14696840941905975 0.76612085103988647 0.36773887276649475
0.18765483796596527 0.76410150527954102 0.37312608957290649
0.23783197999000549 0.75787383317947388 0.3785490095615387
0.29717567563056946 0.7500339150428772 0.38239926099777222
0.3569948673248291 0.74310034513473511 0.38502916693687439
0.41785246133804321 0.73961430788040161 0.38689780235290527
0.48256981372833252 0.74501579999923706 0.37931302189826965
0.55834698677062988 0.75770044326782227 0.36586394906044006
0.63676309585571289 0.77310359477996826 0.34680467844009399
0.71966588497161865 0.78912383317947388 0.32058766484260559
0.80104774236679077 0.80339288711547852 0.28846496343612671
0.88439095020294189 0.81731343269348145 0.24297246336936951
0.96151018142700195 0.82815629243850708 0.19775490462779999
0.31899479031562805 0.83241862058639526 0.46334096789360046
0.33649975061416626 0.83065646886825562 0.46708530187606812
0.36341369152069092 0.82673418521881104 0.46933773159980774
0.39943462610244751 0.82087147235870361 0.47440490126609802
0.44147363305091858 0.8153148889541626 0.48115825653076172
0.48795130848884583 0.81151783466339111 0.48488906025886536
0.53547048568725586 0.81289178133010864 0.48523619771003723
0.59075254201889038 0.81995850801467896 0.4777342677116394
0.65110021829605103 0.832957923412323 0.46635952591896057
0.71517336368560791 0.84597533941268921 0.45102035999298096
0.78597211837768555 0.85813444852828979 0.43045923113822937
0.8588828444480896 0.87033170461654663 0.40224969387054443
0.9373701810836792 0.88137179613113403 0.36685487627983093
0.47037628293037415 0.90168899297714233 0.58302140235900879
0.48069325089454651 0.89999300241470337 0.58403170108795166
0.49885675311088562 0.89940446615219116 0.58847033977508545
0.52060574293136597 0.89410555362701416 0.59267956018447876
0.55139237642288208 0.89047336578369141 0.6021849513053894
0.5857042670249939 0.88756293058395386 0.61107337474822998
0.62126994132995605 0.88791996240615845 0.61689037084579468
0.65817028284072876 0.89381617307662964 0.61411678791046143
0.70239472389221191 0.90318953990936279 0.60895013809204102
0.74652034044265747 0.91161435842514038 0.59873443841934204
0.80077087879180908 0.92223936319351196 0.58933901786804199
0.85839533805847168 0.93124967813491821 0.57384312152862549
0.92309033870697021 0.93995434045791626 0.551166832447052
0.068872846662998199 0.073244489729404449 0.10073312371969223
0.11972577124834061 0.065911628305912018 0.10566475242376328
0.19844807684421539 0.051185816526412964 0.10647303611040115
0.29926162958145142 0.029178155586123466 0.10348466038703918
0.4125363826751709 0.010346162132918835 0.098727911710739136
0.53153479099273682 0.0082470010966062546 0.096519917249679565
0.64829504489898682 0.0067624561488628387 0.08327261358499527
0.75584501028060913 0.0037724063731729984 0.064045771956443787
0.84115195274353027 0.0049724951386451721 0.042577929794788361
0.90999454259872437 0.023835575208067894 0.029250605031847954
0.96655386686325073 0.098431952297687531 0.018094275146722794
0.99637311697006226 0.17072935402393341 0.011499891057610512
0.99826431274414062 0.22244365513324738 0.0067140469327569008
0.054731138050556183 0.11521352082490921 0.10394156724214554
0.11535574495792389 0.11620468646287918 0.10783100873231888
0.19456049799919128 0.11032542586326599 0.10833463817834854
0.30121240019798279 0.10276275128126144 0.10131301730871201
0.41359743475914001 0.078463219106197357 0.094289876520633698
0.53193974494934082 0.062475197017192841 0.090646140277385712
0.64950412511825562 0.046974644064903259 0.072140172123908997
0.75413209199905396 0.047289006412029266 0.053511437028646469
0.83714449405670166 0.070226587355136871 0.035880204290151596
0.90477573871612549 0.12232337146997452 0.022670760750770569
0.96146821975708008 0.17976076900959015 0.01629079133272171
0.99417006969451904 0.22527472674846649 0.012732921168208122
0.99883490800857544 0.26409339904785156 0.010716577060520649
0.042772449553012848 0.18571338057518005 0.11586035788059235
0.1050582155585289 0.18390803039073944 0.11634219437837601
0.1843731701374054 0.18254177272319794 0.10973168164491653
0.293598473072052 0.18753768503665924 0.09692797064781189
0.41094517707824707 0.18523825705051422 0.082780949771404266
0.53057491779327393 0.17968034744262695 0.066784560680389404
0.64545911550521851 0.17937396466732025 0.048904478549957275
0.74510419368743896 0.18565577268600464 0.033314917236566544
0.8280368447303772 0.20583119988441467 0.022049669176340103
0.89900189638137817 0.23489193618297577 0.013618185184895992
0.9553067684173584 0.26450872421264648 0.012530173175036907
0.99206995964050293 0.29268422722816467 0.01166827604174614
0.99996048212051392 0.31957581639289856 0.0082495296373963356
0.02050996758043766 0.26424649357795715 0.12879157066345215
0.083519458770751953 0.25875496864318848 0.1348741352558136
0.16127815842628479 0.25527951121330261 0.13016514480113983
0.26755431294441223 0.268972247838974 0.11347033828496933
0.39278581738471985 0.28458777070045471 0.082452528178691864
0.52014034986495972 0.29235520958900452 0.042838737368583679
0.63472402095794678 0.29663780331611633 0.020828591659665108
0.7341001033782959 0.30196103453636169 0.013363572768867016
0.81560784578323364 0.31463208794593811 0.012178667820990086
0.88887894153594971 0.33285290002822876 0.01274527795612812
0.94741278886795044 0.35159415006637573 0.016027294099330902
0.98854696750640869 0.3697151243686676 0.015248317271471024
0.99817448854446411 0.38589277863502502 0.0085643390193581581
0.0052733030170202255 0.34867876768112183 0.15053251385688782
0.035798721015453339 0.3417392373085022 0.15087158977985382
0.13461954891681671 0.33550876379013062 0.15668079257011414
0.23227401077747345 0.34636816382408142 0.1424814760684967
0.3557339608669281 0.36808127164840698 0.1041744276881218
0.49067413806915283 0.38813614845275879 0.05193055048584938
0.61103904247283936 0.39943417906761169 0.017561653628945351
0.71231979131698608 0.40530994534492493 0.0078484183177351952
0.79794597625732422 0.41304296255111694 0.0065790959633886814
0.87097400426864624 0.41989409923553467 0.0084678651764988899
0.93428456783294678 0.43240290880203247 0.011886132881045341
0.98135566711425781 0.44529694318771362 0.013963482342660427
0.99674433469772339 0.45522180199623108 0.0089414706453680992
0.0034001369494944811 0.43003946542739868 0.17250066995620728
0.01142832450568676 0.42374536395072937 0.17305503785610199
0.092824123799800873 0.41513451933860779 0.17917145788669586
0.20619992911815643 0.41768556833267212 0.17461158335208893
0.31721383333206177 0.43772211670875549 0.14554725587368011
0.44264635443687439 0.45984289050102234 0.097952686250209808
0.57588845491409302 0.48396745324134827 0.039691146463155746
0.68169718980789185 0.49495735764503479 0.013970348984003067
0.77313697338104248 0.50092208385467529 0.0081406086683273315
0.84744203090667725 0.5028272271156311 0.0079226177185773849
0.91552871465682983 0.51021301746368408 0.0091287354007363319
0.97168761491775513 0.51635921001434326 0.0085120406001806259
0.99407726526260376 0.52104038000106812 0.0066831102594733238
0.0019453160930424929 0.50303536653518677 0.19710561633110046
0.0046497718431055546 0.49815243482589722 0.1989324688911438
0.056913923472166061 0.49079525470733643 0.20359870791435242
0.18778117001056671 0.48622381687164307 0.20519529283046722
0.29372486472129822 0.50122630596160889 0.18753896653652191
0.39798319339752197 0.51835697889328003 0.16055262088775635
0.52510136365890503 0.54180759191513062 0.10438822954893112
0.64641821384429932 0.56259697675704956 0.042971592396497726
0.7460288405418396 0.57437914609909058 0.014604874886572361
0.82347589731216431 0.57890951633453369 0.010379776358604431
0.89375180006027222 0.58335244655609131 0.0098077366128563881
0.9563336968421936 0.58434855937957764 0.0066230176016688347
0.98957288265228271 0.58665710687637329 0.0043167411349713802
0.0015203887596726418 0.57404428720474243 0.22546009719371796
0.0039556017145514488 0.56875807046890259 0.22976253926753998
0.042740706354379654 0.56182694435119629 0.23379215598106384
0.17542614042758942 0.55325716733932495 0.23990368843078613
0.27754709124565125 0.55946719646453857 0.23138462007045746
0.37147954106330872 0.57013463973999023 0.21589212119579315
0.48598414659500122 0.59015995264053345 0.18309168517589569
0.60049551725387573 0.61186343431472778 0.13478431105613708
0.71129506826400757 0.63298279047012329 0.064941182732582092
0.79953670501708984 0.64419591426849365 0.023887230083346367
0.87323099374771118 0.64882612228393555 0.011862391605973244
0.93897348642349243 0.65029358863830566 0.0079601509496569633
0.98263335227966309 0.65085399150848389 0.0037443572655320168
0.0043835658580064774 0.64038556814193726 0.26658040285110474
0.0085167083889245987 0.6364750862121582 0.26721549034118652
0.058399755507707596 0.63043498992919922 0.27072709798812866
0.18612219393253326 0.62073016166687012 0.2775692343711853
0.28018641471862793 0.61599230766296387 0.27925875782966614
0.37367194890975952 0.62288671731948853 0.27535992860794067
0.47544297575950623 0.64154917001724243 0.25562620162963867
0.57744789123535156 0.66072368621826172 0.2190898209810257
0.67348849773406982 0.67842775583267212 0.17671927809715271
0.76831835508346558 0.6954035758972168 0.11649699509143829
0.85609281063079834 0.70778429508209229 0.057108428329229355
0.92566519975662231 0.71257656812667847 0.018775401636958122
0.979164719581604 0.71341437101364136 0.0059472927823662758
0.015874959528446198 0.70615798234939575 0.31459635496139526
0.05270678922533989 0.70342391729354858 0.31604301929473877
0.13870076835155487 0.69657981395721436 0.32238313555717468
0.22763077914714813 0.6864209771156311 0.33010074496269226
0.31240275502204895 0.67791104316711426 0.33740827441215515
0.38871562480926514 0.67768871784210205 0.3336433470249176
0.4764026403427124 0.69259560108184814 0.32241988182067871
0.56566965579986572 0.70964533090591431 0.30148759484291077
0.65267956256866455 0.72527813911437988 0.27171799540519714
0.73975121974945068 0.74108660221099854 0.23912434279918671
0.82996141910552979 0.75651127099990845 0.1885615736246109
0.91030746698379517 0.76725423336029053 0.13023620843887329
0.97709125280380249 0.77172869443893433 0.062551282346248627
0.16678273677825928 0.77023220062255859 0.38303196430206299
0.20185248553752899 0.76831138134002686 0.38975656032562256
0.25211262702941895 0.76226997375488281 0.39502128958702087
0.30572205781936646 0.75427961349487305 0.39879670739173889
0.36541345715522766 0.74591076374053955 0.40110558271408081
0.42464110255241394 0.7407914400100708 0.40375658869743347
0.49035775661468506 0.74732547998428345 0.39805781841278076
0.56176048517227173 0.76055282354354858 0.38599070906639099
0.63894784450531006 0.7740669846534729 0.36816868185997009
0.72240734100341797 0.79060190916061401 0.34580498933792114
0.80565840005874634 0.80520862340927124 0.31335777044296265
0.88610172271728516 0.81789404153823853 0.27809247374534607
0.95965832471847534 0.82655590772628784 0.23540642857551575
0.32336568832397461 0.83502280712127686 0.47448650002479553
0.34309226274490356 0.83385223150253296 0.47933921217918396
0.36934664845466614 0.83007287979125977 0.48116835951805115
0.40464571118354797 0.82405507564544678 0.48650649189949036
0.44584465026855469 0.81779807806015015 0.49215817451477051
0.49065515398979187 0.81221610307693481 0.49595233798027039
0.53906261920928955 0.81445455551147461 0.49769717454910278
0.59395146369934082 0.82261484861373901 0.49450436234474182
0.65403014421463013 0.83444100618362427 0.48342645168304443
0.71727943420410156 0.84690207242965698 0.46595320105552673
0.78847169876098633 0.85976880788803101 0.44682705402374268
0.8606867790222168 0.87132436037063599 0.42056143283843994
0.93647617101669312 0.88084894418716431 0.38932579755783081
0.47170954942703247 0.90280979871749878 0.58862364292144775
0.48527562618255615 0.90300989151000977 0.59318417310714722
0.50089961290359497 0.90097105503082275 0.59584730863571167
0.52331185340881348 0.89636468887329102 0.60044914484024048
0.55235832929611206 0.89232367277145386 0.60755807161331177
0.58566296100616455 0.88828635215759277 0.61498767137527466
0.62366008758544922 0.88885027170181274 0.62377738952636719
0.66171610355377197 0.89469641447067261 0.62441277503967285
0.70344239473342896 0.90333861112594604 0.61716395616531372
0.74914884567260742 0.91301578283309937 0.60807281732559204
0.80237334966659546 0.92192143201828003 0.59535592794418335
0.85956764221191406 0.930400550365448 0.57978802919387817
0.92189270257949829 0.93884372711181641 0.56166911125183105
0.064349889755249023 0.075551904737949371 0.17784683406352997
0.12854896485805511 0.067471764981746674 0.18662191927433014
0.2175191193819046 0.04664510115981102 0.19310693442821503
0.31100428104400635 0.025042485445737839 0.19211561977863312
0.42502602934837341 0.0091465217992663383 0.19168631732463837
0.54877007007598877 0.012759802863001823 0.18738859891891479
0.66479587554931641 0.007278053555637598 0.18559093773365021
0.76429849863052368 0.0042865229770541191 0.17487561702728271
0.84857380390167236 0.0049164416268467903 0.1607920378446579
0.91475051641464233 0.021578576415777206 0.15223129093647003
0.96733301877975464 0.094279393553733826 0.13586385548114777
0.99778461456298828 0.17536771297454834 0.11815362423658371
1 0.23018470406532288 0.10108651220798492
0.05864265188574791 0.12129849940538406 0.17379018664360046
0.12094724923372269 0.12230372428894043 0.18278229236602783
0.2120223194360733 0.11504751443862915 0.18956856429576874
0.31289967894554138 0.10097888112068176 0.19114995002746582
0.42809110879898071 0.069937445223331451 0.19204381108283997
0.54751300811767578 0.049226064234972 0.18295672535896301
0.66395467519760132 0.035727526992559433 0.17670713365077972
0.76279515027999878 0.040390495210886002 0.16813193261623383
0.84240031242370605 0.069564342498779297 0.15620726346969604
0.90921515226364136 0.12194555252790451 0.1398332417011261
0.9640623927116394 0.1758980005979538 0.1240231990814209
0.99549800157546997 0.22814135253429413 0.11034651845693588
1 0.26793983578681946 0.095641717314720154
0.023712337017059326 0.20180334150791168 0.18477176129817963
0.097301587462425232 0.20095835626125336 0.18808797001838684
0.20047184824943542 0.19938233494758606 0.18890856206417084
0.31028810143470764 0.19562199711799622 0.18802739679813385
0.42428413033485413 0.18459947407245636 0.18734028935432434
0.54133182764053345 0.17860051989555359 0.17727930843830109
0.65509998798370361 0.17595131695270538 0.16267228126525879
0.75184077024459839 0.18206942081451416 0.15024910867214203
0.83250719308853149 0.20352402329444885 0.13374081254005432
0.90086120367050171 0.23413431644439697 0.11618830263614655
0.95655727386474609 0.26522552967071533 0.1070881262421608
0.99297797679901123 0.29417276382446289 0.094810307025909424
1 0.32301223278045654 0.074342735111713409
0.012457559816539288 0.29543197154998779 0.20219628512859344
0.086535587906837463 0.29131901264190674 0.20524053275585175
0.18913808465003967 0.28456437587738037 0.2046017199754715
0.29358005523681641 0.28542879223823547 0.19588761031627655
0.40990394353866577 0.29339855909347534 0.17776016891002655
0.53196811676025391 0.29445627331733704 0.15759168565273285
0.64138305187225342 0.2933468222618103 0.13329713046550751
0.73692613840103149 0.30200818181037903 0.11833219230175018
0.8177870512008667 0.31499031186103821 0.10549042373895645
0.88967466354370117 0.33380645513534546 0.08967261016368866
0.94982391595840454 0.35311698913574219 0.078161753714084625
0.99256795644760132 0.37013885378837585 0.070767208933830261
0.99950277805328369 0.39010909199714661 0.053451240062713623
0.0073049655184149742 0.38618174195289612 0.22221451997756958
0.069664090871810913 0.37994357943534851 0.22060157358646393
0.16809868812561035 0.36503204703330994 0.22398971021175385
0.2623409628868103 0.3594411313533783 0.21737456321716309
