luts/negative_new/kodak_portra_160_++.cube
# Created by: G'MIC (https://gmic.eu)
TITLE "kodak_portra_160_++"
# LUT size
LUT_3D_SIZE 7
# Data domain
DOMAIN_MIN 0.0 0.0 0.0
DOMAIN_MAX 1.0 1.0 1.0
# LUT data points
0.13419154286384583 0.086283817887306213 0.078873574733734131
0.21113947033882141 0.081279009580612183 0.084435120224952698
0.36971297860145569 0.063128679990768433 0.07166513055562973
0.58204442262649536 0.019504981115460396 0.052567336708307266
0.76552063226699829 0.027301877737045288 0.023734761402010918
0.90329331159591675 0.098402731120586395 0.0052314908243715763
0.99864476919174194 0.17985871434211731 0.0022020228207111359
0.13147781789302826 0.17529357969760895 0.079704701900482178
0.20471572875976562 0.18474365770816803 0.081517480313777924
0.38236784934997559 0.2035355269908905 0.042117472738027573
0.59602683782577515 0.20945395529270172 0.014824616722762585
0.76597505807876587 0.21309947967529297 0.006586022675037384
0.89763754606246948 0.23504325747489929 0.0038808186072856188
0.99639588594436646 0.2836247980594635 0.00089239981025457382
0.10588652640581131 0.3386739194393158 0.063315235078334808
0.19048234820365906 0.33845087885856628 0.058988265693187714
0.35271534323692322 0.37422063946723938 0.022778455168008804
0.58279049396514893 0.41189843416213989 0.0034723917488008738
0.76059830188751221 0.40356814861297607 0.0024940790608525276
0.8944208025932312 0.40238466858863831 0.0038461722433567047
0.99202078580856323 0.41676998138427734 0.0017457850044593215
0.10303010791540146 0.50878727436065674 0.031328387558460236
0.20023760199546814 0.50085902214050293 0.032380539923906326
0.3429257869720459 0.51248323917388916 0.018515687435865402
0.52612364292144775 0.54754042625427246 0.0053127212449908257
0.72246605157852173 0.5782853364944458 0.0048707998357713223
0.86836642026901245 0.57459074258804321 0.00054832908790558577
0.99034208059310913 0.56693112850189209 6.8933826696593314e-05
0.21970824897289276 0.64568650722503662 0.077558569610118866
0.27029061317443848 0.63959318399429321 0.067705444991588593
0.36316949129104614 0.62914568185806274 0.04848765954375267
0.51150965690612793 0.65452492237091064 0.038225643336772919
0.66842949390411377 0.68900841474533081 0.037962369620800018
0.84146112203598022 0.7318006157875061 0.026326078921556473
0.98236900568008423 0.73000270128250122 0.00061174278380349278
0.35037052631378174 0.77960246801376343 0.20283085107803345
0.383370041847229 0.77583181858062744 0.19409702718257904
0.43887162208557129 0.76435232162475586 0.17668218910694122
0.53993886709213257 0.77126777172088623 0.17236427962779999
0.66709375381469727 0.79732853174209595 0.19587074220180511
0.80271965265274048 0.8239821195602417 0.22639413177967072
0.95835083723068237 0.86326628923416138 0.23773251473903656
0.51450061798095703 0.92589092254638672 0.41462287306785583
0.53315520286560059 0.92686724662780762 0.41190096735954285
0.57083910703659058 0.92170143127441406 0.40555328130722046
0.63452798128128052 0.92128664255142212 0.40288552641868591
0.72602564096450806 0.93252056837081909 0.4185117781162262
0.83146160840988159 0.946452796459198 0.44133880734443665
0.93833184242248535 0.9582984447479248 0.46161988377571106
0.13146595656871796 0.093791976571083069 0.18415586650371552
0.21811294555664062 0.091532357037067413 0.182927206158638
0.38875925540924072 0.058083835989236832 0.18912966549396515
0.60128909349441528 0.0075343414209783077 0.18561601638793945
0.77143204212188721 0.0071580922231078148 0.17267705500125885
0.90125834941864014 0.060081899166107178 0.15954932570457458
0.99709326028823853 0.17876911163330078 0.14563077688217163
0.12427905201911926 0.20247505605220795 0.18800102174282074
0.21640677750110626 0.20201678574085236 0.18776223063468933
0.39825913310050964 0.19768872857093811 0.1799720823764801
0.60552376508712769 0.18809282779693604 0.1676679402589798
0.76722514629364014 0.19017569720745087 0.15044024586677551
0.90131878852844238 0.22655712068080902 0.13598252832889557
0.99692749977111816 0.27322345972061157 0.12228979915380478
0.090752109885215759 0.38318437337875366 0.18720321357250214
0.21523012220859528 0.37135368585586548 0.19000785052776337
0.38065236806869507 0.38935819268226624 0.1804533451795578
0.60551995038986206 0.40796434879302979 0.12361861765384674
0.7689397931098938 0.39605185389518738 0.082435682415962219
0.89719992876052856 0.39773872494697571 0.065240107476711273
0.9965895414352417 0.41366928815841675 0.058123316615819931
0.14998450875282288 0.53991961479187012 0.19424253702163696
0.23415891826152802 0.52845907211303711 0.18755714595317841
0.36194905638694763 0.52347773313522339 0.17470356822013855
0.54383301734924316 0.55946999788284302 0.16971118748188019
0.73247319459915161 0.58594119548797607 0.10692907869815826
0.88098126649856567 0.56720620393753052 0.024140631780028343
0.99396288394927979 0.56234598159790039 0.0075626745820045471
0.25143948197364807 0.66316324472427368 0.22198177874088287
0.29999464750289917 0.65448969602584839 0.21231800317764282
0.38221731781959534 0.63787829875946045 0.1976475715637207
0.51686400175094604 0.65906155109405518 0.19950470328330994
0.67670685052871704 0.69510221481323242 0.21078035235404968
0.84563750028610229 0.73250538110733032 0.18744374811649323
0.98492205142974854 0.72628164291381836 0.046145450323820114
0.37359964847564697 0.7881237268447876 0.30412977933883667
0.40100705623626709 0.78250205516815186 0.29009860754013062
0.45463702082633972 0.77152109146118164 0.27251514792442322
0.54044139385223389 0.77410244941711426 0.26354280114173889
0.66868656873703003 0.79749339818954468 0.28960448503494263
0.80720740556716919 0.82650333642959595 0.31836774945259094
0.95584380626678467 0.86271244287490845 0.32928389310836792
0.52176922559738159 0.93076908588409424 0.45849564671516418
0.53576469421386719 0.92688620090484619 0.45137789845466614
0.57497835159301758 0.92408603429794312 0.44874009490013123
0.63430595397949219 0.92139172554016113 0.44096705317497253
0.72547262907028198 0.93058681488037109 0.4556986391544342
0.83108222484588623 0.9450690746307373 0.47896233201026917
0.93847936391830444 0.95892506837844849 0.50200086832046509
0.091279886662960052 0.10618098825216293 0.39255854487419128
0.22498415410518646 0.10832814127206802 0.3989998996257782
0.41755911707878113 0.095257207751274109 0.40524020791053772
0.64050841331481934 0.073450528085231781 0.41868680715560913
0.79971873760223389 0.080813072621822357 0.40142294764518738
0.91358351707458496 0.11198504269123077 0.37648048996925354
0.99643629789352417 0.20522165298461914 0.37203919887542725
0.069694563746452332 0.22134135663509369 0.3933739960193634
0.22694107890129089 0.23431681096553802 0.39885145425796509
0.42769506573677063 0.24071058630943298 0.41217836737632751
0.63583672046661377 0.24850986897945404 0.41785785555839539
0.78465807437896729 0.23881044983863831 0.39517292380332947
0.90197151899337769 0.25973960757255554 0.37235897779464722
0.99460166692733765 0.29929846525192261 0.36756020784378052
0.012958795763552189 0.42696574330329895 0.40024089813232422
0.21805514395236969 0.42550042271614075 0.40401366353034973
0.42547759413719177 0.42109799385070801 0.40804186463356018
0.61746293306350708 0.41792654991149902 0.39388689398765564
0.76487797498703003 0.41087344288825989 0.37078669667243958
0.8894539475440979 0.41673004627227783 0.35485175251960754
0.99133455753326416 0.4247434139251709 0.34660777449607849
0.1873905211687088 0.5943489670753479 0.39695277810096741
0.30062797665596008 0.58512389659881592 0.40397223830223083
0.42457300424575806 0.56291240453720093 0.4005894660949707
0.57640749216079712 0.57970279455184937 0.39727449417114258
0.74241691827774048 0.58075577020645142 0.36944365501403809
0.87641996145248413 0.56841230392456055 0.33172553777694702
0.98695152997970581 0.56561720371246338 0.29378598928451538
0.34354615211486816 0.69973492622375488 0.42585551738739014
0.38070973753929138 0.69374233484268188 0.41857630014419556
0.43822833895683289 0.67295759916305542 0.39643225073814392
0.53771156072616577 0.66834324598312378 0.38327577710151672
0.68744522333145142 0.7019423246383667 0.40457931160926819
0.84573447704315186 0.72883135080337524 0.39828976988792419
0.98145061731338501 0.71605944633483887 0.31937980651855469
0.41983389854431152 0.80493223667144775 0.44890409708023071
0.44487118721008301 0.80216646194458008 0.44060206413269043
0.48622533679008484 0.79041755199432373 0.41978645324707031
0.55006426572799683 0.77775543928146362 0.39515262842178345
0.67254245281219482 0.7990148663520813 0.42209154367446899
0.80602306127548218 0.82543390989303589 0.45346567034721375
0.95733815431594849 0.86256057024002075 0.46453666687011719
0.53364890813827515 0.93382197618484497 0.53792446851730347
0.55364036560058594 0.93484288454055786 0.53755778074264526
0.58551621437072754 0.93198847770690918 0.52771866321563721
0.63940978050231934 0.92585188150405884 0.51677942276000977
0.72392410039901733 0.9309992790222168 0.52117753028869629
0.83101487159729004 0.94678431749343872 0.54693782329559326
0.94012618064880371 0.95895731449127197 0.57007181644439697
0.060715589672327042 0.13771542906761169 0.61124527454376221
0.24690259993076324 0.14590322971343994 0.61230701208114624
0.445423424243927 0.16234716773033142 0.62111902236938477
0.64133459329605103 0.18611958622932434 0.62622916698455811
0.80189591646194458 0.24570046365261078 0.62039357423782349
0.92363601922988892 0.33121770620346069 0.60974740982055664
0.99548673629760742 0.36243531107902527 0.6017916202545166
0.082196362316608429 0.25962176918983459 0.60998880863189697
0.25781387090682983 0.27418738603591919 0.60981947183609009
0.44998690485954285 0.29731941223144531 0.6193966269493103
0.63756632804870605 0.32016786932945251 0.62869065999984741
0.79342448711395264 0.36031350493431091 0.62182426452636719
0.91218817234039307 0.40296456217765808 0.60685151815414429
0.99355685710906982 0.41097375750541687 0.59104418754577637
0.048716794699430466 0.43138799071311951 0.60075730085372925
0.25216138362884521 0.43678101897239685 0.60063034296035767
0.45029515027999878 0.45465502142906189 0.60934370756149292
0.62254625558853149 0.4802834689617157 0.61751174926757812
0.77024692296981812 0.50144922733306885 0.612773597240448
0.88732254505157471 0.49666520953178406 0.59317433834075928
0.98503810167312622 0.48527535796165466 0.57613897323608398
0.19569584727287292 0.62493646144866943 0.6010175347328186
0.32067021727561951 0.62372195720672607 0.60442924499511719
0.4739319384098053 0.61379879713058472 0.60272908210754395
0.60832768678665161 0.60831069946289062 0.60048961639404297
0.74263721704483032 0.60275435447692871 0.58922427892684937
0.86636054515838623 0.59313845634460449 0.5615537166595459
0.98395687341690063 0.58602917194366455 0.55146366357803345
0.39731526374816895 0.74446755647659302 0.59163135290145874
0.43881961703300476 0.73903125524520874 0.59407728910446167
0.52024483680725098 0.72826081514358521 0.59457206726074219
0.5926700234413147 0.70220935344696045 0.57690787315368652
0.71102041006088257 0.71977466344833374 0.58532440662384033
0.85377776622772217 0.72465956211090088 0.56806713342666626
0.98306757211685181 0.71160870790481567 0.52308022975921631
0.47153559327125549 0.83663570880889893 0.60222196578979492
0.498432457447052 0.83392512798309326 0.60165524482727051
0.54505187273025513 0.82368201017379761 0.58986842632293701
0.59638231992721558 0.8033023476600647 0.56505447626113892
0.67703890800476074 0.79958951473236084 0.55350393056869507
0.81989902257919312 0.83385515213012695 0.58924233913421631
0.95901262760162354 0.85721409320831299 0.59124350547790527
0.56682169437408447 0.94062548875808716 0.6492990255355835
0.58283478021621704 0.94331300258636475 0.6448865532875061
0.61095702648162842 0.93890476226806641 0.63619506359100342
0.65564048290252686 0.93096184730529785 0.62053042650222778
0.72091078758239746 0.93169814348220825 0.60433447360992432
0.83068734407424927 0.94558483362197876 0.62825733423233032
0.94016808271408081 0.95996546745300293 0.65249383449554443
0.20656350255012512 0.21010267734527588 0.76051682233810425
0.31869754195213318 0.22120979428291321 0.76522088050842285
0.48064965009689331 0.25177806615829468 0.76696193218231201
0.64263755083084106 0.31035524606704712 0.7718849778175354
0.78681343793869019 0.35481536388397217 0.77447414398193359
0.90910053253173828 0.40517520904541016 0.76733994483947754
0.9957771897315979 0.50644916296005249 0.76734095811843872
0.24487726390361786 0.32785308361053467 0.75286823511123657
0.34260600805282593 0.3369482159614563 0.75941801071166992
0.48908159136772156 0.36413389444351196 0.762950599193573
0.6425095796585083 0.40459206700325012 0.76965922117233276
0.77910131216049194 0.43677708506584167 0.76985752582550049
0.90247035026550293 0.4766811728477478 0.7668536901473999
0.99547284841537476 0.54742658138275146 0.7681310772895813
0.28101623058319092 0.46865415573120117 0.74572598934173584
0.37187927961349487 0.4804290235042572 0.75054258108139038
0.50006258487701416 0.5019715428352356 0.74754482507705688
0.63848197460174561 0.53075152635574341 0.75525850057601929
0.77100062370300293 0.55441099405288696 0.76140928268432617
0.88904494047164917 0.57990127801895142 0.76717871427536011
0.98312801122665405 0.62006586790084839 0.77028101682662964
0.29920858144760132 0.60952287912368774 0.73380035161972046
0.37528938055038452 0.61016416549682617 0.73715591430664062
0.49528631567955017 0.61773377656936646 0.7348061203956604
0.62581717967987061 0.6390259861946106 0.74089169502258301
0.75920146703720093 0.66241300106048584 0.75481665134429932
0.87853378057479858 0.67743104696273804 0.75991195440292358
0.97942107915878296 0.66995584964752197 0.74769479036331177
0.411619633436203 0.76280319690704346 0.74278676509857178
0.45456722378730774 0.7631111741065979 0.74215835332870483
0.53969788551330566 0.75906437635421753 0.74224936962127686
0.6419031023979187 0.75055825710296631 0.74113231897354126
0.74582260847091675 0.74685651063919067 0.73960405588150024
0.85863769054412842 0.74206209182739258 0.73049837350845337
0.9741935133934021 0.73020070791244507 0.70862782001495361
0.54564845561981201 0.87234121561050415 0.74490755796432495
0.56595563888549805 0.87059897184371948 0.74247831106185913
0.61237311363220215 0.86624842882156372 0.74207204580307007
0.66856503486633301 0.85403019189834595 0.73844063282012939
0.71887034177780151 0.82491272687911987 0.70892232656478882
0.83299624919891357 0.84394609928131104 0.72159171104431152
0.96835649013519287 0.85135567188262939 0.71496564149856567
0.59594130516052246 0.96080660820007324 0.75214636325836182
0.6115146279335022 0.96087348461151123 0.75169241428375244
0.64516454935073853 0.95516765117645264 0.7523348331451416
0.69220006465911865 0.94982987642288208 0.74399948120117188
0.7455635666847229 0.93905490636825562 0.72248762845993042
0.82688659429550171 0.94648176431655884 0.72074860334396362
0.95060396194458008 0.9647945761680603 0.75004583597183228
0.36914357542991638 0.32943645119667053 0.88020604848861694
0.43161746859550476 0.34226670861244202 0.88200396299362183
0.53880506753921509 0.37363141775131226 0.87902969121932983
0.65785568952560425 0.41804167628288269 0.88298863172531128
0.77954274415969849 0.48012396693229675 0.88484328985214233
0.89532709121704102 0.51962578296661377 0.88339883089065552
0.99206328392028809 0.5468946099281311 0.8847888708114624
0.39722055196762085 0.42100599408149719 0.87565755844116211
0.45222246646881104 0.42616990208625793 0.87681597471237183
0.55088144540786743 0.4512055516242981 0.87637829780578613
0.6613350510597229 0.47950711846351624 0.87811040878295898
0.77800667285919189 0.5365065336227417 0.87935060262680054
0.89065128564834595 0.56720775365829468 0.88052403926849365
0.98360848426818848 0.59400898218154907 0.87906771898269653
0.4298538863658905 0.53285151720046997 0.86846327781677246
0.47617408633232117 0.54031193256378174 0.86658686399459839
0.56423640251159668 0.55344170331954956 0.86890149116516113
0.66823595762252808 0.58095765113830566 0.8698575496673584
0.77860158681869507 0.61813497543334961 0.87483751773834229
0.88574516773223877 0.64099657535552979 0.87760555744171143
0.98026645183563232 0.6599004864692688 0.88186490535736084
0.42510712146759033 0.63153302669525146 0.85614472627639771
0.47382798790931702 0.63967287540435791 0.856403648853302
0.55991947650909424 0.65377449989318848 0.85343587398529053
0.65768146514892578 0.67758285999298096 0.85749727487564087
0.77513152360916138 0.70614826679229736 0.86941993236541748
0.88252800703048706 0.72616314888000488 0.87624275684356689
0.97926968336105347 0.74035274982452393 0.88245075941085815
0.45798057317733765 0.75903534889221191 0.85415190458297729
0.49383816123008728 0.75699174404144287 0.85682922601699829
0.56702494621276855 0.76084607839584351 0.85646241903305054
0.65370339155197144 0.76100224256515503 0.85443758964538574
0.76207500696182251 0.77957987785339355 0.85921734571456909
0.88084816932678223 0.80169939994812012 0.87242770195007324
0.97992277145385742 0.81559723615646362 0.88079649209976196
0.53774243593215942 0.88631349802017212 0.86502140760421753
0.56738883256912231 0.88239866495132446 0.86349016427993774
0.62104934453964233 0.88373404741287231 0.86403179168701172
0.693278968334198 0.88090187311172485 0.86692327260971069
0.78019034862518311 0.8726576566696167 0.86396318674087524
0.86542481184005737 0.86973768472671509 0.86073827743530273
0.97430330514907837 0.86319243907928467 0.85091525316238403
0.67223644256591797 0.97397363185882568 0.86334919929504395
0.68380260467529297 0.97288298606872559 0.86446619033813477
0.7145993709564209 0.97165226936340332 0.86731147766113281
0.75620877742767334 0.97104001045227051 0.86785268783569336
0.80677109956741333 0.96631431579589844 0.86505025625228882
0.85282999277114868 0.95349705219268799 0.8384583592414856
0.9593358039855957 0.96492046117782593 0.8525921106338501
0.527557373046875 0.50505107641220093 0.97779613733291626
0.56010526418685913 0.50809651613235474 0.97897624969482422
0.61490964889526367 0.51523542404174805 0.97273427248001099
0.70609122514724731 0.556926429271698 0.974892258644104
0.79845583438873291 0.59661769866943359 0.97548800706863403
0.88914459943771362 0.63839256763458252 0.97164499759674072
0.97902387380599976 0.66090488433837891 0.97248798608779907
0.54385143518447876 0.55211645364761353 0.97659611701965332
0.57335817813873291 0.55519676208496094 0.97206145524978638
0.62944597005844116 0.57255852222442627 0.97440618276596069
0.70868635177612305 0.59438598155975342 0.97005224227905273
0.79936105012893677 0.62891006469726562 0.97258394956588745
0.89084756374359131 0.65726280212402344 0.96911704540252686
0.97759217023849487 0.68330574035644531 0.9717831015586853
0.56775093078613281 0.63129955530166626 0.9720112681388855
0.59472829103469849 0.63459509611129761 0.97134184837341309
0.64581847190856934 0.63964134454727173 0.96791267395019531
0.72108262777328491 0.66243410110473633 0.97109436988830566
0.80299472808837891 0.68739932775497437 0.96802389621734619
0.89060842990875244 0.71193218231201172 0.97064113616943359
0.97640258073806763 0.72854936122894287 0.97179710865020752
0.57122260332107544 0.70287734270095825 0.96692895889282227
0.6006132960319519 0.71056592464447021 0.96706497669219971
0.65096575021743774 0.71462535858154297 0.96443921327590942
0.72107458114624023 0.72893494367599487 0.96718740463256836
0.80993258953094482 0.75281035900115967 0.96937841176986694
0.89261794090270996 0.77374845743179321 0.96787881851196289
0.97605353593826294 0.78696566820144653 0.97258895635604858
0.55354827642440796 0.77932107448577881 0.96622389554977417
0.57754302024841309 0.78039753437042236 0.96658623218536377
0.63004416227340698 0.78448128700256348 0.96663475036621094
0.71008479595184326 0.79502391815185547 0.96667873859405518
0.80474579334259033 0.81663858890533447 0.96665507555007935
0.89560097455978394 0.83666211366653442 0.96945744752883911
0.97220718860626221 0.85140877962112427 0.96819263696670532
0.58777046203613281 0.88609766960144043 0.9605526328086853
0.61371582746505737 0.88577538728713989 0.95857441425323486
0.65087258815765381 0.88590675592422485 0.96707439422607422
0.71407145261764526 0.88143551349639893 0.96626454591751099
0.78952938318252563 0.88117116689682007 0.96731603145599365
0.88788741827011108 0.89623874425888062 0.96746832132339478
0.97405797243118286 0.91484934091567993 0.9683690071105957
0.66130608320236206 0.9832037091255188 0.96379894018173218
0.67711371183395386 0.98230636119842529 0.96229702234268188
0.70538318157196045 0.98178845643997192 0.96906834840774536
0.76600223779678345 0.97842127084732056 0.96611940860748291
0.83294069766998291 0.97653728723526001 0.96905940771102905
0.9074242115020752 0.97604656219482422 0.97160595655441284
0.97636830806732178 0.97674465179443359 0.9715498685836792
