luts/negative_new/kodak_tmax_3200.cube
# Created by: G'MIC (https://gmic.eu)
TITLE "kodak_tmax_3200"
# LUT size
LUT_3D_SIZE 5
# Data domain
DOMAIN_MIN 0.0 0.0 0.0
DOMAIN_MAX 1.0 1.0 1.0
# LUT data points
0.11348158866167068 0.11348158866167068 0.11348158866167068
0.12015775591135025 0.12015775591135025 0.12015775591135025
0.16053396463394165 0.16053396463394165 0.16053396463394165
0.2383052259683609 0.2383052259683609 0.2383052259683609
0.33343350887298584 0.33343350887298584 0.33343350887298584
0.19895172119140625 0.19895172119140625 0.19895172119140625
0.23032577335834503 0.23032577335834503 0.23032577335834503
0.29956707358360291 0.29956707358360291 0.29956707358360291
0.37036126852035522 0.37036126852035522 0.37036126852035522
0.47149479389190674 0.47149479389190674 0.47149479389190674
0.38367387652397156 0.38367387652397156 0.38367387652397156
0.40092048048973083 0.40092048048973083 0.40092048048973083
0.46804249286651611 0.46804249286651611 0.46804249286651611
0.57707506418228149 0.57707506418228149 0.57707506418228149
0.7170986533164978 0.7170986533164978 0.7170986533164978
0.63044512271881104 0.63044512271881104 0.63044512271881104
0.64324921369552612 0.64324921369552612 0.64324921369552612
0.68126749992370605 0.68126749992370605 0.68126749992370605
0.75448429584503174 0.75448429584503174 0.75448429584503174
0.85906004905700684 0.85906004905700684 0.85906004905700684
0.89582055807113647 0.89582055807113647 0.89582055807113647
0.89516305923461914 0.89516305923461914 0.89516305923461914
0.90975445508956909 0.90975445508956909 0.90975445508956909
0.92343461513519287 0.92343461513519287 0.92343461513519287
0.94928127527236938 0.94928127527236938 0.94928127527236938
0.11050625890493393 0.11050625890493393 0.11050625890493393
0.14771780371665955 0.14771780371665955 0.14771780371665955
0.19456668198108673 0.19456668198108673 0.19456668198108673
0.25390744209289551 0.25390744209289551 0.25390744209289551
0.34531480073928833 0.34531480073928833 0.34531480073928833
0.22280420362949371 0.22280420362949371 0.22280420362949371
0.27232646942138672 0.27232646942138672 0.27232646942138672
0.31919357180595398 0.31919357180595398 0.31919357180595398
0.37114480137825012 0.37114480137825012 0.37114480137825012
0.46748730540275574 0.46748730540275574 0.46748730540275574
0.43618667125701904 0.43618667125701904 0.43618667125701904
0.4652373194694519 0.4652373194694519 0.4652373194694519
0.50724828243255615 0.50724828243255615 0.50724828243255615
0.59755116701126099 0.59755116701126099 0.59755116701126099
0.70629817247390747 0.70629817247390747 0.70629817247390747
0.6824304461479187 0.6824304461479187 0.6824304461479187
0.69779402017593384 0.69779402017593384 0.69779402017593384
0.71505409479141235 0.71505409479141235 0.71505409479141235
0.75931239128112793 0.75931239128112793 0.75931239128112793
0.85713487863540649 0.85713487863540649 0.85713487863540649
0.92056989669799805 0.92056989669799805 0.92056989669799805
0.91819828748703003 0.91819828748703003 0.91819828748703003
0.91347956657409668 0.91347956657409668 0.91347956657409668
0.91187059879302979 0.91187059879302979 0.91187059879302979
0.94419807195663452 0.94419807195663452 0.94419807195663452
0.13534414768218994 0.13534414768218994 0.13534414768218994
0.19152778387069702 0.19152778387069702 0.19152778387069702
0.26242902874946594 0.26242902874946594 0.26242902874946594
0.29039442539215088 0.29039442539215088 0.29039442539215088
0.36341118812561035 0.36341118812561035 0.36341118812561035
0.2392154335975647 0.2392154335975647 0.2392154335975647
0.29193446040153503 0.29193446040153503 0.29193446040153503
0.35830461978912354 0.35830461978912354 0.35830461978912354
0.39194211363792419 0.39194211363792419 0.39194211363792419
0.45375379920005798 0.45375379920005798 0.45375379920005798
0.43573594093322754 0.43573594093322754 0.43573594093322754
0.47463291883468628 0.47463291883468628 0.47463291883468628
0.56025093793869019 0.56025093793869019 0.56025093793869019
0.62048667669296265 0.62048667669296265 0.62048667669296265
0.68222594261169434 0.68222594261169434 0.68222594261169434
0.73215347528457642 0.73215347528457642 0.73215347528457642
0.74757415056228638 0.74757415056228638 0.74757415056228638
0.77337735891342163 0.77337735891342163 0.77337735891342163
0.81329989433288574 0.81329989433288574 0.81329989433288574
0.88413935899734497 0.88413935899734497 0.88413935899734497
0.94089293479919434 0.94089293479919434 0.94089293479919434
0.93506014347076416 0.93506014347076416 0.93506014347076416
0.93506801128387451 0.93506801128387451 0.93506801128387451
0.93779319524765015 0.93779319524765015 0.93779319524765015
0.9656376838684082 0.9656376838684082 0.9656376838684082
0.19249571859836578 0.19249571859836578 0.19249571859836578
0.24412642419338226 0.24412642419338226 0.24412642419338226
0.35185503959655762 0.35185503959655762 0.35185503959655762
0.42462906241416931 0.42462906241416931 0.42462906241416931
0.43211248517036438 0.43211248517036438 0.43211248517036438
0.31083494424819946 0.31083494424819946 0.31083494424819946
0.34184765815734863 0.34184765815734863 0.34184765815734863
0.43227735161781311 0.43227735161781311 0.43227735161781311
0.51142877340316772 0.51142877340316772 0.51142877340316772
0.51653367280960083 0.51653367280960083 0.51653367280960083
0.42822679877281189 0.42822679877281189 0.42822679877281189
0.48715671896934509 0.48715671896934509 0.48715671896934509
0.59837871789932251 0.59837871789932251 0.59837871789932251
0.66981679201126099 0.66981679201126099 0.66981679201126099
0.68130600452423096 0.68130600452423096 0.68130600452423096
0.69785916805267334 0.69785916805267334 0.69785916805267334
0.71328616142272949 0.71328616142272949 0.71328616142272949
0.76938706636428833 0.76938706636428833 0.76938706636428833
0.82883971929550171 0.82883971929550171 0.82883971929550171
0.88023620843887329 0.88023620843887329 0.88023620843887329
0.93420207500457764 0.93420207500457764 0.93420207500457764
0.92554312944412231 0.92554312944412231 0.92554312944412231
0.93953913450241089 0.93953913450241089 0.93953913450241089
0.94879895448684692 0.94879895448684692 0.94879895448684692
0.9775770902633667 0.9775770902633667 0.9775770902633667
0.29393154382705688 0.29393154382705688 0.29393154382705688
0.32933571934700012 0.32933571934700012 0.32933571934700012
0.43284440040588379 0.43284440040588379 0.43284440040588379
0.62312519550323486 0.62312519550323486 0.62312519550323486
0.70172011852264404 0.70172011852264404 0.70172011852264404
0.3741362988948822 0.3741362988948822 0.3741362988948822
0.40879446268081665 0.40879446268081665 0.40879446268081665
0.50237816572189331 0.50237816572189331 0.50237816572189331
0.66477400064468384 0.66477400064468384 0.66477400064468384
0.75311845541000366 0.75311845541000366 0.75311845541000366
0.50553500652313232 0.50553500652313232 0.50553500652313232
0.56132322549819946 0.56132322549819946 0.56132322549819946
0.66520392894744873 0.66520392894744873 0.66520392894744873
0.77548205852508545 0.77548205852508545 0.77548205852508545
0.81741958856582642 0.81741958856582642 0.81741958856582642
0.63341891765594482 0.63341891765594482 0.63341891765594482
0.64990341663360596 0.64990341663360596 0.64990341663360596
0.72898286581039429 0.72898286581039429 0.72898286581039429
0.86871206760406494 0.86871206760406494 0.86871206760406494
0.90613579750061035 0.90613579750061035 0.90613579750061035
0.91261011362075806 0.91261011362075806 0.91261011362075806
0.9161720871925354 0.9161720871925354 0.9161720871925354
0.93079233169555664 0.93079233169555664 0.93079233169555664
0.94415885210037231 0.94415885210037231 0.94415885210037231
0.97150146961212158 0.97150146961212158 0.97150146961212158
