luts/negative_new/kodak_tmax_3200_alt.cube
# Created by: G'MIC (https://gmic.eu)
TITLE "kodak_tmax_3200_alt"
# LUT size
LUT_3D_SIZE 13
# Data domain
DOMAIN_MIN 0.0 0.0 0.0
DOMAIN_MAX 1.0 1.0 1.0
# LUT data points
0.017549656331539154 0.017549656331539154 0.017549656331539154
0.01701660081744194 0.01701660081744194 0.01701660081744194
0.019115284085273743 0.019115284085273743 0.019115284085273743
0.024299532175064087 0.024299532175064087 0.024299532175064087
0.030828183516860008 0.030828183516860008 0.030828183516860008
0.038040999323129654 0.038040999323129654 0.038040999323129654
0.046872321516275406 0.046872321516275406 0.046872321516275406
0.060129456222057343 0.060129456222057343 0.060129456222057343
0.079799994826316833 0.079799994826316833 0.079799994826316833
0.10670354217290878 0.10670354217290878 0.10670354217290878
0.13964486122131348 0.13964486122131348 0.13964486122131348
0.17681083083152771 0.17681083083152771 0.17681083083152771
0.21579553186893463 0.21579553186893463 0.21579553186893463
0.06055469810962677 0.06055469810962677 0.06055469810962677
0.059242576360702515 0.059242576360702515 0.059242576360702515
0.061745572835206985 0.061745572835206985 0.061745572835206985
0.06829833984375 0.06829833984375 0.06829833984375
0.076188750565052032 0.076188750565052032 0.076188750565052032
0.084451071918010712 0.084451071918010712 0.084451071918010712
0.093879818916320801 0.093879818916320801 0.093879818916320801
0.10776136815547943 0.10776136815547943 0.10776136815547943
0.12899309396743774 0.12899309396743774 0.12899309396743774
0.15817271173000336 0.15817271173000336 0.15817271173000336
0.19368992745876312 0.19368992745876312 0.19368992745876312
0.23250678181648254 0.23250678181648254 0.23250678181648254
0.27219042181968689 0.27219042181968689 0.27219042181968689
0.10722491890192032 0.10722491890192032 0.10722491890192032
0.10401822626590729 0.10401822626590729 0.10401822626590729
0.10773960500955582 0.10773960500955582 0.10773960500955582
0.11645124852657318 0.11645124852657318 0.11645124852657318
0.12677961587905884 0.12677961587905884 0.12677961587905884
0.13644161820411682 0.13644161820411682 0.13644161820411682
0.14642056822776794 0.14642056822776794 0.14642056822776794
0.16027070581912994 0.16027070581912994 0.16027070581912994
0.1827477365732193 0.1827477365732193 0.1827477365732193
0.21459166705608368 0.21459166705608368 0.21459166705608368
0.25237932801246643 0.25237932801246643 0.25237932801246643
0.29246732592582703 0.29246732592582703 0.29246732592582703
0.33276143670082092 0.33276143670082092 0.33276143670082092
0.16326172649860382 0.16326172649860382 0.16326172649860382
0.15808539092540741 0.15808539092540741 0.15808539092540741
0.16293688118457794 0.16293688118457794 0.16293688118457794
0.17512048780918121 0.17512048780918121 0.17512048780918121
0.18821270763874054 0.18821270763874054 0.18821270763874054
0.19931094348430634 0.19931094348430634 0.19931094348430634
0.20952408015727997 0.20952408015727997 0.20952408015727997
0.22248290479183197 0.22248290479183197 0.22248290479183197
0.24550999701023102 0.24550999701023102 0.24550999701023102
0.279217928647995 0.279217928647995 0.279217928647995
0.31782299280166626 0.31782299280166626 0.31782299280166626
0.35758727788925171 0.35758727788925171 0.35758727788925171
0.39679500460624695 0.39679500460624695 0.39679500460624695
0.23423536121845245 0.23423536121845245 0.23423536121845245
0.22844235599040985 0.22844235599040985 0.22844235599040985
0.23509266972541809 0.23509266972541809 0.23509266972541809
0.24955521523952484 0.24955521523952484 0.24955521523952484
0.26401683688163757 0.26401683688163757 0.26401683688163757
0.2764517068862915 0.2764517068862915 0.2764517068862915
0.28750330209732056 0.28750330209732056 0.28750330209732056
0.30085888504981995 0.30085888504981995 0.30085888504981995
0.32316380739212036 0.32316380739212036 0.32316380739212036
0.35477310419082642 0.35477310419082642 0.35477310419082642
0.39079344272613525 0.39079344272613525 0.39079344272613525
0.42795935273170471 0.42795935273170471 0.42795935273170471
0.46423748135566711 0.46423748135566711 0.46423748135566711
0.32260322570800781 0.32260322570800781 0.32260322570800781
0.3211732804775238 0.3211732804775238 0.3211732804775238
0.32788267731666565 0.32788267731666565 0.32788267731666565
0.34062975645065308 0.34062975645065308 0.34062975645065308
0.35376113653182983 0.35376113653182983 0.35376113653182983
0.36611694097518921 0.36611694097518921 0.36611694097518921
0.37844985723495483 0.37844985723495483 0.37844985723495483
0.39312258362770081 0.39312258362770081 0.39312258362770081
0.41294011473655701 0.41294011473655701 0.41294011473655701
0.43869653344154358 0.43869653344154358 0.43869653344154358
0.46895810961723328 0.46895810961723328 0.46895810961723328
0.50124901533126831 0.50124901533126831 0.50124901533126831
0.53352433443069458 0.53352433443069458 0.53352433443069458
0.42091101408004761 0.42091101408004761 0.42091101408004761
0.42471995949745178 0.42471995949745178 0.42471995949745178
0.43245947360992432 0.43245947360992432 0.43245947360992432
0.44194391369819641 0.44194391369819641 0.44194391369819641
0.45177748799324036 0.45177748799324036 0.45177748799324036
0.46249261498451233 0.46249261498451233 0.46249261498451233
0.47495508193969727 0.47495508193969727 0.47495508193969727
0.48938396573066711 0.48938396573066711 0.48938396573066711
0.5055619478225708 0.5055619478225708 0.5055619478225708
0.52468371391296387 0.52468371391296387 0.52468371391296387
0.54774439334869385 0.54774439334869385 0.54774439334869385
0.57385414838790894 0.57385414838790894 0.57385414838790894
0.60095149278640747 0.60095149278640747 0.60095149278640747
0.51955091953277588 0.51955091953277588 0.51955091953277588
0.5276343822479248 0.5276343822479248 0.5276343822479248
0.53680366277694702 0.53680366277694702 0.53680366277694702
0.5431017279624939 0.5431017279624939 0.5431017279624939
0.54894369840621948 0.54894369840621948 0.54894369840621948
0.55703473091125488 0.55703473091125488 0.55703473091125488
0.56789946556091309 0.56789946556091309 0.56789946556091309
0.58083963394165039 0.58083963394165039 0.58083963394165039
0.59302401542663574 0.59302401542663574 0.59302401542663574
0.60610795021057129 0.60610795021057129 0.60610795021057129
0.62272167205810547 0.62272167205810547 0.62272167205810547
0.64238119125366211 0.64238119125366211 0.64238119125366211
0.66360461711883545 0.66360461711883545 0.66360461711883545
0.6109585165977478 0.6109585165977478 0.6109585165977478
0.62050402164459229 0.62050402164459229 0.62050402164459229
0.62949085235595703 0.62949085235595703 0.62949085235595703
0.6342926025390625 0.6342926025390625 0.6342926025390625
0.638022780418396 0.638022780418396 0.638022780418396
0.64362883567810059 0.64362883567810059 0.64362883567810059
0.6518547534942627 0.6518547534942627 0.6518547534942627
0.66134500503540039 0.66134500503540039 0.66134500503540039
0.67033928632736206 0.67033928632736206 0.67033928632736206
0.67976135015487671 0.67976135015487671 0.67976135015487671
0.69132018089294434 0.69132018089294434 0.69132018089294434
0.70562648773193359 0.70562648773193359 0.70562648773193359
0.72164875268936157 0.72164875268936157 0.72164875268936157
0.69262194633483887 0.69262194633483887 0.69262194633483887
0.70094072818756104 0.70094072818756104 0.70094072818756104
0.70799863338470459 0.70799863338470459 0.70799863338470459
0.71259194612503052 0.71259194612503052 0.71259194612503052
0.71605515480041504 0.71605515480041504 0.71605515480041504
0.72022640705108643 0.72022640705108643 0.72022640705108643
0.72589540481567383 0.72589540481567383 0.72589540481567383
0.7321433424949646 0.7321433424949646 0.7321433424949646
0.73860788345336914 0.73860788345336914 0.73860788345336914
0.74529188871383667 0.74529188871383667 0.74529188871383667
0.7535703182220459 0.7535703182220459 0.7535703182220459
0.7637258768081665 0.7637258768081665 0.7637258768081665
0.77600014209747314 0.77600014209747314 0.77600014209747314
0.765758216381073 0.765758216381073 0.765758216381073
0.77208733558654785 0.77208733558654785 0.77208733558654785
0.77744197845458984 0.77744197845458984 0.77744197845458984
0.7813335657119751 0.7813335657119751 0.7813335657119751
0.78461939096450806 0.78461939096450806 0.78461939096450806
0.78803747892379761 0.78803747892379761 0.78803747892379761
0.79191344976425171 0.79191344976425171 0.79191344976425171
0.79599541425704956 0.79599541425704956 0.79599541425704956
0.80024081468582153 0.80024081468582153 0.80024081468582153
0.80473965406417847 0.80473965406417847 0.80473965406417847
0.81043004989624023 0.81043004989624023 0.81043004989624023
0.81771159172058105 0.81771159172058105 0.81771159172058105
0.82709050178527832 0.82709050178527832 0.82709050178527832
0.83278614282608032 0.83278614282608032 0.83278614282608032
0.83725857734680176 0.83725857734680176 0.83725857734680176
0.84066635370254517 0.84066635370254517 0.84066635370254517
0.84392255544662476 0.84392255544662476 0.84392255544662476
0.84688347578048706 0.84688347578048706 0.84688347578048706
0.84904152154922485 0.84904152154922485 0.84904152154922485
0.85219281911849976 0.85219281911849976 0.85219281911849976
0.85463321208953857 0.85463321208953857 0.85463321208953857
0.85702836513519287 0.85702836513519287 0.85702836513519287
0.86001038551330566 0.86001038551330566 0.86001038551330566
0.86370754241943359 0.86370754241943359 0.86370754241943359
0.86879724264144897 0.86879724264144897 0.86879724264144897
0.8759569525718689 0.8759569525718689 0.8759569525718689
0.89531785249710083 0.89531785249710083 0.89531785249710083
0.89832961559295654 0.89832961559295654 0.89832961559295654
0.90059739351272583 0.90059739351272583 0.90059739351272583
0.90232843160629272 0.90232843160629272 0.90232843160629272
0.90481901168823242 0.90481901168823242 0.90481901168823242
0.90631407499313354 0.90631407499313354 0.90631407499313354
0.90806752443313599 0.90806752443313599 0.90806752443313599
0.90946894884109497 0.90946894884109497 0.90946894884109497
0.91115361452102661 0.91115361452102661 0.91115361452102661
0.91255569458007812 0.91255569458007812 0.91255569458007812
0.91484010219573975 0.91484010219573975 0.91484010219573975
0.91839516162872314 0.91839516162872314 0.91839516162872314
0.92403227090835571 0.92403227090835571 0.92403227090835571
0.018681081011891365 0.018681081011891365 0.018681081011891365
0.021003438159823418 0.021003438159823418 0.021003438159823418
0.026715297251939774 0.026715297251939774 0.026715297251939774
0.035623032599687576 0.035623032599687576 0.035623032599687576
0.044851712882518768 0.044851712882518768 0.044851712882518768
0.052456319332122803 0.052456319332122803 0.052456319332122803
0.060828100889921188 0.060828100889921188 0.060828100889921188
0.073471277952194214 0.073471277952194214 0.073471277952194214
0.092739060521125793 0.092739060521125793 0.092739060521125793
0.11933572590351105 0.11933572590351105 0.11933572590351105
0.1522417813539505 0.1522417813539505 0.1522417813539505
0.18965718150138855 0.18965718150138855 0.18965718150138855
0.22928670048713684 0.22928670048713684 0.22928670048713684
0.0628700852394104 0.0628700852394104 0.0628700852394104
0.063601836562156677 0.063601836562156677 0.063601836562156677
0.069381386041641235 0.069381386041641235 0.069381386041641235
0.079069666564464569 0.079069666564464569 0.079069666564464569
0.089547023177146912 0.089547023177146912 0.089547023177146912
0.098994582891464233 0.098994582891464233 0.098994582891464233
0.1085558757185936 0.1085558757185936 0.1085558757185936
0.12247388064861298 0.12247388064861298 0.12247388064861298
0.14326897263526917 0.14326897263526917 0.14326897263526917
0.17185486853122711 0.17185486853122711 0.17185486853122711
0.20692005753517151 0.20692005753517151 0.20692005753517151
0.24601981043815613 0.24601981043815613 0.24601981043815613
0.28651416301727295 0.28651416301727295 0.28651416301727295
0.11048030108213425 0.11048030108213425 0.11048030108213425
0.10928226262331009 0.10928226262331009 0.10928226262331009
0.11512093991041183 0.11512093991041183 0.11512093991041183
0.12651973962783813 0.12651973962783813 0.12651973962783813
0.13902734220027924 0.13902734220027924 0.13902734220027924
0.1504109799861908 0.1504109799861908 0.1504109799861908
0.1616600900888443 0.1616600900888443 0.1616600900888443
0.17588238418102264 0.17588238418102264 0.17588238418102264
0.19875098764896393 0.19875098764896393 0.19875098764896393
0.22965450584888458 0.22965450584888458 0.22965450584888458
0.26655176281929016 0.26655176281929016 0.26655176281929016
0.30631080269813538 0.30631080269813538 0.30631080269813538
0.34683877229690552 0.34683877229690552 0.34683877229690552
0.1674351692199707 0.1674351692199707 0.1674351692199707
0.16371214389801025 0.16371214389801025 0.16371214389801025
0.17043007910251617 0.17043007910251617 0.17043007910251617
0.18437661230564117 0.18437661230564117 0.18437661230564117
0.19921644032001495 0.19921644032001495 0.19921644032001495
0.21249406039714813 0.21249406039714813 0.21249406039714813
0.22491702437400818 0.22491702437400818 0.22491702437400818
0.24014121294021606 0.24014121294021606 0.24014121294021606
0.26319113373756409 0.26319113373756409 0.26319113373756409
0.2950015664100647 0.2950015664100647 0.2950015664100647
0.33211681246757507 0.33211681246757507 0.33211681246757507
0.37120950222015381 0.37120950222015381 0.37120950222015381
0.4102807343006134 0.4102807343006134 0.4102807343006134
0.23991005122661591 0.23991005122661591 0.23991005122661591
0.23525102436542511 0.23525102436542511 0.23525102436542511
0.24253162741661072 0.24253162741661072 0.24253162741661072
0.25809413194656372 0.25809413194656372 0.25809413194656372
0.27396586537361145 0.27396586537361145 0.27396586537361145
0.28799468278884888 0.28799468278884888 0.28799468278884888
0.30131933093070984 0.30131933093070984 0.30131933093070984
0.31690943241119385 0.31690943241119385 0.31690943241119385
0.33946725726127625 0.33946725726127625 0.33946725726127625
0.36948001384735107 0.36948001384735107 0.36948001384735107
0.40388786792755127 0.40388786792755127 0.40388786792755127
0.44045558571815491 0.44045558571815491 0.44045558571815491
0.47657117247581482 0.47657117247581482 0.47657117247581482
0.32940876483917236 0.32940876483917236 0.32940876483917236
0.32765677571296692 0.32765677571296692 0.32765677571296692
0.33475783467292786 0.33475783467292786 0.33475783467292786
0.3479713499546051 0.3479713499546051 0.3479713499546051
0.36213922500610352 0.36213922500610352 0.36213922500610352
0.37574785947799683 0.37574785947799683 0.37574785947799683
0.38937252759933472 0.38937252759933472 0.38937252759933472
0.4051869809627533 0.4051869809627533 0.4051869809627533
0.42531096935272217 0.42531096935272217 0.42531096935272217
0.4506935179233551 0.4506935179233551 0.4506935179233551
0.4803624153137207 0.4803624153137207 0.4803624153137207
0.5120120644569397 0.5120120644569397 0.5120120644569397
0.54390096664428711 0.54390096664428711 0.54390096664428711
0.42840442061424255 0.42840442061424255 0.42840442061424255
0.43086004257202148 0.43086004257202148 0.43086004257202148
0.43786695599555969 0.43786695599555969 0.43786695599555969
0.44740816950798035 0.44740816950798035 0.44740816950798035
0.45813605189323425 0.45813605189323425 0.45813605189323425
0.4694998562335968 0.4694998562335968 0.4694998562335968
0.48241159319877625 0.48241159319877625 0.48241159319877625
0.4970085620880127 0.4970085620880127 0.4970085620880127
0.51376205682754517 0.51376205682754517 0.51376205682754517
0.5336068868637085 0.5336068868637085 0.5336068868637085
0.55694901943206787 0.55694901943206787 0.55694901943206787
0.58281451463699341 0.58281451463699341 0.58281451463699341
0.60936033725738525 0.60936033725738525 0.60936033725738525
0.526805579662323 0.526805579662323 0.526805579662323
0.5324629545211792 0.5324629545211792 0.5324629545211792
0.53943854570388794 0.53943854570388794 0.53943854570388794
0.54625439643859863 0.54625439643859863 0.54625439643859863
0.55324828624725342 0.55324828624725342 0.55324828624725342
0.56201702356338501 0.56201702356338501 0.56201702356338501
0.57277053594589233 0.57277053594589233 0.57277053594589233
0.58521991968154907 0.58521991968154907 0.58521991968154907
0.59820801019668579 0.59820801019668579 0.59820801019668579
0.61270207166671753 0.61270207166671753 0.61270207166671753
0.62990301847457886 0.62990301847457886 0.62990301847457886
0.64983242750167847 0.64983242750167847 0.64983242750167847
0.67093139886856079 0.67093139886856079 0.67093139886856079
0.61736506223678589 0.61736506223678589 0.61736506223678589
0.62426787614822388 0.62426787614822388 0.62426787614822388
0.63090652227401733 0.63090652227401733 0.63090652227401733
0.63588190078735352 0.63588190078735352 0.63588190078735352
0.64063209295272827 0.64063209295272827 0.64063209295272827
0.64691460132598877 0.64691460132598877 0.64691460132598877
0.65524226427078247 0.65524226427078247 0.65524226427078247
0.66465938091278076 0.66465938091278076 0.66465938091278076
0.67418146133422852 0.67418146133422852 0.67418146133422852
0.68466317653656006 0.68466317653656006 0.68466317653656006
0.69708681106567383 0.69708681106567383 0.69708681106567383
0.71178847551345825 0.71178847551345825 0.71178847551345825
0.72808927297592163 0.72808927297592163 0.72808927297592163
0.69771015644073486 0.69771015644073486 0.69771015644073486
0.70385396480560303 0.70385396480560303 0.70385396480560303
0.70922482013702393 0.70922482013702393 0.70922482013702393
0.71349102258682251 0.71349102258682251 0.71349102258682251
0.71753746271133423 0.71753746271133423 0.71753746271133423
0.72235536575317383 0.72235536575317383 0.72235536575317383
0.72837322950363159 0.72837322950363159 0.72837322950363159
0.73499387502670288 0.73499387502670288 0.73499387502670288
0.74185401201248169 0.74185401201248169 0.74185401201248169
0.74929511547088623 0.74929511547088623 0.74929511547088623
0.75806552171707153 0.75806552171707153 0.75806552171707153
0.76881784200668335 0.76881784200668335 0.76881784200668335
0.78132402896881104 0.78132402896881104 0.78132402896881104
0.76930207014083862 0.76930207014083862 0.76930207014083862
0.77360546588897705 0.77360546588897705 0.77360546588897705
0.77757829427719116 0.77757829427719116 0.77757829427719116
0.78138279914855957 0.78138279914855957 0.78138279914855957
0.78518480062484741 0.78518480062484741 0.78518480062484741
0.78919011354446411 0.78919011354446411 0.78919011354446411
0.79353910684585571 0.79353910684585571 0.79353910684585571
0.79808574914932251 0.79808574914932251 0.79808574914932251
0.80276381969451904 0.80276381969451904 0.80276381969451904
0.80779820680618286 0.80779820680618286 0.80779820680618286
0.81395477056503296 0.81395477056503296 0.81395477056503296
0.82172811031341553 0.82172811031341553 0.82172811031341553
0.83145427703857422 0.83145427703857422 0.83145427703857422
0.83451229333877563 0.83451229333877563 0.83451229333877563
0.83696931600570679 0.83696931600570679 0.83696931600570679
0.83986133337020874 0.83986133337020874 0.83986133337020874
0.84295612573623657 0.84295612573623657 0.84295612573623657
0.8461991548538208 0.8461991548538208 0.8461991548538208
0.84946686029434204 0.84946686029434204 0.84946686029434204
0.85256946086883545 0.85256946086883545 0.85256946086883545
0.85593259334564209 0.85593259334564209 0.85593259334564209
0.85882025957107544 0.85882025957107544 0.85882025957107544
0.86216199398040771 0.86216199398040771 0.86216199398040771
0.86628800630569458 0.86628800630569458 0.86628800630569458
0.87191677093505859 0.87191677093505859 0.87191677093505859
0.8796231746673584 0.8796231746673584 0.8796231746673584
0.8951646089553833 0.8951646089553833 0.8951646089553833
0.89792513847351074 0.89792513847351074 0.89792513847351074
0.89852809906005859 0.89852809906005859 0.89852809906005859
0.90103471279144287 0.90103471279144287 0.90103471279144287
0.90325659513473511 0.90325659513473511 0.90325659513473511
0.90596592426300049 0.90596592426300049 0.90596592426300049
0.90805429220199585 0.90805429220199585 0.90805429220199585
0.90992581844329834 0.90992581844329834 0.90992581844329834
0.91196393966674805 0.91196393966674805 0.91196393966674805
0.91370069980621338 0.91370069980621338 0.91370069980621338
0.91667461395263672 0.91667461395263672 0.91667461395263672
0.92078149318695068 0.92078149318695068 0.92078149318695068
0.9270244836807251 0.9270244836807251 0.9270244836807251
0.021776311099529266 0.021776311099529266 0.021776311099529266
0.026709433645009995 0.026709433645009995 0.026709433645009995
0.035826828330755234 0.035826828330755234 0.035826828330755234
0.048373352736234665 0.048373352736234665 0.048373352736234665
0.06068851426243782 0.06068851426243782 0.06068851426243782
0.068665675818920135 0.068665675818920135 0.068665675818920135
0.076863594353199005 0.076863594353199005 0.076863594353199005
0.089433260262012482 0.089433260262012482 0.089433260262012482
0.10832823067903519 0.10832823067903519 0.10832823067903519
0.13454703986644745 0.13454703986644745 0.13454703986644745
0.16714146733283997 0.16714146733283997 0.16714146733283997
0.20460972189903259 0.20460972189903259 0.20460972189903259
0.2455180287361145 0.2455180287361145 0.2455180287361145
0.067875459790229797 0.067875459790229797 0.067875459790229797
0.07132064551115036 0.07132064551115036 0.07132064551115036
0.080275349318981171 0.080275349318981171 0.080275349318981171
0.09301447868347168 0.09301447868347168 0.09301447868347168
0.1058698296546936 0.1058698296546936 0.1058698296546936
0.11617445200681686 0.11617445200681686 0.11617445200681686
0.12649540603160858 0.12649540603160858 0.12649540603160858
0.14078040421009064 0.14078040421009064 0.14078040421009064
0.16136361658573151 0.16136361658573151 0.16136361658573151
0.18936119973659515 0.18936119973659515 0.18936119973659515
0.22306029498577118 0.22306029498577118 0.22306029498577118
0.26177114248275757 0.26177114248275757 0.26177114248275757
0.30339512228965759 0.30339512228965759 0.30339512228965759
0.11843910813331604 0.11843910813331604 0.11843910813331604
0.12009446322917938 0.12009446322917938 0.12009446322917938
0.12855660915374756 0.12855660915374756 0.12855660915374756
0.14169038832187653 0.14169038832187653 0.14169038832187653
0.15579067170619965 0.15579067170619965 0.15579067170619965
0.16876007616519928 0.16876007616519928 0.16876007616519928
0.18133255839347839 0.18133255839347839 0.18133255839347839
0.19727329909801483 0.19727329909801483 0.19727329909801483
0.21949510276317596 0.21949510276317596 0.21949510276317596
0.24889190495014191 0.24889190495014191 0.24889190495014191
0.2840476930141449 0.2840476930141449 0.2840476930141449
0.3231232762336731 0.3231232762336731 0.3231232762336731
0.36331740021705627 0.36331740021705627 0.36331740021705627
0.1792430579662323 0.1792430579662323 0.1792430579662323
0.17909011244773865 0.17909011244773865 0.17909011244773865
0.18701565265655518 0.18701565265655518 0.18701565265655518
0.20103652775287628 0.20103652775287628 0.20103652775287628
0.21628178656101227 0.21628178656101227 0.21628178656101227
0.23091176152229309 0.23091176152229309 0.23091176152229309
0.24523717164993286 0.24523717164993286 0.24523717164993286
0.26225107908248901 0.26225107908248901 0.26225107908248901
0.2851618230342865 0.2851618230342865 0.2851618230342865
0.31485432386398315 0.31485432386398315 0.31485432386398315
0.34971719980239868 0.34971719980239868 0.34971719980239868
0.38778182864189148 0.38778182864189148 0.38778182864189148
0.42621332406997681 0.42621332406997681 0.42621332406997681
0.25456103682518005 0.25456103682518005 0.25456103682518005
0.25342288613319397 0.25342288613319397 0.25342288613319397
0.26079016923904419 0.26079016923904419 0.26079016923904419
0.27463364601135254 0.27463364601135254 0.27463364601135254
0.29025429487228394 0.29025429487228394 0.29025429487228394
0.3051002025604248 0.3051002025604248 0.3051002025604248
0.32013782858848572 0.32013782858848572 0.32013782858848572
0.33737513422966003 0.33737513422966003 0.33737513422966003
