luts/negative_new/kodak_portra_800_+.cube
# Created by: G'MIC (https://gmic.eu)
TITLE "kodak_portra_800_+"
# LUT size
LUT_3D_SIZE 5
# Data domain
DOMAIN_MIN 0.0 0.0 0.0
DOMAIN_MAX 1.0 1.0 1.0
# LUT data points
0.085555300116539001 0.10267872363328934 0.075848869979381561
0.27166315913200378 0.093556344509124756 0.068396098911762238
0.61618965864181519 0.015645390376448631 0.03747914731502533
0.92610245943069458 0.0065061682835221291 0.0070688286796212196
1 0.14081442356109619 0.0024071936495602131
0.026735223829746246 0.23910495638847351 0.097627557814121246
0.23475465178489685 0.26724788546562195 0.056078534573316574
0.57709121704101562 0.28123217821121216 0.015323474071919918
0.89077967405319214 0.29682904481887817 0.0095933647826313972
0.99645185470581055 0.35496711730957031 0.0037482916377484798
0.0031275281216949224 0.46609753370285034 0.11562991887331009
0.050720978528261185 0.46977952122688293 0.096570692956447601
0.50434339046478271 0.55688989162445068 0.0050591412000358105
0.84214985370635986 0.58309030532836914 0.0039215688593685627
0.99385964870452881 0.59192454814910889 0.0022741728462278843
0.00014073989586904645 0.71142768859863281 0.14105691015720367
0.0085428720340132713 0.70782226324081421 0.1410796046257019
0.37386798858642578 0.73246127367019653 0.039654631167650223
0.76369315385818481 0.79844373464584351 0.0043350071646273136
0.9838864803314209 0.8243337869644165 0
0.19470414519309998 0.94765591621398926 0.40905338525772095
0.31892752647399902 0.94399386644363403 0.40745824575424194
0.51027423143386841 0.94063276052474976 0.40095385909080505
0.72741597890853882 0.95708781480789185 0.3334711492061615
0.93327599763870239 0.97448199987411499 0.10772901028394699
0.056180857121944427 0.10879702121019363 0.27878937125205994
0.27278131246566772 0.090174175798892975 0.27672028541564941
0.62599015235900879 0.0072194715030491352 0.26347547769546509
0.93180322647094727 0.0028489804826676846 0.23704244196414948
1 0.096584126353263855 0.22048798203468323
0.063941299915313721 0.26220604777336121 0.26443547010421753
0.27037772536277771 0.27493748068809509 0.2687685489654541
0.61429202556610107 0.25566771626472473 0.25797384977340698
0.91246503591537476 0.27114558219909668 0.22715690732002258
1 0.34208774566650391 0.19503535330295563
0.032030593603849411 0.50963222980499268 0.29652902483940125
0.1811290830373764 0.50606071949005127 0.27665644884109497
0.53260600566864014 0.55638223886489868 0.21987958252429962
0.84558308124542236 0.57654988765716553 0.16237048804759979
0.99792003631591797 0.58770948648452759 0.115019790828228
0.0016057182801887393 0.73339563608169556 0.31071892380714417
0.017413435503840446 0.72611302137374878 0.29078322649002075
0.41416403651237488 0.7361796498298645 0.25315335392951965
0.76234781742095947 0.7962043285369873 0.16605712473392487
0.9932209849357605 0.82076895236968994 0.048703599721193314
0.27033704519271851 0.94767135381698608 0.49039670825004578
0.36219188570976257 0.9439239501953125 0.49026226997375488
0.52492088079452515 0.94107449054718018 0.48395383358001709
0.73484969139099121 0.95587718486785889 0.44731882214546204
0.93302994966506958 0.97223973274230957 0.31089213490486145
0.0047511681914329529 0.097709819674491882 0.58980196714401245
0.31302726268768311 0.046539753675460815 0.59514039754867554
0.66727197170257568 0.0077643301337957382 0.61956125497817993
0.92984688282012939 0.0034594966564327478 0.5909656286239624
1 0.0044950596056878567 0.54781121015548706
0.015494911000132561 0.27763617038726807 0.57378983497619629
0.28028422594070435 0.27608337998390198 0.58805739879608154
0.64735680818557739 0.25761902332305908 0.60577929019927979
0.92045903205871582 0.21564111113548279 0.58782827854156494
1 0.30333876609802246 0.55594551563262939
0.026572583243250847 0.55295312404632568 0.55532610416412354
0.29426354169845581 0.55850768089294434 0.56847488880157471
0.59057629108428955 0.56806808710098267 0.56416875123977661
0.8508649468421936 0.58406299352645874 0.55675053596496582
0.99472057819366455 0.62201130390167236 0.54472577571868896
0.29292628169059753 0.77120715379714966 0.59080928564071655
0.38798055052757263 0.7690434455871582 0.5850754976272583
0.50683200359344482 0.75416964292526245 0.54041182994842529
0.78402209281921387 0.80472570657730103 0.52900522947311401
0.98229318857192993 0.81372749805450439 0.50317263603210449
0.45342421531677246 0.94867759943008423 0.66801261901855469
0.48550078272819519 0.94841700792312622 0.65775078535079956
0.5761985182762146 0.94258362054824829 0.63975727558135986
0.73832738399505615 0.95274049043655396 0.62436908483505249
0.93437021970748901 0.97236257791519165 0.57960325479507446
0.17998221516609192 0.075575388967990875 0.84732353687286377
0.40216857194900513 0.031304318457841873 0.8528866171836853
0.68983787298202515 0.0082526262849569321 0.86394768953323364
0.92944002151489258 0.004059511236846447 0.86376643180847168
0.9998856782913208 0.0084609687328338623 0.83884948492050171
0.12764914333820343 0.28297838568687439 0.8423769474029541
0.3717225193977356 0.2841070294380188 0.83846378326416016
0.6691405177116394 0.28072020411491394 0.84816229343414307
0.91062778234481812 0.29928839206695557 0.85578352212905884
1 0.31617790460586548 0.83292245864868164
0.011207595467567444 0.54536062479019165 0.81260746717453003
0.24042575061321259 0.547798752784729 0.81172603368759155
0.60413146018981934 0.56931561231613159 0.81764072179794312
0.8656269907951355 0.61669230461120605 0.84023886919021606
0.99449962377548218 0.62548011541366577 0.83214855194091797
0.31065753102302551 0.78951454162597656 0.80316704511642456
0.44301959872245789 0.78840732574462891 0.80705839395523071
0.62650948762893677 0.79479777812957764 0.80935001373291016
0.81182712316513062 0.81298989057540894 0.8091285228729248
0.97647899389266968 0.83431059122085571 0.81925898790359497
0.60963946580886841 0.95397204160690308 0.84850597381591797
0.63982385396957397 0.95391315221786499 0.846122145652771
0.70264410972595215 0.95239448547363281 0.84357118606567383
0.77712774276733398 0.95080751180648804 0.81181389093399048
0.93919193744659424 0.96953690052032471 0.81004554033279419
0.43410909175872803 0.16196441650390625 0.98978745937347412
0.53391969203948975 0.14875440299510956 0.98910361528396606
0.71888428926467896 0.14357052743434906 0.98932784795761108
0.90978991985321045 0.22219784557819366 0.98723071813583374
1 0.29860994219779968 0.98736077547073364
0.43083968758583069 0.35028085112571716 0.98509019613265991
0.53337544202804565 0.34628590941429138 0.98607242107391357
0.71023035049438477 0.35952135920524597 0.9857712984085083
0.89767855405807495 0.41828402876853943 0.98465251922607422
0.9987034797668457 0.46550777554512024 0.98600608110427856
0.36406615376472473 0.58121925592422485 0.98387354612350464
0.49130114912986755 0.58977776765823364 0.98018991947174072
0.68479681015014648 0.60498172044754028 0.97910463809967041
0.86826759576797485 0.64437097311019897 0.98079991340637207
0.99367231130599976 0.68163752555847168 0.98248547315597534
0.36682623624801636 0.79561620950698853 0.97245895862579346
0.45567417144775391 0.79264968633651733 0.97131949663162231
0.62313520908355713 0.79353386163711548 0.97047054767608643
0.81911289691925049 0.82135140895843506 0.96834754943847656
0.97632431983947754 0.85354584455490112 0.97240066528320312
0.62961524724960327 0.96256572008132935 0.96716892719268799
0.66392534971237183 0.96230858564376831 0.96799176931381226
0.74478566646575928 0.96056652069091797 0.96886003017425537
0.84262973070144653 0.95980870723724365 0.96541833877563477
0.96319103240966797 0.97013801336288452 0.96975409984588623
