luts/negative_new/kodak_tmax_3200_+.cube
# Created by: G'MIC (https://gmic.eu)
TITLE "kodak_tmax_3200_+"
# LUT size
LUT_3D_SIZE 7
# Data domain
DOMAIN_MIN 0.0 0.0 0.0
DOMAIN_MAX 1.0 1.0 1.0
# LUT data points
0.22025369107723236 0.22025369107723236 0.22025369107723236
0.21846175193786621 0.21846175193786621 0.21846175193786621
0.22707180678844452 0.22707180678844452 0.22707180678844452
0.24330002069473267 0.24330002069473267 0.24330002069473267
0.25820460915565491 0.25820460915565491 0.25820460915565491
0.2831481397151947 0.2831481397151947 0.2831481397151947
0.34288963675498962 0.34288963675498962 0.34288963675498962
0.23828618228435516 0.23828618228435516 0.23828618228435516
0.23880782723426819 0.23880782723426819 0.23880782723426819
0.25371962785720825 0.25371962785720825 0.25371962785720825
0.27804392576217651 0.27804392576217651 0.27804392576217651
0.30276381969451904 0.30276381969451904 0.30276381969451904
0.32974967360496521 0.32974967360496521 0.32974967360496521
0.40152376890182495 0.40152376890182495 0.40152376890182495
0.28183472156524658 0.28183472156524658 0.28183472156524658
0.28441688418388367 0.28441688418388367 0.28441688418388367
0.3082328736782074 0.3082328736782074 0.3082328736782074
0.34908145666122437 0.34908145666122437 0.34908145666122437
0.40515387058258057 0.40515387058258057 0.40515387058258057
0.46594414114952087 0.46594414114952087 0.46594414114952087
0.53715956211090088 0.53715956211090088 0.53715956211090088
0.37732890248298645 0.37732890248298645 0.37732890248298645
0.37859058380126953 0.37859058380126953 0.37859058380126953
0.40500670671463013 0.40500670671463013 0.40500670671463013
0.44972434639930725 0.44972434639930725 0.44972434639930725
0.52255386114120483 0.52255386114120483 0.52255386114120483
0.61876249313354492 0.61876249313354492 0.61876249313354492
0.69837784767150879 0.69837784767150879 0.69837784767150879
0.53069019317626953 0.53069019317626953 0.53069019317626953
0.53061443567276001 0.53061443567276001 0.53061443567276001
0.54926955699920654 0.54926955699920654 0.54926955699920654
0.583454430103302 0.583454430103302 0.583454430103302
0.63949596881866455 0.63949596881866455 0.63949596881866455
0.7241595983505249 0.7241595983505249 0.7241595983505249
0.80488353967666626 0.80488353967666626 0.80488353967666626
0.70750659704208374 0.70750659704208374 0.70750659704208374
0.70692920684814453 0.70692920684814453 0.70692920684814453
0.71907514333724976 0.71907514333724976 0.71907514333724976
0.74447280168533325 0.74447280168533325 0.74447280168533325
0.77607476711273193 0.77607476711273193 0.77607476711273193
0.81822240352630615 0.81822240352630615 0.81822240352630615
0.87165790796279907 0.87165790796279907 0.87165790796279907
0.8809695839881897 0.8809695839881897 0.8809695839881897
0.8776584267616272 0.8776584267616272 0.8776584267616272
0.88368099927902222 0.88368099927902222 0.88368099927902222
0.89972394704818726 0.89972394704818726 0.89972394704818726
0.90927684307098389 0.90927684307098389 0.90927684307098389
0.91664588451385498 0.91664588451385498 0.91664588451385498
0.93856674432754517 0.93856674432754517 0.93856674432754517
0.21740712225437164 0.21740712225437164 0.21740712225437164
0.22201476991176605 0.22201476991176605 0.22201476991176605
0.23349115252494812 0.23349115252494812 0.23349115252494812
0.24728532135486603 0.24728532135486603 0.24728532135486603
0.26067033410072327 0.26067033410072327 0.26067033410072327
0.28692066669464111 0.28692066669464111 0.28692066669464111
0.34111303091049194 0.34111303091049194 0.34111303091049194
0.24201203882694244 0.24201203882694244 0.24201203882694244
0.2471126914024353 0.2471126914024353 0.2471126914024353
0.26329058408737183 0.26329058408737183 0.26329058408737183
0.28430753946304321 0.28430753946304321 0.28430753946304321
0.30667826533317566 0.30667826533317566 0.30667826533317566
0.34079593420028687 0.34079593420028687 0.34079593420028687
0.40384551882743835 0.40384551882743835 0.40384551882743835
0.2950650155544281 0.2950650155544281 0.2950650155544281
0.30182063579559326 0.30182063579559326 0.30182063579559326
0.32619580626487732 0.32619580626487732 0.32619580626487732
0.36300340294837952 0.36300340294837952 0.36300340294837952
0.41194450855255127 0.41194450855255127 0.41194450855255127
0.47082081437110901 0.47082081437110901 0.47082081437110901
0.53992968797683716 0.53992968797683716 0.53992968797683716
0.399362713098526 0.399362713098526 0.399362713098526
0.40565884113311768 0.40565884113311768 0.40565884113311768
0.43169146776199341 0.43169146776199341 0.43169146776199341
0.47431924939155579 0.47431924939155579 0.47431924939155579
0.54067301750183105 0.54067301750183105 0.54067301750183105
0.62544405460357666 0.62544405460357666 0.62544405460357666
0.71071070432662964 0.71071070432662964 0.71071070432662964
0.55343294143676758 0.55343294143676758 0.55343294143676758
0.55660820007324219 0.55660820007324219 0.55660820007324219
0.57373189926147461 0.57373189926147461 0.57373189926147461
0.60333168506622314 0.60333168506622314 0.60333168506622314
0.65191006660461426 0.65191006660461426 0.65191006660461426
0.7292284369468689 0.7292284369468689 0.7292284369468689
0.81859064102172852 0.81859064102172852 0.81859064102172852
0.72386294603347778 0.72386294603347778 0.72386294603347778
0.72387790679931641 0.72387790679931641 0.72387790679931641
0.73215252161026001 0.73215252161026001 0.73215252161026001
0.74880385398864746 0.74880385398864746 0.74880385398864746
0.77148574590682983 0.77148574590682983 0.77148574590682983
0.81314927339553833 0.81314927339553833 0.81314927339553833
0.87754160165786743 0.87754160165786743 0.87754160165786743
0.88436317443847656 0.88436317443847656 0.88436317443847656
0.8829767107963562 0.8829767107963562 0.8829767107963562
0.8853074312210083 0.8853074312210083 0.8853074312210083
0.89247512817382812 0.89247512817382812 0.89247512817382812
0.8978583812713623 0.8978583812713623 0.8978583812713623
0.90961927175521851 0.90961927175521851 0.90961927175521851
0.93960404396057129 0.93960404396057129 0.93960404396057129
0.2220645397901535 0.2220645397901535 0.2220645397901535
0.23247934877872467 0.23247934877872467 0.23247934877872467
0.24943961203098297 0.24943961203098297 0.24943961203098297
0.26397353410720825 0.26397353410720825 0.26397353410720825
0.27464732527732849 0.27464732527732849 0.27464732527732849
0.29992195963859558 0.29992195963859558 0.29992195963859558
0.34879514575004578 0.34879514575004578 0.34879514575004578
0.25319239497184753 0.25319239497184753 0.25319239497184753
0.2634451687335968 0.2634451687335968 0.2634451687335968
0.28256881237030029 0.28256881237030029 0.28256881237030029
0.29961401224136353 0.29961401224136353 0.29961401224136353
0.3127325177192688 0.3127325177192688 0.3127325177192688
0.34426009654998779 0.34426009654998779 0.34426009654998779
0.39744645357131958 0.39744645357131958 0.39744645357131958
0.31273713707923889 0.31273713707923889 0.31273713707923889
0.32582041621208191 0.32582041621208191 0.32582041621208191
0.35448157787322998 0.35448157787322998 0.35448157787322998
0.38770505785942078 0.38770505785942078 0.38770505785942078
0.42260926961898804 0.42260926961898804 0.42260926961898804
0.46620628237724304 0.46620628237724304 0.46620628237724304
0.51833748817443848 0.51833748817443848 0.51833748817443848
0.42528071999549866 0.42528071999549866 0.42528071999549866
0.43976101279258728 0.43976101279258728 0.43976101279258728
0.47165808081626892 0.47165808081626892 0.47165808081626892
0.51586902141571045 0.51586902141571045 0.51586902141571045
0.5772089958190918 0.5772089958190918 0.5772089958190918
0.63362163305282593 0.63362163305282593 0.63362163305282593
0.68999236822128296 0.68999236822128296 0.68999236822128296
0.58933186531066895 0.58933186531066895 0.58933186531066895
0.59780365228652954 0.59780365228652954 0.59780365228652954
0.61660617589950562 0.61660617589950562 0.61660617589950562
0.64259421825408936 0.64259421825408936 0.64259421825408936
0.67710483074188232 0.67710483074188232 0.67710483074188232
0.74215918779373169 0.74215918779373169 0.74215918779373169
0.82064968347549438 0.82064968347549438 0.82064968347549438
0.7532193660736084 0.7532193660736084 0.7532193660736084
0.75412923097610474 0.75412923097610474 0.75412923097610474
0.76101809740066528 0.76101809740066528 0.76101809740066528
0.77291440963745117 0.77291440963745117 0.77291440963745117
0.78618305921554565 0.78618305921554565 0.78618305921554565
0.8257560133934021 0.8257560133934021 0.8257560133934021
0.88932830095291138 0.88932830095291138 0.88932830095291138
0.89480352401733398 0.89480352401733398 0.89480352401733398
0.89463645219802856 0.89463645219802856 0.89463645219802856
0.89692193269729614 0.89692193269729614 0.89692193269729614
0.90056115388870239 0.90056115388870239 0.90056115388870239
0.90269547700881958 0.90269547700881958 0.90269547700881958
0.91479283571243286 0.91479283571243286 0.91479283571243286
0.94419354200363159 0.94419354200363159 0.94419354200363159
0.2310231477022171 0.2310231477022171 0.2310231477022171
0.24456022679805756 0.24456022679805756 0.24456022679805756
0.26968050003051758 0.26968050003051758 0.26968050003051758
0.29397255182266235 0.29397255182266235 0.29397255182266235
0.30753877758979797 0.30753877758979797 0.30753877758979797
0.32814118266105652 0.32814118266105652 0.32814118266105652
0.36716124415397644 0.36716124415397644 0.36716124415397644
0.26718589663505554 0.26718589663505554 0.26718589663505554
0.27856597304344177 0.27856597304344177 0.27856597304344177
0.30260354280471802 0.30260354280471802 0.30260354280471802
0.32657238841056824 0.32657238841056824 0.32657238841056824
0.33605313301086426 0.33605313301086426 0.33605313301086426
0.35915139317512512 0.35915139317512512 0.35915139317512512
0.39728254079818726 0.39728254079818726 0.39728254079818726
0.32058119773864746 0.32058119773864746 0.32058119773864746
0.33789610862731934 0.33789610862731934 0.33789610862731934
0.37654662132263184 0.37654662132263184 0.37654662132263184
0.41705569624900818 0.41705569624900818 0.41705569624900818
0.43436971306800842 0.43436971306800842 0.43436971306800842
0.46550509333610535 0.46550509333610535 0.46550509333610535
0.49915719032287598 0.49915719032287598 0.49915719032287598
0.42692264914512634 0.42692264914512634 0.42692264914512634
0.45010197162628174 0.45010197162628174 0.45010197162628174
0.49648839235305786 0.49648839235305786 0.49648839235305786
0.55180662870407104 0.55180662870407104 0.55180662870407104
0.59815496206283569 0.59815496206283569 0.59815496206283569
0.63357818126678467 0.63357818126678467 0.63357818126678467
0.66889780759811401 0.66889780759811401 0.66889780759811401
0.62024092674255371 0.62024092674255371 0.62024092674255371
0.63063794374465942 0.63063794374465942 0.63063794374465942
0.65739732980728149 0.65739732980728149 0.65739732980728149
0.68425279855728149 0.68425279855728149 0.68425279855728149
0.71105164289474487 0.71105164289474487 0.71105164289474487
0.76218849420547485 0.76218849420547485 0.76218849420547485
0.82658344507217407 0.82658344507217407 0.82658344507217407
0.78422850370407104 0.78422850370407104 0.78422850370407104
0.79006838798522949 0.79006838798522949 0.79006838798522949
0.8011709451675415 0.8011709451675415 0.8011709451675415
0.81352871656417847 0.81352871656417847 0.81352871656417847
0.82306623458862305 0.82306623458862305 0.82306623458862305
0.85440593957901001 0.85440593957901001 0.85440593957901001
0.90385520458221436 0.90385520458221436 0.90385520458221436
0.90640139579772949 0.90640139579772949 0.90640139579772949
0.91235989332199097 0.91235989332199097 0.91235989332199097
0.91840642690658569 0.91840642690658569 0.91840642690658569
0.92386364936828613 0.92386364936828613 0.92386364936828613
0.92516601085662842 0.92516601085662842 0.92516601085662842
0.93250668048858643 0.93250668048858643 0.93250668048858643
0.95112437009811401 0.95112437009811401 0.95112437009811401
0.24193349480628967 0.24193349480628967 0.24193349480628967
0.25394430756568909 0.25394430756568909 0.25394430756568909
0.28343474864959717 0.28343474864959717 0.28343474864959717
0.3258073627948761 0.3258073627948761 0.3258073627948761
0.3665655255317688 0.3665655255317688 0.3665655255317688
0.3862672746181488 0.3862672746181488 0.3862672746181488
0.39372032880783081 0.39372032880783081 0.39372032880783081
0.28031489253044128 0.28031489253044128 0.28031489253044128
0.28767651319503784 0.28767651319503784 0.28767651319503784
0.31656590104103088 0.31656590104103088 0.31656590104103088
0.36703023314476013 0.36703023314476013 0.36703023314476013
0.41220712661743164 0.41220712661743164 0.41220712661743164
0.42485183477401733 0.42485183477401733 0.42485183477401733
0.43006980419158936 0.43006980419158936 0.43006980419158936
0.33371114730834961 0.33371114730834961 0.33371114730834961
0.34319955110549927 0.34319955110549927 0.34319955110549927
0.38853445649147034 0.38853445649147034 0.38853445649147034
0.45559075474739075 0.45559075474739075 0.45559075474739075
0.50042259693145752 0.50042259693145752 0.50042259693145752
0.51671123504638672 0.51671123504638672 0.51671123504638672
0.52329057455062866 0.52329057455062866 0.52329057455062866
0.41083011031150818 0.41083011031150818 0.41083011031150818
0.43313845992088318 0.43313845992088318 0.43313845992088318
0.48519179224967957 0.48519179224967957 0.48519179224967957
0.5738634467124939 0.5738634467124939 0.5738634467124939
0.62717896699905396 0.62717896699905396 0.62717896699905396
0.64871251583099365 0.64871251583099365 0.64871251583099365
0.6566886305809021 0.6566886305809021 0.6566886305809021
0.60247272253036499 0.60247272253036499 0.60247272253036499
0.61582750082015991 0.61582750082015991 0.61582750082015991
0.64535892009735107 0.64535892009735107 0.64535892009735107
0.69463443756103516 0.69463443756103516 0.69463443756103516
0.74044358730316162 0.74044358730316162 0.74044358730316162
0.77255499362945557 0.77255499362945557 0.77255499362945557
0.80183035135269165 0.80183035135269165 0.80183035135269165
0.78520476818084717 0.78520476818084717 0.78520476818084717
0.79608315229415894 0.79608315229415894 0.79608315229415894
0.81256783008575439 0.81256783008575439 0.81256783008575439
0.83093571662902832 0.83093571662902832 0.83093571662902832
0.84921497106552124 0.84921497106552124 0.84921497106552124
0.86999315023422241 0.86999315023422241 0.86999315023422241
0.89567089080810547 0.89567089080810547 0.89567089080810547
0.91145366430282593 0.91145366430282593 0.91145366430282593
0.91964375972747803 0.91964375972747803 0.91964375972747803
0.93043947219848633 0.93043947219848633 0.93043947219848633
0.93907862901687622 0.93907862901687622 0.93907862901687622
0.94459009170532227 0.94459009170532227 0.94459009170532227
0.94795995950698853 0.94795995950698853 0.94795995950698853
0.95677310228347778 0.95677310228347778 0.95677310228347778
0.26234090328216553 0.26234090328216553 0.26234090328216553
0.27306130528450012 0.27306130528450012 0.27306130528450012
0.30627009272575378 0.30627009272575378 0.30627009272575378
0.36382284760475159 0.36382284760475159 0.36382284760475159
0.44355040788650513 0.44355040788650513 0.44355040788650513
0.50273525714874268 0.50273525714874268 0.50273525714874268
0.47796589136123657 0.47796589136123657 0.47796589136123657
0.29758387804031372 0.29758387804031372 0.29758387804031372
0.30539801716804504 0.30539801716804504 0.30539801716804504
0.3399626612663269 0.3399626612663269 0.3399626612663269
0.41031306982040405 0.41031306982040405 0.41031306982040405
0.49799945950508118 0.49799945950508118 0.49799945950508118
0.54114097356796265 0.54114097356796265 0.54114097356796265
0.52493512630462646 0.52493512630462646 0.52493512630462646
0.37663117051124573 0.37663117051124573 0.37663117051124573
0.37928467988967896 0.37928467988967896 0.37928467988967896
0.41877815127372742 0.41877815127372742 0.41877815127372742
0.49437624216079712 0.49437624216079712 0.49437624216079712
0.57801693677902222 0.57801693677902222 0.57801693677902222
0.61662584543228149 0.61662584543228149 0.61662584543228149
0.61225491762161255 0.61225491762161255 0.61225491762161255
0.43217700719833374 0.43217700719833374 0.43217700719833374
0.4610297679901123 0.4610297679901123 0.4610297679901123
0.52521026134490967 0.52521026134490967 0.52521026134490967
0.60745906829833984 0.60745906829833984 0.60745906829833984
0.67260134220123291 0.67260134220123291 0.67260134220123291
0.7039605975151062 0.7039605975151062 0.7039605975151062
0.70358741283416748 0.70358741283416748 0.70358741283416748
0.56622231006622314 0.56622231006622314 0.56622231006622314
0.5781550407409668 0.5781550407409668 0.5781550407409668
0.60298246145248413 0.60298246145248413 0.60298246145248413
0.68171662092208862 0.68171662092208862 0.68171662092208862
0.75139880180358887 0.75139880180358887 0.75139880180358887
0.78987991809844971 0.78987991809844971 0.78987991809844971
0.80551040172576904 0.80551040172576904 0.80551040172576904
0.7690502405166626 0.7690502405166626 0.7690502405166626
0.77789986133575439 0.77789986133575439 0.77789986133575439
0.79688656330108643 0.79688656330108643 0.79688656330108643
0.80566549301147461 0.80566549301147461 0.80566549301147461
0.84246182441711426 0.84246182441711426 0.84246182441711426
0.87324172258377075 0.87324172258377075 0.87324172258377075
0.88813400268554688 0.88813400268554688 0.88813400268554688
0.90761852264404297 0.90761852264404297 0.90761852264404297
0.91113871335983276 0.91113871335983276 0.91113871335983276
0.92548519372940063 0.92548519372940063 0.92548519372940063
0.93383008241653442 0.93383008241653442 0.93383008241653442
0.949027419090271 0.949027419090271 0.949027419090271
0.9531714916229248 0.9531714916229248 0.9531714916229248
0.9542468786239624 0.9542468786239624 0.9542468786239624
0.30699223279953003 0.30699223279953003 0.30699223279953003
0.32164517045021057 0.32164517045021057 0.32164517045021057
0.36260202527046204 0.36260202527046204 0.36260202527046204
0.43110683560371399 0.43110683560371399 0.43110683560371399
0.53904396295547485 0.53904396295547485 0.53904396295547485
0.66616547107696533 0.66616547107696533 0.66616547107696533
0.68891716003417969 0.68891716003417969 0.68891716003417969
0.34207805991172791 0.34207805991172791 0.34207805991172791
0.35609820485115051 0.35609820485115051 0.35609820485115051
0.40232229232788086 0.40232229232788086 0.40232229232788086
0.48047676682472229 0.48047676682472229 0.48047676682472229
0.59468197822570801 0.59468197822570801 0.59468197822570801
0.69628477096557617 0.69628477096557617 0.69628477096557617
0.71570086479187012 0.71570086479187012 0.71570086479187012
0.42344138026237488 0.42344138026237488 0.42344138026237488
0.43992346525192261 0.43992346525192261 0.43992346525192261
0.4865051805973053 0.4865051805973053 0.4865051805973053
0.5508120059967041 0.5508120059967041 0.5508120059967041
0.65466111898422241 0.65466111898422241 0.65466111898422241
0.73902589082717896 0.73902589082717896 0.73902589082717896
0.76064068078994751 0.76064068078994751 0.76064068078994751
0.50069600343704224 0.50069600343704224 0.50069600343704224
0.52424746751785278 0.52424746751785278 0.52424746751785278
0.58436334133148193 0.58436334133148193 0.58436334133148193
0.64227753877639771 0.64227753877639771 0.64227753877639771
0.7253117561340332 0.7253117561340332 0.7253117561340332
0.78285664319992065 0.78285664319992065 0.78285664319992065
0.80289655923843384 0.80289655923843384 0.80289655923843384
0.51729565858840942 0.51729565858840942 0.51729565858840942
0.52439999580383301 0.52439999580383301 0.52439999580383301
0.59496265649795532 0.59496265649795532 0.59496265649795532
0.70932149887084961 0.70932149887084961 0.70932149887084961
0.78962987661361694 0.78962987661361694 0.78962987661361694
0.83259779214859009 0.83259779214859009 0.83259779214859009
0.85370659828186035 0.85370659828186035 0.85370659828186035
0.75171881914138794 0.75171881914138794 0.75171881914138794
0.75853878259658813 0.75853878259658813 0.75853878259658813
0.78366672992706299 0.78366672992706299 0.78366672992706299
0.78544992208480835 0.78544992208480835 0.78544992208480835
0.84480637311935425 0.84480637311935425 0.84480637311935425
0.88727831840515137 0.88727831840515137 0.88727831840515137
0.90509343147277832 0.90509343147277832 0.90509343147277832
0.90900611877441406 0.90900611877441406 0.90900611877441406
0.90455025434494019 0.90455025434494019 0.90455025434494019
0.91275191307067871 0.91275191307067871 0.91275191307067871
0.92295902967453003 0.92295902967453003 0.92295902967453003
0.94312512874603271 0.94312512874603271 0.94312512874603271
0.95495468378067017 0.95495468378067017 0.95495468378067017
0.95821559429168701 0.95821559429168701 0.95821559429168701
