luts/negative_new/kodak_portra_160.cube
# Created by: G'MIC (https://gmic.eu)
TITLE "kodak_portra_160"
# LUT size
LUT_3D_SIZE 13
# Data domain
DOMAIN_MIN 0.0 0.0 0.0
DOMAIN_MAX 1.0 1.0 1.0
# LUT data points
0.019879883155226707 0.026109836995601654 0.021318009123206139
0.05754605308175087 0.027624960988759995 0.021107751876115799
0.12847636640071869 0.030017059296369553 0.021086763590574265
0.2259669303894043 0.024887040257453918 0.019296234473586082
0.34325417876243591 0.012186880223453045 0.014642678201198578
0.46742799878120422 0.0026393516454845667 0.0075958701781928539
0.58453422784805298 0.0025977788027375937 0.0045525343157351017
0.68969357013702393 0.00052732578478753567 0.0040664523839950562
0.77496081590652466 0.0037241168320178986 0.001800043391995132
0.84192454814910889 0.012377451173961163 0.0003741096006706357
0.90171831846237183 0.02147655189037323 0
0.95887219905853271 0.080754317343235016 0.000514984130859375
0.99640083312988281 0.15355515480041504 0.0015063865575939417
0.017336960881948471 0.066627845168113708 0.02115364745259285
0.052621521055698395 0.069385990500450134 0.021491870284080505
0.12626385688781738 0.07935478538274765 0.018661933019757271
0.2377442866563797 0.083367429673671722 0.014777434058487415
0.3595377504825592 0.072388440370559692 0.010625921189785004
0.48239210247993469 0.042575057595968246 0.0033450108021497726
0.59787160158157349 0.035561103373765945 0.0035348630044609308
0.69680577516555786 0.033545773476362228 0.00051616592099890113
0.77605956792831421 0.039512217044830322 0.00017056932847481221
0.84284055233001709 0.067531585693359375 5.5290671298280358e-05
0.9017176628112793 0.11072289198637009 0
0.95904695987701416 0.16029904782772064 0.00088915356900542974
0.99679607152938843 0.20404304563999176 0.00054957071552053094
0.016004106029868126 0.14519968628883362 0.022810438647866249
0.042103156447410583 0.13921007513999939 0.019170932471752167
0.12030667811632156 0.1511380523443222 0.015902545303106308
0.23258213698863983 0.16644950211048126 0.0088692009449005127
0.36849817633628845 0.17617686092853546 0.0060989530757069588
0.49951338768005371 0.16626441478729248 0.0027576072607189417
0.61594951152801514 0.16306315362453461 0.0032215341925621033
0.70608323812484741 0.1678754985332489 0.001122837420552969
0.77779585123062134 0.17348377406597137 0.00020961387781426311
0.84427720308303833 0.18655776977539062 5.385455096984515e-06
0.90398621559143066 0.21746067702770233 0.00094315770547837019
0.96231037378311157 0.24436819553375244 0.0014079224783927202
0.99671107530593872 0.2608395516872406 0.0011067409068346024
0.0072234957478940487 0.23243746161460876 0.013848278671503067
0.022657476365566254 0.22338974475860596 0.010001597926020622
0.10689882934093475 0.23115359246730804 0.0084417900070548058
0.20985807478427887 0.24677428603172302 0.004843603353947401
0.34239256381988525 0.27120497822761536 0.0018554837442934513
0.49303945899009705 0.29078099131584167 0.0025718240067362785
0.62232571840286255 0.29846078157424927 0.0029490902088582516
0.71271508932113647 0.2980462908744812 0.0024807050358504057
0.78000843524932861 0.29747137427330017 0.0011376474285498261
0.84458404779434204 0.30104875564575195 0.0007522283704020083
0.9041634202003479 0.3204587996006012 0.0023896908387541771
0.96046930551528931 0.33078187704086304 0.003492946270853281
0.99389916658401489 0.33796229958534241 0.0030404035933315754
0.0022111630532890558 0.3217715322971344 0.005185101181268692
0.011033136397600174 0.31775817275047302 0.0053163566626608372
0.086547449231147766 0.32091912627220154 0.0036403131671249866
0.19959510862827301 0.33400842547416687 0.0016663494752719998
0.3169841468334198 0.35565358400344849 0.00034760119160637259
0.45630702376365662 0.38808685541152954 0.0018717746715992689
0.58993226289749146 0.40563160181045532 0.0020221634767949581
0.69638144969940186 0.40889078378677368 0.00091403140686452389
0.77482008934020996 0.41020676493644714 0.00060254265554249287
0.84519827365875244 0.41023778915405273 0.0011719947215169668
0.90355128049850464 0.41406592726707458 0.0025736640673130751
0.95841401815414429 0.41244333982467651 0.0037375953979790211
0.99197620153427124 0.41705223917961121 0.0025964176747947931
0.0020513047929853201 0.41456905007362366 0.0050385869108140469
0.0085884546861052513 0.41097149252891541 0.0034175198525190353
0.077401287853717804 0.41034528613090515 0.0034136155154556036
0.19575291872024536 0.41514939069747925 0.002475544111803174
0.3084811270236969 0.42829900979995728 0.0016463185893371701
0.42724904417991638 0.45407009124755859 0.0022029951214790344
0.55063092708587646 0.48443484306335449 0.0012498743599280715
0.65998882055282593 0.50159347057342529 0.00094214046839624643
0.74987542629241943 0.50420618057250977 0
0.83663666248321533 0.50344520807266235 0.00038950302405282855
0.90179908275604248 0.50003379583358765 0.0010245528537780046
0.96121340990066528 0.49495136737823486 0.0011445737909525633
0.991443932056427 0.49535804986953735 0.00060080731054767966
0.0045399833470582962 0.49669122695922852 0.0022421893663704395
0.012628293596208096 0.49462634325027466 0.00051486445590853691
0.088068552315235138 0.48759961128234863 0.0019474403234198689
0.19894993305206299 0.48602563142776489 0.0020310794934630394
0.30482572317123413 0.49410909414291382 0.0024317572824656963
0.41329717636108398 0.51198816299438477 0.0024201637133955956
0.51749145984649658 0.53390985727310181 0.0023284314665943384
0.62076115608215332 0.56267470121383667 0.0011558083351701498
0.71913063526153564 0.57859069108963013 7.3601215262897313e-05
0.80502414703369141 0.57826483249664307 0.000759124755859375
0.8842586874961853 0.58032310009002686 0.00047694187378510833
0.95610451698303223 0.57701218128204346 6.3189341744873673e-05
0.99134272336959839 0.57271355390548706 0
0.031484011560678482 0.56902682781219482 0.0002934624208137393
0.077179387211799622 0.56581336259841919 0.002194572938606143
0.15283021330833435 0.558482825756073 0.003728529904037714
0.22616104781627655 0.55059170722961426 0.0022531396243721247
0.31145733594894409 0.55494672060012817 0.0032540713436901569
0.40814059972763062 0.56812405586242676 0.0033140892628580332
0.50616544485092163 0.58508110046386719 0.003542342921718955
0.5930778980255127 0.60334116220474243 0.0029319014865905046
0.68237894773483276 0.62543785572052002 0.003060703631490469
0.77369606494903564 0.64589035511016846 0.0020010406151413918
0.85564225912094116 0.65062612295150757 0.0024857763200998306
0.93386083841323853 0.65068191289901733 0.00092759972903877497
0.98898285627365112 0.64736878871917725 0
0.15280905365943909 0.63231343030929565 0.0074310903437435627
0.19052080810070038 0.63049232959747314 0.011864276602864265
0.23395262658596039 0.62356472015380859 0.012539777904748917
0.27627873420715332 0.61473256349563599 0.0056989481672644615
0.33718001842498779 0.61342990398406982 0.0061617083847522736
0.41606608033180237 0.62279224395751953 0.0050571216270327568
0.49883446097373962 0.63535416126251221 0.0042065042071044445
0.57979947328567505 0.65012466907501221 0.0049160076305270195
0.65846997499465942 0.66804713010787964 0.0084550445899367332
0.7382691502571106 0.68940073251724243 0.0088139856234192848
0.82456129789352417 0.70823782682418823 0.0077261384576559067
0.90816950798034668 0.71634370088577271 0.0030113370157778263
0.98173731565475464 0.71795254945755005 0.00055470183724537492
0.25365415215492249 0.69354921579360962 0.063328325748443604
0.27503320574760437 0.69141155481338501 0.056804940104484558
0.30639472603797913 0.68570220470428467 0.051650956273078918
0.33516454696655273 0.68005424737930298 0.032462939620018005
0.37507551908493042 0.67354875802993774 0.019263936206698418
0.43300983309745789 0.67682284116744995 0.021739766001701355
0.50293827056884766 0.68767410516738892 0.025343097746372223
0.57449853420257568 0.70000976324081421 0.028213230893015862
0.64720118045806885 0.71429848670959473 0.041424978524446487
0.71759557723999023 0.72916638851165771 0.058713845908641815
0.79703909158706665 0.74996548891067505 0.0747503861784935
0.8859330415725708 0.77357113361358643 0.071952402591705322
0.96556097269058228 0.78160941600799561 0.036779966205358505
0.33634525537490845 0.7552686333656311 0.15618149936199188
0.34967449307441711 0.75389569997787476 0.15294751524925232
0.37513181567192078 0.75177282094955444 0.14602215588092804
0.39785397052764893 0.74728143215179443 0.12751828134059906
0.42695018649101257 0.739479660987854 0.10817399621009827
0.46516388654708862 0.73636889457702637 0.1022731140255928
0.52477830648422241 0.74468839168548584 0.1143588051199913
0.58706438541412354 0.75496959686279297 0.12524303793907166
0.65545082092285156 0.77014106512069702 0.14414329826831818
0.71958661079406738 0.78156650066375732 0.16309614479541779
0.78637337684631348 0.79225432872772217 0.17793551087379456
0.85742193460464478 0.810355544090271 0.19301226735115051
0.94305920600891113 0.83398216962814331 0.19794876873493195
0.41625282168388367 0.82292866706848145 0.26103022694587708
0.42565670609474182 0.82204031944274902 0.25830540060997009
0.44161832332611084 0.82080250978469849 0.25261771678924561
0.46215826272964478 0.81738507747650146 0.24451741576194763
0.48519214987754822 0.81198757886886597 0.23254290223121643
0.51613903045654297 0.80840581655502319 0.2231576144695282
0.56028831005096436 0.81123101711273193 0.22698156535625458
0.61597996950149536 0.82139754295349121 0.23902931809425354
0.67163413763046265 0.83181232213973999 0.2527255117893219
0.7299543023109436 0.84025013446807861 0.26552802324295044
0.79173451662063599 0.85031449794769287 0.27837100625038147
0.85623693466186523 0.86251950263977051 0.29332095384597778
0.92254078388214111 0.87758034467697144 0.3089764416217804
0.49756672978401184 0.90137356519699097 0.38343235850334167
0.50372320413589478 0.90101343393325806 0.38180208206176758
0.51351428031921387 0.89833205938339233 0.37498286366462708
0.5322386622428894 0.89921367168426514 0.37543162703514099
0.5527033805847168 0.89495605230331421 0.36855816841125488
0.57982271909713745 0.89270120859146118 0.3661346435546875
0.61425215005874634 0.89425504207611084 0.36619749665260315
0.65849751234054565 0.89979386329650879 0.3722652792930603
0.70692795515060425 0.90774917602539062 0.38274362683296204
0.75748825073242188 0.91411894559860229 0.39200261235237122
0.81300121545791626 0.9231298565864563 0.40311148762702942
0.87037098407745361 0.93146437406539917 0.41370639204978943
0.92601031064987183 0.94059962034225464 0.424864262342453
0.018747232854366302 0.03335234522819519 0.06446056067943573
0.057898007333278656 0.030910477042198181 0.065336816012859344
0.13097117841243744 0.025445317849516869 0.06643223762512207
0.22744394838809967 0.014621869660913944 0.066842034459114075
0.3478262722492218 0.0065852445550262928 0.066404931247234344
0.46987992525100708 0.0034889071248471737 0.057454396039247513
0.58335483074188232 0.0014237497234717011 0.044354144483804703
0.68671661615371704 0.00045744952512905002 0.033312689512968063
0.76762217283248901 0.0041835857555270195 0.027632724493741989
0.83719414472579956 0.0060690338723361492 0.01878693513572216
0.89990758895874023 0.0095271691679954529 0.009329402819275856
0.95739978551864624 0.063074313104152679 0.0081998491659760475
0.99616813659667969 0.14294631779193878 0.0075764376670122147
0.013777385465800762 0.077638573944568634 0.06599927693605423
0.05647633969783783 0.078895941376686096 0.07077452540397644
0.13418285548686981 0.080631539225578308 0.066387206315994263
0.24259763956069946 0.075864903628826141 0.062723435461521149
0.36275598406791687 0.056258570402860641 0.059320412576198578
0.48145017027854919 0.032223332673311234 0.046337682753801346
0.59341967105865479 0.025563184171915054 0.038396738469600677
0.69430398941040039 0.020774900913238525 0.026441147550940514
0.77311187982559204 0.028277797624468803 0.017818810418248177
0.84019476175308228 0.048071302473545074 0.011281032115221024
0.90024131536483765 0.088334687054157257 0.0074058533646166325
0.95772284269332886 0.14436620473861694 0.0073427688330411911
0.99335223436355591 0.19464482367038727 0.004396386444568634
0.0066073848865926266 0.15290564298629761 0.065919660031795502
0.045997694134712219 0.15029741823673248 0.067276760935783386
0.12872409820556641 0.15340413153171539 0.063032872974872589
0.24376347661018372 0.16321383416652679 0.051908291876316071
0.37580001354217529 0.16674400866031647 0.035875357687473297
0.50301861763000488 0.1571444571018219 0.028011351823806763
0.61255592107772827 0.15246318280696869 0.024160632863640785
0.70415610074996948 0.15205264091491699 0.015800191089510918
0.77783119678497314 0.16039960086345673 0.010351547971367836
0.84345060586929321 0.1789221316576004 0.0076405545696616173
0.90290123224258423 0.20374685525894165 0.0073215560987591743
0.95971155166625977 0.23402397334575653 0.0059207691811025143
0.99220693111419678 0.26030746102333069 0.0042255176231265068
0.0022147533018141985 0.24297066032886505 0.059218700975179672
0.029290396720170975 0.23924025893211365 0.062204413115978241
0.11774579435586929 0.23723720014095306 0.055873632431030273
0.22232726216316223 0.25068071484565735 0.044666875153779984
0.35852459073066711 0.27546918392181396 0.023735629394650459
0.50595778226852417 0.28791308403015137 0.014363845810294151
0.62310731410980225 0.28964328765869141 0.01176890917122364
0.71077883243560791 0.28978732228279114 0.010872575454413891
0.78103721141815186 0.29069465398788452 0.0057037654332816601
0.84432923793792725 0.29709270596504211 0.0042773527093231678
0.90389537811279297 0.30907702445983887 0.0042539858259260654
0.95927774906158447 0.3221839964389801 0.0049277511425316334
0.99384540319442749 0.33743423223495483 0.0040812324732542038
0.00075948378071188927 0.33889332413673401 0.045090664178133011
0.016646351665258408 0.33484286069869995 0.04580332338809967
0.10336456447839737 0.33105975389480591 0.043000329285860062
0.21315816044807434 0.33965370059013367 0.033738799393177032
0.33023399114608765 0.36175045371055603 0.020327894017100334
0.47071292996406555 0.392302006483078 0.011320735327899456
0.60018515586853027 0.40371829271316528 0.0073522231541574001
0.70165920257568359 0.40680986642837524 0.0052695032209157944
0.77648466825485229 0.40538182854652405 0.0029905431438237429
0.84153854846954346 0.40522480010986328 0.0039487350732088089
0.90042537450790405 0.40539616346359253 0.0042353011667728424
0.95822447538375854 0.40787944197654724 0.0039905025623738766
0.99377638101577759 0.41784301400184631 0.0038289986550807953
0.0006806317251175642 0.43092015385627747 0.033932149410247803
0.011541119776666164 0.42544299364089966 0.030418410897254944
0.096627205610275269 0.41880366206169128 0.029476853087544441
0.20809583365917206 0.42074501514434814 0.022809751331806183
0.3182641863822937 0.43666410446166992 0.015995623543858528
0.4364093542098999 0.46120479702949524 0.012501436285674572
0.56138414144515991 0.48941367864608765 0.0066764382645487785
0.66538339853286743 0.50167769193649292 0.0046708500012755394
0.75590121746063232 0.50463879108428955 0.0008531458443030715
0.83502066135406494 0.50191205739974976 0.0034670510794967413
0.89983510971069336 0.49677890539169312 0.0045494078658521175
0.9595990777015686 0.49196746945381165 0.003236045129597187
0.9932677149772644 0.49358579516410828 0.0038506900891661644
0.0057504391297698021 0.50863748788833618 0.029266057536005974
0.026377016678452492 0.50590670108795166 0.024166764691472054
0.11733922362327576 0.49788087606430054 0.026228677481412888
0.21466372907161713 0.49093267321586609 0.021232396364212036
0.31261137127876282 0.50024646520614624 0.017110547050833702
0.41654112935066223 0.51826387643814087 0.014902181923389435
0.52180904150009155 0.53946912288665771 0.013477250933647156
0.62405329942703247 0.56458514928817749 0.0080635817721486092
0.72307884693145752 0.58132106065750122 0.0017714108107611537
0.80889564752578735 0.5830155611038208 0.0037396599072962999
0.88523244857788086 0.58007252216339111 0.0042470595799386501
0.95570331811904907 0.57376229763031006 0.0017267264192923903
0.99287903308868408 0.57107549905776978 0.0013894923031330109
0.059280827641487122 0.57505828142166138 0.040862124413251877
0.11261262744665146 0.5724717378616333 0.037932481616735458
0.17786800861358643 0.56724333763122559 0.032687243074178696
0.24336306750774384 0.55863463878631592 0.029010502621531487
0.32131281495094299 0.55968785285949707 0.024399582296609879
0.40979835391044617 0.57176244258880615 0.018702428787946701
0.5025634765625 0.58779311180114746 0.019583968445658684
0.59338206052780151 0.6060788631439209 0.019252553582191467
0.68560850620269775 0.62932556867599487 0.016783770173788071
0.77749335765838623 0.6493038535118103 0.0092656305059790611
0.8577008843421936 0.65300208330154419 0.005184816662222147
0.93590259552001953 0.64953130483627319 0.0035243465099483728
0.98938190937042236 0.6458544135093689 0.0021846545860171318
0.17360952496528625 0.63693487644195557 0.075356818735599518
0.20546351373195648 0.6347469687461853 0.072157062590122223
0.24640361964702606 0.62872505187988281 0.064741306006908417
0.29023838043212891 0.62168586254119873 0.049544211477041245
0.34202748537063599 0.61612099409103394 0.037477470934391022
0.41770678758621216 0.62528544664382935 0.034730155020952225
0.4981275200843811 0.63786107301712036 0.040810275822877884
0.57953596115112305 0.65220296382904053 0.047867331653833389
0.65958601236343384 0.67030978202819824 0.056201636791229248
0.74157172441482544 0.69343584775924683 0.05824565514922142
0.82901346683502197 0.71263748407363892 0.04499385878443718
0.910835862159729 0.71689081192016602 0.018242346122860909
0.98139554262161255 0.71727186441421509 0.0043178931809961796
0.26514846086502075 0.69627237319946289 0.13759070634841919
0.2859351634979248 0.69563645124435425 0.12857191264629364
0.31511726975440979 0.68995809555053711 0.11799244582653046
0.34541556239128113 0.683685302734375 0.10074371844530106
0.38290250301361084 0.67659288644790649 0.085923902690410614
0.43847006559371948 0.67892098426818848 0.08403574675321579
0.50559109449386597 0.68837952613830566 0.093964427709579468
0.57769834995269775 0.70115953683853149 0.095849893987178802
0.65116095542907715 0.71661937236785889 0.11083068698644638
0.72067528963088989 0.73231691122055054 0.13496769964694977
0.8012349009513855 0.75335496664047241 0.14556059241294861
0.88417255878448486 0.77028846740722656 0.12935245037078857
0.9666450023651123 0.78160905838012695 0.091850608587265015
0.34384050965309143 0.75660592317581177 0.20056846737861633
0.35754770040512085 0.75649005174636841 0.1996544748544693
0.37961769104003906 0.75497543811798096 0.19154232740402222
0.40443000197410583 0.7504572868347168 0.18159720301628113
0.43205732107162476 0.74221968650817871 0.16396127641201019
0.46734541654586792 0.73720353841781616 0.15258929133415222
0.52379691600799561 0.74326616525650024 0.16039451956748962
0.59137004613876343 0.75554555654525757 0.17240358889102936
0.66018021106719971 0.77115815877914429 0.19209831953048706
0.72122859954833984 0.7818111777305603 0.20970328152179718
0.78773665428161621 0.79289567470550537 0.21930232644081116
0.85726141929626465 0.80992960929870605 0.23419338464736938
0.94468814134597778 0.83645665645599365 0.24500130116939545
0.41950109601020813 0.82455503940582275 0.28680050373077393
0.42981168627738953 0.82454919815063477 0.28762093186378479
0.44406351447105408 0.82286310195922852 0.28244125843048096
0.46435186266899109 0.81972885131835938 0.27478384971618652
0.48785248398780823 0.81420385837554932 0.26338493824005127
0.5172392725944519 0.80958396196365356 0.25197973847389221
0.56006878614425659 0.81138443946838379 0.25372844934463501
0.61413055658340454 0.81971412897109985 0.26369398832321167
0.673228919506073 0.83129525184631348 0.28002804517745972
0.73064637184143066 0.83967095613479614 0.29346325993537903
0.79323619604110718 0.8499455451965332 0.30507561564445496
0.85669481754302979 0.86339545249938965 0.32002371549606323
0.92176222801208496 0.87875086069107056 0.33268517255783081
0.49881255626678467 0.90165680646896362 0.3993695080280304
0.5050281286239624 0.90082454681396484 0.39762619137763977
0.51620656251907349 0.90082520246505737 0.39564970135688782
0.53351598978042603 0.8997652530670166 0.39187604188919067
0.55396908521652222 0.89746665954589844 0.38749885559082031
0.58067029714584351 0.89392292499542236 0.3816426694393158
0.61608797311782837 0.89493817090988159 0.38124999403953552
0.65816444158554077 0.90053951740264893 0.38699424266815186
0.70638644695281982 0.90655696392059326 0.39604079723358154
0.75881034135818481 0.91292035579681396 0.40612941980361938
0.81390643119812012 0.92238461971282959 0.41770878434181213
0.86948400735855103 0.92994338274002075 0.42653486132621765
0.92496544122695923 0.93977713584899902 0.43792000412940979
0.011735489591956139 0.041556235402822495 0.14987033605575562
0.051869187504053116 0.038144532591104507 0.15043945610523224
0.13173879683017731 0.033743437379598618 0.14823178946971893
0.23720724880695343 0.021454321220517159 0.15166583657264709
0.35956808924674988 0.007498512975871563 0.15845425426959991
0.48089241981506348 0.0048155244439840317 0.15323024988174438
0.58733290433883667 0.0023222679737955332 0.14498306810855865
0.68125611543655396 0.0021300821099430323 0.14061780273914337
0.76518517732620239 0.0027866140007972717 0.13038875162601471
0.83242571353912354 0.0029501672834157944 0.12081910669803619
0.89483988285064697 0.0048138336278498173 0.11577487736940384
0.95284885168075562 0.05572548508644104 0.10867433995008469
0.99514502286911011 0.13904094696044922 0.10107605904340744
0.0086496686562895775 0.092180244624614716 0.14996765553951263
0.052665606141090393 0.090536452829837799 0.15120145678520203
0.14000298082828522 0.089804798364639282 0.1504034698009491
0.24451921880245209 0.082314662635326385 0.15014761686325073
0.36340069770812988 0.054772812873125076 0.15058913826942444
0.48534160852432251 0.028151223435997963 0.14759998023509979
0.59464144706726074 0.01449960470199585 0.14108256995677948
0.68939149379730225 0.013369467109441757 0.13540925085544586
0.76826542615890503 0.017720719799399376 0.12652303278446198
0.83594697713851929 0.034740909934043884 0.11794333159923553
0.89581084251403809 0.077146552503108978 0.10755787044763565
0.95419508218765259 0.13705381751060486 0.099616855382919312
0.99371320009231567 0.18813833594322205 0.095859065651893616
0.0034477831795811653 0.16807882487773895 0.14681757986545563
0.039754889905452728 0.1660275012254715 0.14991442859172821
0.14157868921756744 0.16692328453063965 0.15098100900650024
0.25084441900253296 0.16631306707859039 0.14752405881881714
0.37522208690643311 0.1636035293340683 0.14137408137321472
0.49834778904914856 0.14904853701591492 0.13329082727432251
0.60781002044677734 0.13276296854019165 0.12280800193548203
0.69722211360931396 0.13487851619720459 0.11846192181110382
0.77221381664276123 0.1492307186126709 0.11111324280500412
0.83782279491424561 0.1707647293806076 0.10513464361429214
0.89804792404174805 0.1954597681760788 0.097753636538982391
0.95538735389709473 0.23119714856147766 0.08486957848072052
0.99335110187530518 0.25782153010368347 0.084248244762420654
0.0016493105795234442 0.26377499103546143 0.14435319602489471
0.031324289739131927 0.26071512699127197 0.14781224727630615
0.13679361343383789 0.25601711869239807 0.14838568866252899
0.24460893869400024 0.26559850573539734 0.14581617712974548
0.37839695811271667 0.27908840775489807 0.13332328200340271
0.51278400421142578 0.28438666462898254 0.11266615986824036
0.62211114168167114 0.28288236260414124 0.096319638192653656
0.70805281400680542 0.28006017208099365 0.091814659535884857
0.7775995135307312 0.28389713168144226 0.082236014306545258
0.84114503860473633 0.29127946496009827 0.075533710420131683
0.90057909488677979 0.30338376760482788 0.071833699941635132
0.95580494403839111 0.3199658989906311 0.067032009363174438
0.99393767118453979 0.33630257844924927 0.067724592983722687
0.0020018185023218393 0.36384359002113342 0.14437644183635712
