luts/negative_new/kodak_portra_160_+.cube
# Created by: G'MIC (https://gmic.eu)
TITLE "kodak_portra_160_+"
# LUT size
LUT_3D_SIZE 13
# Data domain
DOMAIN_MIN 0.0 0.0 0.0
DOMAIN_MAX 1.0 1.0 1.0
# LUT data points
0.044566210359334946 0.055955953896045685 0.046456489711999893
0.079415477812290192 0.055471159517765045 0.045140314847230911
0.1503315269947052 0.052591361105442047 0.043020870536565781
0.24010759592056274 0.046488668769598007 0.040853150188922882
0.34337633848190308 0.028620567172765732 0.033478382974863052
0.45720311999320984 0.011194386519491673 0.023875456303358078
0.57035022974014282 0.006402378436177969 0.013579005375504494
0.67536234855651855 0.0049578049220144749 0.0068872189149260521
0.76442641019821167 0.005399113055318594 0.0059324228204786777
0.84009134769439697 0.0037300109397619963 0.0037418140564113855
0.90828317403793335 0.005223891232162714 0.00063180364668369293
0.96910536289215088 0.030527690425515175 0.00012603460345417261
0.99580389261245728 0.1028762087225914 0.00038329479866661131
0.033918611705303192 0.090694978833198547 0.043419346213340759
0.077597357332706451 0.095453299582004547 0.044352468103170395
0.14756128191947937 0.10071701556444168 0.040028247982263565
0.24178743362426758 0.10613605380058289 0.034833841025829315
0.35320955514907837 0.094035804271697998 0.024319741874933243
0.46602243185043335 0.07104066014289856 0.014752870425581932
0.57620662450790405 0.051228884607553482 0.0091709215193986893
0.67877322435379028 0.039728395640850067 0.0038035972975194454
0.76495718955993652 0.037815708667039871 0.0033638747408986092
0.83792269229888916 0.048504024744033813 0.0010865753283724189
0.90607696771621704 0.07281966507434845 0.0011670580133795738
0.96964377164840698 0.11306508630514145 0.0005742092034779489
0.99755668640136719 0.16330650448799133 0.00040899537270888686
0.018649127334356308 0.15438427031040192 0.043176118284463882
0.064512737095355988 0.15538489818572998 0.040568631142377853
0.13459156453609467 0.16555742919445038 0.033390674740076065
0.23503406345844269 0.17680451273918152 0.020909612998366356
0.35665091872215271 0.17952954769134521 0.0088725369423627853
0.47457760572433472 0.17514576017856598 0.0059623117558658123
0.58327406644821167 0.16923709213733673 0.0051624821498990059
0.68094384670257568 0.16508306562900543 0.0030727011617273092
0.76565653085708618 0.16469591856002808 0.0023145787417888641
0.83638912439346313 0.17007879912853241 0.0021385641302913427
0.90337854623794556 0.18566973507404327 0.0035771089605987072
0.96814334392547607 0.20787759125232697 0.0021202387288212776
0.99815213680267334 0.23690439760684967 0.00048463110579177737
0.0091994786635041237 0.23702923953533173 0.03517557680606842
0.048223428428173065 0.23450464010238647 0.032328765839338303
0.12599708139896393 0.24311122298240662 0.029412243515253067
0.22017878293991089 0.25693005323410034 0.016565779224038124
0.34204971790313721 0.27880531549453735 0.0048542097210884094
0.46709299087524414 0.28490594029426575 0.0036599552258849144
0.58515441417694092 0.28131145238876343 0.0029574823565781116
0.68373775482177734 0.27637293934822083 0.0023284314665943384
0.76373261213302612 0.27302467823028564 0.0026860705111175776
0.83614975214004517 0.27169176936149597 0.0040602888911962509
0.90278482437133789 0.27986198663711548 0.0051924311555922031
0.96431440114974976 0.29472273588180542 0.0030775631312280893
0.99702441692352295 0.31305623054504395 0.0017134572844952345
0.0046240715309977531 0.32492226362228394 0.023735959082841873
0.025802627205848694 0.32408708333969116 0.019512699916958809
0.11611377447843552 0.32864576578140259 0.019565761089324951
0.21539671719074249 0.33877107501029968 0.011319807730615139
0.32461819052696228 0.36094143986701965 0.0072972765192389488
0.44894573092460632 0.38517037034034729 0.0027166628278791904
0.5697634220123291 0.3916490375995636 0.0023564356379210949
0.67463183403015137 0.38554012775421143 0.0017553291982039809
0.76255810260772705 0.37758347392082214 0.0011923846323043108
0.8330305814743042 0.37158158421516418 0.0025578218046575785
0.90035450458526611 0.37134173512458801 0.003917948342859745
0.96225225925445557 0.38042819499969482 0.0028199139051139355
0.99779176712036133 0.39082929491996765 0.0013150981394574046
0.0025477989111095667 0.41565510630607605 0.01245168037712574
0.016047803685069084 0.41323411464691162 0.010651666671037674
0.10687665641307831 0.41241216659545898 0.010306983254849911
0.21024058759212494 0.41691350936889648 0.0055457022972404957
0.31561565399169922 0.43460860848426819 0.0066953920759260654
0.42723578214645386 0.45826950669288635 0.004252071026712656
0.54599034786224365 0.48376595973968506 0.0024577570147812366
0.65306848287582397 0.4892137348651886 0.00065353990066796541
0.7423895001411438 0.47763234376907349 8.6705826106481254e-05
0.82186096906661987 0.47029358148574829 0.00021722831297665834
0.89574694633483887 0.46539574861526489 0.00091935700038447976
0.95813006162643433 0.46782329678535461 0.00042099299025721848
0.99551403522491455 0.47060054540634155 0
0.0023785161320120096 0.4965912401676178 0.0077716601081192493
0.026537531986832619 0.49462789297103882 0.0058994069695472717
0.12196884304285049 0.48751899600028992 0.0043861689046025276
0.21222122013568878 0.48617717623710632 0.0061033209785819054
0.31065061688423157 0.50189858675003052 0.012766086496412754
0.41377058625221252 0.52180308103561401 0.0078440792858600616
0.51414436101913452 0.54189294576644897 0.0037203321699053049
0.62127143144607544 0.5653911828994751 0.0024740481749176979
0.7197919487953186 0.57213103771209717 0.0015559776220470667
0.80420899391174316 0.56492888927459717 0.0021085552871227264
0.88175511360168457 0.55554366111755371 0.0013874727301299572
0.94769394397735596 0.5527617335319519 0.00012250413419678807
0.9910246729850769 0.55437737703323364 0
0.028987780213356018 0.57004851102828979 0.015147324651479721
0.084363929927349091 0.56774806976318359 0.007632027380168438
0.16024303436279297 0.55952322483062744 0.0078447377309203148
0.22794206440448761 0.5538172721862793 0.0085969511419534683
0.31667682528495789 0.56430166959762573 0.012054652906954288
0.40761831402778625 0.57911884784698486 0.0095773730427026749
0.49809139966964722 0.59394782781600952 0.0063636777922511101
0.59205430746078491 0.61148524284362793 0.004839025903493166
0.69257867336273193 0.6375044584274292 0.0042918636463582516
0.78590887784957886 0.65037518739700317 0.003016363363713026
0.86187028884887695 0.64324021339416504 0.00335081503726542
0.93361759185791016 0.63961774110794067 0.00230558798648417
0.98922932147979736 0.63929861783981323 1.077091019396903e-05
0.13437652587890625 0.63918185234069824 0.030212940648198128
0.17042671144008636 0.63629710674285889 0.027765879407525063
0.21451282501220703 0.63078641891479492 0.022030983120203018
0.26569667458534241 0.623665452003479 0.017849432304501534
0.33085045218467712 0.62246024608612061 0.015241286717355251
0.41201880574226379 0.63331079483032227 0.013963647186756134
0.49281388521194458 0.6460767388343811 0.0091427825391292572
0.5799412727355957 0.66243404150009155 0.0067740944214165211
0.66822212934494019 0.68016266822814941 0.0091264760121703148
0.75630068778991699 0.70221424102783203 0.0069431527517735958
0.84268450736999512 0.71684962511062622 0.0073580872267484665
0.91795909404754639 0.71919304132461548 0.0040225307457149029
0.9813995361328125 0.71802031993865967 0.003112733131274581
0.23396815359592438 0.70544326305389404 0.086808100342750549
0.25624912977218628 0.70246177911758423 0.081261157989501953
0.2829379141330719 0.69695091247558594 0.06923733651638031
0.31956657767295837 0.690318763256073 0.056255415081977844
0.3632318377494812 0.68443059921264648 0.042121455073356628
0.42901191115379333 0.69013047218322754 0.041713010519742966
0.50207829475402832 0.70139110088348389 0.041472252458333969
0.57853245735168457 0.7137337327003479 0.047118034213781357
0.65838843584060669 0.72811985015869141 0.054612703621387482
0.73625093698501587 0.743613600730896 0.064754262566566467
0.81656116247177124 0.76041686534881592 0.072435803711414337
0.90480524301528931 0.78284043073654175 0.058243829756975174
0.97171038389205933 0.78824466466903687 0.02086670882999897
0.32530993223190308 0.77013665437698364 0.1618753969669342
0.34210839867591858 0.76774060726165771 0.1620279848575592
0.36128139495849609 0.76396650075912476 0.15474811196327209
0.38958430290222168 0.75860083103179932 0.14024500548839569
0.42040613293647766 0.75264805555343628 0.12460775673389435
0.4644831120967865 0.75223731994628906 0.11487411707639694
0.52823179960250854 0.75967580080032349 0.12158894538879395
0.59730452299118042 0.76945143938064575 0.13534730672836304
0.66940212249755859 0.78135627508163452 0.14768895506858826
0.73831838369369507 0.79276299476623535 0.16204114258289337
0.80909949541091919 0.80446863174438477 0.17365412414073944
0.88597118854522705 0.8249126672744751 0.19037434458732605
0.96296840906143188 0.8462212085723877 0.18133555352687836
0.42153498530387878 0.8382907509803772 0.25466972589492798
0.43355050683021545 0.8369101881980896 0.25568920373916626
0.44722849130630493 0.83450788259506226 0.24997738003730774
0.46833071112632751 0.83062130212783813 0.24381165206432343
0.4953562319278717 0.82611715793609619 0.23411409556865692
0.53107708692550659 0.82328146696090698 0.22693197429180145
0.57883983850479126 0.82566159963607788 0.22721140086650848
0.63554662466049194 0.83373701572418213 0.23679488897323608
0.69565701484680176 0.84132075309753418 0.25103864073753357
0.75835061073303223 0.85022884607315063 0.26484578847885132
0.82154661417007446 0.85984212160110474 0.27548152208328247
0.88357150554656982 0.87214124202728271 0.28974929451942444
0.94702029228210449 0.8873780369758606 0.30413827300071716
0.5285038948059082 0.91177266836166382 0.37967276573181152
0.53458821773529053 0.90801471471786499 0.37727338075637817
0.54636836051940918 0.90796780586242676 0.37494459748268127
0.56337457895278931 0.90665322542190552 0.37234604358673096
0.5848318338394165 0.90389889478683472 0.36741602420806885
0.6146429181098938 0.90361583232879639 0.36533653736114502
0.65019816160202026 0.90345823764801025 0.36433523893356323
0.69523894786834717 0.9078177809715271 0.37118646502494812
0.74284034967422485 0.9142601490020752 0.38209477066993713
0.79231148958206177 0.91835492849349976 0.38721653819084167
0.84761595726013184 0.92792987823486328 0.4017186164855957
0.89875233173370361 0.93681889772415161 0.41483885049819946
0.95033764839172363 0.94397038221359253 0.42218968272209167
0.039961438626050949 0.058493819087743759 0.089044071733951569
0.081267066299915314 0.058698900043964386 0.089019477367401123
0.15400642156600952 0.054903082549571991 0.090371169149875641
0.24573592841625214 0.041721928864717484 0.091772265732288361
0.35155561566352844 0.019728956744074821 0.086612850427627563
0.46521604061126709 0.0070543927140533924 0.079841136932373047
0.57541829347610474 0.0069000246003270149 0.072949595749378204
0.67704218626022339 0.005428059957921505 0.061088457703590393
0.76206833124160767 0.0066242292523384094 0.04682597890496254
0.83765584230422974 0.0046230093576014042 0.036447860300540924
0.90682947635650635 0.0053821788169443607 0.026120683178305626
0.96925920248031616 0.021502925083041191 0.018270485103130341
0.99825519323348999 0.091844908893108368 0.014279219321906567
0.03276374563574791 0.10168246179819107 0.089783430099487305
0.080763243138790131 0.10322382301092148 0.091668896377086639
0.15619188547134399 0.10392511636018753 0.092328794300556183
0.24936981499195099 0.10032535344362259 0.089720964431762695
0.36063781380653381 0.08359190821647644 0.080953694880008698
0.47095194458961487 0.064689621329307556 0.070837892591953278
0.57967329025268555 0.044091466814279556 0.061431735754013062
0.68056124448776245 0.029815299436450005 0.051107939332723618
0.76504820585250854 0.027911227196455002 0.04033266007900238
0.83929342031478882 0.034784667193889618 0.028209192678332329
0.9078744649887085 0.059483561664819717 0.020268548280000687
0.96888476610183716 0.099359609186649323 0.014101140201091766
0.99820345640182495 0.15592706203460693 0.0086442688480019569
0.017756158486008644 0.16914200782775879 0.090892478823661804
0.072133652865886688 0.16779209673404694 0.092014595866203308
0.14922177791595459 0.17356324195861816 0.090138375759124756
0.24753499031066895 0.17827683687210083 0.079917937517166138
0.36776381731033325 0.17862847447395325 0.063432298600673676
0.48031899333000183 0.17347817122936249 0.050517991185188293
0.58741480112075806 0.16336464881896973 0.037849351763725281
0.6839631199836731 0.1561078280210495 0.030567856505513191
0.76653987169265747 0.15406325459480286 0.022295065224170685
0.83875888586044312 0.15975944697856903 0.018145916983485222
0.90650629997253418 0.17752312123775482 0.014971924014389515
0.96913605928421021 0.20164574682712555 0.0089952358976006508
0.99885666370391846 0.22890010476112366 0.0058857188560068607
0.0084663992747664452 0.25208452343940735 0.088993504643440247
0.058472126722335815 0.24826817214488983 0.089568823575973511
0.14150583744049072 0.25029462575912476 0.086070939898490906
0.23401996493339539 0.26239487528800964 0.074835866689682007
0.35540860891342163 0.28047820925712585 0.053141813725233078
0.48196464776992798 0.28561192750930786 0.026953214779496193
0.59498155117034912 0.27781054377555847 0.014467157423496246
0.68729537725448608 0.27155327796936035 0.012238446623086929
0.76721072196960449 0.26839044690132141 0.010171120055019855
0.83871620893478394 0.26940774917602539 0.0083733052015304565
0.90476983785629272 0.27855077385902405 0.0094515485689043999
0.96508157253265381 0.2922147810459137 0.0067716413177549839
0.99728739261627197 0.30919516086578369 0.0057148654013872147
0.0050308378413319588 0.34264126420021057 0.086295142769813538
0.043569453060626984 0.33840644359588623 0.083323411643505096
0.13637456297874451 0.33552253246307373 0.078644759953022003
0.23085790872573853 0.34494906663894653 0.068373329937458038
0.33625122904777527 0.36674883961677551 0.057141099125146866
0.46264368295669556 0.38812291622161865 0.026101550087332726
0.58086323738098145 0.3932153582572937 0.010008539073169231
0.67995649576187134 0.38392943143844604 0.0054313358850777149
0.76226568222045898 0.37556242942810059 0.0050316005945205688
0.83518779277801514 0.37213122844696045 0.0054973377846181393
0.90114802122116089 0.37258642911911011 0.0066624660976231098
0.96206313371658325 0.37822294235229492 0.0056431042030453682
0.99599385261535645 0.38734957575798035 0.0037674698978662491
0.0042380238883197308 0.43070510029792786 0.073616102337837219
0.032244887202978134 0.4274810254573822 0.072777844965457916
0.12990634143352509 0.42246612906455994 0.070385724306106567
0.22451448440551758 0.42412996292114258 0.061657879501581192
0.32271382212638855 0.43840795755386353 0.052834797650575638
0.43277215957641602 0.4596405029296875 0.036948874592781067
0.55218601226806641 0.48376768827438354 0.021016154438257217
0.65862578153610229 0.49048131704330444 0.0064943348988890648
0.74608743190765381 0.48101818561553955 0.0037277671508491039
0.82433938980102539 0.4714566171169281 0.0032638399861752987
0.89574557542800903 0.46348679065704346 0.0033423330169171095
0.95765835046768188 0.46459954977035522 0.0015678855124861002
0.99412769079208374 0.46722447872161865 6.9188135967124254e-05
0.0093745067715644836 0.50815969705581665 0.070501990616321564
0.049443759024143219 0.50546538829803467 0.068622693419456482
0.14348700642585754 0.49821215867996216 0.064530692994594574
0.22626729309558868 0.49429547786712646 0.057698868215084076
0.315582275390625 0.50334227085113525 0.048552539199590683
0.41453304886817932 0.52136856317520142 0.038400538265705109
0.51698774099349976 0.5418161153793335 0.029045283794403076
0.62466174364089966 0.56516772508621216 0.017903765663504601
0.72448247671127319 0.57435929775238037 0.0060398923233151436
0.8088344931602478 0.56623661518096924 0.0046744849532842636
0.88251632452011108 0.55481415987014771 0.0030768450815230608
0.94736731052398682 0.55102694034576416 0.002884973306208849
0.99000602960586548 0.55165082216262817 0.00090118107618764043
0.055851776152849197 0.57707482576370239 0.081459805369377136
0.11168929189443588 0.57541275024414062 0.07898586243391037
0.18445463478565216 0.56901413202285767 0.075974434614181519
0.24626372754573822 0.56140774488449097 0.0671219602227211
0.3216552734375 0.56550461053848267 0.060153812170028687
0.4102223813533783 0.57935482263565063 0.049063693732023239
0.49978864192962646 0.59429353475570679 0.042085312306880951
0.59474724531173706 0.61343377828598022 0.041417650878429413
0.69406247138977051 0.63616597652435303 0.026958959177136421
0.78809458017349243 0.6505170464515686 0.011496135964989662
0.8637729287147522 0.64490199089050293 0.0052991830743849277
0.93344295024871826 0.63976997137069702 0.0046499213203787804
0.98549354076385498 0.63794559240341187 0.0021824855357408524
0.15815524756908417 0.64522892236709595 0.11055604368448257
0.19244356453418732 0.64284932613372803 0.10615615546703339
0.23550528287887573 0.63733571767807007 0.09867674857378006
0.28482434153556824 0.62904387712478638 0.086251579225063324
0.33643168210983276 0.62394261360168457 0.073231704533100128
0.41411077976226807 0.63303196430206299 0.067826516926288605
0.49679753184318542 0.64636319875717163 0.064054511487483978
0.58322000503540039 0.6627013087272644 0.067928478121757507
0.67210787534713745 0.68190097808837891 0.071422219276428223
0.7585223913192749 0.70315200090408325 0.066491670906543732
0.84651046991348267 0.72028070688247681 0.042151521891355515
0.92071270942687988 0.72090142965316772 0.011545263230800629
0.97820663452148438 0.71782141923904419 0.0044076656922698021
0.25042504072189331 0.71078997850418091 0.15021990239620209
0.27319669723510742 0.70779407024383545 0.14617662131786346
0.29560774564743042 0.70164352655410767 0.13537140190601349
0.33296012878417969 0.69404935836791992 0.12276811897754669
0.37338751554489136 0.68608790636062622 0.11213881522417068
0.43528339266777039 0.68971139192581177 0.10698306560516357
0.50857943296432495 0.70136308670043945 0.10718274861574173
0.58322817087173462 0.71509420871734619 0.11607749760150909
0.66135340929031372 0.72942310571670532 0.12681397795677185
0.74049168825149536 0.74510598182678223 0.13884721696376801
0.81996488571166992 0.76384037733078003 0.14480708539485931
0.90626662969589233 0.78380870819091797 0.1157868504524231
0.9752655029296875 0.7870563268661499 0.051317911595106125
0.33430662751197815 0.77417665719985962 0.20429600775241852
0.35187551379203796 0.77167826890945435 0.20374725759029388
0.36545321345329285 0.76674091815948486 0.19364029169082642
0.39086675643920898 0.76030170917510986 0.18188877403736115
0.42425891757011414 0.75389164686203003 0.17080646753311157
0.46661773324012756 0.7521854043006897 0.16012240946292877
0.53161835670471191 0.75983732938766479 0.16740529239177704
0.59953218698501587 0.77075517177581787 0.17974722385406494
0.67064869403839111 0.78148889541625977 0.1924116462469101
0.74017751216888428 0.79263687133789062 0.20325824618339539
0.81081777811050415 0.80522400140762329 0.21630315482616425
0.88474142551422119 0.82359790802001953 0.22983135282993317
0.96289908885955811 0.84487009048461914 0.22691681981086731
0.42680037021636963 0.84019094705581665 0.28455153107643127
0.43719926476478577 0.83849817514419556 0.28354153037071228
0.44974491000175476 0.83501332998275757 0.27544292807579041
0.47075209021568298 0.83166944980621338 0.26869529485702515
0.49733030796051025 0.82777673006057739 0.259033203125
0.52932292222976685 0.82330912351608276 0.24760223925113678
0.57883650064468384 0.82577884197235107 0.25315624475479126
0.63621002435684204 0.83273553848266602 0.26262995600700378
0.69708353281021118 0.84114289283752441 0.2787875235080719
0.76069599390029907 0.85102486610412598 0.29703572392463684
0.82207351922988892 0.85971349477767944 0.30441015958786011
0.88389533758163452 0.87061494588851929 0.31320574879646301
0.94547629356384277 0.88523381948471069 0.32798552513122559
0.52897393703460693 0.91081446409225464 0.39552167057991028
0.5348740816116333 0.9079355001449585 0.3937496542930603
0.54762572050094604 0.90846413373947144 0.39003512263298035
0.56405544281005859 0.90647178888320923 0.38573324680328369
0.58781439065933228 0.90583318471908569 0.38398805260658264
0.61389535665512085 0.90269768238067627 0.37689244747161865
0.64861476421356201 0.90336436033248901 0.3787018358707428
0.69316744804382324 0.90609782934188843 0.38397371768951416
0.73999351263046265 0.91045510768890381 0.3935396671295166
0.79367870092391968 0.91900205612182617 0.40952637791633606
0.84750008583068848 0.92625820636749268 0.41697093844413757
0.89849752187728882 0.93547385931015015 0.42648717761039734
0.94907689094543457 0.94353479146957397 0.43710887432098389
0.030616611242294312 0.066170439124107361 0.16238552331924438
0.079778291285037994 0.061216644942760468 0.1632688045501709
0.1552877277135849 0.060003645718097687 0.16581688821315765
0.25051403045654297 0.049018289893865585 0.17027629911899567
0.36361828446388245 0.025305265560746193 0.172744020819664
0.47892493009567261 0.0087008159607648849 0.16969680786132812
0.58592981100082397 0.0066581275314092636 0.16447825729846954
0.68125325441360474 0.0057390849106013775 0.15925070643424988
0.76245498657226562 0.0050680125132203102 0.14917799830436707
0.83622580766677856 0.0057971281930804253 0.14119364321231842
0.90643888711929321 0.0055498308502137661 0.13399557769298553
0.96769315004348755 0.02058837004005909 0.12830778956413269
0.99717813730239868 0.086396224796772003 0.12023443728685379
0.023425398394465446 0.11477828770875931 0.16757865250110626
0.078775323927402496 0.11453631520271301 0.16838791966438293
0.16311204433441162 0.1135978102684021 0.17370325326919556
0.25830793380737305 0.10769239068031311 0.1743200421333313
0.36837604641914368 0.090363487601280212 0.17099562287330627
0.48091331124305725 0.063276432454586029 0.1651977151632309
0.58793050050735474 0.035525616258382797 0.15802817046642303
0.68391698598861694 0.025131240487098694 0.15406419336795807
0.76512342691421509 0.027520317584276199 0.1447320282459259
0.83956944942474365 0.03221193328499794 0.13656365871429443
0.9063950777053833 0.052774451673030853 0.12898324429988861
0.96595722436904907 0.097927555441856384 0.11709804087877274
0.99657654762268066 0.1577080637216568 0.10649527609348297
0.014074407517910004 0.18369171023368835 0.16600027680397034
0.071045845746994019 0.18306916952133179 0.16768546402454376
0.16249611973762512 0.18426460027694702 0.17410963773727417
0.26303800940513611 0.18662290275096893 0.16784621775150299
0.37655392289161682 0.18086709082126617 0.1597830206155777
0.48744866251945496 0.17256984114646912 0.1539822518825531
0.59288233518600464 0.15926042199134827 0.14615353941917419
0.68674939870834351 0.15164746344089508 0.13917715847492218
0.76688879728317261 0.15054869651794434 0.12704803049564362
0.83918923139572144 0.15513262152671814 0.11859096586704254
0.90507692098617554 0.17212469875812531 0.11098378151655197
0.96624839305877686 0.20059680938720703 0.10084879398345947
0.9988563060760498 0.23178614675998688 0.090920194983482361
0.0061935423873364925 0.2730315625667572 0.16744011640548706
0.06084958091378212 0.27048251032829285 0.16717450320720673
0.15583501756191254 0.2698967456817627 0.17353798449039459
0.2529141902923584 0.27382531762123108 0.16878093779087067
0.37623366713523865 0.27987581491470337 0.15552368760108948
0.49630838632583618 0.28276678919792175 0.13442045450210571
0.60085070133209229 0.27661925554275513 0.12140136212110519
0.69125449657440186 0.26998776197433472 0.11083169281482697
0.76895570755004883 0.26701158285140991 0.10382501780986786
0.83965802192687988 0.27013105154037476 0.093476392328739166
0.90612971782684326 0.27890318632125854 0.083540059626102448
0.96583682298660278 0.29265284538269043 0.073806136846542358
0.99754440784454346 0.31002733111381531 0.068656906485557556
0.0039274329319596291 0.36917927861213684 0.17019975185394287
