luts/negative_new/kodak_portra_400_-.cube
# Created by: G'MIC (https://gmic.eu)
TITLE "kodak_portra_400_-"
# LUT size
LUT_3D_SIZE 5
# Data domain
DOMAIN_MIN 0.0 0.0 0.0
DOMAIN_MAX 1.0 1.0 1.0
# LUT data points
0.0214360561221838 0.022272447124123573 0.024908745661377907
0.27072718739509583 0.016496321186423302 0.016657555475831032
0.63567346334457397 0.00044718722347170115 0.0015995249850675464
0.88428264856338501 0.006620998028665781 0.00033443674328736961
0.99764120578765869 0.16255153715610504 0.0011903650593012571
0.0022286658640950918 0.22433203458786011 0.049048524349927902
0.21936714649200439 0.25401315093040466 0.01495361328125
0.61819952726364136 0.28985130786895752 0.0034620845690369606
0.85408532619476318 0.29292163252830505 0.0046793767251074314
0.99703335762023926 0.35045060515403748 6.4804975409060717e-05
0.0013587801950052381 0.48717692494392395 0.16008269786834717
0.081321701407432556 0.47346597909927368 0.16692739725112915
0.49236378073692322 0.53130394220352173 0.045332964509725571
0.78706872463226318 0.55460119247436523 0.0069833644665777683
0.97637569904327393 0.55544513463973999 0.0011386347468942404
0.007577559445053339 0.67799884080886841 0.31423881649971008
0.1753736287355423 0.6597256064414978 0.32618060708045959
0.43203771114349365 0.6695597767829895 0.31599017977714539
0.7013239860534668 0.70983564853668213 0.22719626128673553
0.95068377256393433 0.74810343980789185 0.052505761384963989
0.43181401491165161 0.88254266977310181 0.56930571794509888
0.48557224869728088 0.87377876043319702 0.57467901706695557
0.58928322792053223 0.86550962924957275 0.59706741571426392
0.72540336847305298 0.89520829916000366 0.57873296737670898
0.91509002447128296 0.92925196886062622 0.52427393198013306
0.01415411289781332 0.031476773321628571 0.28445237874984741
0.33146968483924866 0.004709295928478241 0.32427099347114563
0.66692543029785156 0.0024245916865766048 0.31709912419319153
0.88799607753753662 0.014883288182318211 0.27998834848403931
0.99886947870254517 0.22193256020545959 0.27265474200248718
0.00060167501214891672 0.30836746096611023 0.30246981978416443
0.29093575477600098 0.30122309923171997 0.31145408749580383
0.64233821630477905 0.29705020785331726 0.28832340240478516
0.85758620500564575 0.32366177439689636 0.26747554540634155
0.99736255407333374 0.36794349551200867 0.22911377251148224
0.03033662773668766 0.56599205732345581 0.36511167883872986
0.2469743937253952 0.53602391481399536 0.35701647400856018
0.53046947717666626 0.54917389154434204 0.32251915335655212
0.803233802318573 0.5598875880241394 0.23141410946846008
0.98422849178314209 0.56332182884216309 0.14175057411193848
0.12114996463060379 0.70487117767333984 0.41784176230430603
0.2860063910484314 0.6867300271987915 0.42715167999267578
0.47016051411628723 0.67438173294067383 0.4214247465133667
0.7136695384979248 0.71505534648895264 0.37810203433036804
0.94839298725128174 0.7476765513420105 0.28502675890922546
0.43731635808944702 0.88707584142684937 0.59381711483001709
0.49379172921180725 0.88487613201141357 0.60406088829040527
0.59236365556716919 0.86936378479003906 0.62141108512878418
0.72764390707015991 0.89326167106628418 0.61230665445327759
0.91795796155929565 0.92847806215286255 0.57303225994110107
0.010284453630447388 0.046262450516223907 0.59492510557174683
0.36136004328727722 0.016941085457801819 0.62398910522460938
0.73240208625793457 0.0057412539608776569 0.66883212327957153
0.89231681823730469 0.054425738751888275 0.63528692722320557
0.99754148721694946 0.25046172738075256 0.60300832986831665
0.0064278095960617065 0.30626624822616577 0.55593395233154297
0.32572519779205322 0.32589510083198547 0.59428912401199341
0.68660193681716919 0.37024280428886414 0.64084935188293457
0.86321252584457397 0.38105463981628418 0.6256604790687561
0.99591493606567383 0.41711029410362244 0.59355431795120239
0.0037926319055259228 0.61179113388061523 0.60340589284896851
0.29880031943321228 0.60627120733261108 0.60251319408416748
0.60067355632781982 0.60163456201553345 0.60487514734268188
0.80462038516998291 0.59040743112564087 0.58107894659042358
0.97516560554504395 0.60051554441452026 0.57202690839767456
0.34817501902580261 0.7694631814956665 0.63012909889221191
0.44076669216156006 0.75544095039367676 0.62695133686065674
0.55375593900680542 0.71620887517929077 0.59977012872695923
0.7329636812210083 0.73232710361480713 0.58457303047180176
0.95156174898147583 0.75418543815612793 0.53826332092285156
0.48227900266647339 0.91204273700714111 0.67838746309280396
0.50542068481445312 0.9092908501625061 0.67362034320831299
0.60089528560638428 0.89272838830947876 0.67853885889053345
0.73033022880554199 0.89279294013977051 0.68400996923446655
0.92248189449310303 0.93199729919433594 0.66067290306091309
0.23009669780731201 0.1640048623085022 0.77914702892303467
0.44451197981834412 0.16168802976608276 0.79230970144271851
0.71922391653060913 0.20955602824687958 0.82196259498596191
0.91987007856369019 0.30755528807640076 0.84112721681594849
0.99597501754760742 0.36000514030456543 0.82784581184387207
0.20230951905250549 0.35523778200149536 0.76149523258209229
0.41865107417106628 0.37265810370445251 0.7721782922744751
0.69455629587173462 0.42752325534820557 0.80849474668502808
0.89690148830413818 0.48830592632293701 0.83113402128219604
0.99196410179138184 0.49599987268447876 0.82319754362106323
0.018468147143721581 0.54586195945739746 0.70970362424850464
0.30265897512435913 0.55298739671707153 0.71805840730667114
0.60847479104995728 0.59951573610305786 0.76411962509155273
0.8486519455909729 0.65664052963256836 0.81650030612945557
0.98501074314117432 0.64428281784057617 0.80880105495452881
0.28201550245285034 0.77501702308654785 0.77483892440795898
0.39265355467796326 0.77625876665115356 0.77632355690002441
0.58195304870605469 0.77593421936035156 0.77530467510223389
0.78522217273712158 0.77608329057693481 0.77891725301742554
0.97148334980010986 0.77817732095718384 0.75882464647293091
0.4447152316570282 0.95428794622421265 0.82216870784759521
0.51175922155380249 0.95605266094207764 0.81729310750961304
0.64063233137130737 0.94502198696136475 0.81364649534225464
0.7545047402381897 0.91645842790603638 0.79231780767440796
0.93413710594177246 0.94121140241622925 0.78524231910705566
0.51041662693023682 0.38702696561813354 0.95249456167221069
0.5899614691734314 0.39475300908088684 0.95578873157501221
0.74062448740005493 0.42222428321838379 0.96215522289276123
0.91443014144897461 0.47949370741844177 0.97628951072692871
1 0.52228903770446777 0.97974205017089844
0.49052968621253967 0.49261733889579773 0.94562226533889771
0.57101297378540039 0.50244462490081787 0.94851309061050415
0.72147279977798462 0.52431154251098633 0.95518600940704346
0.89898478984832764 0.56656515598297119 0.9701647162437439
0.99597972631454468 0.59550493955612183 0.97266525030136108
0.40447220206260681 0.63015735149383545 0.9243779182434082
0.4901103675365448 0.62744271755218506 0.92988008260726929
0.66956079006195068 0.64266735315322876 0.94669508934020996
0.85835593938827515 0.68314659595489502 0.9615442156791687
0.99314343929290771 0.71072936058044434 0.97051000595092773
0.28411805629730225 0.77142703533172607 0.91882765293121338
0.3719828724861145 0.76690149307250977 0.91681212186813354
0.52911853790283203 0.75636094808578491 0.91669034957885742
0.78629237413406372 0.782814621925354 0.9471888542175293
0.99158120155334473 0.84231317043304443 0.9707140326499939
0.34445783495903015 0.95819669961929321 0.95788520574569702
0.42430686950683594 0.96029144525527954 0.95893675088882446
0.58086544275283813 0.96057403087615967 0.95994102954864502
0.77014613151550293 0.95719361305236816 0.96034234762191772
0.9669613242149353 0.96893036365509033 0.96588444709777832
