luts/negative_new/kodak_portra_160_+.cube
# Created by: G'MIC (https://gmic.eu)
TITLE "kodak_portra_160_+"
# LUT size
LUT_3D_SIZE 7
# Data domain
DOMAIN_MIN 0.0 0.0 0.0
DOMAIN_MAX 1.0 1.0 1.0
# LUT data points
0.044566210359334946 0.055955953896045685 0.046456489711999893
0.1503315269947052 0.052591361105442047 0.043020870536565781
0.34337633848190308 0.028620567172765732 0.033478382974863052
0.57035022974014282 0.006402378436177969 0.013579005375504494
0.76442641019821167 0.005399113055318594 0.0059324228204786777
0.90828317403793335 0.005223891232162714 0.00063180364668369293
0.99580389261245728 0.1028762087225914 0.00038329479866661131
0.018649127334356308 0.15438427031040192 0.043176118284463882
0.13459156453609467 0.16555742919445038 0.033390674740076065
0.35665091872215271 0.17952954769134521 0.0088725369423627853
0.58327406644821167 0.16923709213733673 0.0051624821498990059
0.76565653085708618 0.16469591856002808 0.0023145787417888641
0.90337854623794556 0.18566973507404327 0.0035771089605987072
0.99815213680267334 0.23690439760684967 0.00048463110579177737
0.0046240715309977531 0.32492226362228394 0.023735959082841873
0.11611377447843552 0.32864576578140259 0.019565761089324951
0.32461819052696228 0.36094143986701965 0.0072972765192389488
0.5697634220123291 0.3916490375995636 0.0023564356379210949
0.76255810260772705 0.37758347392082214 0.0011923846323043108
0.90035450458526611 0.37134173512458801 0.003917948342859745
0.99779176712036133 0.39082929491996765 0.0013150981394574046
0.0023785161320120096 0.4965912401676178 0.0077716601081192493
0.12196884304285049 0.48751899600028992 0.0043861689046025276
0.31065061688423157 0.50189858675003052 0.012766086496412754
0.51414436101913452 0.54189294576644897 0.0037203321699053049
0.7197919487953186 0.57213103771209717 0.0015559776220470667
0.88175511360168457 0.55554366111755371 0.0013874727301299572
0.9910246729850769 0.55437737703323364 0
0.13437652587890625 0.63918185234069824 0.030212940648198128
0.21451282501220703 0.63078641891479492 0.022030983120203018
0.33085045218467712 0.62246024608612061 0.015241286717355251
0.49281388521194458 0.6460767388343811 0.0091427825391292572
0.66822212934494019 0.68016266822814941 0.0091264760121703148
0.84268450736999512 0.71684962511062622 0.0073580872267484665
0.9813995361328125 0.71802031993865967 0.003112733131274581
0.32530993223190308 0.77013665437698364 0.1618753969669342
0.36128139495849609 0.76396650075912476 0.15474811196327209
0.42040613293647766 0.75264805555343628 0.12460775673389435
0.52823179960250854 0.75967580080032349 0.12158894538879395
0.66940212249755859 0.78135627508163452 0.14768895506858826
0.80909949541091919 0.80446863174438477 0.17365412414073944
0.96296840906143188 0.8462212085723877 0.18133555352687836
0.5285038948059082 0.91177266836166382 0.37967276573181152
0.54636836051940918 0.90796780586242676 0.37494459748268127
0.5848318338394165 0.90389889478683472 0.36741602420806885
0.65019816160202026 0.90345823764801025 0.36433523893356323
0.74284034967422485 0.9142601490020752 0.38209477066993713
0.84761595726013184 0.92792987823486328 0.4017186164855957
0.95033764839172363 0.94397038221359253 0.42218968272209167
0.030616611242294312 0.066170439124107361 0.16238552331924438
0.1552877277135849 0.060003645718097687 0.16581688821315765
0.36361828446388245 0.025305265560746193 0.172744020819664
0.58592981100082397 0.0066581275314092636 0.16447825729846954
0.76245498657226562 0.0050680125132203102 0.14917799830436707
0.90643888711929321 0.0055498308502137661 0.13399557769298553
0.99717813730239868 0.086396224796772003 0.12023443728685379
0.014074407517910004 0.18369171023368835 0.16600027680397034
0.16249611973762512 0.18426460027694702 0.17410963773727417
0.37655392289161682 0.18086709082126617 0.1597830206155777
0.59288233518600464 0.15926042199134827 0.14615353941917419
0.76688879728317261 0.15054869651794434 0.12704803049564362
0.90507692098617554 0.17212469875812531 0.11098378151655197
0.9988563060760498 0.23178614675998688 0.090920194983482361
0.0039274329319596291 0.36917927861213684 0.17019975185394287
0.16172870993614197 0.35869520902633667 0.17389769852161407
0.35714977979660034 0.37617227435112 0.16208648681640625
0.59115725755691528 0.38964763283729553 0.10636378079652786
0.76631516218185425 0.37248218059539795 0.061519082635641098
0.90323930978775024 0.37302911281585693 0.053006220608949661
0.99794477224349976 0.38797807693481445 0.037958092987537384
0.048453282564878464 0.52838766574859619 0.17705821990966797
0.17833337187767029 0.51677262783050537 0.16953837871551514
0.33324667811393738 0.51183205842971802 0.15586718916893005
0.52988821268081665 0.54631972312927246 0.14592231810092926
0.73157954216003418 0.57459044456481934 0.080402061343193054
0.88675016164779663 0.55463290214538574 0.012964465655386448
0.9935307502746582 0.54946374893188477 0.003530225483700633
0.20412853360176086 0.6570969820022583 0.20416153967380524
0.26395586133003235 0.6490405797958374 0.19191695749759674
0.35291203856468201 0.63076984882354736 0.16931396722793579
0.5066835880279541 0.6476140022277832 0.16616936028003693
0.67461478710174561 0.68407398462295532 0.1804705411195755
0.84908860921859741 0.72011131048202515 0.14444358646869659
0.98219501972198486 0.71563732624053955 0.016974715515971184
0.3512343168258667 0.779185950756073 0.26690351963043213
0.38152942061424255 0.77140194177627563 0.25695532560348511
0.43521538376808167 0.7578849196434021 0.23693040013313293
0.53207862377166748 0.76090437173843384 0.22571295499801636
0.67325037717819214 0.78483766317367554 0.25490054488182068
0.81304991245269775 0.80695247650146484 0.2749904990196228
0.96506333351135254 0.84553945064544678 0.28884753584861755
0.53388434648513794 0.91204184293746948 0.42475134134292603
0.55056214332580566 0.9090154767036438 0.41750484704971313
0.58926522731781006 0.90624499320983887 0.41254380345344543
0.64948439598083496 0.90391761064529419 0.40492293238639832
0.74028557538986206 0.91092002391815186 0.41578295826911926
0.84756302833557129 0.92649227380752563 0.44273576140403748
0.94941025972366333 0.94313377141952515 0.460410475730896
0.0076373829506337643 0.084331512451171875 0.38235485553741455
0.15342922508716583 0.084043361246585846 0.39106613397598267
0.38822931051254272 0.068717390298843384 0.39833799004554749
0.62691551446914673 0.037724632769823074 0.40610963106155396
0.79779541492462158 0.037379588931798935 0.38985714316368103
0.91933858394622803 0.041819717735052109 0.36489993333816528
0.9970088005065918 0.14089052379131317 0.35413715243339539
0.0041963616386055946 0.20806208252906799 0.38088157773017883
0.16679631173610687 0.21320196986198425 0.38913717865943909
0.39928925037384033 0.22124083340167999 0.39431431889533997
0.62155330181121826 0.22430078685283661 0.39898449182510376
0.78016829490661621 0.21161878108978271 0.37966468930244446
0.90875601768493652 0.21404196321964264 0.36058905720710754
0.99850475788116455 0.26023072004318237 0.34951967000961304
0.0057641421444714069 0.41107311844825745 0.38288131356239319
0.1718205064535141 0.41047099232673645 0.39043566584587097
0.40397956967353821 0.40727442502975464 0.39281681180000305
0.60874265432357788 0.40692558884620667 0.37911388278007507
0.76224195957183838 0.39235696196556091 0.35845702886581421
0.89519202709197998 0.39461767673492432 0.33083692193031311
0.99393200874328613 0.40714189410209656 0.32829540967941284
0.12201061099767685 0.5840567946434021 0.38143628835678101
0.27048346400260925 0.57505685091018677 0.39091336727142334
0.39903697371482849 0.55167883634567261 0.37930560111999512
0.56374001502990723 0.56615567207336426 0.37662211060523987
0.740345299243927 0.57047885656356812 0.35339286923408508
0.88570505380630493 0.5540652871131897 0.29744580388069153
0.99190729856491089 0.55412280559539795 0.26471143960952759
0.30943220853805542 0.69445115327835083 0.40414837002754211
0.35433864593505859 0.68735110759735107 0.39786055684089661
0.42342963814735413 0.66548281908035278 0.38016945123672485
0.52591454982757568 0.65994501113891602 0.36156731843948364
0.68848913908004761 0.69502991437911987 0.38324651122093201
0.85233622789382935 0.7152550220489502 0.36740946769714355
0.98335891962051392 0.70560473203659058 0.28365102410316467
0.40829303860664368 0.79478532075881958 0.42086845636367798
0.42851719260215759 0.7888607382774353 0.41308718919754028
0.47258341312408447 0.77641171216964722 0.39208564162254333
0.54031336307525635 0.76308786869049072 0.36514800786972046
0.6777452826499939 0.78600525856018066 0.3920309841632843
0.81775999069213867 0.80946189165115356 0.41705435514450073
0.96547746658325195 0.84597092866897583 0.42911770939826965
0.55113428831100464 0.91811215877532959 0.51014220714569092
0.56291437149047852 0.91581225395202637 0.50426113605499268
0.59990942478179932 0.9112783670425415 0.49681916832923889
0.65136170387268066 0.90658402442932129 0.48325440287590027
0.74125963449478149 0.91385066509246826 0.49029213190078735
0.84355098009109497 0.92520385980606079 0.5108788013458252
0.95006906986236572 0.94633889198303223 0.53577947616577148
0.0038941476959735155 0.12082896381616592 0.59912943840026855
0.18771845102310181 0.13112707436084747 0.60070604085922241
0.42332148551940918 0.14811258018016815 0.60568314790725708
0.63237953186035156 0.1470533162355423 0.6097673773765564
0.80446147918701172 0.20321410894393921 0.60579252243041992
0.9335629940032959 0.29442533850669861 0.59526330232620239
0.997600257396698 0.32626622915267944 0.57670944929122925
0.009837849996984005 0.24720209836959839 0.59559065103530884
0.21116508543491364 0.25703856348991394 0.59542620182037354
0.43407180905342102 0.2788054347038269 0.60123854875564575
0.63002365827560425 0.29947966337203979 0.6129334568977356
0.79344749450683594 0.3320002555847168 0.60571199655532837
0.91891461610794067 0.37500709295272827 0.59175252914428711
0.99576139450073242 0.38369175791740417 0.57432925701141357
0.014640314504504204 0.41847676038742065 0.58538860082626343
0.21411973237991333 0.42775923013687134 0.58517557382583618
0.43060386180877686 0.44073307514190674 0.58881092071533203
0.61728626489639282 0.46497923135757446 0.59872126579284668
0.77702683210372925 0.48220378160476685 0.59890681505203247
0.89694797992706299 0.47392845153808594 0.57404512166976929
0.99244385957717896 0.46150076389312744 0.55676811933517456
0.13163523375988007 0.61602747440338135 0.58373463153839111
0.29319286346435547 0.61361193656921387 0.58420085906982422
0.45894569158554077 0.60615652799606323 0.58289390802383423
0.60357248783111572 0.59805452823638916 0.57861936092376709
0.74978733062744141 0.59526228904724121 0.56980293989181519
0.87642860412597656 0.57532745599746704 0.54127436876296997
0.98710328340530396 0.56875777244567871 0.51947057247161865
0.37851336598396301 0.73752665519714355 0.57199889421463013
0.42764014005661011 0.73121047019958496 0.57337099313735962
0.50691348314285278 0.71981358528137207 0.57267570495605469
0.58225470781326294 0.69356006383895874 0.55357474088668823
0.71619004011154175 0.71283292770385742 0.55817139148712158
0.86186736822128296 0.71215516328811646 0.53965002298355103
0.98596429824829102 0.69553536176681519 0.49013915657997131
0.46566146612167358 0.82436978816986084 0.5765305757522583
0.49331852793693542 0.82123970985412598 0.576241135597229
0.54318696260452271 0.8096269965171814 0.56809878349304199
0.58945161104202271 0.78832387924194336 0.53828722238540649
0.68539947271347046 0.78981739282608032 0.528423011302948
0.82596361637115479 0.81574946641921997 0.55396324396133423
0.96793681383132935 0.84103560447692871 0.56045377254486084
0.57636672258377075 0.92527574300765991 0.61889326572418213
0.59186029434204102 0.924416184425354 0.61582088470458984
0.62359082698822021 0.92437171936035156 0.60830223560333252
0.66975980997085571 0.91705286502838135 0.59283262491226196
0.73639041185379028 0.91162580251693726 0.57726329565048218
0.84348803758621216 0.92764401435852051 0.59674710035324097
0.95105481147766113 0.94597649574279785 0.62159430980682373
0.14912493526935577 0.19233441352844238 0.7476959228515625
0.29075470566749573 0.20811007916927338 0.747486412525177
0.46598052978515625 0.227521151304245 0.75193917751312256
0.63720667362213135 0.28167316317558289 0.75489681959152222
0.79343575239181519 0.33026602864265442 0.75093984603881836
0.92215245962142944 0.37872546911239624 0.74684381484985352
0.99799066781997681 0.47482156753540039 0.74656319618225098
0.20942394435405731 0.31104639172554016 0.74300354719161987
0.32143130898475647 0.320436030626297 0.74273645877838135
0.47597324848175049 0.34341585636138916 0.74609285593032837
0.64037114381790161 0.3788316547870636 0.74869638681411743
0.78953546285629272 0.41058653593063354 0.75059515237808228
0.91584634780883789 0.45036685466766357 0.7447391152381897
0.99466115236282349 0.52990645170211792 0.74734091758728027
0.25428333878517151 0.45667719841003418 0.73134136199951172
0.3517005443572998 0.46510758996009827 0.73083055019378662
0.48761484026908875 0.48098990321159363 0.73324519395828247
0.63463819026947021 0.5142902135848999 0.73632943630218506
0.77695357799530029 0.5392608642578125 0.74120265245437622
0.9028702974319458 0.56672114133834839 0.74350517988204956
0.99436771869659424 0.60099601745605469 0.74690157175064087
0.26749971508979797 0.60234785079956055 0.71478736400604248
0.35886326432228088 0.60431593656539917 0.71703660488128662
0.48552456498146057 0.60489034652709961 0.71867489814758301
0.62576591968536377 0.62478530406951904 0.72242403030395508
0.76481169462203979 0.65094554424285889 0.7316862940788269
0.88923990726470947 0.66489386558532715 0.73762768507003784
0.98576366901397705 0.65288537740707397 0.72435861825942993
0.39587050676345825 0.75545728206634521 0.7209203839302063
0.44883519411087036 0.75555026531219482 0.72143185138702393
0.54014819860458374 0.75098371505737305 0.72395306825637817
0.64858049154281616 0.73883682489395142 0.72023451328277588
0.74966508150100708 0.73660510778427124 0.71293431520462036
0.86732763051986694 0.72723871469497681 0.70427697896957397
0.97905546426773071 0.71187078952789307 0.67983543872833252
0.55045062303543091 0.85951900482177734 0.71709203720092773
0.57262212038040161 0.85393315553665161 0.71743184328079224
0.61323398351669312 0.84947890043258667 0.71681571006774902
0.67506694793701172 0.83606219291687012 0.71422767639160156
0.72817695140838623 0.81125986576080322 0.68335449695587158
0.84308052062988281 0.82459032535552979 0.69357532262802124
0.97849392890930176 0.83384585380554199 0.68415200710296631
0.60949873924255371 0.94721990823745728 0.72666949033737183
0.6239159107208252 0.94484883546829224 0.72536885738372803
0.65754157304763794 0.94262218475341797 0.72528761625289917
0.70790255069732666 0.93532323837280273 0.71815139055252075
0.76220965385437012 0.92526066303253174 0.69662827253341675
0.84175193309783936 0.92816144227981567 0.69075113534927368
0.95691663026809692 0.95091843605041504 0.71996915340423584
0.36363458633422852 0.31006383895874023 0.86310964822769165
0.43061813712120056 0.32206881046295166 0.86205345392227173
0.5391305685043335 0.34579494595527649 0.86219507455825806
0.66683626174926758 0.39503949880599976 0.863902747631073
0.79296106100082397 0.45458832383155823 0.86331844329833984
0.90828871726989746 0.48925453424453735 0.86283749341964722
0.99214047193527222 0.5243455171585083 0.86231619119644165
0.39211979508399963 0.39935752749443054 0.8587040901184082
0.45102882385253906 0.41287317872047424 0.85768383741378784
0.55370086431503296 0.42866763472557068 0.86006653308868408
0.66915464401245117 0.46096810698509216 0.86045193672180176
0.79347771406173706 0.51430046558380127 0.86368787288665771
0.90489649772644043 0.54072922468185425 0.85981708765029907
0.99234861135482788 0.5670049786567688 0.86096960306167603
0.42686417698860168 0.52316558361053467 0.85060399770736694
0.48134514689445496 0.53066408634185791 0.85045117139816284
0.5621907114982605 0.53960281610488892 0.85190045833587646
0.67421203851699829 0.57049477100372314 0.8519100546836853
0.79379534721374512 0.60920530557632446 0.85759502649307251
0.89654308557510376 0.62494742870330811 0.85590970516204834
0.98799067735671997 0.64156877994537354 0.85783511400222778
0.41697591543197632 0.62945407629013062 0.83626425266265869
0.46564272046089172 0.63274538516998291 0.8372454047203064
0.56035006046295166 0.64354270696640015 0.83895838260650635
0.67171192169189453 0.66436117887496948 0.84381681680679321
0.78844010829925537 0.68759465217590332 0.84978502988815308
0.89443200826644897 0.70860946178436279 0.85285413265228271
0.98402637243270874 0.7212369441986084 0.85810083150863647
0.45330223441123962 0.7507445216178894 0.83499377965927124
0.48570463061332703 0.74892628192901611 0.83424180746078491
0.56565898656845093 0.74443089962005615 0.83498507738113403
0.65622329711914062 0.74316811561584473 0.83384346961975098
0.77018409967422485 0.75959163904190063 0.83845788240432739
0.88860750198364258 0.78266024589538574 0.84728115797042847
0.98426204919815063 0.79401373863220215 0.85711669921875
0.54813390970230103 0.87093055248260498 0.8408629298210144
0.57231593132019043 0.86893242597579956 0.8419308066368103
0.62677878141403198 0.86757320165634155 0.84184134006500244
0.70313084125518799 0.86216598749160767 0.842254638671875
0.78990662097930908 0.85206109285354614 0.83934241533279419
0.88163197040557861 0.85201466083526611 0.83914279937744141
0.98267596960067749 0.8480827808380127 0.8297235369682312
0.68791359663009644 0.9638020396232605 0.84220510721206665
0.69976902008056641 0.96021479368209839 0.84263986349105835
0.72722768783569336 0.9594109058380127 0.8417973518371582
0.76821249723434448 0.95725411176681519 0.8425368070602417
0.81848728656768799 0.95372313261032104 0.8409993052482605
0.86281090974807739 0.93873178958892822 0.81344139575958252
0.96530711650848389 0.95689564943313599 0.82984298467636108
0.52973741292953491 0.47440025210380554 0.96383523941040039
0.56331914663314819 0.4829450249671936 0.96282482147216797
0.62966585159301758 0.5028831958770752 0.96161222457885742
0.71937865018844604 0.53560137748718262 0.96184873580932617
0.80912607908248901 0.57020962238311768 0.95828229188919067
0.89856410026550293 0.61643719673156738 0.95893436670303345
0.98314774036407471 0.64037525653839111 0.95853883028030396
0.54895114898681641 0.53296256065368652 0.96062391996383667
0.57719677686691284 0.53575056791305542 0.95975947380065918
0.63828825950622559 0.54972970485687256 0.95955365896224976
0.72095650434494019 0.575847327709198 0.96002072095870972
0.81096082925796509 0.6086001992225647 0.95756387710571289
0.8963623046875 0.64442199468612671 0.95620191097259521
0.98308879137039185 0.66564786434173584 0.95900940895080566
0.57101845741271973 0.61503994464874268 0.9571043848991394
0.59936678409576416 0.61707049608230591 0.95368605852127075
0.65383321046829224 0.6314578652381897 0.95940333604812622
0.72950339317321777 0.64195734262466431 0.95282667875289917
0.81791144609451294 0.67286950349807739 0.95773094892501831
0.89804303646087646 0.70025575160980225 0.95490866899490356
0.9839780330657959 0.71314322948455811 0.9579312801361084
0.57563787698745728 0.69655299186706543 0.95259958505630493
0.60353124141693115 0.69803470373153687 0.95433586835861206
0.65572434663772583 0.70271843671798706 0.95350772142410278
0.73184323310852051 0.71615582704544067 0.95536792278289795
0.81313443183898926 0.73364949226379395 0.95132112503051758
0.90009480714797974 0.7536853551864624 0.95124512910842896
0.98279356956481934 0.76585572957992554 0.95626235008239746
0.5460277795791626 0.76647859811782837 0.9474831223487854
0.57145440578460693 0.76639562845230103 0.94847357273101807
0.62791454792022705 0.76783013343811035 0.9499741792678833
0.71636378765106201 0.77719408273696899 0.95250952243804932
0.81244581937789917 0.79549700021743774 0.95439845323562622
0.90593439340591431 0.81711792945861816 0.9561886191368103
0.98017305135726929 0.832794189453125 0.95865261554718018
0.59183931350708008 0.87189739942550659 0.94710046052932739
0.61669790744781494 0.87181365489959717 0.94816446304321289
0.6577829122543335 0.87008249759674072 0.95331823825836182
0.71967649459838867 0.86522406339645386 0.94911772012710571
0.80488210916519165 0.86433148384094238 0.9507676362991333
0.8961063027381897 0.87909376621246338 0.95680558681488037
0.98160475492477417 0.89963012933731079 0.96315091848373413
0.66929566860198975 0.97504901885986328 0.95646125078201294
0.68365645408630371 0.97272807359695435 0.95374155044555664
0.71803838014602661 0.97464072704315186 0.95695006847381592
0.77212268114089966 0.97295534610748291 0.9599878191947937
0.83715325593948364 0.97151076793670654 0.96031886339187622
0.90649545192718506 0.96747255325317383 0.96326237916946411
0.97406560182571411 0.97001004219055176 0.96078228950500488
