luts/negative_new/kodak_tri-x_400_alt.cube
# Created by: G'MIC (https://gmic.eu)
TITLE "kodak_tri-x_400_alt"
# LUT size
LUT_3D_SIZE 7
# Data domain
DOMAIN_MIN 0.0 0.0 0.0
DOMAIN_MAX 1.0 1.0 1.0
# LUT data points
0.0098708653822541237 0.0098708653822541237 0.0098708653822541237
0.0088077764958143234 0.0088077764958143234 0.0088077764958143234
0.025395127013325691 0.025395127013325691 0.025395127013325691
0.068253412842750549 0.068253412842750549 0.068253412842750549
0.14451642334461212 0.14451642334461212 0.14451642334461212
0.23930786550045013 0.23930786550045013 0.23930786550045013
0.37347704172134399 0.37347704172134399 0.37347704172134399
0.060755215585231781 0.060755215585231781 0.060755215585231781
0.083748839795589447 0.083748839795589447 0.083748839795589447
0.11922429502010345 0.11922429502010345 0.11922429502010345
0.17205142974853516 0.17205142974853516 0.17205142974853516
0.24025295674800873 0.24025295674800873 0.24025295674800873
0.32230877876281738 0.32230877876281738 0.32230877876281738
0.42616277933120728 0.42616277933120728 0.42616277933120728
0.18289412558078766 0.18289412558078766 0.18289412558078766
0.19919565320014954 0.19919565320014954 0.19919565320014954
0.23071268200874329 0.23071268200874329 0.23071268200874329
0.27463975548744202 0.27463975548744202 0.27463975548744202
0.33028453588485718 0.33028453588485718 0.33028453588485718
0.39862731099128723 0.39862731099128723 0.39862731099128723
0.48065087199211121 0.48065087199211121 0.48065087199211121
0.33956065773963928 0.33956065773963928 0.33956065773963928
0.33865830302238464 0.33865830302238464 0.33865830302238464
0.35311645269393921 0.35311645269393921 0.35311645269393921
0.38321816921234131 0.38321816921234131 0.38321816921234131
0.42504584789276123 0.42504584789276123 0.42504584789276123
0.47891110181808472 0.47891110181808472 0.47891110181808472
0.54604566097259521 0.54604566097259521 0.54604566097259521
0.47930687665939331 0.47930687665939331 0.47930687665939331
0.4724399745464325 0.4724399745464325 0.4724399745464325
0.47731238603591919 0.47731238603591919 0.47731238603591919
0.49609309434890747 0.49609309434890747 0.49609309434890747
0.52722114324569702 0.52722114324569702 0.52722114324569702
0.5702892541885376 0.5702892541885376 0.5702892541885376
0.62614977359771729 0.62614977359771729 0.62614977359771729
0.60757434368133545 0.60757434368133545 0.60757434368133545
0.59905493259429932 0.59905493259429932 0.59905493259429932
0.60026872158050537 0.60026872158050537 0.60026872158050537
0.61312073469161987 0.61312073469161987 0.61312073469161987
0.63637983798980713 0.63637983798980713 0.63637983798980713
0.67099946737289429 0.67099946737289429 0.67099946737289429
0.71800017356872559 0.71800017356872559 0.71800017356872559
0.73818498849868774 0.73818498849868774 0.73818498849868774
0.72727227210998535 0.72727227210998535 0.72727227210998535
0.72501260042190552 0.72501260042190552 0.72501260042190552
0.73295968770980835 0.73295968770980835 0.73295968770980835
0.75050562620162964 0.75050562620162964 0.75050562620162964
0.77897971868515015 0.77897971868515015 0.77897971868515015
0.81908464431762695 0.81908464431762695 0.81908464431762695
0.02907828614115715 0.02907828614115715 0.02907828614115715
0.050732467323541641 0.050732467323541641 0.050732467323541641
0.092681035399436951 0.092681035399436951 0.092681035399436951
0.1556490957736969 0.1556490957736969 0.1556490957736969
0.23008923232555389 0.23008923232555389 0.23008923232555389
0.31169235706329346 0.31169235706329346 0.31169235706329346
0.41410639882087708 0.41410639882087708 0.41410639882087708
0.11346800625324249 0.11346800625324249 0.11346800625324249
0.13919791579246521 0.13919791579246521 0.13919791579246521
0.18376398086547852 0.18376398086547852 0.18376398086547852
0.24290761351585388 0.24290761351585388 0.24290761351585388
0.30817136168479919 0.30817136168479919 0.30817136168479919
0.3779354989528656 0.3779354989528656 0.3779354989528656
0.46396690607070923 0.46396690607070923 0.46396690607070923
0.2356930673122406 0.2356930673122406 0.2356930673122406
0.25366783142089844 0.25366783142089844 0.25366783142089844
0.28679534792900085 0.28679534792900085 0.28679534792900085
0.331014484167099 0.331014484167099 0.331014484167099
0.3819010853767395 0.3819010853767395 0.3819010853767395
0.43943494558334351 0.43943494558334351 0.43943494558334351
0.51019191741943359 0.51019191741943359 0.51019191741943359
0.37430781126022339 0.37430781126022339 0.37430781126022339
0.37972784042358398 0.37972784042358398 0.37972784042358398
0.397268146276474 0.397268146276474 0.397268146276474
0.42647305130958557 0.42647305130958557 0.42647305130958557
0.46391114592552185 0.46391114592552185 0.46391114592552185
0.50943303108215332 0.50943303108215332 0.50943303108215332
0.56845378875732422 0.56845378875732422 0.56845378875732422
0.50202262401580811 0.50202262401580811 0.50202262401580811
0.49966615438461304 0.49966615438461304 0.49966615438461304
0.50906336307525635 0.50906336307525635 0.50906336307525635
0.52882474660873413 0.52882474660873413 0.52882474660873413
0.55690205097198486 0.55690205097198486 0.55690205097198486
0.59422785043716431 0.59422785043716431 0.59422785043716431
0.64452296495437622 0.64452296495437622 0.64452296495437622
0.62089258432388306 0.62089258432388306 0.62089258432388306
0.61448186635971069 0.61448186635971069 0.61448186635971069
0.62237256765365601 0.62237256765365601 0.62237256765365601
0.63741123676300049 0.63741123676300049 0.63741123676300049
0.65896046161651611 0.65896046161651611 0.65896046161651611
0.68969547748565674 0.68969547748565674 0.68969547748565674
0.73245024681091309 0.73245024681091309 0.73245024681091309
0.74569189548492432 0.74569189548492432 0.74569189548492432
0.73823845386505127 0.73823845386505127 0.73823845386505127
0.74119526147842407 0.74119526147842407 0.74119526147842407
0.75138908624649048 0.75138908624649048 0.75138908624649048
0.76772606372833252 0.76772606372833252 0.76772606372833252
0.79290652275085449 0.79290652275085449 0.79290652275085449
0.82989579439163208 0.82989579439163208 0.82989579439163208
0.075185216963291168 0.075185216963291168 0.075185216963291168
0.11679361015558243 0.11679361015558243 0.11679361015558243
0.17122195661067963 0.17122195661067963 0.17122195661067963
0.23381717503070831 0.23381717503070831 0.23381717503070831
0.30106565356254578 0.30106565356254578 0.30106565356254578
0.37434399127960205 0.37434399127960205 0.37434399127960205
0.45665529370307922 0.45665529370307922 0.45665529370307922
0.18763528764247894 0.18763528764247894 0.18763528764247894
0.21660861372947693 0.21660861372947693 0.21660861372947693
0.26021993160247803 0.26021993160247803 0.26021993160247803
0.31298452615737915 0.31298452615737915 0.31298452615737915
0.36995401978492737 0.36995401978492737 0.36995401978492737
0.43162122368812561 0.43162122368812561 0.43162122368812561
0.50362372398376465 0.50362372398376465 0.50362372398376465
0.31175577640533447 0.31175577640533447 0.31175577640533447
0.32839661836624146 0.32839661836624146 0.32839661836624146
0.35632166266441345 0.35632166266441345 0.35632166266441345
0.39385935664176941 0.39385935664176941 0.39385935664176941
0.43690723180770874 0.43690723180770874 0.43690723180770874
0.4858337938785553 0.4858337938785553 0.4858337938785553
0.54666829109191895 0.54666829109191895 0.54666829109191895
0.42959973216056824 0.42959973216056824 0.42959973216056824
0.43755224347114563 0.43755224347114563 0.43755224347114563
0.45387965440750122 0.45387965440750122 0.45387965440750122
0.47889387607574463 0.47889387607574463 0.47889387607574463
0.51014161109924316 0.51014161109924316 0.51014161109924316
0.54879385232925415 0.54879385232925415 0.54879385232925415
0.60025531053543091 0.60025531053543091 0.60025531053543091
0.54022675752639771 0.54022675752639771 0.54022675752639771
0.54177802801132202 0.54177802801132202 0.54177802801132202
0.55274504423141479 0.55274504423141479 0.55274504423141479
0.57070755958557129 0.57070755958557129 0.57070755958557129
0.59419423341751099 0.59419423341751099 0.59419423341751099
0.62589794397354126 0.62589794397354126 0.62589794397354126
0.67033296823501587 0.67033296823501587 0.67033296823501587
0.64866119623184204 0.64866119623184204 0.64866119623184204
0.6467663049697876 0.6467663049697876 0.6467663049697876
0.65614521503448486 0.65614521503448486 0.65614521503448486
0.67054474353790283 0.67054474353790283 0.67054474353790283
0.68863755464553833 0.68863755464553833 0.68863755464553833
0.71432507038116455 0.71432507038116455 0.71432507038116455
0.75258153676986694 0.75258153676986694 0.75258153676986694
0.76382207870483398 0.76382207870483398 0.76382207870483398
0.76066648960113525 0.76066648960113525 0.76066648960113525
0.76675105094909668 0.76675105094909668 0.76675105094909668
0.77752029895782471 0.77752029895782471 0.77752029895782471
0.79104185104370117 0.79104185104370117 0.79104185104370117
0.81194853782653809 0.81194853782653809 0.81194853782653809
0.84511899948120117 0.84511899948120117 0.84511899948120117
0.18284660577774048 0.18284660577774048 0.18284660577774048
0.21903914213180542 0.21903914213180542 0.21903914213180542
0.2649485170841217 0.2649485170841217 0.2649485170841217
0.31620174646377563 0.31620174646377563 0.31620174646377563
0.37288418412208557 0.37288418412208557 0.37288418412208557
0.43529555201530457 0.43529555201530457 0.43529555201530457
0.50456434488296509 0.50456434488296509 0.50456434488296509
0.29124996066093445 0.29124996066093445 0.29124996066093445
0.31581181287765503 0.31581181287765503 0.31581181287765503
0.34843346476554871 0.34843346476554871 0.34843346476554871
0.38889485597610474 0.38889485597610474 0.38889485597610474
0.43497774004936218 0.43497774004936218 0.43497774004936218
0.48747286200523376 0.48747286200523376 0.48747286200523376
0.54875361919403076 0.54875361919403076 0.54875361919403076
0.40214249491691589 0.40214249491691589 0.40214249491691589
0.41506430506706238 0.41506430506706238 0.41506430506706238
0.43418559432029724 0.43418559432029724 0.43418559432029724
0.4617733359336853 0.4617733359336853 0.4617733359336853
0.49649703502655029 0.49649703502655029 0.49649703502655029
0.53855234384536743 0.53855234384536743 0.53855234384536743
0.59169590473175049 0.59169590473175049 0.59169590473175049
0.49889519810676575 0.49889519810676575 0.49889519810676575
0.50651603937149048 0.50651603937149048 0.50651603937149048
0.51867145299911499 0.51867145299911499 0.51867145299911499
0.53766179084777832 0.53766179084777832 0.53766179084777832
0.56247001886367798 0.56247001886367798 0.56247001886367798
0.59581166505813599 0.59581166505813599 0.59581166505813599
0.64145725965499878 0.64145725965499878 0.64145725965499878
0.59255993366241455 0.59255993366241455 0.59255993366241455
0.59602624177932739 0.59602624177932739 0.59602624177932739
0.60510027408599854 0.60510027408599854 0.60510027408599854
0.61899077892303467 0.61899077892303467 0.61899077892303467
0.63762563467025757 0.63762563467025757 0.63762563467025757
0.66433918476104736 0.66433918476104736 0.66433918476104736
0.70349866151809692 0.70349866151809692 0.70349866151809692
0.68928289413452148 0.68928289413452148 0.68928289413452148
0.69016790390014648 0.69016790390014648 0.69016790390014648
0.69838005304336548 0.69838005304336548 0.69838005304336548
0.70971262454986572 0.70971262454986572 0.70971262454986572
0.7233884334564209 0.7233884334564209 0.7233884334564209
0.7441292405128479 0.7441292405128479 0.7441292405128479
0.77798771858215332 0.77798771858215332 0.77798771858215332
0.79326146841049194 0.79326146841049194 0.79326146841049194
0.79278671741485596 0.79278671741485596 0.79278671741485596
0.79990077018737793 0.79990077018737793 0.79990077018737793
0.80964070558547974 0.80964070558547974 0.80964070558547974
0.81841415166854858 0.81841415166854858 0.81841415166854858
0.8347741961479187 0.8347741961479187 0.8347741961479187
0.86437273025512695 0.86437273025512695 0.86437273025512695
0.31865119934082031 0.31865119934082031 0.31865119934082031
0.33982208371162415 0.33982208371162415 0.33982208371162415
0.36758714914321899 0.36758714914321899 0.36758714914321899
0.40375831723213196 0.40375831723213196 0.40375831723213196
0.44782710075378418 0.44782710075378418 0.44782710075378418
0.49958896636962891 0.49958896636962891 0.49958896636962891
0.55863338708877563 0.55863338708877563 0.55863338708877563
0.40489256381988525 0.40489256381988525 0.40489256381988525
0.42179781198501587 0.42179781198501587 0.42179781198501587
0.44154173135757446 0.44154173135757446 0.44154173135757446
0.4687989354133606 0.4687989354133606 0.4687989354133606
0.50410574674606323 0.50410574674606323 0.50410574674606323
0.5477527379989624 0.5477527379989624 0.5477527379989624
0.60042136907577515 0.60042136907577515 0.60042136907577515
0.49011281132698059 0.49011281132698059 0.49011281132698059
0.50126737356185913 0.50126737356185913 0.50126737356185913
0.51413941383361816 0.51413941383361816 0.51413941383361816
0.53316044807434082 0.53316044807434082 0.53316044807434082
0.55977386236190796 0.55977386236190796 0.55977386236190796
0.5952262282371521 0.5952262282371521 0.5952262282371521
0.64148324728012085 0.64148324728012085 0.64148324728012085
0.57009857892990112 0.57009857892990112 0.57009857892990112
0.5769227147102356 0.5769227147102356 0.5769227147102356
0.58553886413574219 0.58553886413574219 0.58553886413574219
0.59882402420043945 0.59882402420043945 0.59882402420043945
0.61831289529800415 0.61831289529800415 0.61831289529800415
0.64660316705703735 0.64660316705703735 0.64660316705703735
0.68711954355239868 0.68711954355239868 0.68711954355239868
0.64982306957244873 0.64982306957244873 0.64982306957244873
0.65332436561584473 0.65332436561584473 0.65332436561584473
0.65994924306869507 0.65994924306869507 0.65994924306869507
0.66980379819869995 0.66980379819869995 0.66980379819869995
0.68409246206283569 0.68409246206283569 0.68409246206283569
0.70649439096450806 0.70649439096450806 0.70649439096450806
0.74160385131835938 0.74160385131835938 0.74160385131835938
0.73465466499328613 0.73465466499328613 0.73465466499328613
0.73604637384414673 0.73604637384414673 0.73604637384414673
0.74211835861206055 0.74211835861206055 0.74211835861206055
0.75010579824447632 0.75010579824447632 0.75010579824447632
0.76028823852539062 0.76028823852539062 0.76028823852539062
0.77735763788223267 0.77735763788223267 0.77735763788223267
0.80781716108322144 0.80781716108322144 0.80781716108322144
0.8283659815788269 0.8283659815788269 0.8283659815788269
0.82825082540512085 0.82825082540512085 0.82825082540512085
0.83350521326065063 0.83350521326065063 0.83350521326065063
0.84022915363311768 0.84022915363311768 0.84022915363311768
0.84681051969528198 0.84681051969528198 0.84681051969528198
0.8603445291519165 0.8603445291519165 0.8603445291519165
0.88767033815383911 0.88767033815383911 0.88767033815383911
0.43411540985107422 0.43411540985107422 0.43411540985107422
0.44943299889564514 0.44943299889564514 0.44943299889564514
0.46618524193763733 0.46618524193763733 0.46618524193763733
0.49086979031562805 0.49086979031562805 0.49086979031562805
0.52440577745437622 0.52440577745437622 0.52440577745437622
0.5674358606338501 0.5674358606338501 0.5674358606338501
0.6183091402053833 0.6183091402053833 0.6183091402053833
0.50627857446670532 0.50627857446670532 0.50627857446670532
0.51841074228286743 0.51841074228286743 0.51841074228286743
0.53036773204803467 0.53036773204803467 0.53036773204803467
0.54864192008972168 0.54864192008972168 0.54864192008972168
0.57541465759277344 0.57541465759277344 0.57541465759277344
0.61150020360946655 0.61150020360946655 0.61150020360946655
0.65733247995376587 0.65733247995376587 0.65733247995376587
0.57375752925872803 0.57375752925872803 0.57375752925872803
0.58258414268493652 0.58258414268493652 0.58258414268493652
0.59126788377761841 0.59126788377761841 0.59126788377761841
0.6043243408203125 0.6043243408203125 0.6043243408203125
0.62489616870880127 0.62489616870880127 0.62489616870880127
0.65477991104125977 0.65477991104125977 0.65477991104125977
0.69547075033187866 0.69547075033187866 0.69547075033187866
0.63999408483505249 0.63999408483505249 0.63999408483505249
0.64527350664138794 0.64527350664138794 0.64527350664138794
0.65138065814971924 0.65138065814971924 0.65138065814971924
0.66073417663574219 0.66073417663574219 0.66073417663574219
0.67630654573440552 0.67630654573440552 0.67630654573440552
0.70052969455718994 0.70052969455718994 0.70052969455718994
0.73682492971420288 0.73682492971420288 0.73682492971420288
0.70833033323287964 0.70833033323287964 0.70833033323287964
0.71070212125778198 0.71070212125778198 0.71070212125778198
0.7151644229888916 0.7151644229888916 0.7151644229888916
0.72211360931396484 0.72211360931396484 0.72211360931396484
0.7333681583404541 0.7333681583404541 0.7333681583404541
0.75281095504760742 0.75281095504760742 0.75281095504760742
0.78490734100341797 0.78490734100341797 0.78490734100341797
0.7829166054725647 0.7829166054725647 0.7829166054725647
0.78335469961166382 0.78335469961166382 0.78335469961166382
0.78697627782821655 0.78697627782821655 0.78697627782821655
0.79226303100585938 0.79226303100585938 0.79226303100585938
0.80020582675933838 0.80020582675933838 0.80020582675933838
0.81508201360702515 0.81508201360702515 0.81508201360702515
0.84319227933883667 0.84319227933883667 0.84319227933883667
0.8670838475227356 0.8670838475227356 0.8670838475227356
0.86589521169662476 0.86589521169662476 0.86589521169662476
0.86918169260025024 0.86918169260025024 0.86918169260025024
0.87337470054626465 0.87337470054626465 0.87337470054626465
0.87916046380996704 0.87916046380996704 0.87916046380996704
0.89106708765029907 0.89106708765029907 0.89106708765029907
0.91627597808837891 0.91627597808837891 0.91627597808837891
0.53129816055297852 0.53129816055297852 0.53129816055297852
0.54314494132995605 0.54314494132995605 0.54314494132995605
0.55546492338180542 0.55546492338180542 0.55546492338180542
0.57398736476898193 0.57398736476898193 0.57398736476898193
0.60096853971481323 0.60096853971481323 0.60096853971481323
0.6370774507522583 0.6370774507522583 0.6370774507522583
0.68250453472137451 0.68250453472137451 0.68250453472137451
0.59364277124404907 0.59364277124404907 0.59364277124404907
0.6031043529510498 0.6031043529510498 0.6031043529510498
0.61189371347427368 0.61189371347427368 0.61189371347427368
0.62550866603851318 0.62550866603851318 0.62550866603851318
0.64706361293792725 0.64706361293792725 0.64706361293792725
0.67795485258102417 0.67795485258102417 0.67795485258102417
0.71894079446792603 0.71894079446792603 0.71894079446792603
0.65144729614257812 0.65144729614257812 0.65144729614257812
0.65807193517684937 0.65807193517684937 0.65807193517684937
0.66450804471969604 0.66450804471969604 0.66450804471969604
0.67451614141464233 0.67451614141464233 0.67451614141464233
0.69147568941116333 0.69147568941116333 0.69147568941116333
0.71753746271133423 0.71753746271133423 0.71753746271133423
0.75455236434936523 0.75455236434936523 0.75455236434936523
0.70865386724472046 0.70865386724472046 0.70865386724472046
0.7122310996055603 0.7122310996055603 0.7122310996055603
0.71662795543670654 0.71662795543670654 0.71662795543670654
0.72400933504104614 0.72400933504104614 0.72400933504104614
0.73708140850067139 0.73708140850067139 0.73708140850067139
0.75891011953353882 0.75891011953353882 0.75891011953353882
0.79266524314880371 0.79266524314880371 0.79266524314880371
0.76891684532165527 0.76891684532165527 0.76891684532165527
0.76968050003051758 0.76968050003051758 0.76968050003051758
0.77264684438705444 0.77264684438705444 0.77264684438705444
0.77805393934249878 0.77805393934249878 0.77805393934249878
0.78781020641326904 0.78781020641326904 0.78781020641326904
0.80556416511535645 0.80556416511535645 0.80556416511535645
0.83604609966278076 0.83604609966278076 0.83604609966278076
0.83567607402801514 0.83567607402801514 0.83567607402801514
0.83470445871353149 0.83470445871353149 0.83470445871353149
0.83679932355880737 0.83679932355880737 0.83679932355880737
0.84074670076370239 0.84074670076370239 0.84074670076370239
0.84777438640594482 0.84777438640594482 0.84777438640594482
0.86165761947631836 0.86165761947631836 0.86165761947631836
0.8887946605682373 0.8887946605682373 0.8887946605682373
0.91281312704086304 0.91281312704086304 0.91281312704086304
0.91106265783309937 0.91106265783309937 0.91106265783309937
0.91251069307327271 0.91251069307327271 0.91251069307327271
0.91564923524856567 0.91564923524856567 0.91564923524856567
0.92076539993286133 0.92076539993286133 0.92076539993286133
0.9320826530456543 0.9320826530456543 0.9320826530456543
0.95569539070129395 0.95569539070129395 0.95569539070129395
