luts/negative_new/kodak_tmax_3200_-.cube
# Created by: G'MIC (https://gmic.eu)
TITLE "kodak_tmax_3200_-"
# LUT size
LUT_3D_SIZE 5
# Data domain
DOMAIN_MIN 0.0 0.0 0.0
DOMAIN_MAX 1.0 1.0 1.0
# LUT data points
0.009624062106013298 0.009624062106013298 0.009624062106013298
0.039247460663318634 0.039247460663318634 0.039247460663318634
0.11748369783163071 0.11748369783163071 0.11748369783163071
0.22884702682495117 0.22884702682495117 0.22884702682495117
0.33129686117172241 0.33129686117172241 0.33129686117172241
0.17582467198371887 0.17582467198371887 0.17582467198371887
0.22573426365852356 0.22573426365852356 0.22573426365852356
0.30266633629798889 0.30266633629798889 0.30266633629798889
0.35805049538612366 0.35805049538612366 0.35805049538612366
0.43176731467247009 0.43176731467247009 0.43176731467247009
0.36849024891853333 0.36849024891853333 0.36849024891853333
0.38097020983695984 0.38097020983695984 0.38097020983695984
0.43909832835197449 0.43909832835197449 0.43909832835197449
0.52256345748901367 0.52256345748901367 0.52256345748901367
0.65894901752471924 0.65894901752471924 0.65894901752471924
0.57993626594543457 0.57993626594543457 0.57993626594543457
0.59342938661575317 0.59342938661575317 0.59342938661575317
0.61855143308639526 0.61855143308639526 0.61855143308639526
0.67532342672348022 0.67532342672348022 0.67532342672348022
0.7949950098991394 0.7949950098991394 0.7949950098991394
0.86090981960296631 0.86090981960296631 0.86090981960296631
0.86161708831787109 0.86161708831787109 0.86161708831787109
0.87916797399520874 0.87916797399520874 0.87916797399520874
0.89532530307769775 0.89532530307769775 0.89532530307769775
0.93509989976882935 0.93509989976882935 0.93509989976882935
0.017864855006337166 0.017864855006337166 0.017864855006337166
0.10482277721166611 0.10482277721166611 0.10482277721166611
0.1535012423992157 0.1535012423992157 0.1535012423992157
0.24050551652908325 0.24050551652908325 0.24050551652908325
0.32355716824531555 0.32355716824531555 0.32355716824531555
0.19753536581993103 0.19753536581993103 0.19753536581993103
0.24982938170433044 0.24982938170433044 0.24982938170433044
0.3170318603515625 0.3170318603515625 0.3170318603515625
0.36270830035209656 0.36270830035209656 0.36270830035209656
0.43955245614051819 0.43955245614051819 0.43955245614051819
0.4140675961971283 0.4140675961971283 0.4140675961971283
0.4205622673034668 0.4205622673034668 0.4205622673034668
0.47528961300849915 0.47528961300849915 0.47528961300849915
0.54456150531768799 0.54456150531768799 0.54456150531768799
0.65713822841644287 0.65713822841644287 0.65713822841644287
0.6227840781211853 0.6227840781211853 0.6227840781211853
0.62919944524765015 0.62919944524765015 0.62919944524765015
0.65355437994003296 0.65355437994003296 0.65355437994003296
0.71300637722015381 0.71300637722015381 0.71300637722015381
0.8176034688949585 0.8176034688949585 0.8176034688949585
0.86962342262268066 0.86962342262268066 0.86962342262268066
0.87828344106674194 0.87828344106674194 0.87828344106674194
0.89215207099914551 0.89215207099914551 0.89215207099914551
0.91114681959152222 0.91114681959152222 0.91114681959152222
0.94627964496612549 0.94627964496612549 0.94627964496612549
0.078606486320495605 0.078606486320495605 0.078606486320495605
0.16724406182765961 0.16724406182765961 0.16724406182765961
0.25391304492950439 0.25391304492950439 0.25391304492950439
0.2768436074256897 0.2768436074256897 0.2768436074256897
0.33673790097236633 0.33673790097236633 0.33673790097236633
0.22618083655834198 0.22618083655834198 0.22618083655834198
0.27806687355041504 0.27806687355041504 0.27806687355041504
0.34974494576454163 0.34974494576454163 0.34974494576454163
0.38281857967376709 0.38281857967376709 0.38281857967376709
0.42799752950668335 0.42799752950668335 0.42799752950668335
0.41926082968711853 0.41926082968711853 0.41926082968711853
0.44161969423294067 0.44161969423294067 0.44161969423294067
0.50983422994613647 0.50983422994613647 0.50983422994613647
0.55860882997512817 0.55860882997512817 0.55860882997512817
0.60767978429794312 0.60767978429794312 0.60767978429794312
0.65735316276550293 0.65735316276550293 0.65735316276550293
0.66037851572036743 0.66037851572036743 0.66037851572036743
0.69839310646057129 0.69839310646057129 0.69839310646057129
0.74113339185714722 0.74113339185714722 0.74113339185714722
0.82087445259094238 0.82087445259094238 0.82087445259094238
0.88981515169143677 0.88981515169143677 0.88981515169143677
0.90289348363876343 0.90289348363876343 0.90289348363876343
0.91670483350753784 0.91670483350753784 0.91670483350753784
0.91864532232284546 0.91864532232284546 0.91864532232284546
0.94752514362335205 0.94752514362335205 0.94752514362335205
0.17754442989826202 0.17754442989826202 0.17754442989826202
0.21742469072341919 0.21742469072341919 0.21742469072341919
0.32075110077857971 0.32075110077857971 0.32075110077857971
0.38729918003082275 0.38729918003082275 0.38729918003082275
0.41214647889137268 0.41214647889137268 0.41214647889137268
0.30954769253730774 0.30954769253730774 0.30954769253730774
0.33383843302726746 0.33383843302726746 0.33383843302726746
0.41415417194366455 0.41415417194366455 0.41415417194366455
0.47779163718223572 0.47779163718223572 0.47779163718223572
0.47460070252418518 0.47460070252418518 0.47460070252418518
0.39901205897331238 0.39901205897331238 0.39901205897331238
0.45922893285751343 0.45922893285751343 0.45922893285751343
0.53708893060684204 0.53708893060684204 0.53708893060684204
0.60067558288574219 0.60067558288574219 0.60067558288574219
0.61381387710571289 0.61381387710571289 0.61381387710571289
0.6391257643699646 0.6391257643699646 0.6391257643699646
0.63447397947311401 0.63447397947311401 0.63447397947311401
0.69144165515899658 0.69144165515899658 0.69144165515899658
0.76333266496658325 0.76333266496658325 0.76333266496658325
0.82375997304916382 0.82375997304916382 0.82375997304916382
0.91944408416748047 0.91944408416748047 0.91944408416748047
0.90932208299636841 0.90932208299636841 0.90932208299636841
0.9206663966178894 0.9206663966178894 0.9206663966178894
0.93256622552871704 0.93256622552871704 0.93256622552871704
0.954642653465271 0.954642653465271 0.954642653465271
0.28525510430335999 0.28525510430335999 0.28525510430335999
0.31198203563690186 0.31198203563690186 0.31198203563690186
0.40687897801399231 0.40687897801399231 0.40687897801399231
0.5672752857208252 0.5672752857208252 0.5672752857208252
0.6356809139251709 0.6356809139251709 0.6356809139251709
0.36740005016326904 0.36740005016326904 0.36740005016326904
0.39708521962165833 0.39708521962165833 0.39708521962165833
0.48123103380203247 0.48123103380203247 0.48123103380203247
0.6200416088104248 0.6200416088104248 0.6200416088104248
0.67491191625595093 0.67491191625595093 0.67491191625595093
0.46820235252380371 0.46820235252380371 0.46820235252380371
0.5129353404045105 0.5129353404045105 0.5129353404045105
0.59050256013870239 0.59050256013870239 0.59050256013870239
0.69335705041885376 0.69335705041885376 0.69335705041885376
0.7651134729385376 0.7651134729385376 0.7651134729385376
0.5776907205581665 0.5776907205581665 0.5776907205581665
0.58754247426986694 0.58754247426986694 0.58754247426986694
0.65874165296554565 0.65874165296554565 0.65874165296554565
0.82067292928695679 0.82067292928695679 0.82067292928695679
0.87600028514862061 0.87600028514862061 0.87600028514862061
0.88830345869064331 0.88830345869064331 0.88830345869064331
0.9102625846862793 0.9102625846862793 0.9102625846862793
0.91603845357894897 0.91603845357894897 0.91603845357894897
0.94527578353881836 0.94527578353881836 0.94527578353881836
0.96442610025405884 0.96442610025405884 0.96442610025405884
