luts/instant_pro/fuji_fp-100c_negative_++_alt.cube
# Created by: G'MIC (https://gmic.eu)
TITLE "fuji_fp-100c_negative_++_alt"
# LUT size
LUT_3D_SIZE 13
# Data domain
DOMAIN_MIN 0.0 0.0 0.0
DOMAIN_MAX 1.0 1.0 1.0
# LUT data points
0.10367526113986969 0.17027579247951508 0.2263883501291275
0.12143143266439438 0.17481188476085663 0.2265876978635788
0.14594979584217072 0.1774010956287384 0.2270200103521347
0.17767953872680664 0.17864413559436798 0.22590002417564392
0.23422370851039886 0.17884935438632965 0.2262028306722641
0.32591995596885681 0.17919979989528656 0.22700387239456177
0.42689472436904907 0.17809246480464935 0.22757202386856079
0.54794120788574219 0.17617408931255341 0.22911125421524048
0.68469470739364624 0.17788994312286377 0.23163098096847534
0.79603570699691772 0.20786100625991821 0.23159460723400116
0.88500046730041504 0.26662948727607727 0.23112067580223083
0.9444732666015625 0.3393738865852356 0.23267707228660583
0.9822039008140564 0.41378089785575867 0.2351013571023941
0.097657494246959686 0.18593105673789978 0.22996684908866882
0.11555991321802139 0.19173544645309448 0.22973290085792542
0.13968515396118164 0.19723014533519745 0.23034997284412384
0.17990407347679138 0.19994400441646576 0.22991648316383362
0.24856594204902649 0.1976962685585022 0.22854913771152496
0.32951551675796509 0.19492742419242859 0.22705614566802979
0.44463613629341125 0.19925171136856079 0.22861555218696594
0.57306092977523804 0.19922570884227753 0.23043134808540344
0.69853377342224121 0.20254813134670258 0.23162320256233215
0.80385398864746094 0.23566131293773651 0.23113662004470825
0.88202577829360962 0.29209864139556885 0.23187373578548431
0.93685275316238403 0.36471813917160034 0.23612916469573975
0.97852820158004761 0.43383920192718506 0.23903964459896088
0.089758522808551788 0.20285074412822723 0.23245745897293091
0.10849913209676743 0.21136148273944855 0.23339930176734924
0.13105396926403046 0.21915076673030853 0.23327289521694183
0.17839470505714417 0.2233160138130188 0.23326706886291504
0.25673303008079529 0.22436517477035522 0.23160624504089355
0.34979733824729919 0.22857178747653961 0.22924908995628357
0.46925395727157593 0.232197105884552 0.22837917506694794
0.59573996067047119 0.23701788485050201 0.23017461597919464
0.71342307329177856 0.25354936718940735 0.23070785403251648
0.81239873170852661 0.28712207078933716 0.22913473844528198
0.88237398862838745 0.33729302883148193 0.23019368946552277
0.93403834104537964 0.39937517046928406 0.23448547720909119
0.97879403829574585 0.46216300129890442 0.23801273107528687
0.082106947898864746 0.23571960628032684 0.23882584273815155
0.10213038325309753 0.2424776703119278 0.23946741223335266
0.12329082190990448 0.24647095799446106 0.23808838427066803
0.17453445494174957 0.25385671854019165 0.23701921105384827
0.27059817314147949 0.27034348249435425 0.23569302260875702
0.38085821270942688 0.28409141302108765 0.23175941407680511
0.49615427851676941 0.28500252962112427 0.2271532416343689
0.61272048950195312 0.29527679085731506 0.22616669535636902
0.72740471363067627 0.31730502843856812 0.2260686457157135
0.81643325090408325 0.35670584440231323 0.22349876165390015
0.88699805736541748 0.4034629762172699 0.22369618713855743
0.93747073411941528 0.45271798968315125 0.22895674407482147
0.98232758045196533 0.50154846906661987 0.23246611654758453
0.059792879968881607 0.28857439756393433 0.25092494487762451
0.084561429917812347 0.29383143782615662 0.25035771727561951
0.1195194199681282 0.2988339364528656 0.24933138489723206
0.17784574627876282 0.30915126204490662 0.24672766029834747
0.26929238438606262 0.3282325267791748 0.24221953749656677
0.40449321269989014 0.35298588871955872 0.23054425418376923
0.5317113995552063 0.36619365215301514 0.22267645597457886
0.63963884115219116 0.37195697426795959 0.22027112543582916
0.74160641431808472 0.38573968410491943 0.21681180596351624
0.8251490592956543 0.42324703931808472 0.21286699175834656
0.89398962259292603 0.46651875972747803 0.2139071524143219
0.94357669353485107 0.51129806041717529 0.2210988849401474
0.98536562919616699 0.54868090152740479 0.22940607368946075
0.034305870532989502 0.34555178880691528 0.26433652639389038
0.067431069910526276 0.35349193215370178 0.26481783390045166
0.12661051750183105 0.36427164077758789 0.26540222764015198
0.19103020429611206 0.37530460953712463 0.26233670115470886
0.27006781101226807 0.39069139957427979 0.25274544954299927
0.41261574625968933 0.41905468702316284 0.23832049965858459
0.55703544616699219 0.44754466414451599 0.22175085544586182
0.66620659828186035 0.46200117468833923 0.21297487616539001
0.75933605432510376 0.47590291500091553 0.20790697634220123
0.83596664667129517 0.4991220235824585 0.20554715394973755
0.89709371328353882 0.52782642841339111 0.20872896909713745
0.94759654998779297 0.56726086139678955 0.21403419971466064
0.9858822226524353 0.59567832946777344 0.2316928505897522
0.025195252150297165 0.4145514965057373 0.27873200178146362
0.080788120627403259 0.42084482312202454 0.28153356909751892
0.15122321248054504 0.43354803323745728 0.28275763988494873
0.21313084661960602 0.44280222058296204 0.28210535645484924
0.29587933421134949 0.45978128910064697 0.27449670433998108
0.41630643606185913 0.48640716075897217 0.26072472333908081
0.55490487813949585 0.51561975479125977 0.23853164911270142
0.68538206815719604 0.54711735248565674 0.21235953271389008
0.77683806419372559 0.56648021936416626 0.20374277234077454
0.84272068738937378 0.58205127716064453 0.21028582751750946
0.8992912769317627 0.60305309295654297 0.21299007534980774
0.95136183500289917 0.62348645925521851 0.2153710275888443
0.98834532499313354 0.64554494619369507 0.23786602914333344
0.069220267236232758 0.49370273947715759 0.30053320527076721
0.13518202304840088 0.49693310260772705 0.30363991856575012
0.20130996406078339 0.50578993558883667 0.30673679709434509
0.27270153164863586 0.51661086082458496 0.30917361378669739
0.34971964359283447 0.53215408325195312 0.3072831928730011
0.44840562343597412 0.55474859476089478 0.29328781366348267
0.56220108270645142 0.58084696531295776 0.27419599890708923
0.68125540018081665 0.61068660020828247 0.25027120113372803
0.77729696035385132 0.6374555230140686 0.22882567346096039
0.85173165798187256 0.66062438488006592 0.22017547488212585
0.90596836805343628 0.67469030618667603 0.23047274351119995
0.95645982027053833 0.68652933835983276 0.24461734294891357
0.99363476037979126 0.696816086769104 0.25841104984283447
0.19510678946971893 0.57354569435119629 0.33752593398094177
0.24677363038063049 0.5761227011680603 0.33985689282417297
0.29610279202461243 0.58285140991210938 0.34243732690811157
0.36318168044090271 0.59496837854385376 0.34550410509109497
0.43193137645721436 0.60725319385528564 0.34639954566955566
0.51336652040481567 0.62527358531951904 0.3356616199016571
0.59456127882003784 0.6469910740852356 0.32353287935256958
0.6787879467010498 0.66852706670761108 0.31245380640029907
0.77338635921478271 0.69402164220809937 0.29366174340248108
0.85357975959777832 0.71987676620483398 0.27385276556015015
0.91280937194824219 0.73470157384872437 0.27423146367073059
0.96294772624969482 0.74426257610321045 0.28970235586166382
0.99364972114562988 0.74777060747146606 0.30799183249473572
0.34469884634017944 0.65781861543655396 0.37950757145881653
0.37538012862205505 0.65792250633239746 0.38274914026260376
0.40923982858657837 0.66296476125717163 0.38679385185241699
0.45606103539466858 0.6707112193107605 0.39193353056907654
0.51896345615386963 0.67835789918899536 0.39687842130661011
0.58984851837158203 0.69124704599380493 0.3972514271736145
0.64821934700012207 0.70511353015899658 0.39354619383811951
0.69866853952407837 0.72212785482406616 0.38557392358779907
0.77917855978012085 0.74529093503952026 0.37328171730041504
0.84936368465423584 0.76690250635147095 0.35822361707687378
0.91334706544876099 0.78464525938034058 0.34671869874000549
0.96809738874435425 0.79557210206985474 0.34860473871231079
0.99215054512023926 0.7984691858291626 0.3748176097869873
0.47862681746482849 0.7359498143196106 0.43763625621795654
0.49797502160072327 0.7323952317237854 0.44692263007164001
0.52444255352020264 0.73291534185409546 0.45570296049118042
0.55496883392333984 0.73679178953170776 0.46234384179115295
0.60407787561416626 0.7432558536529541 0.46908044815063477
0.66428840160369873 0.75293701887130737 0.47369158267974854
0.70522159337997437 0.76357585191726685 0.47003647685050964
0.73901104927062988 0.77762705087661743 0.46110183000564575
0.78749752044677734 0.79550498723983765 0.45337435603141785
0.84613102674484253 0.81071668863296509 0.44517713785171509
0.90956813097000122 0.82537382841110229 0.43841066956520081
0.9651559591293335 0.83650326728820801 0.43024837970733643
0.9947584867477417 0.84229028224945068 0.43985989689826965
0.60671508312225342 0.80252307653427124 0.51985669136047363
0.62296873331069946 0.8009498119354248 0.52915197610855103
0.64253842830657959 0.80122959613800049 0.53695482015609741
0.66658645868301392 0.80412298440933228 0.54301595687866211
0.70264291763305664 0.8087465763092041 0.54948019981384277
0.74143427610397339 0.81427067518234253 0.55415171384811401
0.77006179094314575 0.82069516181945801 0.55459892749786377
0.79747676849365234 0.83174556493759155 0.54698312282562256
0.82728278636932373 0.84138673543930054 0.54080021381378174
0.87033069133758545 0.8523021936416626 0.54041582345962524
0.92138653993606567 0.86382377147674561 0.53678351640701294
0.96477091312408447 0.87175226211547852 0.52521389722824097
0.9948498010635376 0.87882119417190552 0.52180832624435425
0.73606395721435547 0.86779510974884033 0.6060413122177124
0.74591511487960815 0.86851561069488525 0.61090189218521118
0.75485289096832275 0.86637413501739502 0.613944411277771
0.77278238534927368 0.86891663074493408 0.62046664953231812
0.79331374168395996 0.86967235803604126 0.62522917985916138
0.8161131739616394 0.87224018573760986 0.63125723600387573
0.83826428651809692 0.8751988410949707 0.63631129264831543
0.86157041788101196 0.88111227750778198 0.63676822185516357
0.88289588689804077 0.88582736253738403 0.63250821828842163
0.91143298149108887 0.89449787139892578 0.63661974668502808
0.94546836614608765 0.90141189098358154 0.63143032789230347
0.97163015604019165 0.90484815835952759 0.62443774938583374
0.99198383092880249 0.91120231151580811 0.63088089227676392
0.107449010014534 0.17142863571643829 0.24004852771759033
0.11684852838516235 0.173192098736763 0.23407146334648132
0.13560804724693298 0.17575719952583313 0.23117071390151978
0.18095481395721436 0.17937205731868744 0.23321686685085297
0.2473379373550415 0.18258118629455566 0.23794905841350555
0.32478147745132446 0.18325632810592651 0.2394748330116272
0.4282163679599762 0.18279367685317993 0.24210578203201294
0.55589836835861206 0.1810796707868576 0.24691194295883179
0.68945848941802979 0.18567049503326416 0.25110194087028503
0.79468107223510742 0.21754023432731628 0.25482529401779175
0.88319873809814453 0.27205827832221985 0.25551262497901917
0.94454610347747803 0.34742125868797302 0.25514551997184753
0.98289060592651367 0.41995269060134888 0.26078605651855469
0.099804267287254333 0.18717588484287262 0.24410796165466309
0.11261541396379471 0.19031648337841034 0.23923073709011078
0.13514114916324615 0.19683076441287994 0.23747493326663971
0.18431942164897919 0.20094886422157288 0.23946003615856171
0.25623691082000732 0.20213967561721802 0.24143342673778534
0.3388119637966156 0.20217993855476379 0.24174393713474274
0.44709369540214539 0.2046724259853363 0.24369186162948608
0.57647418975830078 0.20513950288295746 0.24766148626804352
0.70649254322052002 0.21200345456600189 0.25293818116188049
0.80554205179214478 0.24440300464630127 0.25493809580802917
0.8824116587638855 0.29780346155166626 0.25491434335708618
0.94502133131027222 0.36313393712043762 0.2541344165802002
0.98421525955200195 0.43151757121086121 0.26055997610092163
0.093451090157032013 0.20787277817726135 0.2483629584312439
0.1095176562666893 0.21243612468242645 0.24584592878818512
0.13281923532485962 0.21973150968551636 0.24510611593723297
0.1861124187707901 0.22573946416378021 0.24585951864719391
0.26462024450302124 0.2297375500202179 0.24563382565975189
0.35711711645126343 0.23453648388385773 0.24378654360771179
0.47516238689422607 0.24029318988323212 0.24490940570831299
0.60304325819015503 0.24498359858989716 0.2494920939207077
0.72381877899169922 0.2567136287689209 0.2523055374622345
0.81754422187805176 0.29111155867576599 0.25282731652259827
0.88587450981140137 0.34654015302658081 0.25263282656669617
0.9448314905166626 0.40334534645080566 0.25170797109603882
0.98489350080490112 0.46126097440719604 0.25920450687408447
0.094389088451862335 0.24360455572605133 0.25382858514785767
0.11068275570869446 0.24743321537971497 0.25313663482666016
0.13368949294090271 0.25259947776794434 0.25289773941040039
0.18985565006732941 0.26231485605239868 0.25353464484214783
0.27980497479438782 0.27471438050270081 0.25079423189163208
0.38693830370903015 0.2838490903377533 0.24566677212715149
0.50171363353729248 0.28878048062324524 0.24355296790599823
0.62003558874130249 0.30132398009300232 0.24526000022888184
0.73421990871429443 0.32131180167198181 0.244845911860466
0.82282006740570068 0.35948377847671509 0.24438363313674927
0.88920104503631592 0.4085102379322052 0.24687477946281433
0.94536703824996948 0.45519661903381348 0.24953798949718475
0.9869188666343689 0.50214016437530518 0.25451800227165222
0.07761383056640625 0.29131338000297546 0.26143947243690491
0.10539767891168594 0.29950091242790222 0.26269304752349854
0.14104856550693512 0.30813568830490112 0.263165682554245
0.19257479906082153 0.31626218557357788 0.26249068975448608
0.28484460711479187 0.33378061652183533 0.25605010986328125
0.41456443071365356 0.35404548048973083 0.24282112717628479
0.53143888711929321 0.36437660455703735 0.2381337583065033
0.63957810401916504 0.3748517632484436 0.2367892861366272
0.74522709846496582 0.38999849557876587 0.232988640666008
0.82912081480026245 0.42586007714271545 0.23337066173553467
0.89272439479827881 0.4692419171333313 0.23988112807273865
0.94936436414718628 0.51041704416275024 0.24351370334625244
0.99201565980911255 0.54389214515686035 0.24763499200344086
0.049700435250997543 0.3492092490196228 0.27184721827507019
0.093726843595504761 0.36088937520980835 0.27518755197525024
0.1432831883430481 0.36957943439483643 0.27558174729347229
0.19635260105133057 0.37490552663803101 0.27343067526817322
0.28325265645980835 0.39435184001922607 0.26628202199935913
0.42043331265449524 0.4224129319190979 0.2518334686756134
0.56041985750198364 0.44985824823379517 0.23783941566944122
0.67194491624832153 0.46473637223243713 0.23037998378276825
0.76214313507080078 0.47325429320335388 0.22603636980056763
0.83498930931091309 0.49603527784347534 0.23000538349151611
0.89594399929046631 0.53057593107223511 0.23825807869434357
0.95039480924606323 0.56669086217880249 0.2417173832654953
0.99117374420166016 0.59137403964996338 0.25148442387580872
0.041460134088993073 0.42165929079055786 0.28621220588684082
0.10282488167285919 0.42877587676048279 0.29062554240226746
0.1668829619884491 0.43854442238807678 0.293101966381073
0.23388749361038208 0.44867336750030518 0.29418602585792542
0.31355440616607666 0.46608760952949524 0.28773510456085205
0.42100131511688232 0.4900544285774231 0.27428901195526123
0.56048846244812012 0.51931780576705933 0.25591346621513367
0.68629086017608643 0.54772961139678955 0.23391973972320557
0.77853763103485107 0.56455492973327637 0.22491119801998138
0.84144502878189087 0.58037251234054565 0.23500595986843109
0.89897888898849487 0.59997397661209106 0.24346016347408295
0.95182341337203979 0.62185871601104736 0.24755878746509552
0.99152964353561401 0.64151781797409058 0.25770384073257446
0.10361798107624054 0.4997943639755249 0.31022593379020691
0.15666951239109039 0.5040593147277832 0.31261757016181946
0.21609154343605042 0.5130963921546936 0.31743103265762329
0.28885653614997864 0.52476793527603149 0.31984928250312805
0.3591497540473938 0.53702735900878906 0.31713151931762695
0.45393946766853333 0.55773144960403442 0.30734613537788391
0.56563299894332886 0.58284938335418701 0.29215899109840393
0.6850164532661438 0.61257106065750122 0.26878240704536438
0.7844843864440918 0.640453040599823 0.25066357851028442
0.84964221715927124 0.65775603055953979 0.25212714076042175
0.90640366077423096 0.6711190938949585 0.2635759711265564
0.95749384164810181 0.68545150756835938 0.27051252126693726
0.99285537004470825 0.69217628240585327 0.2804868221282959
0.22305543720722198 0.5806005597114563 0.3480379581451416
0.26428502798080444 0.58314257860183716 0.35017293691635132
0.3098907470703125 0.58886134624481201 0.35688751935958862
0.37486827373504639 0.59983241558074951 0.36143749952316284
0.43973258137702942 0.61039143800735474 0.36176624894142151
0.51369065046310425 0.62668132781982422 0.35315015912055969
0.59704005718231201 0.64770817756652832 0.34208542108535767
0.68974524736404419 0.67066776752471924 0.3319682776927948
0.78107643127441406 0.69601130485534668 0.31912267208099365
0.85340648889541626 0.72054815292358398 0.29908064007759094
0.91444510221481323 0.73727583885192871 0.29234638810157776
0.96167087554931641 0.74338138103485107 0.31254774332046509
0.99040478467941284 0.74478417634963989 0.33129772543907166
0.35911440849304199 0.66333663463592529 0.39208745956420898
0.38462910056114197 0.66233855485916138 0.39793592691421509
0.41847929358482361 0.66582512855529785 0.40370428562164307
0.47127780318260193 0.67399758100509644 0.41020777821540833
0.53151112794876099 0.68270635604858398 0.41375300288200378
0.59309005737304688 0.69425022602081299 0.41219419240951538
0.64415490627288818 0.70639652013778687 0.40938618779182434
0.70624685287475586 0.72525578737258911 0.40295323729515076
0.78525561094284058 0.74814146757125854 0.39353743195533752
0.84981751441955566 0.76882821321487427 0.37603950500488281
0.91193729639053345 0.78657490015029907 0.3610614538192749
0.97006088495254517 0.79603737592697144 0.3696562647819519
0.99213880300521851 0.79756748676300049 0.38600265979766846
0.48645976185798645 0.73736125230789185 0.4541868269443512
0.50523608922958374 0.73405081033706665 0.46456465125083923
0.53012323379516602 0.73493725061416626 0.46999868750572205
0.56826967000961304 0.74124008417129517 0.47373893857002258
0.61861211061477661 0.74857395887374878 0.48078134655952454
0.66748416423797607 0.75622260570526123 0.48499876260757446
0.70001566410064697 0.76464742422103882 0.48181283473968506
0.74268931150436401 0.77975064516067505 0.47501868009567261
0.79776543378829956 0.79693031311035156 0.46815004944801331
0.84441334009170532 0.81159120798110962 0.45755037665367126
0.89877188205718994 0.82620203495025635 0.44931849837303162
0.96525686979293823 0.83753973245620728 0.44382402300834656
0.99325168132781982 0.84363681077957153 0.44801080226898193
0.61252027750015259 0.80354303121566772 0.53006935119628906
0.62784022092819214 0.80231845378875732 0.53907698392868042
0.64473354816436768 0.80237531661987305 0.54348850250244141
0.67175984382629395 0.80634045600891113 0.54808145761489868
0.7074083685874939 0.81162542104721069 0.55672574043273926
0.7427251935005188 0.81711316108703613 0.56130421161651611
0.76427876949310303 0.82367169857025146 0.55805331468582153
0.79001623392105103 0.83296579122543335 0.55226725339889526
0.83067190647125244 0.84340941905975342 0.54753607511520386
0.87331461906433105 0.85419261455535889 0.5443536639213562
0.91152572631835938 0.86279791593551636 0.54011178016662598
0.95620888471603394 0.87152409553527832 0.53299850225448608
0.99189925193786621 0.88079255819320679 0.53039020299911499
0.7351067066192627 0.86590230464935303 0.60678446292877197
0.74700808525085449 0.86853235960006714 0.61336857080459595
0.75421923398971558 0.86640352010726929 0.61536973714828491
0.77157735824584961 0.86846810579299927 0.62068182229995728
0.79257410764694214 0.87040340900421143 0.62761282920837402
0.8182256817817688 0.87557756900787354 0.63661152124404907
0.8352159857749939 0.87701189517974854 0.63516408205032349
0.8569379448890686 0.88117468357086182 0.63863831758499146
0.88575899600982666 0.8872484564781189 0.63697844743728638
0.91240471601486206 0.89353007078170776 0.63549399375915527
0.94273179769515991 0.90020692348480225 0.63284456729888916
0.96993571519851685 0.90548765659332275 0.6294020414352417
0.99160420894622803 0.91205281019210815 0.6347241997718811
0.11333164572715759 0.17173181474208832 0.25601226091384888
0.11939303576946259 0.1730855256319046 0.24935439229011536
0.13437110185623169 0.17426459491252899 0.2434396892786026
0.1822957843542099 0.18046344816684723 0.24548129737377167
0.24913051724433899 0.18583226203918457 0.25192201137542725
0.3311176598072052 0.18704855442047119 0.25668653845787048
0.44481745362281799 0.18248182535171509 0.26096513867378235
0.57866787910461426 0.17374962568283081 0.2657107412815094
0.70224946737289429 0.18579988181591034 0.27254179120063782
0.80389058589935303 0.21768103539943695 0.27940899133682251
0.88507992029190063 0.27188432216644287 0.28203663229942322
0.94393110275268555 0.35152989625930786 0.28607326745986938
0.98411887884140015 0.42549839615821838 0.29954695701599121
0.1016664057970047 0.18780636787414551 0.2611238956451416
0.11183618009090424 0.19036018848419189 0.25588098168373108
0.1363513171672821 0.19498066604137421 0.25186425447463989
0.18319451808929443 0.19922126829624176 0.25252220034599304
0.25549924373626709 0.20295184850692749 0.25503453612327576
0.34178104996681213 0.20612595975399017 0.2582608163356781
0.4600290060043335 0.20424705743789673 0.26352220773696899
0.59956008195877075 0.19894270598888397 0.26907563209533691
0.72196990251541138 0.20968511700630188 0.27505588531494141
0.81593769788742065 0.24307417869567871 0.28051650524139404
0.88809311389923096 0.29856783151626587 0.28120175004005432
0.95124363899230957 0.36256825923919678 0.28091120719909668
0.98826760053634644 0.43307605385780334 0.29445844888687134
0.092700570821762085 0.21153327822685242 0.26672223210334778
0.10889153927564621 0.21298994123935699 0.26233166456222534
0.1341882050037384 0.21745344996452332 0.25960704684257507
0.19176526367664337 0.22581803798675537 0.26038441061973572
0.26932141184806824 0.23380118608474731 0.2622063159942627
0.35997012257575989 0.23762993514537811 0.26249781250953674
0.48926573991775513 0.23942755162715912 0.26703596115112305
0.62295025587081909 0.24175605177879333 0.27353540062904358
0.73846155405044556 0.25296756625175476 0.2758619487285614
0.82554250955581665 0.28915968537330627 0.27915099263191223
0.89255768060684204 0.34910184144973755 0.28109261393547058
0.95329767465591431 0.40575867891311646 0.2821134626865387
0.98840069770812988 0.46365523338317871 0.29509642720222473
0.097180850803852081 0.24907919764518738 0.27153703570365906
0.11461587250232697 0.25110694766044617 0.26918256282806396
0.14024055004119873 0.25605607032775879 0.26865509152412415
0.20057551562786102 0.26769965887069702 0.27077427506446838
0.28471314907073975 0.27998113632202148 0.27137672901153564
0.393047034740448 0.28626224398612976 0.26681926846504211
0.51446938514709473 0.2884010374546051 0.26656463742256165
0.63460433483123779 0.30224913358688354 0.26920774579048157
0.74654370546340942 0.32130300998687744 0.26881936192512512
0.83140254020690918 0.35919496417045593 0.27295684814453125
0.89483970403671265 0.41101306676864624 0.27807259559631348
0.95118892192840576 0.45790857076644897 0.28406244516372681
0.98811256885528564 0.50528472661972046 0.29627686738967896
0.10452274978160858 0.29644984006881714 0.27965459227561951
0.12827204167842865 0.30709463357925415 0.28161853551864624
0.16091488301753998 0.31582179665565491 0.28246578574180603
0.20820969343185425 0.32180330157279968 0.28152868151664734
0.2942236065864563 0.33623215556144714 0.2777974009513855
0.42050862312316895 0.35236921906471252 0.27037540078163147
0.53705328702926636 0.36317643523216248 0.26585566997528076
0.64775174856185913 0.37705889344215393 0.26298967003822327
0.75427788496017456 0.39163902401924133 0.2594054639339447
