luts/instant_pro/fuji_fp-100c_-.cube
# Created by: G'MIC (https://gmic.eu)
TITLE "fuji_fp-100c_-"
# LUT size
LUT_3D_SIZE 13
# Data domain
DOMAIN_MIN 0.0 0.0 0.0
DOMAIN_MAX 1.0 1.0 1.0
# LUT data points
0.028023872524499893 0.037385243922472 0.047896411269903183
0.052973460406064987 0.040416881442070007 0.03690764307975769
0.11796075850725174 0.03959178552031517 0.037574827671051025
0.20417122542858124 0.030484816059470177 0.046130716800689697
0.29101979732513428 0.016872840002179146 0.042047299444675446
0.39066562056541443 0.0098381787538528442 0.040649969130754471
0.5105736255645752 0.0089362645521759987 0.042132716625928879
0.62392610311508179 0.0079112034291028976 0.041310284286737442
0.72257328033447266 0.0078431377187371254 0.038468558341264725
0.80851262807846069 0.0071373432874679565 0.038411654531955719
0.8854871392250061 0.005646395031362772 0.039142489433288574
0.94939565658569336 0.0093244519084692001 0.039235673844814301
0.99135959148406982 0.071739569306373596 0.049199916422367096
0.021525364369153976 0.079107604920864105 0.048938900232315063
0.061509046703577042 0.088460646569728851 0.040077030658721924
0.13226503133773804 0.089752897620201111 0.0335971899330616
0.21842299401760101 0.080297686159610748 0.037018194794654846
0.30738866329193115 0.063798286020755768 0.039603888988494873
0.40687710046768188 0.048872735351324081 0.041008353233337402
0.51976066827774048 0.027452176436781883 0.038965679705142975
0.62879067659378052 0.015957806259393692 0.037241917103528976
0.7273716926574707 0.011774743907153606 0.034226510673761368
0.81278032064437866 0.012160701677203178 0.033782403916120529
0.88911718130111694 0.021248342469334602 0.03324577584862709
0.95332807302474976 0.062139816582202911 0.038445103913545609
0.98927593231201172 0.14334115386009216 0.054174743592739105
0.010610857047140598 0.13825520873069763 0.047216735780239105
0.051559701561927795 0.14448411762714386 0.040349535644054413
0.13476273417472839 0.15150618553161621 0.029663879424333572
0.23332101106643677 0.15482409298419952 0.028826620429754257
0.32966503500938416 0.15090464055538177 0.032862883061170578
0.43774828314781189 0.14804813265800476 0.038339950144290924
0.54784035682678223 0.12921671569347382 0.037695057690143585
0.64629709720611572 0.11066138744354248 0.036670923233032227
0.73748284578323364 0.098290495574474335 0.034689497202634811
0.8201061487197876 0.10353649407625198 0.033815599977970123
0.89561289548873901 0.13425630331039429 0.033584922552108765
0.95834296941757202 0.17631992697715759 0.040674425661563873
0.99405556917190552 0.22535121440887451 0.056574337184429169
0.0065150689333677292 0.21924854815006256 0.058085065335035324
0.028932400047779083 0.2231583297252655 0.052149079740047455
0.11441556364297867 0.23351085186004639 0.03930988535284996
0.2318233996629715 0.24275654554367065 0.023878030478954315
0.34513193368911743 0.24846266210079193 0.020584674552083015
0.45960021018981934 0.25028342008590698 0.024930812418460846
0.57751274108886719 0.24836696684360504 0.028000909835100174
0.66851127147674561 0.24417994916439056 0.034042883664369583
0.75104707479476929 0.23628386855125427 0.036330804228782654
0.83163243532180786 0.23985485732555389 0.034686878323554993
0.90370577573776245 0.25844591856002808 0.035230390727519989
0.96215128898620605 0.27805235981941223 0.044976700097322464
0.99518978595733643 0.30938133597373962 0.065719097852706909
0.0078431377187371254 0.31207868456840515 0.069715611636638641
0.012693696655333042 0.30973824858665466 0.063371710479259491
0.08388209342956543 0.31508901715278625 0.049631334841251373
0.2041817307472229 0.32589530944824219 0.026762479916214943
0.32741570472717285 0.33527904748916626 0.01254532765597105
0.45237493515014648 0.34137117862701416 0.014675873331725597
0.57249516248703003 0.34408724308013916 0.016155736520886421
0.67779749631881714 0.35069707036018372 0.019680891185998917
0.76599603891372681 0.35548561811447144 0.029060289263725281
0.84788781404495239 0.35755610466003418 0.031413808465003967
0.90926730632781982 0.3663465678691864 0.041282430291175842
0.96604830026626587 0.37619280815124512 0.05375385656952858
0.99667137861251831 0.3949572741985321 0.078616529703140259
0.0052372650243341923 0.39490321278572083 0.076027795672416687
0.0063503040000796318 0.39457422494888306 0.07002519816160202
0.045107088983058929 0.39606413245201111 0.058451049029827118
0.17150533199310303 0.40318241715431213 0.035494126379489899
0.30089437961578369 0.41028156876564026 0.013132162392139435
0.43195861577987671 0.41943880915641785 0.010917708277702332
0.55856907367706299 0.42723065614700317 0.010588731616735458
0.67570894956588745 0.43482044339179993 0.010111430659890175
0.76647228002548218 0.4432162344455719 0.011482448317110538
0.84819877147674561 0.45223808288574219 0.020294085144996643
0.91632729768753052 0.46201187372207642 0.049225989729166031
0.96824616193771362 0.47044190764427185 0.076145544648170471
0.99309444427490234 0.48503521084785461 0.10852739214897156
0.0035047193523496389 0.47088518738746643 0.078657574951648712
0.0041042552329599857 0.46971017122268677 0.074541755020618439
0.028209296986460686 0.47045305371284485 0.068295858800411224
0.1567862331867218 0.47414371371269226 0.052630584686994553
0.28594383597373962 0.48060354590415955 0.023614890873432159
0.41277536749839783 0.49104082584381104 0.0086352778598666191
0.53830409049987793 0.50085794925689697 0.0046638189814984798
0.65263742208480835 0.50625920295715332 0.0071346508339047432
0.74711298942565918 0.51486021280288696 0.0061041438020765781
0.83155262470245361 0.52880692481994629 0.0079809902235865593
0.90755146741867065 0.53996556997299194 0.021064594388008118
0.96802151203155518 0.55350172519683838 0.078754529356956482
0.99422001838684082 0.56811660528182983 0.1385742574930191
0.0011542824795469642 0.54600620269775391 0.077558763325214386
0.0063817491754889488 0.5431867241859436 0.078376561403274536
0.024280158802866936 0.54363423585891724 0.076108746230602264
0.1599004715681076 0.54464399814605713 0.075109817087650299
0.28506818413734436 0.54778385162353516 0.045468036085367203
0.40360537171363831 0.55620849132537842 0.017831107601523399
0.52272486686706543 0.56540811061859131 0.0078336233273148537
0.63096034526824951 0.57245928049087524 0.0087199043482542038
0.72597610950469971 0.58369243144989014 0.0098979724571108818
0.81075030565261841 0.59740787744522095 0.010344740934669971
0.88601917028427124 0.60618841648101807 0.010647822171449661
0.95219862461090088 0.61669468879699707 0.019220957532525063
0.99291092157363892 0.63555771112442017 0.10011672973632812
0.0033659541513770819 0.61969292163848877 0.089898340404033661
0.005102075170725584 0.61899232864379883 0.087863072752952576
0.026197232306003571 0.61899739503860474 0.08503645658493042
0.16414298117160797 0.61719763278961182 0.08594125509262085
0.29547330737113953 0.61659419536590576 0.068902604281902313
0.399290531873703 0.62093615531921387 0.033551938831806183
0.51192164421081543 0.62739723920822144 0.010440212674438953
0.61556917428970337 0.63648110628128052 0.0085325352847576141
0.70414286851882935 0.65062999725341797 0.011659390293061733
0.78950786590576172 0.66199588775634766 0.011779874563217163
0.86815947294235229 0.66969794034957886 0.012171472422778606
0.93527317047119141 0.67940020561218262 0.012084901332855225
0.98737019300460815 0.69283407926559448 0.025470299646258354
0.0047217276878654957 0.69352102279663086 0.11646530777215958
0.0073197158053517342 0.69258332252502441 0.10779908299446106
0.070428095757961273 0.69159895181655884 0.10328635573387146
0.21617862582206726 0.68965941667556763 0.10864154249429703
0.32712826132774353 0.68906104564666748 0.095405474305152893
0.4152492880821228 0.69000566005706787 0.059811908751726151
0.50756609439849854 0.69256436824798584 0.02394256554543972
0.60335743427276611 0.7013695240020752 0.010645966976881027
0.69276690483093262 0.71402472257614136 0.010715439915657043
0.77941542863845825 0.72465837001800537 0.011682068929076195
0.85790026187896729 0.73305594921112061 0.012936057522892952
0.92163193225860596 0.74282807111740112 0.013723679818212986
0.97502249479293823 0.75378859043121338 0.0057448740117251873
0.054221644997596741 0.76872748136520386 0.15155370533466339
0.10119618475437164 0.7652246356010437 0.15055139362812042
0.19564250111579895 0.76175069808959961 0.15260714292526245
0.29044759273529053 0.76032030582427979 0.15328098833560944
0.37936300039291382 0.75924420356750488 0.14846009016036987
0.4642632007598877 0.75920295715332031 0.13474372029304504
0.53739136457443237 0.75966686010360718 0.10743951052427292
0.613078773021698 0.76620179414749146 0.052577491849660873
0.69184792041778564 0.77576380968093872 0.016388043761253357
0.77460730075836182 0.78642171621322632 0.010225199162960052
0.850272536277771 0.79635286331176758 0.011231949552893639
0.91499859094619751 0.80658596754074097 0.010423936881124973
0.96892076730728149 0.81483417749404907 0.0039337608031928539
0.26075547933578491 0.8418956995010376 0.24143977463245392
0.28815701603889465 0.83809000253677368 0.2447933703660965
0.3333469033241272 0.83643597364425659 0.24219773709774017
0.39374250173568726 0.83550631999969482 0.23890990018844604
0.45905911922454834 0.83268219232559204 0.24027907848358154
0.52508842945098877 0.83150285482406616 0.23599822819232941
0.58848541975021362 0.83310389518737793 0.22381778061389923
0.65474110841751099 0.83741497993469238 0.18878656625747681
0.72092664241790771 0.84337335824966431 0.1468963623046875
0.78425174951553345 0.85209131240844727 0.093870781362056732
0.84965145587921143 0.86179053783416748 0.048303745687007904
0.91333812475204468 0.87106937170028687 0.01767997071146965
0.96964907646179199 0.87823736667633057 0.0046371608041226864
0.45428264141082764 0.91540199518203735 0.38532537221908569
0.46736067533493042 0.91307526826858521 0.3872607946395874
0.49464395642280579 0.91229099035263062 0.38469591736793518
0.53125655651092529 0.91096007823944092 0.38672348856925964
0.57607156038284302 0.90971165895462036 0.38784760236740112
0.62227243185043335 0.90921831130981445 0.39014741778373718
0.67169898748397827 0.90989381074905396 0.39011028409004211
0.72269350290298462 0.91354793310165405 0.38091185688972473
0.77247846126556396 0.91719716787338257 0.35999104380607605
0.82277780771255493 0.92387610673904419 0.33396118879318237
0.87466329336166382 0.92999094724655151 0.2967667281627655
0.92797559499740601 0.93538552522659302 0.2461562305688858
0.98044222593307495 0.94263178110122681 0.17879371345043182
0.028361780568957329 0.033718258142471313 0.072850212454795837
0.064694426953792572 0.031998023390769958 0.077446535229682922
0.11688094586133957 0.033841677010059357 0.077444292604923248
0.19600172340869904 0.032315019518136978 0.080863654613494873
0.29132959246635437 0.020420776680111885 0.086057268083095551
0.39626789093017578 0.010380883701145649 0.092768348753452301
0.5125545859336853 0.010044202208518982 0.096306517720222473
0.62790936231613159 0.0087564056739211082 0.10054701566696167
0.72581636905670166 0.0078431377187371254 0.097672030329704285
0.80954462289810181 0.0061466889455914497 0.094215318560600281
0.8851810097694397 0.0048063239082694054 0.095010332763195038
0.94706523418426514 0.013851629570126534 0.095181860029697418
0.98963779211044312 0.076854392886161804 0.10090058296918869
0.020453179255127907 0.079373560845851898 0.083780266344547272
0.061978209763765335 0.085232660174369812 0.087155014276504517
0.13080856204032898 0.086656175553798676 0.082810856401920319
0.21512649953365326 0.085958264768123627 0.090041562914848328
0.3097873330116272 0.07797367125749588 0.097094438970088959
0.41315901279449463 0.058012194931507111 0.09668770432472229
0.52240288257598877 0.038979414850473404 0.098127894103527069
0.63166457414627075 0.026710061356425285 0.099926814436912537
0.72748649120330811 0.017994929105043411 0.095566615462303162
0.81092458963394165 0.016023404896259308 0.093334883451461792
0.88676726818084717 0.024257989600300789 0.093496061861515045
0.94721817970275879 0.068619057536125183 0.098799057304859161
0.98562771081924438 0.14856255054473877 0.10810980945825577
0.0076074190437793732 0.14853833615779877 0.10574723780155182
0.052893843501806259 0.15384221076965332 0.1000446081161499
0.13943378627300262 0.1581035703420639 0.087251968681812286
0.23464612662792206 0.16266860067844391 0.086793012917041779
0.33235630393028259 0.16221725940704346 0.092481367290019989
0.44495266675949097 0.15678417682647705 0.10111125558614731
0.55214565992355347 0.13956347107887268 0.10299776494503021
0.65067130327224731 0.12602773308753967 0.10177507251501083
0.73914843797683716 0.1113440990447998 0.098640173673629761
0.81759965419769287 0.11132686585187912 0.096822313964366913
0.89163154363632202 0.13266852498054504 0.098990648984909058
0.95032685995101929 0.17424149811267853 0.10568120330572128
0.98833638429641724 0.22990448772907257 0.11545631289482117
0.0059010223485529423 0.23421072959899902 0.12207040190696716
0.033148117363452911 0.23991818726062775 0.11753719300031662
0.12491028755903244 0.24743206799030304 0.10136361420154572
0.23817808926105499 0.2526763379573822 0.079925090074539185
0.34887963533401489 0.25742948055267334 0.065023563802242279
0.46833860874176025 0.25845187902450562 0.085250705480575562
0.58107662200927734 0.25456956028938293 0.10170605033636093
0.67503648996353149 0.24505764245986938 0.10419778525829315
0.75780725479125977 0.2350650280714035 0.1020875945687294
0.83184826374053955 0.23753339052200317 0.098610356450080872
0.89977169036865234 0.25439593195915222 0.10250667482614517
0.95702910423278809 0.27619060873985291 0.10899360477924347
0.99221944808959961 0.31167182326316833 0.12008567899465561
0.0072804768569767475 0.32782304286956787 0.13294398784637451
0.016831580549478531 0.32906609773635864 0.12889942526817322
0.10039747506380081 0.33176115155220032 0.11337609589099884
0.22149324417114258 0.33824673295021057 0.085389994084835052
0.34380552172660828 0.34581559896469116 0.052476290613412857
0.46681332588195801 0.35137683153152466 0.04310913011431694
0.58300793170928955 0.35374420881271362 0.060555610805749893
0.68753349781036377 0.35440009832382202 0.080188572406768799
0.77481800317764282 0.35624480247497559 0.096060767769813538
0.84877711534500122 0.3587125837802887 0.10034957528114319
0.90777528285980225 0.36590877175331116 0.10589448362588882
0.96453177928924561 0.37652173638343811 0.11332271993160248
0.99748712778091431 0.39275529980659485 0.12428135424852371
0.0043250289745628834 0.41387662291526794 0.13409972190856934
0.0065163406543433666 0.40939727425575256 0.12641912698745728
0.055584162473678589 0.40961241722106934 0.11444718390703201
0.19167464971542358 0.41415166854858398 0.096807010471820831
0.31915175914764404 0.4205356240272522 0.065750360488891602
0.44513985514640808 0.4293397068977356 0.029352165758609772
0.56507271528244019 0.43582367897033691 0.019972871989011765
0.67799454927444458 0.44168174266815186 0.023409616202116013
0.77153462171554565 0.45064893364906311 0.050259146839380264
0.85405480861663818 0.45889502763748169 0.087849803268909454
0.91682368516921997 0.46499454975128174 0.11540141701698303
0.96852570772171021 0.4727211594581604 0.13226230442523956
0.99605458974838257 0.48063817620277405 0.1500401645898819
0.002376556396484375 0.48771193623542786 0.13490347564220428
0.0039794472977519035 0.48325368762016296 0.12751229107379913
0.036249212920665741 0.48195776343345642 0.12205386906862259
0.17816005647182465 0.48434752225875854 0.11345358192920685
0.30157974362373352 0.49183303117752075 0.078839398920536041
0.41869950294494629 0.50031840801239014 0.035230778157711029
0.53730952739715576 0.50800156593322754 0.012949386611580849
0.65460211038589478 0.51520681381225586 0.011287659406661987
0.74915558099746704 0.52319616079330444 0.014240279793739319
0.83686953783035278 0.53256410360336304 0.026467520743608475
0.91026252508163452 0.54315471649169922 0.07143402099609375
0.96741575002670288 0.55630117654800415 0.14058473706245422
0.99569076299667358 0.56733405590057373 0.18239298462867737
0.0013530506985262036 0.55707079172134399 0.13523584604263306
0.0057992525398731232 0.55394095182418823 0.13140842318534851
0.024867741391062737 0.55321985483169556 0.12574148178100586
0.16053186357021332 0.5559123158454895 0.11986289173364639
0.29606378078460693 0.56121695041656494 0.093999259173870087
0.41080990433692932 0.56686317920684814 0.054451588541269302
0.52028030157089233 0.57129299640655518 0.025295557454228401
0.6296621561050415 0.57972496747970581 0.01406122837215662
0.72747606039047241 0.58849388360977173 0.011474130675196648
0.81320476531982422 0.59821730852127075 0.011431211605668068
0.88923263549804688 0.60769402980804443 0.018891412764787674
0.95249634981155396 0.6197364330291748 0.065164156258106232
0.99120640754699707 0.63749152421951294 0.15871803462505341
0.0042225406505167484 0.62965154647827148 0.1440548300743103
0.0056536807678639889 0.62836289405822754 0.13850554823875427
0.030623283237218857 0.62607312202453613 0.13102416694164276
0.17021761834621429 0.62667310237884521 0.12543091177940369
0.29544439911842346 0.62935984134674072 0.1096775159239769
0.40592560172080994 0.63194954395294189 0.080193236470222473
0.51099938154220581 0.63410365581512451 0.042168442159891129
0.60985487699508667 0.64169943332672119 0.017052086070179939
0.70190441608428955 0.6535608172416687 0.011198799125850201
0.78941506147384644 0.66294074058532715 0.01162109337747097
0.869953453540802 0.67105841636657715 0.012044001370668411
0.93754088878631592 0.68034780025482178 0.016117170453071594
0.98822158575057983 0.69417440891265869 0.068707935512065887
0.0076607051305472851 0.70140612125396729 0.16004113852977753
0.011436627246439457 0.69977051019668579 0.15237142145633698
0.082818113267421722 0.69774091243743896 0.14732576906681061
0.21518427133560181 0.69621014595031738 0.14779241383075714
0.31913536787033081 0.69729453325271606 0.1367838978767395
0.41725122928619385 0.69679874181747437 0.11281546950340271
0.51158183813095093 0.69846755266189575 0.071068905293941498
0.60086566209793091 0.70514202117919922 0.030545148998498917
0.68809229135513306 0.71593546867370605 0.011376579292118549
0.77658462524414062 0.72658818960189819 0.011255331337451935
0.85556119680404663 0.73412740230560303 0.011001826263964176
0.92383909225463867 0.74317198991775513 0.014120812527835369
0.97960388660430908 0.7538306713104248 0.015319345518946648
0.054862435907125473 0.77291131019592285 0.18561094999313354
0.10344615578651428 0.77044856548309326 0.18687933683395386
0.20225292444229126 0.76788568496704102 0.1896984726190567
0.29699215292930603 0.76678884029388428 0.19501288235187531
0.38250225782394409 0.76401311159133911 0.18989717960357666
0.46247407793998718 0.76192069053649902 0.17443396151065826
0.53909981250762939 0.76292866468429565 0.14835605025291443
0.61938196420669556 0.77024084329605103 0.10241471976041794
0.69428211450576782 0.77938926219940186 0.043611608445644379
0.77168905735015869 0.78827488422393799 0.015204201452434063
0.84597021341323853 0.79730015993118286 0.011713274754583836
0.91542732715606689 0.80765646696090698 0.014341571368277073
0.97071284055709839 0.81601452827453613 0.0086561618372797966
0.2609449028968811 0.84373295307159424 0.2654472291469574
0.28855273127555847 0.84174263477325439 0.2673632800579071
0.33723568916320801 0.84014368057250977 0.26702791452407837
0.39598557353019714 0.83923351764678955 0.26233354210853577
0.46091091632843018 0.83645117282867432 0.26426014304161072
0.52708703279495239 0.83367711305618286 0.26159238815307617
0.58810883760452271 0.83481287956237793 0.24977444112300873
0.65491998195648193 0.84084582328796387 0.22223031520843506
0.72539699077606201 0.847850501537323 0.18641079962253571
0.78698277473449707 0.8538590669631958 0.12567071616649628
0.85032790899276733 0.86228281259536743 0.080188557505607605
0.91431587934494019 0.87195849418640137 0.033065915107727051
0.97014212608337402 0.87828046083450317 0.0095792729407548904
0.45215430855751038 0.9160538911819458 0.39889532327651978
0.46728330850601196 0.91524052619934082 0.39963048696517944
0.49439367651939392 0.91446244716644287 0.39814987778663635
0.52731525897979736 0.91195648908615112 0.39724192023277283
0.57301324605941772 0.91150444746017456 0.40035316348075867
0.62120360136032104 0.90902459621429443 0.4040730893611908
0.67247498035430908 0.91100835800170898 0.40772640705108643
0.72186100482940674 0.91352689266204834 0.39915174245834351
0.77085894346237183 0.91743314266204834 0.37997663021087646
0.82383126020431519 0.92340230941772461 0.35024151206016541
0.87616592645645142 0.93005424737930298 0.32148391008377075
0.92910599708557129 0.93691003322601318 0.27474525570869446
0.98106539249420166 0.94231832027435303 0.20704331994056702
0.029998764395713806 0.029635291546583176 0.14363674819469452
0.08464387059211731 0.025099571794271469 0.15609721839427948
0.15359173715114594 0.019139682874083519 0.16227880120277405
0.1995941698551178 0.03471069410443306 0.14992298185825348
0.27643421292304993 0.047557275742292404 0.15274906158447266
0.38426178693771362 0.024015164002776146 0.15384112298488617
0.50298136472702026 0.01279138308018446 0.16207866370677948
0.61889708042144775 0.0094742272049188614 0.16730090975761414
0.72242265939712524 0.007326043676584959 0.16339458525180817
0.80548793077468872 0.0052235773764550686 0.15836930274963379
0.8793489933013916 0.0060398625209927559 0.15716296434402466
0.94383853673934937 0.0097278067842125893 0.15635533630847931
0.98604518175125122 0.077453106641769409 0.16220995783805847
0.015570486895740032 0.079625882208347321 0.15574593842029572
0.074725955724716187 0.079519279301166534 0.1680949330329895
0.14889754354953766 0.078005515038967133 0.1688816249370575
0.21526044607162476 0.091581083834171295 0.16211035847663879
0.30205109715461731 0.098893456161022186 0.16589443385601044
0.40845239162445068 0.073793061077594757 0.16315510869026184
0.52439892292022705 0.04164436087012291 0.16291087865829468
0.63226044178009033 0.032880835235118866 0.16550825536251068
0.72578340768814087 0.023680787533521652 0.16338616609573364
0.80733472108840942 0.028044382110238075 0.16261926293373108
0.88302654027938843 0.038703933358192444 0.16323414444923401
0.94370287656784058 0.075369156897068024 0.16455855965614319
0.98269170522689819 0.14473354816436768 0.1704300194978714
0.0063479254022240639 0.1535869687795639 0.17378424108028412
0.058432232588529587 0.15806594491004944 0.17951679229736328
0.14795352518558502 0.16395151615142822 0.17863087356090546
0.23107439279556274 0.17283816635608673 0.17253577709197998
0.33336815237998962 0.17703738808631897 0.17733889818191528
0.44256064295768738 0.17055509984493256 0.17743879556655884
0.55315905809402466 0.14771020412445068 0.17501883208751678
0.65094608068466187 0.13878139853477478 0.17381979525089264
0.73758161067962646 0.12659819424152374 0.17084315419197083
0.81602376699447632 0.11994609236717224 0.1683652251958847
0.88780152797698975 0.13417574763298035 0.17047560214996338
0.94581794738769531 0.17182329297065735 0.17365391552448273
0.98481988906860352 0.22584047913551331 0.17817868292331696
0.0053946101106703281 0.24154682457447052 0.19375219941139221
0.029588721692562103 0.25280097126960754 0.1950165182352066
0.1256924569606781 0.26121044158935547 0.18736498057842255
0.24270451068878174 0.26534402370452881 0.17828556895256042
0.3616233766078949 0.26992756128311157 0.17325779795646667
0.47819429636001587 0.27042970061302185 0.18279834091663361
0.58335411548614502 0.25945699214935303 0.18407085537910461
0.67560845613479614 0.25034227967262268 0.18192094564437866
0.75775623321533203 0.24288885295391083 0.17632600665092468
0.83078038692474365 0.23979124426841736 0.17132066190242767
0.89506220817565918 0.25083354115486145 0.17444132268428802
0.9526028037071228 0.27299362421035767 0.17866666615009308
0.99007964134216309 0.30674168467521667 0.18188436329364777
0.0049924063496291637 0.34491422772407532 0.21267381310462952
0.0101521210744977 0.34794831275939941 0.20262296497821808
