luts/instant_pro/fuji_fp-3000b_negative.cube
# Created by: G'MIC (https://gmic.eu)
TITLE "fuji_fp-3000b_negative"
# LUT size
LUT_3D_SIZE 7
# Data domain
DOMAIN_MIN 0.0 0.0 0.0
DOMAIN_MAX 1.0 1.0 1.0
# LUT data points
0.045192237943410873 0.045192237943410873 0.045192237943410873
0.058963760733604431 0.058963760733604431 0.058963760733604431
0.12825949490070343 0.12825949490070343 0.12825949490070343
0.24599820375442505 0.24599820375442505 0.24599820375442505
0.38326588273048401 0.38326588273048401 0.38326588273048401
0.52235937118530273 0.52235937118530273 0.52235937118530273
0.65574723482131958 0.65574723482131958 0.65574723482131958
0.097166784107685089 0.097166784107685089 0.097166784107685089
0.11101356893777847 0.11101356893777847 0.11101356893777847
0.17936371266841888 0.17936371266841888 0.17936371266841888
0.29404038190841675 0.29404038190841675 0.29404038190841675
0.42614224553108215 0.42614224553108215 0.42614224553108215
0.55709969997406006 0.55709969997406006 0.55709969997406006
0.67996025085449219 0.67996025085449219 0.67996025085449219
0.21394354104995728 0.21394354104995728 0.21394354104995728
0.22019167244434357 0.22019167244434357 0.22019167244434357
0.27310839295387268 0.27310839295387268 0.27310839295387268
0.37264558672904968 0.37264558672904968 0.37264558672904968
0.49109777808189392 0.49109777808189392 0.49109777808189392
0.60696244239807129 0.60696244239807129 0.60696244239807129
0.71346563100814819 0.71346563100814819 0.71346563100814819
0.36359375715255737 0.36359375715255737 0.36359375715255737
0.35880082845687866 0.35880082845687866 0.35880082845687866
0.3852728009223938 0.3852728009223938 0.3852728009223938
0.4584868848323822 0.4584868848323822 0.4584868848323822
0.558269202709198 0.558269202709198 0.558269202709198
0.65906190872192383 0.65906190872192383 0.65906190872192383
0.75229769945144653 0.75229769945144653 0.75229769945144653
0.5142219066619873 0.5142219066619873 0.5142219066619873
0.50343269109725952 0.50343269109725952 0.50343269109725952
0.50782185792922974 0.50782185792922974 0.50782185792922974
0.5582427978515625 0.5582427978515625 0.5582427978515625
0.63471734523773193 0.63471734523773193 0.63471734523773193
0.71704584360122681 0.71704584360122681 0.71704584360122681
0.79716044664382935 0.79716044664382935 0.79716044664382935
0.67651402950286865 0.67651402950286865 0.67651402950286865
0.66775614023208618 0.66775614023208618 0.66775614023208618
0.66648536920547485 0.66648536920547485 0.66648536920547485
0.69095462560653687 0.69095462560653687 0.69095462560653687
0.73626160621643066 0.73626160621643066 0.73626160621643066
0.79275369644165039 0.79275369644165039 0.79275369644165039
0.8544999361038208 0.8544999361038208 0.8544999361038208
0.84466230869293213 0.84466230869293213 0.84466230869293213
0.8388906717300415 0.8388906717300415 0.8388906717300415
0.83823567628860474 0.83823567628860474 0.83823567628860474
0.84085649251937866 0.84085649251937866 0.84085649251937866
0.85585153102874756 0.85585153102874756 0.85585153102874756
0.88537496328353882 0.88537496328353882 0.88537496328353882
0.92658752202987671 0.92658752202987671 0.92658752202987671
0.086164064705371857 0.086164064705371857 0.086164064705371857
0.10574305057525635 0.10574305057525635 0.10574305057525635
0.17416180670261383 0.17416180670261383 0.17416180670261383
0.29924675822257996 0.29924675822257996 0.29924675822257996
0.42506062984466553 0.42506062984466553 0.42506062984466553
0.54134923219680786 0.54134923219680786 0.54134923219680786
0.66260725259780884 0.66260725259780884 0.66260725259780884
0.12470021098852158 0.12470021098852158 0.12470021098852158
0.14467351138591766 0.14467351138591766 0.14467351138591766
0.21723915636539459 0.21723915636539459 0.21723915636539459
0.33236965537071228 0.33236965537071228 0.33236965537071228
0.45401415228843689 0.45401415228843689 0.45401415228843689
0.57109421491622925 0.57109421491622925 0.57109421491622925
0.68809300661087036 0.68809300661087036 0.68809300661087036
0.25727322697639465 0.25727322697639465 0.25727322697639465
0.25823813676834106 0.25823813676834106 0.25823813676834106
0.30964899063110352 0.30964899063110352 0.30964899063110352
0.40787413716316223 0.40787413716316223 0.40787413716316223
0.51123946905136108 0.51123946905136108 0.51123946905136108
0.61949783563613892 0.61949783563613892 0.61949783563613892
0.72376477718353271 0.72376477718353271 0.72376477718353271
0.42746010422706604 0.42746010422706604 0.42746010422706604
0.41200456023216248 0.41200456023216248 0.41200456023216248
0.42510920763015747 0.42510920763015747 0.42510920763015747
0.48432382941246033 0.48432382941246033 0.48432382941246033
0.57213270664215088 0.57213270664215088 0.57213270664215088
0.66850054264068604 0.66850054264068604 0.66850054264068604
0.76034843921661377 0.76034843921661377 0.76034843921661377
0.55925899744033813 0.55925899744033813 0.55925899744033813
0.5511515736579895 0.5511515736579895 0.5511515736579895
0.54472249746322632 0.54472249746322632 0.54472249746322632
0.57488346099853516 0.57488346099853516 0.57488346099853516
0.64298504590988159 0.64298504590988159 0.64298504590988159
0.72338390350341797 0.72338390350341797 0.72338390350341797
0.80260837078094482 0.80260837078094482 0.80260837078094482
0.70194023847579956 0.70194023847579956 0.70194023847579956
0.69606047868728638 0.69606047868728638 0.69606047868728638
0.68721181154251099 0.68721181154251099 0.68721181154251099
0.69903409481048584 0.69903409481048584 0.69903409481048584
0.74005895853042603 0.74005895853042603 0.74005895853042603
0.79586011171340942 0.79586011171340942 0.79586011171340942
0.85703110694885254 0.85703110694885254 0.85703110694885254
0.85349887609481812 0.85349887609481812 0.85349887609481812
0.84982609748840332 0.84982609748840332 0.84982609748840332
0.84258913993835449 0.84258913993835449 0.84258913993835449
0.84177863597869873 0.84177863597869873 0.84177863597869873
0.85581690073013306 0.85581690073013306 0.85581690073013306
0.88527607917785645 0.88527607917785645 0.88527607917785645
0.92619341611862183 0.92619341611862183 0.92619341611862183
0.21281434595584869 0.21281434595584869 0.21281434595584869
0.2589457631111145 0.2589457631111145 0.2589457631111145
0.30378478765487671 0.30378478765487671 0.30378478765487671
0.36886131763458252 0.36886131763458252 0.36886131763458252
0.48540517687797546 0.48540517687797546 0.48540517687797546
0.57787454128265381 0.57787454128265381 0.57787454128265381
0.68658918142318726 0.68658918142318726 0.68658918142318726
0.23400416970252991 0.23400416970252991 0.23400416970252991
0.27028179168701172 0.27028179168701172 0.27028179168701172
0.33138123154640198 0.33138123154640198 0.33138123154640198
0.38988035917282104 0.38988035917282104 0.38988035917282104
0.49482765793800354 0.49482765793800354 0.49482765793800354
0.60276937484741211 0.60276937484741211 0.60276937484741211
0.7120063304901123 0.7120063304901123 0.7120063304901123
0.32999929785728455 0.32999929785728455 0.32999929785728455
0.3439575731754303 0.3439575731754303 0.3439575731754303
0.38989859819412231 0.38989859819412231 0.38989859819412231
0.45575341582298279 0.45575341582298279 0.45575341582298279
0.54298597574234009 0.54298597574234009 0.54298597574234009
0.64697659015655518 0.64697659015655518 0.64697659015655518
0.74409520626068115 0.74409520626068115 0.74409520626068115
0.49210271239280701 0.49210271239280701 0.49210271239280701
0.48559460043907166 0.48559460043907166 0.48559460043907166
0.49081516265869141 0.49081516265869141 0.49081516265869141
0.52953708171844482 0.52953708171844482 0.52953708171844482
0.59888797998428345 0.59888797998428345 0.59888797998428345
0.68865424394607544 0.68865424394607544 0.68865424394607544
0.77573239803314209 0.77573239803314209 0.77573239803314209
0.62117660045623779 0.62117660045623779 0.62117660045623779
0.62043648958206177 0.62043648958206177 0.62043648958206177
0.60411787033081055 0.60411787033081055 0.60411787033081055
0.61187249422073364 0.61187249422073364 0.61187249422073364
0.66688722372055054 0.66688722372055054 0.66688722372055054
0.74015891551971436 0.74015891551971436 0.74015891551971436
0.81533855199813843 0.81533855199813843 0.81533855199813843
0.74172085523605347 0.74172085523605347 0.74172085523605347
0.74056887626647949 0.74056887626647949 0.74056887626647949
0.72578328847885132 0.72578328847885132 0.72578328847885132
0.72478169202804565 0.72478169202804565 0.72478169202804565
0.75786298513412476 0.75786298513412476 0.75786298513412476
0.80910485982894897 0.80910485982894897 0.80910485982894897
0.86699700355529785 0.86699700355529785 0.86699700355529785
0.86866378784179688 0.86866378784179688 0.86866378784179688
0.86853212118148804 0.86853212118148804 0.86853212118148804
0.85933429002761841 0.85933429002761841 0.85933429002761841
0.85409116744995117 0.85409116744995117 0.85409116744995117
0.86578381061553955 0.86578381061553955 0.86578381061553955
0.89314812421798706 0.89314812421798706 0.89314812421798706
0.93148469924926758 0.93148469924926758 0.93148469924926758
0.39005506038665771 0.39005506038665771 0.39005506038665771
0.42305988073348999 0.42305988073348999 0.42305988073348999
0.48127558827400208 0.48127558827400208 0.48127558827400208
0.50305920839309692 0.50305920839309692 0.50305920839309692
0.55282199382781982 0.55282199382781982 0.55282199382781982
0.63761395215988159 0.63761395215988159 0.63761395215988159
0.73194402456283569 0.73194402456283569 0.73194402456283569
0.41304844617843628 0.41304844617843628 0.41304844617843628
0.43900665640830994 0.43900665640830994 0.43900665640830994
0.49691274762153625 0.49691274762153625 0.49691274762153625
0.52207332849502563 0.52207332849502563 0.52207332849502563
0.57266736030578613 0.57266736030578613 0.57266736030578613
0.65600824356079102 0.65600824356079102 0.65600824356079102
0.75478619337081909 0.75478619337081909 0.75478619337081909
0.41914486885070801 0.41914486885070801 0.41914486885070801
0.45236992835998535 0.45236992835998535 0.45236992835998535
0.49607151746749878 0.49607151746749878 0.49607151746749878
0.5530390739440918 0.5530390739440918 0.5530390739440918
0.59967029094696045 0.59967029094696045 0.59967029094696045
0.68986445665359497 0.68986445665359497 0.68986445665359497
0.77181828022003174 0.77181828022003174 0.77181828022003174
0.53656899929046631 0.53656899929046631 0.53656899929046631
0.55225718021392822 0.55225718021392822 0.55225718021392822
0.56047552824020386 0.56047552824020386 0.56047552824020386
0.59857213497161865 0.59857213497161865 0.59857213497161865
0.64477527141571045 0.64477527141571045 0.64477527141571045
0.72096425294876099 0.72096425294876099 0.72096425294876099
0.79709452390670776 0.79709452390670776 0.79709452390670776
0.66934740543365479 0.66934740543365479 0.66934740543365479
0.68238216638565063 0.68238216638565063 0.68238216638565063
0.67482113838195801 0.67482113838195801 0.67482113838195801
0.67729496955871582 0.67729496955871582 0.67729496955871582
0.70886558294296265 0.70886558294296265 0.70886558294296265
0.76872056722640991 0.76872056722640991 0.76872056722640991
0.83540183305740356 0.83540183305740356 0.83540183305740356
0.77911108732223511 0.77911108732223511 0.77911108732223511
0.78431606292724609 0.78431606292724609 0.78431606292724609
0.77474296092987061 0.77474296092987061 0.77474296092987061
0.76980817317962646 0.76980817317962646 0.76980817317962646
0.79067450761795044 0.79067450761795044 0.79067450761795044
0.83235234022140503 0.83235234022140503 0.83235234022140503
0.88345640897750854 0.88345640897750854 0.88345640897750854
0.88656055927276611 0.88656055927276611 0.88656055927276611
0.8920406699180603 0.8920406699180603 0.8920406699180603
0.88612204790115356 0.88612204790115356 0.88612204790115356
0.87923258543014526 0.87923258543014526 0.87923258543014526
0.88638502359390259 0.88638502359390259 0.88638502359390259
0.90784645080566406 0.90784645080566406 0.90784645080566406
0.94019871950149536 0.94019871950149536 0.94019871950149536
0.56435257196426392 0.56435257196426392 0.56435257196426392
0.57696843147277832 0.57696843147277832 0.57696843147277832
0.62429636716842651 0.62429636716842651 0.62429636716842651
0.66636186838150024 0.66636186838150024 0.66636186838150024
0.69302833080291748 0.69302833080291748 0.69302833080291748
0.7129828929901123 0.7129828929901123 0.7129828929901123
0.77233207225799561 0.77233207225799561 0.77233207225799561
0.58602678775787354 0.58602678775787354 0.58602678775787354
0.59785163402557373 0.59785163402557373 0.59785163402557373
0.64068746566772461 0.64068746566772461 0.64068746566772461
0.68272465467453003 0.68272465467453003 0.68272465467453003
0.68968582153320312 0.68968582153320312 0.68968582153320312
0.71030336618423462 0.71030336618423462 0.71030336618423462
0.78517425060272217 0.78517425060272217 0.78517425060272217
0.57819432020187378 0.57819432020187378 0.57819432020187378
0.58774328231811523 0.58774328231811523 0.58774328231811523
0.62319236993789673 0.62319236993789673 0.62319236993789673
0.68354201316833496 0.68354201316833496 0.68354201316833496
0.69879752397537231 0.69879752397537231 0.69879752397537231
0.73825299739837646 0.73825299739837646 0.73825299739837646
0.7987445592880249 0.7987445592880249 0.7987445592880249
0.62522703409194946 0.62522703409194946 0.62522703409194946
0.62403100728988647 0.62403100728988647 0.62403100728988647
0.63689374923706055 0.63689374923706055 0.63689374923706055
0.68127024173736572 0.68127024173736572 0.68127024173736572
0.71715027093887329 0.71715027093887329 0.71715027093887329
0.76789355278015137 0.76789355278015137 0.76789355278015137
0.82389426231384277 0.82389426231384277 0.82389426231384277
0.71764445304870605 0.71764445304870605 0.71764445304870605
0.71961545944213867 0.71961545944213867 0.71961545944213867
0.71899509429931641 0.71899509429931641 0.71899509429931641
0.73009705543518066 0.73009705543518066 0.73009705543518066
0.75910776853561401 0.75910776853561401 0.75910776853561401
0.80766493082046509 0.80766493082046509 0.80766493082046509
0.86082935333251953 0.86082935333251953 0.86082935333251953
0.81000691652297974 0.81000691652297974 0.81000691652297974
0.81490981578826904 0.81490981578826904 0.81490981578826904
0.81178575754165649 0.81178575754165649 0.81178575754165649
0.81106293201446533 0.81106293201446533 0.81106293201446533
0.82839775085449219 0.82839775085449219 0.82839775085449219
0.861530601978302 0.861530601978302 0.861530601978302
0.90204298496246338 0.90204298496246338 0.90204298496246338
0.90124225616455078 0.90124225616455078 0.90124225616455078
0.90954881906509399 0.90954881906509399 0.90954881906509399
0.90969091653823853 0.90969091653823853 0.90969091653823853
0.90760684013366699 0.90760684013366699 0.90760684013366699
0.91379302740097046 0.91379302740097046 0.91379302740097046
0.92655378580093384 0.92655378580093384 0.92655378580093384
0.94898611307144165 0.94898611307144165 0.94898611307144165
0.7316092848777771 0.7316092848777771 0.7316092848777771
0.7396007776260376 0.7396007776260376 0.7396007776260376
0.762806236743927 0.762806236743927 0.762806236743927
0.79647022485733032 0.79647022485733032 0.79647022485733032
0.81559878587722778 0.81559878587722778 0.81559878587722778
0.80940777063369751 0.80940777063369751 0.80940777063369751
0.83311879634857178 0.83311879634857178 0.83311879634857178
0.74514710903167725 0.74514710903167725 0.74514710903167725
0.75089114904403687 0.75089114904403687 0.75089114904403687
0.77181684970855713 0.77181684970855713 0.77181684970855713
0.80159926414489746 0.80159926414489746 0.80159926414489746
0.81354933977127075 0.81354933977127075 0.81354933977127075
0.81724172830581665 0.81724172830581665 0.81724172830581665
0.84176647663116455 0.84176647663116455 0.84176647663116455
0.73790270090103149 0.73790270090103149 0.73790270090103149
0.74043935537338257 0.74043935537338257 0.74043935537338257
0.75878489017486572 0.75878489017486572 0.75878489017486572
0.79157716035842896 0.79157716035842896 0.79157716035842896
0.81229031085968018 0.81229031085968018 0.81229031085968018
0.83126485347747803 0.83126485347747803 0.83126485347747803
0.84830302000045776 0.84830302000045776 0.84830302000045776
0.74784356355667114 0.74784356355667114 0.74784356355667114
0.74499690532684326 0.74499690532684326 0.74499690532684326
0.75343340635299683 0.75343340635299683 0.75343340635299683
0.77936148643493652 0.77936148643493652 0.77936148643493652
0.80928307771682739 0.80928307771682739 0.80928307771682739
0.84174132347106934 0.84174132347106934 0.84174132347106934
0.87030816078186035 0.87030816078186035 0.87030816078186035
0.7915656566619873 0.7915656566619873 0.7915656566619873
0.79004251956939697 0.79004251956939697 0.79004251956939697
0.78955352306365967 0.78955352306365967 0.78955352306365967
0.79596531391143799 0.79596531391143799 0.79596531391143799
0.82429081201553345 0.82429081201553345 0.82429081201553345
0.86409181356430054 0.86409181356430054 0.86409181356430054
0.89988279342651367 0.89988279342651367 0.89988279342651367
0.85045456886291504 0.85045456886291504 0.85045456886291504
0.85421645641326904 0.85421645641326904 0.85421645641326904
0.85512393712997437 0.85512393712997437 0.85512393712997437
0.85744172334671021 0.85744172334671021 0.85744172334671021
0.87430363893508911 0.87430363893508911 0.87430363893508911
0.89935433864593506 0.89935433864593506 0.89935433864593506
0.92579150199890137 0.92579150199890137 0.92579150199890137
0.91882032155990601 0.91882032155990601 0.91882032155990601
0.92672812938690186 0.92672812938690186 0.92672812938690186
0.93333274126052856 0.93333274126052856 0.93333274126052856
0.93885308504104614 0.93885308504104614 0.93885308504104614
0.94640260934829712 0.94640260934829712 0.94640260934829712
0.94852262735366821 0.94852262735366821 0.94852262735366821
0.95907169580459595 0.95907169580459595 0.95907169580459595
0.88214588165283203 0.88214588165283203 0.88214588165283203
0.88339674472808838 0.88339674472808838 0.88339674472808838
0.88745009899139404 0.88745009899139404 0.88745009899139404
0.90038514137268066 0.90038514137268066 0.90038514137268066
0.91560423374176025 0.91560423374176025 0.91560423374176025
0.91841644048690796 0.91841644048690796 0.91841644048690796
0.92804157733917236 0.92804157733917236 0.92804157733917236
0.88543969392776489 0.88543969392776489 0.88543969392776489
0.8891405463218689 0.8891405463218689 0.8891405463218689
0.89506834745407104 0.89506834745407104 0.89506834745407104
0.90902912616729736 0.90902912616729736 0.90902912616729736
0.9258427619934082 0.9258427619934082 0.9258427619934082
0.93560123443603516 0.93560123443603516 0.93560123443603516
0.93531256914138794 0.93531256914138794 0.93531256914138794
0.87802779674530029 0.87802779674530029 0.87802779674530029
0.88419049978256226 0.88419049978256226 0.88419049978256226
0.89171391725540161 0.89171391725540161 0.89171391725540161
0.90577298402786255 0.90577298402786255 0.90577298402786255
0.92547488212585449 0.92547488212585449 0.92547488212585449
0.94162452220916748 0.94162452220916748 0.94162452220916748
0.93699419498443604 0.93699419498443604 0.93699419498443604
0.87538868188858032 0.87538868188858032 0.87538868188858032
0.88354694843292236 0.88354694843292236 0.88354694843292236
0.88793730735778809 0.88793730735778809 0.88793730735778809
0.89496880769729614 0.89496880769729614 0.89496880769729614
0.91421300172805786 0.91421300172805786 0.91421300172805786
0.93523067235946655 0.93523067235946655 0.93523067235946655
0.94652658700942993 0.94652658700942993 0.94652658700942993
0.88649183511734009 0.88649183511734009 0.88649183511734009
0.89204651117324829 0.89204651117324829 0.89204651117324829
0.89334815740585327 0.89334815740585327 0.89334815740585327
0.89603030681610107 0.89603030681610107 0.89603030681610107
0.91366446018218994 0.91366446018218994 0.91366446018218994
0.94120854139328003 0.94120854139328003 0.94120854139328003
0.96273720264434814 0.96273720264434814 0.96273720264434814
0.91111087799072266 0.91111087799072266 0.91111087799072266
0.91702628135681152 0.91702628135681152 0.91702628135681152
0.92239785194396973 0.92239785194396973 0.92239785194396973
0.92624413967132568 0.92624413967132568 0.92624413967132568
0.93744271993637085 0.93744271993637085 0.93744271993637085
0.95249134302139282 0.95249134302139282 0.95249134302139282
0.96728873252868652 0.96728873252868652 0.96728873252868652
0.95283275842666626 0.95283275842666626 0.95283275842666626
0.96243220567703247 0.96243220567703247 0.96243220567703247
0.97247916460037231 0.97247916460037231 0.97247916460037231
0.97938787937164307 0.97938787937164307 0.97938787937164307
0.98256552219390869 0.98256552219390869 0.98256552219390869
0.98047363758087158 0.98047363758087158 0.98047363758087158
0.98050910234451294 0.98050910234451294 0.98050910234451294
