luts/instant_pro/fuji_fp-100c_cool_+.cube
# Created by: G'MIC (https://gmic.eu)
TITLE "fuji_fp-100c_cool_+"
# LUT size
LUT_3D_SIZE 13
# Data domain
DOMAIN_MIN 0.0 0.0 0.0
DOMAIN_MAX 1.0 1.0 1.0
# LUT data points
0.094856411218643188 0.064541608095169067 0.13498671352863312
0.12050606310367584 0.063751295208930969 0.13966499269008636
0.15568393468856812 0.059771206229925156 0.13665235042572021
0.21556571125984192 0.051663313060998917 0.13978855311870575
0.29851767420768738 0.036803539842367172 0.14463767409324646
0.38132360577583313 0.019515857100486755 0.14565527439117432
0.47967579960823059 0.011862810701131821 0.15245717763900757
0.5845915675163269 0.0091307396069169044 0.16058053076267242
0.67771339416503906 0.010777357965707779 0.16522975265979767
0.7585492730140686 0.011846384964883327 0.16868950426578522
0.83713102340698242 0.011652329005300999 0.17180123925209045
0.90960109233856201 0.024189773947000504 0.17442764341831207
0.970378577709198 0.10074497014284134 0.18292555212974548
0.099113821983337402 0.097052633762359619 0.14449410140514374
0.12756320834159851 0.095856912434101105 0.14480429887771606
0.16825176775455475 0.088634490966796875 0.14015814661979675
0.22798389196395874 0.0829123854637146 0.14168629050254822
0.30882513523101807 0.073243506252765656 0.14782260358333588
0.39120399951934814 0.056336659938097 0.14939418435096741
0.48906859755516052 0.037116076797246933 0.15517880022525787
0.5885998010635376 0.023140447214245796 0.16110967099666595
0.68262284994125366 0.019438380375504494 0.16450491547584534
0.76235222816467285 0.029381053522229195 0.16759021580219269
0.84081035852432251 0.048541199415922165 0.17230601608753204
0.91161072254180908 0.092288076877593994 0.17830832302570343
0.97115254402160645 0.16021278500556946 0.18661759793758392
0.10196635127067566 0.13499908149242401 0.15166176855564117
0.13175591826438904 0.14075842499732971 0.15193015336990356
0.17503853142261505 0.14057175815105438 0.15035761892795563
0.24686695635318756 0.14643612504005432 0.14823852479457855
0.32607543468475342 0.14477430284023285 0.14955002069473267
0.41407081484794617 0.13481441140174866 0.1533789187669754
0.51673716306686401 0.12357612699270248 0.16177552938461304
0.61394888162612915 0.11401288211345673 0.16819489002227783
0.69869685173034668 0.1075265184044838 0.17065432667732239
0.77368277311325073 0.1250358372926712 0.17164932191371918
0.84989786148071289 0.1555706113576889 0.17531463503837585
0.9162483811378479 0.197466641664505 0.1836620569229126
0.97390705347061157 0.24036616086959839 0.19266103208065033
0.096686378121376038 0.19351331889629364 0.16482892632484436
0.12979403138160706 0.19519554078578949 0.16301439702510834
0.17821626365184784 0.19794380664825439 0.15930433571338654
0.26015892624855042 0.21367381513118744 0.15467505156993866
0.3435077965259552 0.22440522909164429 0.14703662693500519
0.43584766983985901 0.22277577221393585 0.15116159617900848
0.54229527711868286 0.22932438552379608 0.16364681720733643
0.63949471712112427 0.22894766926765442 0.17110195755958557
0.7189674973487854 0.23055113852024078 0.17521734535694122
0.79273462295532227 0.2445511519908905 0.1775299608707428
0.86223524808883667 0.26308718323707581 0.17951792478561401
0.91894829273223877 0.28818151354789734 0.19135385751724243
0.97159481048583984 0.32107174396514893 0.20535214245319366
0.069499567151069641 0.27478218078613281 0.17996691167354584
0.11305753141641617 0.27605250477790833 0.17920266091823578
0.17389658093452454 0.27952885627746582 0.17570739984512329
0.25833261013031006 0.29298442602157593 0.16733661293983459
0.34745132923126221 0.30621126294136047 0.15246318280696869
0.44438818097114563 0.31928914785385132 0.14189466834068298
0.54842311143875122 0.33014830946922302 0.14849917590618134
0.65052551031112671 0.34105351567268372 0.1632084995508194
0.73710352182388306 0.35095292329788208 0.17590390145778656
0.81108182668685913 0.36236375570297241 0.18160331249237061
0.86975640058517456 0.36947456002235413 0.19006495177745819
0.92337226867675781 0.37935996055603027 0.20006056129932404
0.9734223484992981 0.40196704864501953 0.21471907198429108
0.017919577658176422 0.36815503239631653 0.19146277010440826
0.066227421164512634 0.36909610033035278 0.19147875905036926
0.1561497300863266 0.3660462498664856 0.19099262356758118
0.24559299647808075 0.37591320276260376 0.18288043141365051
0.33369931578636169 0.38863956928253174 0.1679864227771759
0.43173643946647644 0.40474042296409607 0.14497599005699158
0.53300464153289795 0.41826236248016357 0.12307648360729218
0.63230371475219727 0.429604172706604 0.12812751531600952
0.72868484258651733 0.44631719589233398 0.14673031866550446
0.81351512670516968 0.46183153986930847 0.17209185659885406
0.8758510947227478 0.47042691707611084 0.19683946669101715
0.93083649873733521 0.47335845232009888 0.20868746936321259
0.97796720266342163 0.48588681221008301 0.22387436032295227
0.0043654497712850571 0.45664677023887634 0.20241047441959381
0.022636773064732552 0.4573667049407959 0.20073875784873962
0.12052245438098907 0.4536164402961731 0.20139181613922119
0.2233433723449707 0.45796889066696167 0.19459198415279388
0.31421101093292236 0.46672812104225159 0.18183791637420654
0.4071442186832428 0.47557210922241211 0.16161365807056427
0.50674402713775635 0.48769006133079529 0.13176588714122772
0.60951250791549683 0.50520670413970947 0.091352038085460663
0.70580542087554932 0.52050900459289551 0.084187917411327362
0.79066860675811768 0.53309464454650879 0.11303924769163132
0.86555963754653931 0.5488811731338501 0.16374035179615021
0.93223518133163452 0.56208699941635132 0.21280913054943085
0.97833538055419922 0.57263988256454468 0.24826274812221527
0.0040116850286722183 0.53873074054718018 0.21495644748210907
0.011518470942974091 0.53760963678359985 0.21315585076808929
0.087085545063018799 0.53511357307434082 0.21160787343978882
0.20061321556568146 0.53454667329788208 0.20470669865608215
0.29321083426475525 0.53827393054962158 0.19373135268688202
0.38210061192512512 0.54345011711120605 0.17695532739162445
0.47944030165672302 0.55350255966186523 0.14920902252197266
0.5840645432472229 0.57053118944168091 0.096992149949073792
0.68283122777938843 0.58701759576797485 0.04204312339425087
0.76788395643234253 0.59915626049041748 0.039746139198541641
0.84558606147766113 0.61273056268692017 0.089327551424503326
0.91358101367950439 0.62799066305160522 0.15748739242553711
0.96959662437438965 0.64271485805511475 0.23283156752586365
0.0043394798412919044 0.61543995141983032 0.22511759400367737
0.0066255009733140469 0.61290103197097778 0.2201845794916153
0.055707968771457672 0.6079602837562561 0.21688668429851532
0.18921761214733124 0.60453516244888306 0.21650709211826324
0.28678655624389648 0.60799813270568848 0.20996089279651642
0.3770257830619812 0.61209958791732788 0.19730275869369507
0.46572664380073547 0.61895489692687988 0.17827175557613373
0.56322312355041504 0.63398969173431396 0.1314769983291626
0.66111046075820923 0.65234792232513428 0.069163978099822998
0.7485005259513855 0.66624504327774048 0.019358033314347267
0.83087867498397827 0.67306411266326904 0.019455179572105408
0.89770352840423584 0.68516600131988525 0.079828597605228424
0.95831590890884399 0.69914555549621582 0.17167912423610687
0.004159979522228241 0.68895936012268066 0.23559747636318207
0.0069719203747808933 0.68491953611373901 0.23265092074871063
0.069869652390480042 0.68090236186981201 0.23186182975769043
0.20426541566848755 0.677573561668396 0.23662823438644409
0.30042946338653564 0.67736166715621948 0.23481413722038269
0.38844180107116699 0.67974954843521118 0.22575278580188751
0.47444590926170349 0.68647253513336182 0.21481913328170776
0.55990433692932129 0.6998329758644104 0.18160267174243927
0.64645123481750488 0.71539700031280518 0.13380052149295807
0.73393434286117554 0.72975420951843262 0.072422772645950317
0.81554198265075684 0.73595923185348511 0.019741581752896309
0.8878251314163208 0.74145853519439697 0.018055979162454605
0.95176208019256592 0.75302082300186157 0.088188022375106812
0.022368846461176872 0.76211810111999512 0.26306056976318359
0.060734916478395462 0.75905734300613403 0.26296162605285645
0.15563879907131195 0.75566184520721436 0.2639860212802887
0.24368150532245636 0.7505488395690918 0.26651844382286072
0.33180698752403259 0.74845165014266968 0.26839402318000793
0.41207459568977356 0.74986535310745239 0.26457789540290833
0.49067410826683044 0.75693345069885254 0.2540137767791748
0.56983113288879395 0.76757270097732544 0.23281317949295044
0.64663994312286377 0.77810937166213989 0.20366261899471283
0.72771984338760376 0.78789478540420532 0.16052135825157166
0.807201087474823 0.79538196325302124 0.090616561472415924
0.87821084260940552 0.80325901508331299 0.029412003234028816
0.94391590356826782 0.80877494812011719 0.02008483000099659
0.19717930257320404 0.837424635887146 0.33464017510414124
0.22516980767250061 0.83192163705825806 0.33295723795890808
0.27775269746780396 0.8271445631980896 0.32958558201789856
0.33905279636383057 0.82323753833770752 0.33050996065139771
0.40473130345344543 0.82502895593643188 0.33392292261123657
0.47344744205474854 0.82578665018081665 0.33790826797485352
0.53676372766494751 0.83053916692733765 0.32854923605918884
0.60340571403503418 0.83710592985153198 0.3184298574924469
0.67085927724838257 0.84404540061950684 0.30076625943183899
0.74114125967025757 0.85198378562927246 0.27238044142723083
0.81494063138961792 0.85833311080932617 0.22498385608196259
0.88490009307861328 0.865561842918396 0.17854523658752441
0.94383174180984497 0.87068122625350952 0.10255249589681625
0.39901453256607056 0.90766173601150513 0.45970135927200317
0.41213011741638184 0.90589576959609985 0.45739924907684326
0.43840104341506958 0.90423029661178589 0.45291700959205627
0.47856390476226807 0.89881861209869385 0.45407658815383911
0.52087831497192383 0.89949280023574829 0.45814439654350281
0.57031345367431641 0.90183752775192261 0.46284288167953491
0.62208622694015503 0.90382695198059082 0.46559125185012817
0.67175674438476562 0.90863031148910522 0.46218764781951904
0.72466558218002319 0.91337001323699951 0.45250129699707031
0.77981597185134888 0.91785264015197754 0.43442913889884949
0.84286397695541382 0.9254271388053894 0.42196488380432129
0.90237945318222046 0.93172985315322876 0.39975175261497498
0.95371663570404053 0.93680304288864136 0.35772901773452759
0.092576809227466583 0.063876144587993622 0.16310985386371613
0.11492732912302017 0.062212191522121429 0.15770500898361206
0.15388220548629761 0.060252632945775986 0.16098333895206451
0.20940424501895905 0.057128172367811203 0.16965746879577637
0.29225009679794312 0.038662150502204895 0.17491307854652405
0.38138654828071594 0.01544876117259264 0.17634093761444092
0.48157715797424316 0.010694600641727448 0.18696235120296478
0.58268743753433228 0.011761010624468327 0.19620509445667267
0.67684054374694824 0.010799797251820564 0.19652479887008667
0.7607613205909729 0.0084640206769108772 0.19620004296302795
0.8388785719871521 0.0068993512541055679 0.19626057147979736
0.90993237495422363 0.023511474952101707 0.198319211602211
0.96944820880889893 0.103860042989254 0.20573875308036804
0.096064038574695587 0.0905914306640625 0.16876626014709473
0.12325717508792877 0.095702275633811951 0.16842472553253174
0.16695784032344818 0.093964368104934692 0.1713615357875824
0.22641293704509735 0.091225132346153259 0.17886969447135925
0.30192369222640991 0.082476310431957245 0.18471558392047882
0.39556962251663208 0.061610862612724304 0.18656399846076965
0.49588251113891602 0.043242197483778 0.19487695395946503
0.59327101707458496 0.033132322132587433 0.20109350979328156
0.68326103687286377 0.02674795500934124 0.19989219307899475
0.76536178588867188 0.028396038338541985 0.19757890701293945
0.84277826547622681 0.047235332429409027 0.19844602048397064
0.91141360998153687 0.099632576107978821 0.20430897176265717
0.97122317552566528 0.1628216952085495 0.21143291890621185
0.099572651088237762 0.14020776748657227 0.18307477235794067
0.13142853975296021 0.14579138159751892 0.18388032913208008
0.17687241733074188 0.14610321819782257 0.18473260104656219
0.24797847867012024 0.15341949462890625 0.18644145131111145
0.32769063115119934 0.15208078920841217 0.18815986812114716
0.42023107409477234 0.13758394122123718 0.19290816783905029
0.5218082070350647 0.12984356284141541 0.2024359405040741
0.61787176132202148 0.1207524761557579 0.20826764404773712
0.70092213153839111 0.11692959815263748 0.20753353834152222
0.77743208408355713 0.13263474404811859 0.20477968454360962
0.85292351245880127 0.15912202000617981 0.20313364267349243
0.91705793142318726 0.20213589072227478 0.21062631905078888
0.97397124767303467 0.24213849008083344 0.21873518824577332
0.095721617341041565 0.21265779435634613 0.20507203042507172
0.13078989088535309 0.20576214790344238 0.19841256737709045
0.18586869537830353 0.20538733899593353 0.19443683326244354
0.26716738939285278 0.22155699133872986 0.19176012277603149
0.3511832058429718 0.23270320892333984 0.1851189136505127
0.44602265954017639 0.23047952353954315 0.19278889894485474
0.5485273003578186 0.23433336615562439 0.20869164168834686
0.64168930053710938 0.2318727970123291 0.21367153525352478
0.72077876329421997 0.23620697855949402 0.21441897749900818
0.79469770193099976 0.25258508324623108 0.21263709664344788
0.86416608095169067 0.2690771222114563 0.21089109778404236
0.92137813568115234 0.29007846117019653 0.21804359555244446
0.97373896837234497 0.3205873966217041 0.228485107421875
0.051079258322715759 0.29796838760375977 0.21670685708522797
0.096776567399501801 0.29287815093994141 0.21154183149337769
0.17602698504924774 0.2911742627620697 0.20849886536598206
0.26542839407920837 0.30337214469909668 0.20164695382118225
0.35614719986915588 0.3163052499294281 0.18834075331687927
0.45477384328842163 0.3276619017124176 0.1846470981836319
0.5562819242477417 0.33516985177993774 0.19657009840011597
0.65310847759246826 0.34092998504638672 0.20988374948501587
0.73862177133560181 0.35307228565216064 0.21965184807777405
0.80899935960769653 0.36591258645057678 0.22221854329109192
0.86915844678878784 0.37380328774452209 0.22487607598304749
0.92618167400360107 0.37974196672439575 0.22630724310874939
0.9767305850982666 0.40077802538871765 0.2365211695432663
0.012472848407924175 0.38903558254241943 0.22368772327899933
0.051161970943212509 0.38753944635391235 0.2213674932718277
0.14917679131031036 0.38398122787475586 0.22251889109611511
0.24712184071540833 0.38849857449531555 0.21593892574310303
0.34077268838882446 0.39664754271507263 0.20230552554130554
0.44023257493972778 0.40929749608039856 0.18284289538860321
0.54163938760757446 0.42269918322563171 0.1629842221736908
0.63984042406082153 0.43422979116439819 0.17224667966365814
0.73267781734466553 0.45009288191795349 0.1980908215045929
0.80892229080200195 0.46415674686431885 0.21893499791622162
0.87326890230178833 0.4728996753692627 0.23271597921848297
0.92959785461425781 0.4777807891368866 0.24167434871196747
0.9771607518196106 0.48872387409210205 0.25319820642471313
0.0078239738941192627 0.47223612666130066 0.22995485365390778
0.018091732636094093 0.4709436297416687 0.22738607227802277
0.11312088370323181 0.46840998530387878 0.22730052471160889
0.22396114468574524 0.47029563784599304 0.22268016636371613
0.31813535094261169 0.47479140758514404 0.2143707275390625
0.41496258974075317 0.48202240467071533 0.19534152746200562
0.51960819959640503 0.49404561519622803 0.1655740886926651
0.61879885196685791 0.50856506824493408 0.14034566283226013
0.70966768264770508 0.5217321515083313 0.14508074522018433
0.78977841138839722 0.53702658414840698 0.16662290692329407
0.86451554298400879 0.55385065078735352 0.20528899133205414
0.92984861135482788 0.56702858209609985 0.24728132784366608
0.97543942928314209 0.57487392425537109 0.26856037974357605
0.0075666988268494606 0.54930990934371948 0.23938748240470886
0.0089043257758021355 0.54842174053192139 0.23497864603996277
0.080003775656223297 0.54564034938812256 0.23149052262306213
0.20162296295166016 0.54566144943237305 0.22921545803546906
0.29901283979415894 0.5474545955657959 0.2230716198682785
0.39346551895141602 0.55059295892715454 0.21309797465801239
0.49509444832801819 0.55982100963592529 0.19061614573001862
0.59675711393356323 0.57487988471984863 0.14915134012699127
0.68926715850830078 0.5888640284538269 0.10305877029895782
0.77058893442153931 0.60410100221633911 0.093517482280731201
0.8464815616607666 0.61788493394851685 0.13977035880088806
0.91407895088195801 0.63138687610626221 0.20610210299491882
0.96583318710327148 0.64569783210754395 0.26607540249824524
0.0056321537122130394 0.62601244449615479 0.2498822808265686
0.0096294628456234932 0.62347686290740967 0.24458196759223938
0.055052440613508224 0.61842286586761475 0.2395016998052597
0.19143863022327423 0.61582773923873901 0.24121168255805969
0.2920469343662262 0.61780476570129395 0.23774375021457672
0.38516983389854431 0.62072229385375977 0.23156031966209412
0.47705763578414917 0.62653487920761108 0.21493037045001984
0.57558125257492065 0.63914185762405396 0.17280048131942749
0.66871488094329834 0.65426403284072876 0.12171068042516708
0.75446993112564087 0.66743433475494385 0.064395934343338013
0.83340531587600708 0.67585605382919312 0.062698081135749817
0.90137887001037598 0.68795275688171387 0.13826671242713928
0.9587293267250061 0.7016904354095459 0.21819309890270233
0.0045027490705251694 0.69763427972793579 0.26098513603210449
0.009881352074444294 0.69359421730041504 0.25820821523666382
0.075205199420452118 0.68867629766464233 0.25589126348495483
0.20741058886051178 0.68563741445541382 0.26209759712219238
0.30473017692565918 0.68480604887008667 0.26388537883758545
0.3906816840171814 0.68794173002243042 0.25445985794067383
0.47262716293334961 0.69334238767623901 0.23747853934764862
0.56156903505325317 0.70510047674179077 0.20585979521274567
0.65004879236221313 0.71914613246917725 0.16928692162036896
0.7360045313835144 0.73001223802566528 0.12031304091215134
0.81843173503875732 0.7351488471031189 0.052192792296409607
0.8894389271736145 0.74309754371643066 0.043374769389629364
0.95295768976211548 0.75473761558532715 0.13814188539981842
0.025808535516262054 0.76764029264450073 0.28591451048851013
0.05636303499341011 0.7649807333946228 0.28569895029067993
0.15563702583312988 0.76004362106323242 0.28582176566123962
0.24749575555324554 0.75493651628494263 0.29188698530197144
0.33512946963310242 0.75177901983261108 0.29557693004608154
0.41559496521949768 0.75456821918487549 0.28978043794631958
0.49231183528900146 0.76146203279495239 0.27861160039901733
0.57002753019332886 0.77070814371109009 0.26144355535507202
0.65438491106033325 0.78194582462310791 0.23765422403812408
0.73606711626052856 0.79172253608703613 0.20677164196968079
0.81241768598556519 0.7973097562789917 0.13861866295337677
0.8811531662940979 0.80244380235671997 0.062155898660421371
0.94486010074615479 0.8089442253112793 0.044297777116298676
0.19963349401950836 0.83884948492050171 0.35239362716674805
0.22468404471874237 0.83527231216430664 0.34880068898200989
0.27855217456817627 0.83077913522720337 0.34913647174835205
0.34294840693473816 0.82875591516494751 0.35143402218818665
0.40889137983322144 0.82720303535461426 0.35645967721939087
0.47620910406112671 0.82883960008621216 0.35606929659843445
0.53833001852035522 0.83293634653091431 0.34909656643867493
0.60474050045013428 0.83853566646575928 0.33986768126487732
0.67246341705322266 0.8465425968170166 0.32473653554916382
0.74492627382278442 0.85387605428695679 0.30430027842521667
0.8163256049156189 0.86014819145202637 0.26248288154602051
0.8847014307975769 0.86653441190719604 0.20200297236442566
0.94594734907150269 0.87158644199371338 0.13376286625862122
0.4013124406337738 0.90889912843704224 0.47208523750305176
0.41041362285614014 0.90715330839157104 0.46519386768341064
0.43843251466751099 0.90492928028106689 0.46458259224891663
0.47714018821716309 0.90295600891113281 0.46657416224479675
0.51968276500701904 0.90231913328170776 0.46764332056045532
0.5702318549156189 0.902962327003479 0.47445794939994812
0.62599951028823853 0.90494358539581299 0.48386549949645996
0.67473584413528442 0.90832114219665527 0.47914806008338928
0.7221640944480896 0.91142809391021729 0.46125882863998413
0.778128981590271 0.91732043027877808 0.44969475269317627
0.84050500392913818 0.92604190111160278 0.43576487898826599
0.90079331398010254 0.93177920579910278 0.41024956107139587
0.95374149084091187 0.93813794851303101 0.3788418173789978
0.087408669292926788 0.062758050858974457 0.2014148086309433
0.11643235385417938 0.059486687183380127 0.20670053362846375
0.1612379401922226 0.05657564103603363 0.20999197661876678
0.20911398530006409 0.055885914713144302 0.21136640012264252
0.27657970786094666 0.056496474891901016 0.2174534946680069
0.3696674108505249 0.028527906164526939 0.22065705060958862
0.47263675928115845 0.0097636356949806213 0.2314920574426651
0.57806402444839478 0.0090728607028722763 0.23923224210739136
0.67480349540710449 0.0082831587642431259 0.23811289668083191
0.76174038648605347 0.0076355277560651302 0.23543773591518402
0.84074825048446655 0.0071257944218814373 0.23541595041751862
0.90909385681152344 0.024503042921423912 0.23854030668735504
0.96862077713012695 0.095838882029056549 0.24376286566257477
0.092141933739185333 0.090023398399353027 0.21196924149990082
0.12728741765022278 0.094229660928249359 0.21791642904281616
0.16926313936710358 0.092173226177692413 0.21858233213424683
0.22299051284790039 0.093888886272907257 0.22178442776203156
0.29299566149711609 0.09176509827375412 0.22707304358482361
0.38993304967880249 0.067046113312244415 0.2282787412405014
0.49463608860969543 0.040551040321588516 0.23631079494953156
0.59556227922439575 0.033491246402263641 0.24165795743465424
0.68523949384689331 0.027379726991057396 0.24010166525840759
0.76712924242019653 0.029259087517857552 0.23860721290111542
0.84310293197631836 0.047115132212638855 0.2406337559223175
0.91095709800720215 0.093472033739089966 0.24437877535820007
0.97129565477371216 0.1581597775220871 0.24912525713443756
0.097562290728092194 0.14513598382472992 0.22975990176200867
0.13457140326499939 0.14755721390247345 0.23540790379047394
0.17955693602561951 0.14763076603412628 0.2362511157989502
0.2459598183631897 0.15692415833473206 0.23816050589084625
0.32770752906799316 0.15538609027862549 0.23908481001853943
0.42194214463233948 0.14530608057975769 0.24064043164253235
0.52272599935531616 0.13603506982326508 0.24821707606315613
0.61919772624969482 0.12880302965641022 0.25176844000816345
0.70119494199752808 0.1254863440990448 0.25140553712844849
0.77689886093139648 0.13714888691902161 0.25091809034347534
0.85071003437042236 0.15789200365543365 0.25218331813812256
0.9154859185218811 0.1916942298412323 0.25460216403007507
0.97255134582519531 0.23634235560894012 0.258758544921875
0.090758286416530609 0.22275407612323761 0.25184649229049683
0.13198983669281006 0.21995441615581512 0.25294137001037598
0.18850913643836975 0.21789978444576263 0.25189027190208435
0.26441726088523865 0.230052649974823 0.24977396428585052
0.35573390126228333 0.24013134837150574 0.24506992101669312
0.45450276136398315 0.2450266033411026 0.2507036030292511
0.5538448691368103 0.24467359483242035 0.26070234179496765
0.64169168472290039 0.23911486566066742 0.2628968358039856
0.71947669982910156 0.24142590165138245 0.26369515061378479
0.79130631685256958 0.25509846210479736 0.2639428973197937
0.86016970872879028 0.26837211847305298 0.2651861310005188
0.91974163055419922 0.28449884057044983 0.26447173953056335
0.97285968065261841 0.31630626320838928 0.26908606290817261
0.034973878413438797 0.31772169470787048 0.26481607556343079
0.093241162598133087 0.31825625896453857 0.26695409417152405
0.17593292891979218 0.31234046816825867 0.26463651657104492
0.26483291387557983 0.31856644153594971 0.26041972637176514
0.36509671807289124 0.33251002430915833 0.25162485241889954
0.46745821833610535 0.34414520859718323 0.24617981910705566
0.56727331876754761 0.34902411699295044 0.25540882349014282
