luts/instant_pro/fuji_fp-3000b_-.cube
# Created by: G'MIC (https://gmic.eu)
TITLE "fuji_fp-3000b_-"
# LUT size
LUT_3D_SIZE 7
# Data domain
DOMAIN_MIN 0.0 0.0 0.0
DOMAIN_MAX 1.0 1.0 1.0
# LUT data points
0.03450470045208931 0.03450470045208931 0.03450470045208931
0.07330620288848877 0.07330620288848877 0.07330620288848877
0.15534503757953644 0.15534503757953644 0.15534503757953644
0.25053098797798157 0.25053098797798157 0.25053098797798157
0.35765299201011658 0.35765299201011658 0.35765299201011658
0.47614508867263794 0.47614508867263794 0.47614508867263794
0.61040854454040527 0.61040854454040527 0.61040854454040527
0.082002617418766022 0.082002617418766022 0.082002617418766022
0.15119005739688873 0.15119005739688873 0.15119005739688873
0.24956929683685303 0.24956929683685303 0.24956929683685303
0.32001796364784241 0.32001796364784241 0.32001796364784241
0.40705078840255737 0.40705078840255737 0.40705078840255737
0.50829786062240601 0.50829786062240601 0.50829786062240601
0.62989038228988647 0.62989038228988647 0.62989038228988647
0.1935388594865799 0.1935388594865799 0.1935388594865799
0.20059815049171448 0.20059815049171448 0.20059815049171448
0.32698938250541687 0.32698938250541687 0.32698938250541687
0.42736923694610596 0.42736923694610596 0.42736923694610596
0.50094693899154663 0.50094693899154663 0.50094693899154663
0.57866412401199341 0.57866412401199341 0.57866412401199341
0.67783463001251221 0.67783463001251221 0.67783463001251221
0.30940699577331543 0.30940699577331543 0.30940699577331543
0.28881743550300598 0.28881743550300598 0.28881743550300598
0.35931983590126038 0.35931983590126038 0.35931983590126038
0.49138212203979492 0.49138212203979492 0.49138212203979492
0.5960879921913147 0.5960879921913147 0.5960879921913147
0.67317503690719604 0.67317503690719604 0.67317503690719604
0.74759280681610107 0.74759280681610107 0.74759280681610107
0.41099172830581665 0.41099172830581665 0.41099172830581665
0.3846973180770874 0.3846973180770874 0.3846973180770874
0.4064604640007019 0.4064604640007019 0.4064604640007019
0.51281464099884033 0.51281464099884033 0.51281464099884033
0.64411765336990356 0.64411765336990356 0.64411765336990356
0.746673583984375 0.746673583984375 0.746673583984375
0.812896728515625 0.812896728515625 0.812896728515625
0.55299174785614014 0.55299174785614014 0.55299174785614014
0.53023570775985718 0.53023570775985718 0.53023570775985718
0.51742905378341675 0.51742905378341675 0.51742905378341675
0.57041627168655396 0.57041627168655396 0.57041627168655396
0.69437354803085327 0.69437354803085327 0.69437354803085327
0.79763168096542358 0.79763168096542358 0.79763168096542358
0.86405068635940552 0.86405068635940552 0.86405068635940552
0.73670977354049683 0.73670977354049683 0.73670977354049683
0.72775405645370483 0.72775405645370483 0.72775405645370483
0.70845019817352295 0.70845019817352295 0.70845019817352295
0.71347367763519287 0.71347367763519287 0.71347367763519287
0.79859280586242676 0.79859280586242676 0.79859280586242676
0.87025409936904907 0.87025409936904907 0.87025409936904907
0.92028599977493286 0.92028599977493286 0.92028599977493286
0.08127160370349884 0.08127160370349884 0.08127160370349884
0.12698604166507721 0.12698604166507721 0.12698604166507721
0.20598225295543671 0.20598225295543671 0.20598225295543671
0.30633082985877991 0.30633082985877991 0.30633082985877991
0.40256869792938232 0.40256869792938232 0.40256869792938232
0.49329996109008789 0.49329996109008789 0.49329996109008789
0.60842013359069824 0.60842013359069824 0.60842013359069824
0.16253860294818878 0.16253860294818878 0.16253860294818878
0.18264693021774292 0.18264693021774292 0.18264693021774292
0.26325103640556335 0.26325103640556335 0.26325103640556335
0.34886902570724487 0.34886902570724487 0.34886902570724487
0.43681824207305908 0.43681824207305908 0.43681824207305908
0.52539509534835815 0.52539509534835815 0.52539509534835815
0.63232111930847168 0.63232111930847168 0.63232111930847168
0.28531673550605774 0.28531673550605774 0.28531673550605774
0.26712751388549805 0.26712751388549805 0.26712751388549805
0.34967631101608276 0.34967631101608276 0.34967631101608276
0.43311774730682373 0.43311774730682373 0.43311774730682373
0.50690644979476929 0.50690644979476929 0.50690644979476929
0.58423423767089844 0.58423423767089844 0.58423423767089844
0.67677748203277588 0.67677748203277588 0.67677748203277588
0.37934139370918274 0.37934139370918274 0.37934139370918274
0.34289878606796265 0.34289878606796265 0.34289878606796265
0.38066333532333374 0.38066333532333374 0.38066333532333374
0.49361440539360046 0.49361440539360046 0.49361440539360046
0.59646910429000854 0.59646910429000854 0.59646910429000854
0.66935467720031738 0.66935467720031738 0.66935467720031738
0.74154901504516602 0.74154901504516602 0.74154901504516602
0.46391573548316956 0.46391573548316956 0.46391573548316956
0.4329889714717865 0.4329889714717865 0.4329889714717865
0.43372341990470886 0.43372341990470886 0.43372341990470886
0.51945364475250244 0.51945364475250244 0.51945364475250244
0.64374387264251709 0.64374387264251709 0.64374387264251709
0.73835569620132446 0.73835569620132446 0.73835569620132446
0.80630916357040405 0.80630916357040405 0.80630916357040405
0.58727586269378662 0.58727586269378662 0.58727586269378662
0.5661013126373291 0.5661013126373291 0.5661013126373291
0.5502048134803772 0.5502048134803772 0.5502048134803772
0.59058886766433716 0.59058886766433716 0.59058886766433716
0.69212990999221802 0.69212990999221802 0.69212990999221802
0.7900194525718689 0.7900194525718689 0.7900194525718689
0.85962921380996704 0.85962921380996704 0.85962921380996704
0.75753843784332275 0.75753843784332275 0.75753843784332275
0.74542522430419922 0.74542522430419922 0.74542522430419922
0.72710990905761719 0.72710990905761719 0.72710990905761719
0.73288792371749878 0.73288792371749878 0.73288792371749878
0.79152435064315796 0.79152435064315796 0.79152435064315796
0.86046260595321655 0.86046260595321655 0.86046260595321655
0.91824519634246826 0.91824519634246826 0.91824519634246826
0.20066405832767487 0.20066405832767487 0.20066405832767487
0.23439739644527435 0.23439739644527435 0.23439739644527435
0.29523441195487976 0.29523441195487976 0.29523441195487976
0.37779343128204346 0.37779343128204346 0.37779343128204346
0.47255575656890869 0.47255575656890869 0.47255575656890869
0.55101269483566284 0.55101269483566284 0.55101269483566284
0.64344477653503418 0.64344477653503418 0.64344477653503418
0.24039861559867859 0.24039861559867859 0.24039861559867859
0.27328714728355408 0.27328714728355408 0.27328714728355408
0.32353952527046204 0.32353952527046204 0.32353952527046204
0.40516698360443115 0.40516698360443115 0.40516698360443115
0.48570007085800171 0.48570007085800171 0.48570007085800171
0.5716431736946106 0.5716431736946106 0.5716431736946106
0.66415059566497803 0.66415059566497803 0.66415059566497803
0.34688851237297058 0.34688851237297058 0.34688851237297058
0.35477778315544128 0.35477778315544128 0.35477778315544128
0.38793855905532837 0.38793855905532837 0.38793855905532837
0.44897058606147766 0.44897058606147766 0.44897058606147766
0.51282697916030884 0.51282697916030884 0.51282697916030884
0.59796667098999023 0.59796667098999023 0.59796667098999023
0.69034808874130249 0.69034808874130249 0.69034808874130249
0.45733210444450378 0.45733210444450378 0.45733210444450378
0.44609731435775757 0.44609731435775757 0.44609731435775757
0.45384660363197327 0.45384660363197327 0.45384660363197327
0.51662939786911011 0.51662939786911011 0.51662939786911011
0.60695809125900269 0.60695809125900269 0.60695809125900269
0.67116051912307739 0.67116051912307739 0.67116051912307739
0.74184536933898926 0.74184536933898926 0.74184536933898926
0.55455631017684937 0.55455631017684937 0.55455631017684937
0.53661972284317017 0.53661972284317017 0.53661972284317017
0.51557093858718872 0.51557093858718872 0.51557093858718872
0.54888254404067993 0.54888254404067993 0.54888254404067993
0.65756237506866455 0.65756237506866455 0.65756237506866455
0.74337965250015259 0.74337965250015259 0.74337965250015259
0.80548900365829468 0.80548900365829468 0.80548900365829468
0.66742032766342163 0.66742032766342163 0.66742032766342163
0.64745050668716431 0.64745050668716431 0.64745050668716431
0.62179136276245117 0.62179136276245117 0.62179136276245117
0.62596553564071655 0.62596553564071655 0.62596553564071655
0.69782567024230957 0.69782567024230957 0.69782567024230957
0.79136055707931519 0.79136055707931519 0.79136055707931519
0.86176657676696777 0.86176657676696777 0.86176657676696777
0.80212044715881348 0.80212044715881348 0.80212044715881348
0.78982424736022949 0.78982424736022949 0.78982424736022949
0.77187573909759521 0.77187573909759521 0.77187573909759521
0.76323175430297852 0.76323175430297852 0.76323175430297852
0.79147922992706299 0.79147922992706299 0.79147922992706299
0.85558652877807617 0.85558652877807617 0.85558652877807617
0.91996973752975464 0.91996973752975464 0.91996973752975464
0.35124951601028442 0.35124951601028442 0.35124951601028442
0.36937165260314941 0.36937165260314941 0.36937165260314941
0.41360896825790405 0.41360896825790405 0.41360896825790405
0.444408118724823 0.444408118724823 0.444408118724823
0.51046639680862427 0.51046639680862427 0.51046639680862427
0.62654489278793335 0.62654489278793335 0.62654489278793335
0.72292548418045044 0.72292548418045044 0.72292548418045044
0.37626802921295166 0.37626802921295166 0.37626802921295166
0.38903915882110596 0.38903915882110596 0.38903915882110596
0.41880887746810913 0.41880887746810913 0.41880887746810913
0.46107542514801025 0.46107542514801025 0.46107542514801025
0.53103601932525635 0.53103601932525635 0.53103601932525635
0.63316833972930908 0.63316833972930908 0.63316833972930908
0.72462558746337891 0.72462558746337891 0.72462558746337891
0.4260181188583374 0.4260181188583374 0.4260181188583374
0.43264740705490112 0.43264740705490112 0.43264740705490112
0.4524751603603363 0.4524751603603363 0.4524751603603363
0.49865710735321045 0.49865710735321045 0.49865710735321045
0.55994319915771484 0.55994319915771484 0.55994319915771484
0.64011573791503906 0.64011573791503906 0.64011573791503906
0.73246127367019653 0.73246127367019653 0.73246127367019653
0.50944352149963379 0.50944352149963379 0.50944352149963379
0.51509374380111694 0.51509374380111694 0.51509374380111694
0.5280531644821167 0.5280531644821167 0.5280531644821167
0.56082367897033691 0.56082367897033691 0.56082367897033691
0.62855523824691772 0.62855523824691772 0.62855523824691772
0.69139009714126587 0.69139009714126587 0.69139009714126587
0.7566407322883606 0.7566407322883606 0.7566407322883606
0.62738412618637085 0.62738412618637085 0.62738412618637085
0.62016838788986206 0.62016838788986206 0.62016838788986206
0.61433762311935425 0.61433762311935425 0.61433762311935425
0.62101274728775024 0.62101274728775024 0.62101274728775024
0.69222521781921387 0.69222521781921387 0.69222521781921387
0.76333510875701904 0.76333510875701904 0.76333510875701904
0.8125690221786499 0.8125690221786499 0.8125690221786499
0.74285471439361572 0.74285471439361572 0.74285471439361572
0.72942382097244263 0.72942382097244263 0.72942382097244263
0.70775312185287476 0.70775312185287476 0.70775312185287476
0.68767321109771729 0.68767321109771729 0.68767321109771729
0.72489553689956665 0.72489553689956665 0.72489553689956665
0.80590397119522095 0.80590397119522095 0.80590397119522095
0.87349164485931396 0.87349164485931396 0.87349164485931396
0.84914827346801758 0.84914827346801758 0.84914827346801758
0.84201967716217041 0.84201967716217041 0.84201967716217041
0.8264840841293335 0.8264840841293335 0.8264840841293335
0.80399328470230103 0.80399328470230103 0.80399328470230103
0.80731940269470215 0.80731940269470215 0.80731940269470215
0.86125993728637695 0.86125993728637695 0.86125993728637695
0.9285997748374939 0.9285997748374939 0.9285997748374939
0.49694168567657471 0.49694168567657471 0.49694168567657471
0.50117433071136475 0.50117433071136475 0.50117433071136475
0.5293651819229126 0.5293651819229126 0.5293651819229126
0.57141423225402832 0.57141423225402832 0.57141423225402832
0.59748148918151855 0.59748148918151855 0.59748148918151855
0.65234261751174927 0.65234261751174927 0.65234261751174927
0.76061320304870605 0.76061320304870605 0.76061320304870605
0.51663565635681152 0.51663565635681152 0.51663565635681152
0.51863110065460205 0.51863110065460205 0.51863110065460205
0.53455770015716553 0.53455770015716553 0.53455770015716553
0.56893521547317505 0.56893521547317505 0.56893521547317505
0.61114245653152466 0.61114245653152466 0.61114245653152466
0.66261905431747437 0.66261905431747437 0.66261905431747437
0.76478558778762817 0.76478558778762817 0.76478558778762817
0.53385215997695923 0.53385215997695923 0.53385215997695923
0.53852599859237671 0.53852599859237671 0.53852599859237671
0.55074924230575562 0.55074924230575562 0.55074924230575562
0.5912279486656189 0.5912279486656189 0.5912279486656189
0.64232438802719116 0.64232438802719116 0.64232438802719116
0.70154213905334473 0.70154213905334473 0.70154213905334473
0.78527593612670898 0.78527593612670898 0.78527593612670898
0.55694639682769775 0.55694639682769775 0.55694639682769775
0.57407063245773315 0.57407063245773315 0.57407063245773315
0.59478801488876343 0.59478801488876343 0.59478801488876343
0.63339710235595703 0.63339710235595703 0.63339710235595703
0.68632364273071289 0.68632364273071289 0.68632364273071289
0.73601222038269043 0.73601222038269043 0.73601222038269043
0.78902816772460938 0.78902816772460938 0.78902816772460938
0.64720141887664795 0.64720141887664795 0.64720141887664795
0.65832257270812988 0.65832257270812988 0.65832257270812988
0.67719167470932007 0.67719167470932007 0.67719167470932007
0.70111680030822754 0.70111680030822754 0.70111680030822754
0.73939162492752075 0.73939162492752075 0.73939162492752075
0.78393226861953735 0.78393226861953735 0.78393226861953735
0.83053833246231079 0.83053833246231079 0.83053833246231079
0.77249854803085327 0.77249854803085327 0.77249854803085327
0.77847391366958618 0.77847391366958618 0.77847391366958618
0.77823662757873535 0.77823662757873535 0.77823662757873535
0.78031128644943237 0.78031128644943237 0.78031128644943237
0.78311896324157715 0.78311896324157715 0.78311896324157715
0.82773876190185547 0.82773876190185547 0.82773876190185547
0.8916546106338501 0.8916546106338501 0.8916546106338501
0.87372976541519165 0.87372976541519165 0.87372976541519165
0.87527066469192505 0.87527066469192505 0.87527066469192505
0.87048900127410889 0.87048900127410889 0.87048900127410889
0.8599090576171875 0.8599090576171875 0.8599090576171875
0.85100752115249634 0.85100752115249634 0.85100752115249634
0.88079792261123657 0.88079792261123657 0.88079792261123657
0.94144034385681152 0.94144034385681152 0.94144034385681152
0.65289592742919922 0.65289592742919922 0.65289592742919922
0.64896231889724731 0.64896231889724731 0.64896231889724731
0.66311371326446533 0.66311371326446533 0.66311371326446533
0.69777858257293701 0.69777858257293701 0.69777858257293701
0.73835700750350952 0.73835700750350952 0.73835700750350952
0.74959105253219604 0.74959105253219604 0.74959105253219604
0.79299479722976685 0.79299479722976685 0.79299479722976685
0.67049932479858398 0.67049932479858398 0.67049932479858398
0.6682237982749939 0.6682237982749939 0.6682237982749939
0.67478746175765991 0.67478746175765991 0.67478746175765991
0.70584660768508911 0.70584660768508911 0.70584660768508911
0.74913483858108521 0.74913483858108521 0.74913483858108521
0.76160991191864014 0.76160991191864014 0.76160991191864014
0.80342799425125122 0.80342799425125122 0.80342799425125122
0.68029212951660156 0.68029212951660156 0.68029212951660156
0.68129754066467285 0.68129754066467285 0.68129754066467285
0.68739265203475952 0.68739265203475952 0.68739265203475952
0.7185787558555603 0.7185787558555603 0.7185787558555603
0.76068204641342163 0.76068204641342163 0.76068204641342163
0.78448069095611572 0.78448069095611572 0.78448069095611572
0.81510692834854126 0.81510692834854126 0.81510692834854126
0.67465853691101074 0.67465853691101074 0.67465853691101074
0.68632239103317261 0.68632239103317261 0.68632239103317261
0.70004254579544067 0.70004254579544067 0.70004254579544067
0.73021990060806274 0.73021990060806274 0.73021990060806274
0.77332478761672974 0.77332478761672974 0.77332478761672974
0.8060917854309082 0.8060917854309082 0.8060917854309082
0.83479547500610352 0.83479547500610352 0.83479547500610352
0.7158273458480835 0.7158273458480835 0.7158273458480835
0.7264178991317749 0.7264178991317749 0.7264178991317749
0.73806166648864746 0.73806166648864746 0.73806166648864746
0.76238882541656494 0.76238882541656494 0.76238882541656494
0.80091696977615356 0.80091696977615356 0.80091696977615356
0.83308809995651245 0.83308809995651245 0.83308809995651245
0.86653643846511841 0.86653643846511841 0.86653643846511841
0.80009621381759644 0.80009621381759644 0.80009621381759644
0.808663010597229 0.808663010597229 0.808663010597229
0.81830006837844849 0.81830006837844849 0.81830006837844849
0.83192461729049683 0.83192461729049683 0.83192461729049683
0.84473156929016113 0.84473156929016113 0.84473156929016113
0.86643767356872559 0.86643767356872559 0.86643767356872559
0.90483540296554565 0.90483540296554565 0.90483540296554565
0.88641929626464844 0.88641929626464844 0.88641929626464844
0.89018434286117554 0.89018434286117554 0.89018434286117554
0.89467746019363403 0.89467746019363403 0.89467746019363403
0.90171390771865845 0.90171390771865845 0.90171390771865845
0.91041797399520874 0.91041797399520874 0.91041797399520874
0.9151909351348877 0.9151909351348877 0.9151909351348877
0.94539171457290649 0.94539171457290649 0.94539171457290649
0.81425178050994873 0.81425178050994873 0.81425178050994873
0.80981600284576416 0.80981600284576416 0.80981600284576416
0.81413489580154419 0.81413489580154419 0.81413489580154419
0.83529949188232422 0.83529949188232422 0.83529949188232422
0.86768490076065063 0.86768490076065063 0.86768490076065063
0.87884700298309326 0.87884700298309326 0.87884700298309326
0.89403903484344482 0.89403903484344482 0.89403903484344482
0.82592713832855225 0.82592713832855225 0.82592713832855225
0.82373929023742676 0.82373929023742676 0.82373929023742676
0.8259320855140686 0.8259320855140686 0.8259320855140686
0.8447105884552002 0.8447105884552002 0.8447105884552002
0.87153458595275879 0.87153458595275879 0.87153458595275879
0.87904304265975952 0.87904304265975952 0.87904304265975952
0.88992094993591309 0.88992094993591309 0.88992094993591309
0.83279925584793091 0.83279925584793091 0.83279925584793091
0.8327597975730896 0.8327597975730896 0.8327597975730896
0.83680433034896851 0.83680433034896851 0.83680433034896851
0.85432499647140503 0.85432499647140503 0.85432499647140503
0.87684690952301025 0.87684690952301025 0.87684690952301025
0.88721579313278198 0.88721579313278198 0.88721579313278198
0.89323574304580688 0.89323574304580688 0.89323574304580688
0.83100670576095581 0.83100670576095581 0.83100670576095581
0.83203458786010742 0.83203458786010742 0.83203458786010742
0.84196281433105469 0.84196281433105469 0.84196281433105469
0.85758709907531738 0.85758709907531738 0.85758709907531738
0.87882494926452637 0.87882494926452637 0.87882494926452637
0.8987499475479126 0.8987499475479126 0.8987499475479126
0.9106903076171875 0.9106903076171875 0.9106903076171875
0.83393502235412598 0.83393502235412598 0.83393502235412598
0.83736753463745117 0.83736753463745117 0.83736753463745117
0.84727895259857178 0.84727895259857178 0.84727895259857178
0.8613312840461731 0.8613312840461731 0.8613312840461731
0.88294196128845215 0.88294196128845215 0.88294196128845215
0.90349823236465454 0.90349823236465454 0.90349823236465454
0.92327302694320679 0.92327302694320679 0.92327302694320679
0.86518979072570801 0.86518979072570801 0.86518979072570801
0.86767327785491943 0.86767327785491943 0.86767327785491943
0.87433946132659912 0.87433946132659912 0.87433946132659912
0.88526028394699097 0.88526028394699097 0.88526028394699097
0.90107297897338867 0.90107297897338867 0.90107297897338867
0.91482722759246826 0.91482722759246826 0.91482722759246826
0.93499892950057983 0.93499892950057983 0.93499892950057983
0.91718763113021851 0.91718763113021851 0.91718763113021851
0.91823422908782959 0.91823422908782959 0.91823422908782959
0.92131954431533813 0.92131954431533813 0.92131954431533813
0.92613345384597778 0.92613345384597778 0.92613345384597778
0.94001716375350952 0.94001716375350952 0.94001716375350952
0.94547992944717407 0.94547992944717407 0.94547992944717407
0.95793688297271729 0.95793688297271729 0.95793688297271729
