luts/instant_pro/fuji_fp-3000b_negative_--.cube
# Created by: G'MIC (https://gmic.eu)
TITLE "fuji_fp-3000b_negative_--"
# LUT size
LUT_3D_SIZE 13
# Data domain
DOMAIN_MIN 0.0 0.0 0.0
DOMAIN_MAX 1.0 1.0 1.0
# LUT data points
0.051888514310121536 0.051888514310121536 0.051888514310121536
0.061059046536684036 0.061059046536684036 0.061059046536684036
0.08344925194978714 0.08344925194978714 0.08344925194978714
0.12102793902158737 0.12102793902158737 0.12102793902158737
0.17266795039176941 0.17266795039176941 0.17266795039176941
0.23394542932510376 0.23394542932510376 0.23394542932510376
0.29895833134651184 0.29895833134651184 0.29895833134651184
0.36323985457420349 0.36323985457420349 0.36323985457420349
0.42473921179771423 0.42473921179771423 0.42473921179771423
0.48432877659797668 0.48432877659797668 0.48432877659797668
0.54396337270736694 0.54396337270736694 0.54396337270736694
0.60427141189575195 0.60427141189575195 0.60427141189575195
0.66378486156463623 0.66378486156463623 0.66378486156463623
0.079322993755340576 0.079322993755340576 0.079322993755340576
0.087416581809520721 0.087416581809520721 0.087416581809520721
0.10864516347646713 0.10864516347646713 0.10864516347646713
0.1452048122882843 0.1452048122882843 0.1452048122882843
0.19578681886196136 0.19578681886196136 0.19578681886196136
0.25592631101608276 0.25592631101608276 0.25592631101608276
0.32003962993621826 0.32003962993621826 0.32003962993621826
0.38338029384613037 0.38338029384613037 0.38338029384613037
0.44356578588485718 0.44356578588485718 0.44356578588485718
0.50134235620498657 0.50134235620498657 0.50134235620498657
0.55841732025146484 0.55841732025146484 0.55841732025146484
0.61605054140090942 0.61605054140090942 0.61605054140090942
0.67320293188095093 0.67320293188095093 0.67320293188095093
0.12383898347616196 0.12383898347616196 0.12383898347616196
0.12896165251731873 0.12896165251731873 0.12896165251731873
0.1473589688539505 0.1473589688539505 0.1473589688539505
0.18154805898666382 0.18154805898666382 0.18154805898666382
0.22865310311317444 0.22865310311317444 0.22865310311317444
0.28586632013320923 0.28586632013320923 0.28586632013320923
0.34763309359550476 0.34763309359550476 0.34763309359550476
0.40861225128173828 0.40861225128173828 0.40861225128173828
0.46569955348968506 0.46569955348968506 0.46569955348968506
0.52055710554122925 0.52055710554122925 0.52055710554122925
0.57458698749542236 0.57458698749542236 0.57458698749542236
0.62932759523391724 0.62932759523391724 0.62932759523391724
0.68311798572540283 0.68311798572540283 0.68311798572540283
0.18336313962936401 0.18336313962936401 0.18336313962936401
0.18418224155902863 0.18418224155902863 0.18418224155902863
0.19814631342887878 0.19814631342887878 0.19814631342887878
0.22731365263462067 0.22731365263462067 0.22731365263462067
0.26946049928665161 0.26946049928665161 0.26946049928665161
0.32167544960975647 0.32167544960975647 0.32167544960975647
0.37990221381187439 0.37990221381187439 0.37990221381187439
0.43742093443870544 0.43742093443870544 0.43742093443870544
0.49042761325836182 0.49042761325836182 0.49042761325836182
0.5416644811630249 0.5416644811630249 0.5416644811630249
0.59283560514450073 0.59283560514450073 0.59283560514450073
0.64446532726287842 0.64446532726287842 0.64446532726287842
0.69543564319610596 0.69543564319610596 0.69543564319610596
0.25448116660118103 0.25448116660118103 0.25448116660118103
0.25213593244552612 0.25213593244552612 0.25213593244552612
0.26010707020759583 0.26010707020759583 0.26010707020759583
0.28178387880325317 0.28178387880325317 0.28178387880325317
0.31595656275749207 0.31595656275749207 0.31595656275749207
0.36117345094680786 0.36117345094680786 0.36117345094680786
0.41329675912857056 0.41329675912857056 0.41329675912857056
0.46589714288711548 0.46589714288711548 0.46589714288711548
0.51558047533035278 0.51558047533035278 0.51558047533035278
0.56412249803543091 0.56412249803543091 0.56412249803543091
0.61283713579177856 0.61283713579177856 0.61283713579177856
0.66172820329666138 0.66172820329666138 0.66172820329666138
0.71013373136520386 0.71013373136520386 0.71013373136520386
0.32956400513648987 0.32956400513648987 0.32956400513648987
0.3258044421672821 0.3258044421672821 0.3258044421672821
0.32795614004135132 0.32795614004135132 0.32795614004135132
0.34089836478233337 0.34089836478233337 0.34089836478233337
0.36647894978523254 0.36647894978523254 0.36647894978523254
0.40287807583808899 0.40287807583808899 0.40287807583808899
0.44729042053222656 0.44729042053222656 0.44729042053222656
0.494619220495224 0.494619220495224 0.494619220495224
0.54155570268630981 0.54155570268630981 0.54155570268630981
0.58806222677230835 0.58806222677230835 0.58806222677230835
0.63453871011734009 0.63453871011734009 0.63453871011734009
0.6811215877532959 0.6811215877532959 0.6811215877532959
0.7271198034286499 0.7271198034286499 0.7271198034286499
0.40416276454925537 0.40416276454925537 0.40416276454925537
0.39888691902160645 0.39888691902160645 0.39888691902160645
0.39658510684967041 0.39658510684967041 0.39658510684967041
0.4025096595287323 0.4025096595287323 0.4025096595287323
0.41934660077095032 0.41934660077095032 0.41934660077095032
0.44783174991607666 0.44783174991607666 0.44783174991607666
0.48527848720550537 0.48527848720550537 0.48527848720550537
0.5269768238067627 0.5269768238067627 0.5269768238067627
0.57082998752593994 0.57082998752593994 0.57082998752593994
0.61493277549743652 0.61493277549743652 0.61493277549743652
0.65922540426254272 0.65922540426254272 0.65922540426254272
0.70330637693405151 0.70330637693405151 0.70330637693405151
0.74681645631790161 0.74681645631790161 0.74681645631790161
0.47811374068260193 0.47811374068260193 0.47811374068260193
0.4714418351650238 0.4714418351650238 0.4714418351650238
0.46592369675636292 0.46592369675636292 0.46592369675636292
0.46551647782325745 0.46551647782325745 0.46551647782325745
0.47526708245277405 0.47526708245277405 0.47526708245277405
0.49702614545822144 0.49702614545822144 0.49702614545822144
0.52838248014450073 0.52838248014450073 0.52838248014450073
0.56558090448379517 0.56558090448379517 0.56558090448379517
0.60603171586990356 0.60603171586990356 0.60603171586990356
0.64620411396026611 0.64620411396026611 0.64620411396026611
0.68768137693405151 0.68768137693405151 0.68768137693405151
0.72884804010391235 0.72884804010391235 0.72884804010391235
0.76972591876983643 0.76972591876983643 0.76972591876983643
0.5530884861946106 0.5530884861946106 0.5530884861946106
0.54555594921112061 0.54555594921112061 0.54555594921112061
0.53749579191207886 0.53749579191207886 0.53749579191207886
0.53261560201644897 0.53261560201644897 0.53261560201644897
0.53636693954467773 0.53636693954467773 0.53636693954467773
0.55341160297393799 0.55341160297393799 0.55341160297393799
0.57945543527603149 0.57945543527603149 0.57945543527603149
0.61151611804962158 0.61151611804962158 0.61151611804962158
0.64670538902282715 0.64670538902282715 0.64670538902282715
0.68341714143753052 0.68341714143753052 0.68341714143753052
0.72114062309265137 0.72114062309265137 0.72114062309265137
0.75840646028518677 0.75840646028518677 0.75840646028518677
0.79591268301010132 0.79591268301010132 0.79591268301010132
0.62964779138565063 0.62964779138565063 0.62964779138565063
0.62218409776687622 0.62218409776687622 0.62218409776687622
0.61378753185272217 0.61378753185272217 0.61378753185272217
0.60730594396591187 0.60730594396591187 0.60730594396591187
0.60796374082565308 0.60796374082565308 0.60796374082565308
0.61974972486495972 0.61974972486495972 0.61974972486495972
0.63992065191268921 0.63992065191268921 0.63992065191268921
0.66579192876815796 0.66579192876815796 0.66579192876815796
0.69518512487411499 0.69518512487411499 0.69518512487411499
0.7265893816947937 0.7265893816947937 0.7265893816947937
0.75897741317749023 0.75897741317749023 0.75897741317749023
0.79211151599884033 0.79211151599884033 0.79211151599884033
0.82538306713104248 0.82538306713104248 0.82538306713104248
0.70757555961608887 0.70757555961608887 0.70757555961608887
0.70147699117660522 0.70147699117660522 0.70147699117660522
0.69418752193450928 0.69418752193450928 0.69418752193450928
0.68863797187805176 0.68863797187805176 0.68863797187805176
0.68814069032669067 0.68814069032669067 0.68814069032669067
0.69509774446487427 0.69509774446487427 0.69509774446487427
0.7085157036781311 0.7085157036781311 0.7085157036781311
0.72729462385177612 0.72729462385177612 0.72729462385177612
0.74997717142105103 0.74997717142105103 0.74997717142105103
0.77545619010925293 0.77545619010925293 0.77545619010925293
0.80194520950317383 0.80194520950317383 0.80194520950317383
0.82964801788330078 0.82964801788330078 0.82964801788330078
0.85830754041671753 0.85830754041671753 0.85830754041671753
0.78560119867324829 0.78560119867324829 0.78560119867324829
0.78110432624816895 0.78110432624816895 0.78110432624816895
0.77565807104110718 0.77565807104110718 0.77565807104110718
0.7716224193572998 0.7716224193572998 0.7716224193572998
0.77099525928497314 0.77099525928497314 0.77099525928497314
0.77408087253570557 0.77408087253570557 0.77408087253570557
0.78154510259628296 0.78154510259628296 0.78154510259628296
0.79353994131088257 0.79353994131088257 0.79353994131088257
0.81013047695159912 0.81013047695159912 0.81013047695159912
0.82877510786056519 0.82877510786056519 0.82877510786056519
0.84892183542251587 0.84892183542251587 0.84892183542251587
0.87081366777420044 0.87081366777420044 0.87081366777420044
0.89418894052505493 0.89418894052505493 0.89418894052505493
0.86090254783630371 0.86090254783630371 0.86090254783630371
0.85792577266693115 0.85792577266693115 0.85792577266693115
0.85411936044692993 0.85411936044692993 0.85411936044692993
0.851787269115448 0.851787269115448 0.851787269115448
0.85143089294433594 0.85143089294433594 0.85143089294433594
0.85162180662155151 0.85162180662155151 0.85162180662155151
0.85463547706604004 0.85463547706604004 0.85463547706604004
0.86085420846939087 0.86085420846939087 0.86085420846939087
0.87106508016586304 0.87106508016586304 0.87106508016586304
0.88398897647857666 0.88398897647857666 0.88398897647857666
0.89886921644210815 0.89886921644210815 0.89886921644210815
0.91509807109832764 0.91509807109832764 0.91509807109832764
0.9335210919380188 0.9335210919380188 0.9335210919380188
0.08004741370677948 0.08004741370677948 0.08004741370677948
0.088608518242835999 0.088608518242835999 0.088608518242835999
0.10842190682888031 0.10842190682888031 0.10842190682888031
0.14395600557327271 0.14395600557327271 0.14395600557327271
0.19482304155826569 0.19482304155826569 0.19482304155826569
0.25488749146461487 0.25488749146461487 0.25488749146461487
0.31844863295555115 0.31844863295555115 0.31844863295555115
0.37933582067489624 0.37933582067489624 0.37933582067489624
0.43644022941589355 0.43644022941589355 0.43644022941589355
0.49131298065185547 0.49131298065185547 0.49131298065185547
0.54688936471939087 0.54688936471939087 0.54688936471939087
0.60460621118545532 0.60460621118545532 0.60460621118545532
0.66373640298843384 0.66373640298843384 0.66373640298843384
0.1049683690071106 0.1049683690071106 0.1049683690071106
0.11315116286277771 0.11315116286277771 0.11315116286277771
0.13316895067691803 0.13316895067691803 0.13316895067691803
0.16755107045173645 0.16755107045173645 0.16755107045173645
0.215812087059021 0.215812087059021 0.215812087059021
0.27368444204330444 0.27368444204330444 0.27368444204330444
0.33535638451576233 0.33535638451576233 0.33535638451576233
0.39564245939254761 0.39564245939254761 0.39564245939254761
0.45185965299606323 0.45185965299606323 0.45185965299606323
0.50595128536224365 0.50595128536224365 0.50595128536224365
0.56001096963882446 0.56001096963882446 0.56001096963882446
0.61592453718185425 0.61592453718185425 0.61592453718185425
0.67268937826156616 0.67268937826156616 0.67268937826156616
0.15003955364227295 0.15003955364227295 0.15003955364227295
0.15597435832023621 0.15597435832023621 0.15597435832023621
0.17300905287265778 0.17300905287265778 0.17300905287265778
0.20331376791000366 0.20331376791000366 0.20331376791000366
0.24665346741676331 0.24665346741676331 0.24665346741676331
0.30010944604873657 0.30010944604873657 0.30010944604873657
0.35856625437736511 0.35856625437736511 0.35856625437736511
0.41643229126930237 0.41643229126930237 0.41643229126930237
0.47113856673240662 0.47113856673240662 0.47113856673240662
0.52355015277862549 0.52355015277862549 0.52355015277862549
0.57590442895889282 0.57590442895889282 0.57590442895889282
0.62954789400100708 0.62954789400100708 0.62954789400100708
0.68343907594680786 0.68343907594680786 0.68343907594680786
0.21522325277328491 0.21522325277328491 0.21522325277328491
0.21638545393943787 0.21638545393943787 0.21638545393943787
0.22586257755756378 0.22586257755756378 0.22586257755756378
0.24894586205482483 0.24894586205482483 0.24894586205482483
0.28546896576881409 0.28546896576881409 0.28546896576881409
0.33302533626556396 0.33302533626556396 0.33302533626556396
0.38695177435874939 0.38695177435874939 0.38695177435874939
0.44146528840065002 0.44146528840065002 0.44146528840065002
0.49342995882034302 0.49342995882034302 0.49342995882034302
0.54371470212936401 0.54371470212936401 0.54371470212936401
0.59417283535003662 0.59417283535003662 0.59417283535003662
0.64519906044006348 0.64519906044006348 0.64519906044006348
0.6966400146484375 0.6966400146484375 0.6966400146484375
0.29128676652908325 0.29128676652908325 0.29128676652908325
0.28723916411399841 0.28723916411399841 0.28723916411399841
0.28873404860496521 0.28873404860496521 0.28873404860496521
0.30261680483818054 0.30261680483818054 0.30261680483818054
0.33058789372444153 0.33058789372444153 0.33058789372444153
0.37058171629905701 0.37058171629905701 0.37058171629905701
0.41848340630531311 0.41848340630531311 0.41848340630531311
0.46850016713142395 0.46850016713142395 0.46850016713142395
0.51751995086669922 0.51751995086669922 0.51751995086669922
0.56573927402496338 0.56573927402496338 0.56573927402496338
0.61404979228973389 0.61404979228973389 0.61404979228973389
0.66292089223861694 0.66292089223861694 0.66292089223861694
0.71168512105941772 0.71168512105941772 0.71168512105941772
0.36468914151191711 0.36468914151191711 0.36468914151191711
0.35883629322052002 0.35883629322052002 0.35883629322052002
0.35491925477981567 0.35491925477981567 0.35491925477981567
0.36073759198188782 0.36073759198188782 0.36073759198188782
0.38008847832679749 0.38008847832679749 0.38008847832679749
0.41174346208572388 0.41174346208572388 0.41174346208572388
0.45238158106803894 0.45238158106803894 0.45238158106803894
0.49717360734939575 0.49717360734939575 0.49717360734939575
0.54327023029327393 0.54327023029327393 0.54327023029327393
0.58949226140975952 0.58949226140975952 0.58949226140975952
0.63608825206756592 0.63608825206756592 0.63608825206756592
0.68272680044174194 0.68272680044174194 0.68272680044174194
0.72917628288269043 0.72917628288269043 0.72917628288269043
0.43505585193634033 0.43505585193634033 0.43505585193634033
0.42794904112815857 0.42794904112815857 0.42794904112815857
0.42083677649497986 0.42083677649497986 0.42083677649497986
0.42089760303497314 0.42089760303497314 0.42089760303497314
0.43204674124717712 0.43204674124717712 0.43204674124717712
0.4559389054775238 0.4559389054775238 0.4559389054775238
0.48977568745613098 0.48977568745613098 0.48977568745613098
0.52973973751068115 0.52973973751068115 0.52973973751068115
0.57238417863845825 0.57238417863845825 0.57238417863845825
0.61633175611495972 0.61633175611495972 0.61633175611495972
0.66071611642837524 0.66071611642837524 0.66071611642837524
0.70523363351821899 0.70523363351821899 0.70523363351821899
0.74925071001052856 0.74925071001052856 0.74925071001052856
0.50465571880340576 0.50465571880340576 0.50465571880340576
0.49640658497810364 0.49640658497810364 0.49640658497810364
0.48680239915847778 0.48680239915847778 0.48680239915847778
0.48158630728721619 0.48158630728721619 0.48158630728721619
0.48625510931015015 0.48625510931015015 0.48625510931015015
0.50390362739562988 0.50390362739562988 0.50390362739562988
0.53253084421157837 0.53253084421157837 0.53253084421157837
0.56768769025802612 0.56768769025802612 0.56768769025802612
0.60643225908279419 0.60643225908279419 0.60643225908279419
0.64747804403305054 0.64747804403305054 0.64747804403305054
0.68930613994598389 0.68930613994598389 0.68930613994598389
0.73108893632888794 0.73108893632888794 0.73108893632888794
0.77231025695800781 0.77231025695800781 0.77231025695800781
0.57524275779724121 0.57524275779724121 0.57524275779724121
0.56620830297470093 0.56620830297470093 0.56620830297470093
0.55514377355575562 0.55514377355575562 0.55514377355575562
0.54582351446151733 0.54582351446151733 0.54582351446151733
0.544899582862854 0.544899582862854 0.544899582862854
0.55844414234161377 0.55844414234161377 0.55844414234161377
0.58223670721054077 0.58223670721054077 0.58223670721054077
0.61257374286651611 0.61257374286651611 0.61257374286651611
0.64709150791168213 0.64709150791168213 0.64709150791168213
0.68380212783813477 0.68380212783813477 0.68380212783813477
0.7223249077796936 0.7223249077796936 0.7223249077796936
0.76084768772125244 0.76084768772125244 0.76084768772125244
0.79858362674713135 0.79858362674713135 0.79858362674713135
0.64790230989456177 0.64790230989456177 0.64790230989456177
0.63934105634689331 0.63934105634689331 0.63934105634689331
0.62808495759963989 0.62808495759963989 0.62808495759963989
0.6179429292678833 0.6179429292678833 0.6179429292678833
0.61440563201904297 0.61440563201904297 0.61440563201904297
0.62290072441101074 0.62290072441101074 0.62290072441101074
0.64086318016052246 0.64086318016052246 0.64086318016052246
0.66571921110153198 0.66571921110153198 0.66571921110153198
0.69499951601028442 0.69499951601028442 0.69499951601028442
0.72732251882553101 0.72732251882553101 0.72732251882553101
0.76086246967315674 0.76086246967315674 0.76086246967315674
0.79455506801605225 0.79455506801605225 0.79455506801605225
0.82840758562088013 0.82840758562088013 0.82840758562088013
0.7222292423248291 0.7222292423248291 0.7222292423248291
0.71502393484115601 0.71502393484115601 0.71502393484115601
0.70551925897598267 0.70551925897598267 0.70551925897598267
0.69669061899185181 0.69669061899185181 0.69669061899185181
0.69289463758468628 0.69289463758468628 0.69289463758468628
0.69653576612472534 0.69653576612472534 0.69653576612472534
0.70817941427230835 0.70817941427230835 0.70817941427230835
0.72632712125778198 0.72632712125778198 0.72632712125778198
0.74981945753097534 0.74981945753097534 0.74981945753097534
0.7763218879699707 0.7763218879699707 0.7763218879699707
0.80422699451446533 0.80422699451446533 0.80422699451446533
0.83254945278167725 0.83254945278167725 0.83254945278167725
0.8615257740020752 0.8615257740020752 0.8615257740020752
0.79705429077148438 0.79705429077148438 0.79705429077148438
0.79166716337203979 0.79166716337203979 0.79166716337203979
0.78410917520523071 0.78410917520523071 0.78410917520523071
0.77748197317123413 0.77748197317123413 0.77748197317123413
0.7737005352973938 0.7737005352973938 0.7737005352973938
0.77435749769210815 0.77435749769210815 0.77435749769210815
0.78068280220031738 0.78068280220031738 0.78068280220031738
0.79271286725997925 0.79271286725997925 0.79271286725997925
0.81012320518493652 0.81012320518493652 0.81012320518493652
0.83023464679718018 0.83023464679718018 0.83023464679718018
0.85186266899108887 0.85186266899108887 0.85186266899108887
0.8742554783821106 0.8742554783821106 0.8742554783821106
0.89776325225830078 0.89776325225830078 0.89776325225830078
0.86937433481216431 0.86937433481216431 0.86937433481216431
0.86578285694122314 0.86578285694122314 0.86578285694122314
0.86043345928192139 0.86043345928192139 0.86043345928192139
0.85571008920669556 0.85571008920669556 0.85571008920669556
0.85194176435470581 0.85194176435470581 0.85194176435470581
0.85147184133529663 0.85147184133529663 0.85147184133529663
0.85363894701004028 0.85363894701004028 0.85363894701004028
0.86076301336288452 0.86076301336288452 0.86076301336288452
0.87198764085769653 0.87198764085769653 0.87198764085769653
0.88651388883590698 0.88651388883590698 0.88651388883590698
0.9020811915397644 0.9020811915397644 0.9020811915397644
0.91862928867340088 0.91862928867340088 0.91862928867340088
0.93710368871688843 0.93710368871688843 0.93710368871688843
0.12250940501689911 0.12250940501689911 0.12250940501689911
0.1339775025844574 0.1339775025844574 0.1339775025844574
0.15439251065254211 0.15439251065254211 0.15439251065254211
0.1875733882188797 0.1875733882188797 0.1875733882188797
0.23204271495342255 0.23204271495342255 0.23204271495342255
0.28524982929229736 0.28524982929229736 0.28524982929229736
0.34530335664749146 0.34530335664749146 0.34530335664749146
0.40084847807884216 0.40084847807884216 0.40084847807884216
0.45116564631462097 0.45116564631462097 0.45116564631462097
0.50021219253540039 0.50021219253540039 0.50021219253540039
0.55081874132156372 0.55081874132156372 0.55081874132156372
0.60570275783538818 0.60570275783538818 0.60570275783538818
0.66436147689819336 0.66436147689819336 0.66436147689819336
0.14007401466369629 0.14007401466369629 0.14007401466369629
0.1523110568523407 0.1523110568523407 0.1523110568523407
0.17454655468463898 0.17454655468463898 0.17454655468463898
0.20679952204227448 0.20679952204227448 0.20679952204227448
0.24889853596687317 0.24889853596687317 0.24889853596687317
0.29986441135406494 0.29986441135406494 0.29986441135406494
0.35673552751541138 0.35673552751541138 0.35673552751541138
0.41205444931983948 0.41205444931983948 0.41205444931983948
0.46330025792121887 0.46330025792121887 0.46330025792121887
0.5126039981842041 0.5126039981842041 0.5126039981842041
0.5625724196434021 0.5625724196434021 0.5625724196434021
0.61622357368469238 0.61622357368469238 0.61622357368469238
0.67315959930419922 0.67315959930419922 0.67315959930419922
0.18031977117061615 0.18031977117061615 0.18031977117061615
0.1907372772693634 0.1907372772693634 0.1907372772693634
0.20931868255138397 0.20931868255138397 0.20931868255138397
0.23711690306663513 0.23711690306663513 0.23711690306663513
0.27464872598648071 0.27464872598648071 0.27464872598648071
0.32181799411773682 0.32181799411773682 0.32181799411773682
0.37461549043655396 0.37461549043655396 0.37461549043655396
0.42817741632461548 0.42817741632461548 0.42817741632461548
0.4792710542678833 0.4792710542678833 0.4792710542678833
0.5288090705871582 0.5288090705871582 0.5288090705871582
0.57877016067504883 0.57877016067504883 0.57877016067504883
0.63092219829559326 0.63092219829559326 0.63092219829559326
0.68499976396560669 0.68499976396560669 0.68499976396560669
0.24726396799087524 0.24726396799087524 0.24726396799087524
0.25104650855064392 0.25104650855064392 0.25104650855064392
0.25946354866027832 0.25946354866027832 0.25946354866027832
0.2782951295375824 0.2782951295375824 0.2782951295375824
0.30898341536521912 0.30898341536521912 0.30898341536521912
0.35057318210601807 0.35057318210601807 0.35057318210601807
0.39911875128746033 0.39911875128746033 0.39911875128746033
0.44962179660797119 0.44962179660797119 0.44962179660797119
0.49928149580955505 0.49928149580955505 0.49928149580955505
0.54811340570449829 0.54811340570449829 0.54811340570449829
0.59734302759170532 0.59734302759170532 0.59734302759170532
0.6478080153465271 0.6478080153465271 0.6478080153465271
0.69904977083206177 0.69904977083206177 0.69904977083206177
0.3274821937084198 0.3274821937084198 0.3274821937084198
0.32316190004348755 0.32316190004348755 0.32316190004348755
0.32045876979827881 0.32045876979827881 0.32045876979827881
0.3288748562335968 0.3288748562335968 0.3288748562335968
0.35108059644699097 0.35108059644699097 0.35108059644699097
0.38574022054672241 0.38574022054672241 0.38574022054672241
0.42862164974212646 0.42862164974212646 0.42862164974212646
0.47516873478889465 0.47516873478889465 0.47516873478889465
0.52229887247085571 0.52229887247085571 0.52229887247085571
