luts/instant_pro/fuji_fp-3000b_negative_++.cube
# Created by: G'MIC (https://gmic.eu)
TITLE "fuji_fp-3000b_negative_++"
# LUT size
LUT_3D_SIZE 13
# Data domain
DOMAIN_MIN 0.0 0.0 0.0
DOMAIN_MAX 1.0 1.0 1.0
# LUT data points
0.11371516436338425 0.11371516436338425 0.11371516436338425
0.11603541672229767 0.11603541672229767 0.11603541672229767
0.12398581206798553 0.12398581206798553 0.12398581206798553
0.13897533714771271 0.13897533714771271 0.13897533714771271
0.16310565173625946 0.16310565173625946 0.16310565173625946
0.19805073738098145 0.19805073738098145 0.19805073738098145
0.24449253082275391 0.24449253082275391 0.24449253082275391
0.30057820677757263 0.30057820677757263 0.30057820677757263
0.3634849488735199 0.3634849488735199 0.3634849488735199
0.43213871121406555 0.43213871121406555 0.43213871121406555
0.50489991903305054 0.50489991903305054 0.50489991903305054
0.57851296663284302 0.57851296663284302 0.57851296663284302
0.64817774295806885 0.64817774295806885 0.64817774295806885
0.12214944511651993 0.12214944511651993 0.12214944511651993
0.12291940301656723 0.12291940301656723 0.12291940301656723
0.12979705631732941 0.12979705631732941 0.12979705631732941
0.14469574391841888 0.14469574391841888 0.14469574391841888
0.1697496771812439 0.1697496771812439 0.1697496771812439
0.20602412521839142 0.20602412521839142 0.20602412521839142
0.25422099232673645 0.25422099232673645 0.25422099232673645
0.31151631474494934 0.31151631474494934 0.31151631474494934
0.37567156553268433 0.37567156553268433 0.37567156553268433
0.44492104649543762 0.44492104649543762 0.44492104649543762
0.51741427183151245 0.51741427183151245 0.51741427183151245
0.58992725610733032 0.58992725610733032 0.58992725610733032
0.65791207551956177 0.65791207551956177 0.65791207551956177
0.1401766836643219 0.1401766836643219 0.1401766836643219
0.13904398679733276 0.13904398679733276 0.13904398679733276
0.14406296610832214 0.14406296610832214 0.14406296610832214
0.15904083847999573 0.15904083847999573 0.15904083847999573
0.18353688716888428 0.18353688716888428 0.18353688716888428
0.22169867157936096 0.22169867157936096 0.22169867157936096
0.27209022641181946 0.27209022641181946 0.27209022641181946
0.33153632283210754 0.33153632283210754 0.33153632283210754
0.39726346731185913 0.39726346731185913 0.39726346731185913
0.46633496880531311 0.46633496880531311 0.46633496880531311
0.53753471374511719 0.53753471374511719 0.53753471374511719
0.6073070764541626 0.6073070764541626 0.6073070764541626
0.67138200998306274 0.67138200998306274 0.67138200998306274
0.17094117403030396 0.17094117403030396 0.17094117403030396
0.16723255813121796 0.16723255813121796 0.16723255813121796
0.1695830225944519 0.1695830225944519 0.1695830225944519
0.1815616637468338 0.1815616637468338 0.1815616637468338
0.20672167837619781 0.20672167837619781 0.20672167837619781
0.24590969085693359 0.24590969085693359 0.24590969085693359
0.29794850945472717 0.29794850945472717 0.29794850945472717
0.35942357778549194 0.35942357778549194 0.35942357778549194
0.42641761898994446 0.42641761898994446 0.42641761898994446
0.49554833769798279 0.49554833769798279 0.49554833769798279
0.564594566822052 0.564594566822052 0.564594566822052
0.62991511821746826 0.62991511821746826 0.62991511821746826
0.68956071138381958 0.68956071138381958 0.68956071138381958
0.21537929773330688 0.21537929773330688 0.21537929773330688
0.20851491391658783 0.20851491391658783 0.20851491391658783
0.20715892314910889 0.20715892314910889 0.20715892314910889
0.21627078950405121 0.21627078950405121 0.21627078950405121
0.23910421133041382 0.23910421133041382 0.23910421133041382
0.27803784608840942 0.27803784608840942 0.27803784608840942
0.33083146810531616 0.33083146810531616 0.33083146810531616
0.39347133040428162 0.39347133040428162 0.39347133040428162
0.46094006299972534 0.46094006299972534 0.46094006299972534
0.52936065196990967 0.52936065196990967 0.52936065196990967
0.59555089473724365 0.59555089473724365 0.59555089473724365
0.6564980149269104 0.6564980149269104 0.6564980149269104
0.71056461334228516 0.71056461334228516 0.71056461334228516
0.2722049355506897 0.2722049355506897 0.2722049355506897
0.26263469457626343 0.26263469457626343 0.26263469457626343
0.2569812536239624 0.2569812536239624 0.2569812536239624
0.2610028088092804 0.2610028088092804 0.2610028088092804
0.28053092956542969 0.28053092956542969 0.28053092956542969
0.31784805655479431 0.31784805655479431 0.31784805655479431
0.36990547180175781 0.36990547180175781 0.36990547180175781
0.43184244632720947 0.43184244632720947 0.43184244632720947
0.49810612201690674 0.49810612201690674 0.49810612201690674
0.56484395265579224 0.56484395265579224 0.56484395265579224
0.62818044424057007 0.62818044424057007 0.62818044424057007
0.68411856889724731 0.68411856889724731 0.68411856889724731
0.73195958137512207 0.73195958137512207 0.73195958137512207
0.33969935774803162 0.33969935774803162 0.33969935774803162
0.32866162061691284 0.32866162061691284 0.32866162061691284
0.31883186101913452 0.31883186101913452 0.31883186101913452
0.31691205501556396 0.31691205501556396 0.31691205501556396
0.33212560415267944 0.33212560415267944 0.33212560415267944
0.36625885963439941 0.36625885963439941 0.36625885963439941
0.41560667753219604 0.41560667753219604 0.41560667753219604
0.47410821914672852 0.47410821914672852 0.47410821914672852
0.53680956363677979 0.53680956363677979 0.53680956363677979
0.59940361976623535 0.59940361976623535 0.59940361976623535
0.65833574533462524 0.65833574533462524 0.65833574533462524
0.7094147801399231 0.7094147801399231 0.7094147801399231
0.75126868486404419 0.75126868486404419 0.75126868486404419
0.41812482476234436 0.41812482476234436 0.41812482476234436
0.40694400668144226 0.40694400668144226 0.40694400668144226
0.39412423968315125 0.39412423968315125 0.39412423968315125
0.38638821244239807 0.38638821244239807 0.38638821244239807
0.39632204174995422 0.39632204174995422 0.39632204174995422
0.42627322673797607 0.42627322673797607 0.42627322673797607
0.46988016366958618 0.46988016366958618 0.46988016366958618
0.52174538373947144 0.52174538373947144 0.52174538373947144
0.57718980312347412 0.57718980312347412 0.57718980312347412
0.632640540599823 0.632640540599823 0.632640540599823
0.68441706895828247 0.68441706895828247 0.68441706895828247
0.7292863130569458 0.7292863130569458 0.7292863130569458
0.76768654584884644 0.76768654584884644 0.76768654584884644
0.50694698095321655 0.50694698095321655 0.50694698095321655
0.49760550260543823 0.49760550260543823 0.49760550260543823
0.48385393619537354 0.48385393619537354 0.48385393619537354
0.47365963459014893 0.47365963459014893 0.47365963459014893
0.47798332571983337 0.47798332571983337 0.47798332571983337
0.49982878565788269 0.49982878565788269 0.49982878565788269
0.53400534391403198 0.53400534391403198 0.53400534391403198
0.57586103677749634 0.57586103677749634 0.57586103677749634
0.62120181322097778 0.62120181322097778 0.62120181322097778
0.66661465167999268 0.66661465167999268 0.66661465167999268
0.70959758758544922 0.70959758758544922 0.70959758758544922
0.74749666452407837 0.74749666452407837 0.74749666452407837
0.78181737661361694 0.78181737661361694 0.78181737661361694
0.60124117136001587 0.60124117136001587 0.60124117136001587
0.59476673603057861 0.59476673603057861 0.59476673603057861
0.58146995306015015 0.58146995306015015 0.58146995306015015
0.57057744264602661 0.57057744264602661 0.57057744264602661
0.57041072845458984 0.57041072845458984 0.57041072845458984
0.58291864395141602 0.58291864395141602 0.58291864395141602
0.60573494434356689 0.60573494434356689 0.60573494434356689
0.63537997007369995 0.63537997007369995 0.63537997007369995
0.66858178377151489 0.66858178377151489 0.66858178377151489
0.70273011922836304 0.70273011922836304 0.70273011922836304
0.73621618747711182 0.73621618747711182 0.73621618747711182
0.76729351282119751 0.76729351282119751 0.76729351282119751
0.79629671573638916 0.79629671573638916 0.79629671573638916
0.68913328647613525 0.68913328647613525 0.68913328647613525
0.6862480640411377 0.6862480640411377 0.6862480640411377
0.67461806535720825 0.67461806535720825 0.67461806535720825
0.66486698389053345 0.66486698389053345 0.66486698389053345
0.66231256723403931 0.66231256723403931 0.66231256723403931
0.66754782199859619 0.66754782199859619 0.66754782199859619
0.67938989400863647 0.67938989400863647 0.67938989400863647
0.69729810953140259 0.69729810953140259 0.69729810953140259
0.71805483102798462 0.71805483102798462 0.71805483102798462
0.74121499061584473 0.74121499061584473 0.74121499061584473
0.76521021127700806 0.76521021127700806 0.76521021127700806
0.78844785690307617 0.78844785690307617 0.78844785690307617
0.81114357709884644 0.81114357709884644 0.81114357709884644
0.75922733545303345 0.75922733545303345 0.75922733545303345
0.76037073135375977 0.76037073135375977 0.76037073135375977
0.75409626960754395 0.75409626960754395 0.75409626960754395
0.74776232242584229 0.74776232242584229 0.74776232242584229
0.74532902240753174 0.74532902240753174 0.74532902240753174
0.74622625112533569 0.74622625112533569 0.74622625112533569
0.74955844879150391 0.74955844879150391 0.74955844879150391
0.75648188591003418 0.75648188591003418 0.75648188591003418
0.76729905605316162 0.76729905605316162 0.76729905605316162
0.7804839015007019 0.7804839015007019 0.7804839015007019
0.7951313853263855 0.7951313853263855 0.7951313853263855
0.81088191270828247 0.81088191270828247 0.81088191270828247
0.82803261280059814 0.82803261280059814 0.82803261280059814
0.81548035144805908 0.81548035144805908 0.81548035144805908
0.81986385583877563 0.81986385583877563 0.81986385583877563
0.81853288412094116 0.81853288412094116 0.81853288412094116
0.81585073471069336 0.81585073471069336 0.81585073471069336
0.8143276572227478 0.8143276572227478 0.8143276572227478
0.81246060132980347 0.81246060132980347 0.81246060132980347
0.8112371563911438 0.8112371563911438 0.8112371563911438
0.81074601411819458 0.81074601411819458 0.81074601411819458
0.81363165378570557 0.81363165378570557 0.81363165378570557
0.81899541616439819 0.81899541616439819 0.81899541616439819
0.82670861482620239 0.82670861482620239 0.82670861482620239
0.83616793155670166 0.83616793155670166 0.83616793155670166
0.84835159778594971 0.84835159778594971 0.84835159778594971
0.12303780764341354 0.12303780764341354 0.12303780764341354
0.12632453441619873 0.12632453441619873 0.12632453441619873
0.13457854092121124 0.13457854092121124 0.13457854092121124
0.14863061904907227 0.14863061904907227 0.14863061904907227
0.16993314027786255 0.16993314027786255 0.16993314027786255
0.20259691774845123 0.20259691774845123 0.20259691774845123
0.24837943911552429 0.24837943911552429 0.24837943911552429
0.30439591407775879 0.30439591407775879 0.30439591407775879
0.3665766716003418 0.3665766716003418 0.3665766716003418
0.43340376019477844 0.43340376019477844 0.43340376019477844
0.50560218095779419 0.50560218095779419 0.50560218095779419
0.57935988903045654 0.57935988903045654 0.57935988903045654
0.6489180326461792 0.6489180326461792 0.6489180326461792
0.12899531424045563 0.12899531424045563 0.12899531424045563
0.13088032603263855 0.13088032603263855 0.13088032603263855
0.13837099075317383 0.13837099075317383 0.13837099075317383
0.15249030292034149 0.15249030292034149 0.15249030292034149
0.1756722629070282 0.1756722629070282 0.1756722629070282
0.21036629378795624 0.21036629378795624 0.21036629378795624
0.25791093707084656 0.25791093707084656 0.25791093707084656
0.31495290994644165 0.31495290994644165 0.31495290994644165
0.37762969732284546 0.37762969732284546 0.37762969732284546
0.44482004642486572 0.44482004642486572 0.44482004642486572
0.51670932769775391 0.51670932769775391 0.51670932769775391
0.58989441394805908 0.58989441394805908 0.58989441394805908
0.65844082832336426 0.65844082832336426 0.65844082832336426
0.14580056071281433 0.14580056071281433 0.14580056071281433
0.14546743035316467 0.14546743035316467 0.14546743035316467
0.151293084025383 0.151293084025383 0.151293084025383
0.16480399668216705 0.16480399668216705 0.16480399668216705
0.18919630348682404 0.18919630348682404 0.18919630348682404
0.22669628262519836 0.22669628262519836 0.22669628262519836
0.27646741271018982 0.27646741271018982 0.27646741271018982
0.3356730043888092 0.3356730043888092 0.3356730043888092
0.40016633272171021 0.40016633272171021 0.40016633272171021
0.46785885095596313 0.46785885095596313 0.46785885095596313
0.53817063570022583 0.53817063570022583 0.53817063570022583
0.60800915956497192 0.60800915956497192 0.60800915956497192
0.67243826389312744 0.67243826389312744 0.67243826389312744
0.17747350037097931 0.17747350037097931 0.17747350037097931
0.17409452795982361 0.17409452795982361 0.17409452795982361
0.17642416059970856 0.17642416059970856 0.17642416059970856
0.18759788572788239 0.18759788572788239 0.18759788572788239
0.21204786002635956 0.21204786002635956 0.21204786002635956
0.25107452273368835 0.25107452273368835 0.25107452273368835
0.30379137396812439 0.30379137396812439 0.30379137396812439
0.36544895172119141 0.36544895172119141 0.36544895172119141
0.43180811405181885 0.43180811405181885 0.43180811405181885
0.49961555004119873 0.49961555004119873 0.49961555004119873
0.56704032421112061 0.56704032421112061 0.56704032421112061
0.63178783655166626 0.63178783655166626 0.63178783655166626
0.69077903032302856 0.69077903032302856 0.69077903032302856
0.22539883852005005 0.22539883852005005 0.22539883852005005
0.21867349743843079 0.21867349743843079 0.21867349743843079
0.21645274758338928 0.21645274758338928 0.21645274758338928
0.22337082028388977 0.22337082028388977 0.22337082028388977
0.24531234800815582 0.24531234800815582 0.24531234800815582
0.28419288992881775 0.28419288992881775 0.28419288992881775
0.33795997500419617 0.33795997500419617 0.33795997500419617
0.40114739537239075 0.40114739537239075 0.40114739537239075
0.46819305419921875 0.46819305419921875 0.46819305419921875
0.53512454032897949 0.53512454032897949 0.53512454032897949
0.59939789772033691 0.59939789772033691 0.59939789772033691
0.65884840488433838 0.65884840488433838 0.65884840488433838
0.71209084987640381 0.71209084987640381 0.71209084987640381
0.28674784302711487 0.28674784302711487 0.28674784302711487
0.27738705277442932 0.27738705277442932 0.27738705277442932
0.2704106867313385 0.2704106867313385 0.2704106867313385
0.27212834358215332 0.27212834358215332 0.27212834358215332
0.28946036100387573 0.28946036100387573 0.28946036100387573
0.32547721266746521 0.32547721266746521 0.32547721266746521
0.37756556272506714 0.37756556272506714 0.37756556272506714
0.43989205360412598 0.43989205360412598 0.43989205360412598
0.50598716735839844 0.50598716735839844 0.50598716735839844
0.57062190771102905 0.57062190771102905 0.57062190771102905
0.63143646717071533 0.63143646717071533 0.63143646717071533
0.68589717149734497 0.68589717149734497 0.68589717149734497
0.73335683345794678 0.73335683345794678 0.73335683345794678
0.35612002015113831 0.35612002015113831 0.35612002015113831
0.34616684913635254 0.34616684913635254 0.34616684913635254
0.33617439866065979 0.33617439866065979 0.33617439866065979
0.33240404725074768 0.33240404725074768 0.33240404725074768
0.34358066320419312 0.34358066320419312 0.34358066320419312
0.37464559078216553 0.37464559078216553 0.37464559078216553
0.42263224720954895 0.42263224720954895 0.42263224720954895
0.48117008805274963 0.48117008805274963 0.48117008805274963
0.54309654235839844 0.54309654235839844 0.54309654235839844
0.6039271354675293 0.6039271354675293 0.6039271354675293
0.66054826974868774 0.66054826974868774 0.66054826974868774
0.71016973257064819 0.71016973257064819 0.71016973257064819
0.75160765647888184 0.75160765647888184 0.75160765647888184
0.43231767416000366 0.43231767416000366 0.43231767416000366
0.42390704154968262 0.42390704154968262 0.42390704154968262
0.4125458300113678 0.4125458300113678 0.4125458300113678
0.40426796674728394 0.40426796674728394 0.40426796674728394
0.40963870286941528 0.40963870286941528 0.40963870286941528
0.43437597155570984 0.43437597155570984 0.43437597155570984
0.475807785987854 0.475807785987854 0.475807785987854
0.52694249153137207 0.52694249153137207 0.52694249153137207
0.58177435398101807 0.58177435398101807 0.58177435398101807
0.63596290349960327 0.63596290349960327 0.63596290349960327
0.68618035316467285 0.68618035316467285 0.68618035316467285
0.73054403066635132 0.73054403066635132 0.73054403066635132
0.76794445514678955 0.76794445514678955 0.76794445514678955
0.51848596334457397 0.51848596334457397 0.51848596334457397
0.51192867755889893 0.51192867755889893 0.51192867755889893
0.50013959407806396 0.50013959407806396 0.50013959407806396
0.48949968814849854 0.48949968814849854 0.48949968814849854
0.48999527096748352 0.48999527096748352 0.48999527096748352
0.50705701112747192 0.50705701112747192 0.50705701112747192
0.53872299194335938 0.53872299194335938 0.53872299194335938
0.57944595813751221 0.57944595813751221 0.57944595813751221
0.62428617477416992 0.62428617477416992 0.62428617477416992
0.66910839080810547 0.66910839080810547 0.66910839080810547
0.71106553077697754 0.71106553077697754 0.71106553077697754
0.74871128797531128 0.74871128797531128 0.74871128797531128
0.78187805414199829 0.78187805414199829 0.78187805414199829
0.60967624187469482 0.60967624187469482 0.60967624187469482
0.6051337718963623 0.6051337718963623 0.6051337718963623
0.59392893314361572 0.59392893314361572 0.59392893314361572
0.58274751901626587 0.58274751901626587 0.58274751901626587
0.57971459627151489 0.57971459627151489 0.57971459627151489
0.58892720937728882 0.58892720937728882 0.58892720937728882
0.60951250791549683 0.60951250791549683 0.60951250791549683
0.63813459873199463 0.63813459873199463 0.63813459873199463
0.67103683948516846 0.67103683948516846 0.67103683948516846
0.70491510629653931 0.70491510629653931 0.70491510629653931
0.73749721050262451 0.73749721050262451 0.73749721050262451
0.76775884628295898 0.76775884628295898 0.76775884628295898
0.79613322019577026 0.79613322019577026 0.79613322019577026
0.69385069608688354 0.69385069608688354 0.69385069608688354
0.6923176646232605 0.6923176646232605 0.6923176646232605
0.68305158615112305 0.68305158615112305 0.68305158615112305
0.67333132028579712 0.67333132028579712 0.67333132028579712
0.6687462329864502 0.6687462329864502 0.6687462329864502
0.67176872491836548 0.67176872491836548 0.67176872491836548
0.68253177404403687 0.68253177404403687 0.68253177404403687
0.69912958145141602 0.69912958145141602 0.69912958145141602
0.72001272439956665 0.72001272439956665 0.72001272439956665
0.74296838045120239 0.74296838045120239 0.74296838045120239
0.76587259769439697 0.76587259769439697 0.76587259769439697
0.78872442245483398 0.78872442245483398 0.78872442245483398
0.81091809272766113 0.81091809272766113 0.81091809272766113
0.76325750350952148 0.76325750350952148 0.76325750350952148
0.76460719108581543 0.76460719108581543 0.76460719108581543
0.75966149568557739 0.75966149568557739 0.75966149568557739
0.7530372142791748 0.7530372142791748 0.7530372142791748
0.74872845411300659 0.74872845411300659 0.74872845411300659
0.74832510948181152 0.74832510948181152 0.74832510948181152
0.75119823217391968 0.75119823217391968 0.75119823217391968
0.75790464878082275 0.75790464878082275 0.75790464878082275
0.76832997798919678 0.76832997798919678 0.76832997798919678
0.78135472536087036 0.78135472536087036 0.78135472536087036
0.79568469524383545 0.79568469524383545 0.79568469524383545
0.81119334697723389 0.81119334697723389 0.81119334697723389
0.82800674438476562 0.82800674438476562 0.82800674438476562
0.81864899396896362 0.81864899396896362 0.81864899396896362
0.82276254892349243 0.82276254892349243 0.82276254892349243
0.82192432880401611 0.82192432880401611 0.82192432880401611
0.81887942552566528 0.81887942552566528 0.81887942552566528
0.81571388244628906 0.81571388244628906 0.81571388244628906
0.81270653009414673 0.81270653009414673 0.81270653009414673
0.81136363744735718 0.81136363744735718 0.81136363744735718
0.81100082397460938 0.81100082397460938 0.81100082397460938
0.81406360864639282 0.81406360864639282 0.81406360864639282
0.81912726163864136 0.81912726163864136 0.81912726163864136
0.82680392265319824 0.82680392265319824 0.82680392265319824
0.83604800701141357 0.83604800701141357 0.83604800701141357
0.84836512804031372 0.84836512804031372 0.84836512804031372
0.14208056032657623 0.14208056032657623 0.14208056032657623
0.14769256114959717 0.14769256114959717 0.14769256114959717
0.15783241391181946 0.15783241391181946 0.15783241391181946
0.17106899619102478 0.17106899619102478 0.17106899619102478
0.18830719590187073 0.18830719590187073 0.18830719590187073
0.21688345074653625 0.21688345074653625 0.21688345074653625
0.26281440258026123 0.26281440258026123 0.26281440258026123
0.32044848799705505 0.32044848799705505 0.32044848799705505
0.38063889741897583 0.38063889741897583 0.38063889741897583
0.44321107864379883 0.44321107864379883 0.44321107864379883
0.5131528377532959 0.5131528377532959 0.5131528377532959
0.58575314283370972 0.58575314283370972 0.58575314283370972
0.65328240394592285 0.65328240394592285 0.65328240394592285
0.14478506147861481 0.14478506147861481 0.14478506147861481
0.14950487017631531 0.14950487017631531 0.14950487017631531
0.15952529013156891 0.15952529013156891 0.15952529013156891
0.17384496331214905 0.17384496331214905 0.17384496331214905
0.19427716732025146 0.19427716732025146 0.19427716732025146
0.22604915499687195 0.22604915499687195 0.22604915499687195
0.27308899164199829 0.27308899164199829 0.27308899164199829
0.33017763495445251 0.33017763495445251 0.33017763495445251
0.38929235935211182 0.38929235935211182 0.38929235935211182
0.45197221636772156 0.45197221636772156 0.45197221636772156
0.52225154638290405 0.52225154638290405 0.52225154638290405
0.59510713815689087 0.59510713815689087 0.59510713815689087
0.66211521625518799 0.66211521625518799 0.66211521625518799
0.15961980819702148 0.15961980819702148 0.15961980819702148
0.16178344190120697 0.16178344190120697 0.16178344190120697
0.17011642456054688 0.17011642456054688 0.17011642456054688
0.1844775378704071 0.1844775378704071 0.1844775378704071
0.20774875581264496 0.20774875581264496 0.20774875581264496
0.24368965625762939 0.24368965625762939 0.24368965625762939
0.29251450300216675 0.29251450300216675 0.29251450300216675
0.35061904788017273 0.35061904788017273 0.35061904788017273
0.41253471374511719 0.41253471374511719 0.41253471374511719
0.47690233588218689 0.47690233588218689 0.47690233588218689
0.54472434520721436 0.54472434520721436 0.54472434520721436
0.61305612325668335 0.61305612325668335 0.61305612325668335
0.67619019746780396 0.67619019746780396 0.67619019746780396
0.19111189246177673 0.19111189246177673 0.19111189246177673
0.19037552177906036 0.19037552177906036 0.19037552177906036
0.19473311305046082 0.19473311305046082 0.19473311305046082
0.20621155202388763 0.20621155202388763 0.20621155202388763
0.22989536821842194 0.22989536821842194 0.22989536821842194
0.26864981651306152 0.26864981651306152 0.26864981651306152
0.32039639353752136 0.32039639353752136 0.32039639353752136
0.38112509250640869 0.38112509250640869 0.38112509250640869
0.44567027688026428 0.44567027688026428 0.44567027688026428
0.51053625345230103 0.51053625345230103 0.51053625345230103
0.57506644725799561 0.57506644725799561 0.57506644725799561
0.6372838020324707 0.6372838020324707 0.6372838020324707
0.69450533390045166 0.69450533390045166 0.69450533390045166
0.2446037083864212 0.2446037083864212 0.2446037083864212
0.23957261443138123 0.23957261443138123 0.23957261443138123
0.23782388865947723 0.23782388865947723 0.23782388865947723
0.24353897571563721 0.24353897571563721 0.24353897571563721
0.26436156034469604 0.26436156034469604 0.26436156034469604
0.30271300673484802 0.30271300673484802 0.30271300673484802
0.35598310828208923 0.35598310828208923 0.35598310828208923
0.41826838254928589 0.41826838254928589 0.41826838254928589
0.48334112763404846 0.48334112763404846 0.48334112763404846
