luts/instant_pro/fuji_fp-3000b_hc.cube
# Created by: G'MIC (https://gmic.eu)
TITLE "fuji_fp-3000b_hc"
# LUT size
LUT_3D_SIZE 13
# Data domain
DOMAIN_MIN 0.0 0.0 0.0
DOMAIN_MAX 1.0 1.0 1.0
# LUT data points
0.058442778885364532 0.058442778885364532 0.058442778885364532
0.050141651183366776 0.050141651183366776 0.050141651183366776
0.051500104367733002 0.051500104367733002 0.051500104367733002
0.06605924665927887 0.06605924665927887 0.06605924665927887
0.093522645533084869 0.093522645533084869 0.093522645533084869
0.1331963837146759 0.1331963837146759 0.1331963837146759
0.18302519619464874 0.18302519619464874 0.18302519619464874
0.24104461073875427 0.24104461073875427 0.24104461073875427
0.3074289858341217 0.3074289858341217 0.3074289858341217
0.38252848386764526 0.38252848386764526 0.38252848386764526
0.46443626284599304 0.46443626284599304 0.46443626284599304
0.54883003234863281 0.54883003234863281 0.54883003234863281
0.63054531812667847 0.63054531812667847 0.63054531812667847
0.059233061969280243 0.059233061969280243 0.059233061969280243
0.052321847528219223 0.052321847528219223 0.052321847528219223
0.057037040591239929 0.057037040591239929 0.057037040591239929
0.076501317322254181 0.076501317322254181 0.076501317322254181
0.10889670997858047 0.10889670997858047 0.10889670997858047
0.15063802897930145 0.15063802897930145 0.15063802897930145
0.20180074870586395 0.20180074870586395 0.20180074870586395
0.26151618361473083 0.26151618361473083 0.26151618361473083
0.32878404855728149 0.32878404855728149 0.32878404855728149
0.40264075994491577 0.40264075994491577 0.40264075994491577
0.48247447609901428 0.48247447609901428 0.48247447609901428
0.56469511985778809 0.56469511985778809 0.56469511985778809
0.64362281560897827 0.64362281560897827 0.64362281560897827
0.069298341870307922 0.069298341870307922 0.069298341870307922
0.062672331929206848 0.062672331929206848 0.062672331929206848
0.072096943855285645 0.072096943855285645 0.072096943855285645
0.10203951597213745 0.10203951597213745 0.10203951597213745
0.14552405476570129 0.14552405476570129 0.14552405476570129
0.190543532371521 0.190543532371521 0.190543532371521
0.24069392681121826 0.24069392681121826 0.24069392681121826
0.30065351724624634 0.30065351724624634 0.30065351724624634
0.36472025513648987 0.36472025513648987 0.36472025513648987
0.43322789669036865 0.43322789669036865 0.43322789669036865
0.50837999582290649 0.50837999582290649 0.50837999582290649
0.58656948804855347 0.58656948804855347 0.58656948804855347
0.66132050752639771 0.66132050752639771 0.66132050752639771
0.091156169772148132 0.091156169772148132 0.091156169772148132
0.080857023596763611 0.080857023596763611 0.080857023596763611
0.092757537961006165 0.092757537961006165 0.092757537961006165
0.13643962144851685 0.13643962144851685 0.13643962144851685
0.2004774808883667 0.2004774808883667 0.2004774808883667
0.25556257367134094 0.25556257367134094 0.25556257367134094
0.30459815263748169 0.30459815263748169 0.30459815263748169
0.36173707246780396 0.36173707246780396 0.36173707246780396
0.41690737009048462 0.41690737009048462 0.41690737009048462
0.4738667905330658 0.4738667905330658 0.4738667905330658
0.54096871614456177 0.54096871614456177 0.54096871614456177
0.61392176151275635 0.61392176151275635 0.61392176151275635
0.68379175662994385 0.68379175662994385 0.68379175662994385
0.12497727572917938 0.12497727572917938 0.12497727572917938
0.1078498512506485 0.1078498512506485 0.1078498512506485
0.11537014693021774 0.11537014693021774 0.11537014693021774
0.16523179411888123 0.16523179411888123 0.16523179411888123
0.24589507281780243 0.24589507281780243 0.24589507281780243
0.32157275080680847 0.32157275080680847 0.32157275080680847
0.38337543606758118 0.38337543606758118 0.38337543606758118
0.43940171599388123 0.43940171599388123 0.43940171599388123
0.48298940062522888 0.48298940062522888 0.48298940062522888
0.52603292465209961 0.52603292465209961 0.52603292465209961
0.58298176527023315 0.58298176527023315 0.58298176527023315
0.6481010913848877 0.6481010913848877 0.6481010913848877
0.71159899234771729 0.71159899234771729 0.71159899234771729
0.17301227152347565 0.17301227152347565 0.17301227152347565
0.1509426087141037 0.1509426087141037 0.1509426087141037
0.14926525950431824 0.14926525950431824 0.14926525950431824
0.18794573843479156 0.18794573843479156 0.18794573843479156
0.26492100954055786 0.26492100954055786 0.26492100954055786
0.35440218448638916 0.35440218448638916 0.35440218448638916
0.44111701846122742 0.44111701846122742 0.44111701846122742
0.50996845960617065 0.50996845960617065 0.50996845960617065
0.55033749341964722 0.55033749341964722 0.55033749341964722
0.58750110864639282 0.58750110864639282 0.58750110864639282
0.63547194004058838 0.63547194004058838 0.63547194004058838
0.69052040576934814 0.69052040576934814 0.69052040576934814
0.74546408653259277 0.74546408653259277 0.74546408653259277
0.23514300584793091 0.23514300584793091 0.23514300584793091
0.2126743346452713 0.2126743346452713 0.2126743346452713
0.20142881572246552 0.20142881572246552 0.20142881572246552
0.22145132720470428 0.22145132720470428 0.22145132720470428
0.28316542506217957 0.28316542506217957 0.28316542506217957
0.36814478039741516 0.36814478039741516 0.36814478039741516
0.4568626880645752 0.4568626880645752 0.4568626880645752
0.53842222690582275 0.53842222690582275 0.53842222690582275
0.5961604118347168 0.5961604118347168 0.5961604118347168
0.64337158203125 0.64337158203125 0.64337158203125
0.69017809629440308 0.69017809629440308 0.69017809629440308
0.73722374439239502 0.73722374439239502 0.73722374439239502
0.78311318159103394 0.78311318159103394 0.78311318159103394
0.30894020199775696 0.30894020199775696 0.30894020199775696
0.29058855772018433 0.29058855772018433 0.29058855772018433
0.27599823474884033 0.27599823474884033 0.27599823474884033
0.27965250611305237 0.27965250611305237 0.27965250611305237
0.31956940889358521 0.31956940889358521 0.31956940889358521
0.3893694281578064 0.3893694281578064 0.3893694281578064
0.4671688973903656 0.4671688973903656 0.4671688973903656
0.54840868711471558 0.54840868711471558 0.54840868711471558
0.62499529123306274 0.62499529123306274 0.62499529123306274
0.68816220760345459 0.68816220760345459 0.68816220760345459
0.73956173658370972 0.73956173658370972 0.73956173658370972
0.78187203407287598 0.78187203407287598 0.78187203407287598
0.81968313455581665 0.81968313455581665 0.81968313455581665
0.3895474374294281 0.3895474374294281 0.3895474374294281
0.37636563181877136 0.37636563181877136 0.37636563181877136
0.36165931820869446 0.36165931820869446 0.36165931820869446
0.35114786028862 0.35114786028862 0.35114786028862
0.36946326494216919 0.36946326494216919 0.36946326494216919
0.42588478326797485 0.42588478326797485 0.42588478326797485
0.50027155876159668 0.50027155876159668 0.50027155876159668
0.57601940631866455 0.57601940631866455 0.57601940631866455
0.65319234132766724 0.65319234132766724 0.65319234132766724
0.72346466779708862 0.72346466779708862 0.72346466779708862
0.77871519327163696 0.77871519327163696 0.77871519327163696
0.81761574745178223 0.81761574745178223 0.81761574745178223
0.85062193870544434 0.85062193870544434 0.85062193870544434
0.47329801321029663 0.47329801321029663 0.47329801321029663
0.46081730723381042 0.46081730723381042 0.46081730723381042
0.4443754255771637 0.4443754255771637 0.4443754255771637
0.42655587196350098 0.42655587196350098 0.42655587196350098
0.42620065808296204 0.42620065808296204 0.42620065808296204
0.46577203273773193 0.46577203273773193 0.46577203273773193
0.53491330146789551 0.53491330146789551 0.53491330146789551
0.60850769281387329 0.60850769281387329 0.60850769281387329
0.68173229694366455 0.68173229694366455 0.68173229694366455
0.74907338619232178 0.74907338619232178 0.74907338619232178
0.80263775587081909 0.80263775587081909 0.80263775587081909
0.84193485975265503 0.84193485975265503 0.84193485975265503
0.87388622760772705 0.87388622760772705 0.87388622760772705
0.56290477514266968 0.56290477514266968 0.56290477514266968
0.55085724592208862 0.55085724592208862 0.55085724592208862
0.53477323055267334 0.53477323055267334 0.53477323055267334
0.51700735092163086 0.51700735092163086 0.51700735092163086
0.50939780473709106 0.50939780473709106 0.50939780473709106
0.53287911415100098 0.53287911415100098 0.53287911415100098
0.58647561073303223 0.58647561073303223 0.58647561073303223
0.64979010820388794 0.64979010820388794 0.64979010820388794
0.71358346939086914 0.71358346939086914 0.71358346939086914
0.77245789766311646 0.77245789766311646 0.77245789766311646
0.82114851474761963 0.82114851474761963 0.82114851474761963
0.8594164252281189 0.8594164252281189 0.8594164252281189
0.89124113321304321 0.89124113321304321 0.89124113321304321
0.65971845388412476 0.65971845388412476 0.65971845388412476
0.64964205026626587 0.64964205026626587 0.64964205026626587
0.63759732246398926 0.63759732246398926 0.63759732246398926
0.62565898895263672 0.62565898895263672 0.62565898895263672
0.6193617582321167 0.6193617582321167 0.6193617582321167
0.62965929508209229 0.62965929508209229 0.62965929508209229
0.6609465479850769 0.6609465479850769 0.6609465479850769
0.70540142059326172 0.70540142059326172 0.70540142059326172
0.75458359718322754 0.75458359718322754 0.75458359718322754
0.80156046152114868 0.80156046152114868 0.80156046152114868
0.84278619289398193 0.84278619289398193 0.84278619289398193
0.87756729125976562 0.87756729125976562 0.87756729125976562
0.90771365165710449 0.90771365165710449 0.90771365165710449
0.75796091556549072 0.75796091556549072 0.75796091556549072
0.750621497631073 0.750621497631073 0.750621497631073
0.74380582571029663 0.74380582571029663 0.74380582571029663
0.73888540267944336 0.73888540267944336 0.73888540267944336
0.73414278030395508 0.73414278030395508 0.73414278030395508
0.73312270641326904 0.73312270641326904 0.73312270641326904
0.74609065055847168 0.74609065055847168 0.74609065055847168
0.77200931310653687 0.77200931310653687 0.77200931310653687
0.80508118867874146 0.80508118867874146 0.80508118867874146
0.8390268087387085 0.8390268087387085 0.8390268087387085
0.87187719345092773 0.87187719345092773 0.87187719345092773
0.90086084604263306 0.90086084604263306 0.90086084604263306
0.9280046820640564 0.9280046820640564 0.9280046820640564
0.052814677357673645 0.052814677357673645 0.052814677357673645
0.047617699950933456 0.047617699950933456 0.047617699950933456
0.052845839411020279 0.052845839411020279 0.052845839411020279
0.069863609969615936 0.069863609969615936 0.069863609969615936
0.10131368041038513 0.10131368041038513 0.10131368041038513
0.14673410356044769 0.14673410356044769 0.14673410356044769
0.20133170485496521 0.20133170485496521 0.20133170485496521
0.2587282657623291 0.2587282657623291 0.2587282657623291
0.32185071706771851 0.32185071706771851 0.32185071706771851
0.39498630166053772 0.39498630166053772 0.39498630166053772
0.47549059987068176 0.47549059987068176 0.47549059987068176
0.55766195058822632 0.55766195058822632 0.55766195058822632
0.63703352212905884 0.63703352212905884 0.63703352212905884
0.058290384709835052 0.058290384709835052 0.058290384709835052
0.054215990006923676 0.054215990006923676 0.054215990006923676
0.060847219079732895 0.060847219079732895 0.060847219079732895
0.08098360151052475 0.08098360151052475 0.08098360151052475
0.11552605777978897 0.11552605777978897 0.11552605777978897
0.16278065741062164 0.16278065741062164 0.16278065741062164
0.21942487359046936 0.21942487359046936 0.21942487359046936
0.2795678973197937 0.2795678973197937 0.2795678973197937
0.34417295455932617 0.34417295455932617 0.34417295455932617
0.41565752029418945 0.41565752029418945 0.41565752029418945
0.49326980113983154 0.49326980113983154 0.49326980113983154
0.57299864292144775 0.57299864292144775 0.57299864292144775
0.64977586269378662 0.64977586269378662 0.64977586269378662
0.077175348997116089 0.077175348997116089 0.077175348997116089
0.072914391756057739 0.072914391756057739 0.072914391756057739
0.082421034574508667 0.082421034574508667 0.082421034574508667
0.11083242297172546 0.11083242297172546 0.11083242297172546
0.15492929518222809 0.15492929518222809 0.15492929518222809
0.20557545125484467 0.20557545125484467 0.20557545125484467
0.25931000709533691 0.25931000709533691 0.25931000709533691
0.31769633293151855 0.31769633293151855 0.31769633293151855
0.37943154573440552 0.37943154573440552 0.37943154573440552
0.44593781232833862 0.44593781232833862 0.44593781232833862
0.51912367343902588 0.51912367343902588 0.51912367343902588
0.59545695781707764 0.59545695781707764 0.59545695781707764
0.66763710975646973 0.66763710975646973 0.66763710975646973
0.11105906218290329 0.11105906218290329 0.11105906218290329
0.10301893949508667 0.10301893949508667 0.10301893949508667
0.11241813749074936 0.11241813749074936 0.11241813749074936
0.15200367569923401 0.15200367569923401 0.15200367569923401
0.21706598997116089 0.21706598997116089 0.21706598997116089
0.27592861652374268 0.27592861652374268 0.27592861652374268
0.32359236478805542 0.32359236478805542 0.32359236478805542
0.37490329146385193 0.37490329146385193 0.37490329146385193
0.42800700664520264 0.42800700664520264 0.42800700664520264
0.48507949709892273 0.48507949709892273 0.48507949709892273
0.55126124620437622 0.55126124620437622 0.55126124620437622
0.62243908643722534 0.62243908643722534 0.62243908643722534
0.68962126970291138 0.68962126970291138 0.68962126970291138
0.15564639866352081 0.15564639866352081 0.15564639866352081
0.14047043025493622 0.14047043025493622 0.14047043025493622
0.14173388481140137 0.14173388481140137 0.14173388481140137
0.18134494125843048 0.18134494125843048 0.18134494125843048
0.26098334789276123 0.26098334789276123 0.26098334789276123
0.33719262480735779 0.33719262480735779 0.33719262480735779
0.39433965086936951 0.39433965086936951 0.39433965086936951
0.44474995136260986 0.44474995136260986 0.44474995136260986
0.4882081151008606 0.4882081151008606 0.4882081151008606
0.53373897075653076 0.53373897075653076 0.53373897075653076
0.59011304378509521 0.59011304378509521 0.59011304378509521
0.65360307693481445 0.65360307693481445 0.65360307693481445
0.71521121263504028 0.71521121263504028 0.71521121263504028
0.20711305737495422 0.20711305737495422 0.20711305737495422
0.18537639081478119 0.18537639081478119 0.18537639081478119
0.17442117631435394 0.17442117631435394 0.17442117631435394
0.19934007525444031 0.19934007525444031 0.19934007525444031
0.27222919464111328 0.27222919464111328 0.27222919464111328
0.36250999569892883 0.36250999569892883 0.36250999569892883
0.444062739610672 0.444062739610672 0.444062739610672
0.50736969709396362 0.50736969709396362 0.50736969709396362
0.55023443698883057 0.55023443698883057 0.55023443698883057
0.59007972478866577 0.59007972478866577 0.59007972478866577
0.63851779699325562 0.63851779699325562 0.63851779699325562
0.69313561916351318 0.69313561916351318 0.69313561916351318
0.74739909172058105 0.74739909172058105 0.74739909172058105
0.26762872934341431 0.26762872934341431 0.26762872934341431
0.24290281534194946 0.24290281534194946 0.24290281534194946
0.22253516316413879 0.22253516316413879 0.22253516316413879
0.23033767938613892 0.23033767938613892 0.23033767938613892
0.28757843375205994 0.28757843375205994 0.28757843375205994
0.3747963011264801 0.3747963011264801 0.3747963011264801
0.46603146195411682 0.46603146195411682 0.46603146195411682
0.54328876733779907 0.54328876733779907 0.54328876733779907
0.59894728660583496 0.59894728660583496 0.59894728660583496
0.64491409063339233 0.64491409063339233 0.64491409063339233
0.69159263372421265 0.69159263372421265 0.69159263372421265
0.73831027746200562 0.73831027746200562 0.73831027746200562
0.78396505117416382 0.78396505117416382 0.78396505117416382
0.33706164360046387 0.33706164360046387 0.33706164360046387
0.31507998704910278 0.31507998704910278 0.31507998704910278
0.2937818169593811 0.2937818169593811 0.2937818169593811
0.29017901420593262 0.29017901420593262 0.29017901420593262
0.32620018720626831 0.32620018720626831 0.32620018720626831
0.39685016870498657 0.39685016870498657 0.39685016870498657
0.48100626468658447 0.48100626468658447 0.48100626468658447
0.56248325109481812 0.56248325109481812 0.56248325109481812
0.63261312246322632 0.63261312246322632 0.63261312246322632
0.69162255525588989 0.69162255525588989 0.69162255525588989
0.74110311269760132 0.74110311269760132 0.74110311269760132
0.78323262929916382 0.78323262929916382 0.78323262929916382
0.82077312469482422 0.82077312469482422 0.82077312469482422
0.41066518425941467 0.41066518425941467 0.41066518425941467
0.39442905783653259 0.39442905783653259 0.39442905783653259
0.37613204121589661 0.37613204121589661 0.37613204121589661
0.36446240544319153 0.36446240544319153 0.36446240544319153
0.38107287883758545 0.38107287883758545 0.38107287883758545
0.43355515599250793 0.43355515599250793 0.43355515599250793
0.50700139999389648 0.50700139999389648 0.50700139999389648
0.58497130870819092 0.58497130870819092 0.58497130870819092
0.66016244888305664 0.66016244888305664 0.66016244888305664
0.72707152366638184 0.72707152366638184 0.72707152366638184
0.77998650074005127 0.77998650074005127 0.77998650074005127
0.81914699077606201 0.81914699077606201 0.81914699077606201
0.85186123847961426 0.85186123847961426 0.85186123847961426
0.48811724781990051 0.48811724781990051 0.48811724781990051
0.47585803270339966 0.47585803270339966 0.47585803270339966
0.45956063270568848 0.45956063270568848 0.45956063270568848
0.443654865026474 0.443654865026474 0.443654865026474
0.44576942920684814 0.44576942920684814 0.44576942920684814
0.48039263486862183 0.48039263486862183 0.48039263486862183
0.54202216863632202 0.54202216863632202 0.54202216863632202
0.61358523368835449 0.61358523368835449 0.61358523368835449
0.68595719337463379 0.68595719337463379 0.68595719337463379
0.75224506855010986 0.75224506855010986 0.75224506855010986
0.80488294363021851 0.80488294363021851 0.80488294363021851
0.84398895502090454 0.84398895502090454 0.84398895502090454
0.87516379356384277 0.87516379356384277 0.87516379356384277
0.57431405782699585 0.57431405782699585 0.57431405782699585
0.56377512216567993 0.56377512216567993 0.56377512216567993
0.54927980899810791 0.54927980899810791 0.54927980899810791
0.53334671258926392 0.53334671258926392 0.53334671258926392
0.52837330102920532 0.52837330102920532 0.52837330102920532
0.54806011915206909 0.54806011915206909 0.54806011915206909
0.59397858381271362 0.59397858381271362 0.59397858381271362
0.65337574481964111 0.65337574481964111 0.65337574481964111
0.71624928712844849 0.71624928712844849 0.71624928712844849
0.77449256181716919 0.77449256181716919 0.77449256181716919
0.82387030124664307 0.82387030124664307 0.82387030124664307
0.86184650659561157 0.86184650659561157 0.86184650659561157
0.89302140474319458 0.89302140474319458 0.89302140474319458
0.66901576519012451 0.66901576519012451 0.66901576519012451
0.65985566377639771 0.65985566377639771 0.65985566377639771
0.64880263805389404 0.64880263805389404 0.64880263805389404
0.63681697845458984 0.63681697845458984 0.63681697845458984
0.63025784492492676 0.63025784492492676 0.63025784492492676
0.63820213079452515 0.63820213079452515 0.63820213079452515
0.66569417715072632 0.66569417715072632 0.66569417715072632
0.70751446485519409 0.70751446485519409 0.70751446485519409
0.75555461645126343 0.75555461645126343 0.75555461645126343
0.80271357297897339 0.80271357297897339 0.80271357297897339
0.8447149395942688 0.8447149395942688 0.8447149395942688
0.87907356023788452 0.87907356023788452 0.87907356023788452
0.90961170196533203 0.90961170196533203 0.90961170196533203
0.76448756456375122 0.76448756456375122 0.76448756456375122
0.75792068243026733 0.75792068243026733 0.75792068243026733
0.75066655874252319 0.75066655874252319 0.75066655874252319
0.74348104000091553 0.74348104000091553 0.74348104000091553
0.73717236518859863 0.73717236518859863 0.73717236518859863
0.73607242107391357 0.73607242107391357 0.73607242107391357
0.74768906831741333 0.74768906831741333 0.74768906831741333
0.77206707000732422 0.77206707000732422 0.77206707000732422
0.8048132061958313 0.8048132061958313 0.8048132061958313
0.83881956338882446 0.83881956338882446 0.83881956338882446
0.87203943729400635 0.87203943729400635 0.87203943729400635
0.90187859535217285 0.90187859535217285 0.90187859535217285
0.92970669269561768 0.92970669269561768 0.92970669269561768
0.05442911759018898 0.05442911759018898 0.05442911759018898
0.054234463721513748 0.054234463721513748 0.054234463721513748
0.063759267330169678 0.063759267330169678 0.063759267330169678
0.084109529852867126 0.084109529852867126 0.084109529852867126
0.1192038282752037 0.1192038282752037 0.1192038282752037
0.17203302681446075 0.17203302681446075 0.17203302681446075
0.23559519648551941 0.23559519648551941 0.23559519648551941
0.29332754015922546 0.29332754015922546 0.29332754015922546
0.3500933051109314 0.3500933051109314 0.3500933051109314
0.41952008008956909 0.41952008008956909 0.41952008008956909
0.49468472599983215 0.49468472599983215 0.49468472599983215
0.57104092836380005 0.57104092836380005 0.57104092836380005
0.64636689424514771 0.64636689424514771 0.64636689424514771
0.06303328275680542 0.06303328275680542 0.06303328275680542
0.063636288046836853 0.063636288046836853 0.063636288046836853
0.073730960488319397 0.073730960488319397 0.073730960488319397
0.094182588160037994 0.094182588160037994 0.094182588160037994
0.12824359536170959 0.12824359536170959 0.12824359536170959
0.18209242820739746 0.18209242820739746 0.18209242820739746
0.24783332645893097 0.24783332645893097 0.24783332645893097
0.31143903732299805 0.31143903732299805 0.31143903732299805
0.37306579947471619 0.37306579947471619 0.37306579947471619
0.43886098265647888 0.43886098265647888 0.43886098265647888
0.50914555788040161 0.50914555788040161 0.50914555788040161
0.58286035060882568 0.58286035060882568 0.58286035060882568
0.65609192848205566 0.65609192848205566 0.65609192848205566
0.089882761240005493 0.089882761240005493 0.089882761240005493
0.090586654841899872 0.090586654841899872 0.090586654841899872
0.1015775054693222 0.1015775054693222 0.1015775054693222
0.12555265426635742 0.12555265426635742 0.12555265426635742
0.1632581353187561 0.1632581353187561 0.1632581353187561
0.21710699796676636 0.21710699796676636 0.21710699796676636
0.27818194031715393 0.27818194031715393 0.27818194031715393
0.34118294715881348 0.34118294715881348 0.34118294715881348
0.40323743224143982 0.40323743224143982 0.40323743224143982
0.46555870771408081 0.46555870771408081 0.46555870771408081
0.53196471929550171 0.53196471929550171 0.53196471929550171
0.6023896336555481 0.6023896336555481 0.6023896336555481
0.67162042856216431 0.67162042856216431 0.67162042856216431
0.13889744877815247 0.13889744877815247 0.13889744877815247
0.13602569699287415 0.13602569699287415 0.13602569699287415
0.14277477562427521 0.14277477562427521 0.14277477562427521
0.17181795835494995 0.17181795835494995 0.17181795835494995
0.22846026718616486 0.22846026718616486 0.22846026718616486
0.28275924921035767 0.28275924921035767 0.28275924921035767
0.33151161670684814 0.33151161670684814 0.33151161670684814
0.38654717803001404 0.38654717803001404 0.38654717803001404
0.44206917285919189 0.44206917285919189 0.44206917285919189
0.4985697865486145 0.4985697865486145 0.4985697865486145
0.5606992244720459 0.5606992244720459 0.5606992244720459
0.62736517190933228 0.62736517190933228 0.62736517190933228
0.69209367036819458 0.69209367036819458 0.69209367036819458
0.19894132018089294 0.19894132018089294 0.19894132018089294
0.18909183144569397 0.18909183144569397 0.18909183144569397
0.18417175114154816 0.18417175114154816 0.18417175114154816
0.20218008756637573 0.20218008756637573 0.20218008756637573
0.27137953042984009 0.27137953042984009 0.27137953042984009
0.34046867489814758 0.34046867489814758 0.34046867489814758
0.39445430040359497 0.39445430040359497 0.39445430040359497
0.4460681676864624 0.4460681676864624 0.4460681676864624
