luts/instant_pro/fuji_fp-3000b_hc.cube
# Created by: G'MIC (https://gmic.eu)
TITLE "fuji_fp-3000b_hc"
# LUT size
LUT_3D_SIZE 5
# Data domain
DOMAIN_MIN 0.0 0.0 0.0
DOMAIN_MAX 1.0 1.0 1.0
# LUT data points
0.058442778885364532 0.058442778885364532 0.058442778885364532
0.06605924665927887 0.06605924665927887 0.06605924665927887
0.18302519619464874 0.18302519619464874 0.18302519619464874
0.38252848386764526 0.38252848386764526 0.38252848386764526
0.63054531812667847 0.63054531812667847 0.63054531812667847
0.091156169772148132 0.091156169772148132 0.091156169772148132
0.13643962144851685 0.13643962144851685 0.13643962144851685
0.30459815263748169 0.30459815263748169 0.30459815263748169
0.4738667905330658 0.4738667905330658 0.4738667905330658
0.68379175662994385 0.68379175662994385 0.68379175662994385
0.23514300584793091 0.23514300584793091 0.23514300584793091
0.22145132720470428 0.22145132720470428 0.22145132720470428
0.4568626880645752 0.4568626880645752 0.4568626880645752
0.64337158203125 0.64337158203125 0.64337158203125
0.78311318159103394 0.78311318159103394 0.78311318159103394
0.47329801321029663 0.47329801321029663 0.47329801321029663
0.42655587196350098 0.42655587196350098 0.42655587196350098
0.53491330146789551 0.53491330146789551 0.53491330146789551
0.74907338619232178 0.74907338619232178 0.74907338619232178
0.87388622760772705 0.87388622760772705 0.87388622760772705
0.75796091556549072 0.75796091556549072 0.75796091556549072
0.73888540267944336 0.73888540267944336 0.73888540267944336
0.74609065055847168 0.74609065055847168 0.74609065055847168
0.8390268087387085 0.8390268087387085 0.8390268087387085
0.9280046820640564 0.9280046820640564 0.9280046820640564
0.071018427610397339 0.071018427610397339 0.071018427610397339
0.11479789763689041 0.11479789763689041 0.11479789763689041
0.28337270021438599 0.28337270021438599 0.28337270021438599
0.45927244424819946 0.45927244424819946 0.45927244424819946
0.66220271587371826 0.66220271587371826 0.66220271587371826
0.16152095794677734 0.16152095794677734 0.16152095794677734
0.20555661618709564 0.20555661618709564 0.20555661618709564
0.33882057666778564 0.33882057666778564 0.33882057666778564
0.51935607194900513 0.51935607194900513 0.51935607194900513
0.6947319507598877 0.6947319507598877 0.6947319507598877
0.37595745921134949 0.37595745921134949 0.37595745921134949
0.33777961134910583 0.33777961134910583 0.33777961134910583
0.49297568202018738 0.49297568202018738 0.49297568202018738
0.64252305030822754 0.64252305030822754 0.64252305030822754
0.77957260608673096 0.77957260608673096 0.77957260608673096
0.5667908787727356 0.5667908787727356 0.5667908787727356
0.52712869644165039 0.52712869644165039 0.52712869644165039
0.56229764223098755 0.56229764223098755 0.56229764223098755
0.75392621755599976 0.75392621755599976 0.75392621755599976
0.8737369179725647 0.8737369179725647 0.8737369179725647
0.79448443651199341 0.79448443651199341 0.79448443651199341
0.77039563655853271 0.77039563655853271 0.77039563655853271
0.76053076982498169 0.76053076982498169 0.76053076982498169
0.84078526496887207 0.84078526496887207 0.84078526496887207
0.93404030799865723 0.93404030799865723 0.93404030799865723
0.27201738953590393 0.27201738953590393 0.27201738953590393
0.32736378908157349 0.32736378908157349 0.32736378908157349
0.42479816079139709 0.42479816079139709 0.42479816079139709
0.5858120322227478 0.5858120322227478 0.5858120322227478
0.75165659189224243 0.75165659189224243 0.75165659189224243
0.33833035826683044 0.33833035826683044 0.33833035826683044
0.3793756365776062 0.3793756365776062 0.3793756365776062
0.47922834753990173 0.47922834753990173 0.47922834753990173
0.62445765733718872 0.62445765733718872 0.62445765733718872
0.75898057222366333 0.75898057222366333 0.75898057222366333
0.50175464153289795 0.50175464153289795 0.50175464153289795
0.50856250524520874 0.50856250524520874 0.50856250524520874
0.56997501850128174 0.56997501850128174 0.56997501850128174
0.68042445182800293 0.68042445182800293 0.68042445182800293
0.78786766529083252 0.78786766529083252 0.78786766529083252
0.70658087730407715 0.70658087730407715 0.70658087730407715
0.70726537704467773 0.70726537704467773 0.70726537704467773
0.68184733390808105 0.68184733390808105 0.68184733390808105
0.77834159135818481 0.77834159135818481 0.77834159135818481
0.87472426891326904 0.87472426891326904 0.87472426891326904
0.86437892913818359 0.86437892913818359 0.86437892913818359
0.85500079393386841 0.85500079393386841 0.85500079393386841
0.82592356204986572 0.82592356204986572 0.82592356204986572
0.85731989145278931 0.85731989145278931 0.85731989145278931
0.94068074226379395 0.94068074226379395 0.94068074226379395
0.57469028234481812 0.57469028234481812 0.57469028234481812
0.59710603952407837 0.59710603952407837 0.59710603952407837
0.6786578893661499 0.6786578893661499 0.6786578893661499
0.71729546785354614 0.71729546785354614 0.71729546785354614
0.81127601861953735 0.81127601861953735 0.81127601861953735
0.61639690399169922 0.61639690399169922 0.61639690399169922
0.63808125257492065 0.63808125257492065 0.63808125257492065
0.68230408430099487 0.68230408430099487 0.68230408430099487
0.72973150014877319 0.72973150014877319 0.72973150014877319
0.82220762968063354 0.82220762968063354 0.82220762968063354
0.64263910055160522 0.64263910055160522 0.64263910055160522
0.66330206394195557 0.66330206394195557 0.66330206394195557
0.71846747398376465 0.71846747398376465 0.71846747398376465
0.77437913417816162 0.77437913417816162 0.77437913417816162
0.83775782585144043 0.83775782585144043 0.83775782585144043
0.77725678682327271 0.77725678682327271 0.77725678682327271
0.76980853080749512 0.76980853080749512 0.76980853080749512
0.79492592811584473 0.79492592811584473 0.79492592811584473
0.8321271538734436 0.8321271538734436 0.8321271538734436
0.889487624168396 0.889487624168396 0.889487624168396
0.89872592687606812 0.89872592687606812 0.89872592687606812
0.89747655391693115 0.89747655391693115 0.89747655391693115
0.89137446880340576 0.89137446880340576 0.89137446880340576
0.90020537376403809 0.90020537376403809 0.90020537376403809
0.94891893863677979 0.94891893863677979 0.94891893863677979
0.84441369771957397 0.84441369771957397 0.84441369771957397
0.85464328527450562 0.85464328527450562 0.85464328527450562
0.88261622190475464 0.88261622190475464 0.88261622190475464
0.90016758441925049 0.90016758441925049 0.90016758441925049
0.90778422355651855 0.90778422355651855 0.90778422355651855
0.85570341348648071 0.85570341348648071 0.85570341348648071
0.86355447769165039 0.86355447769165039 0.86355447769165039
0.87941551208496094 0.87941551208496094 0.87941551208496094
0.90110373497009277 0.90110373497009277 0.90110373497009277
0.90759247541427612 0.90759247541427612 0.90759247541427612
0.84390223026275635 0.84390223026275635 0.84390223026275635
0.85310667753219604 0.85310667753219604 0.85310667753219604
0.881145179271698 0.881145179271698 0.881145179271698
0.89664953947067261 0.89664953947067261 0.89664953947067261
0.90596616268157959 0.90596616268157959 0.90596616268157959
0.86747866868972778 0.86747866868972778 0.86747866868972778
0.86815017461776733 0.86815017461776733 0.86815017461776733
0.89213651418685913 0.89213651418685913 0.89213651418685913
0.90908718109130859 0.90908718109130859 0.90908718109130859
0.92653918266296387 0.92653918266296387 0.92653918266296387
0.92861038446426392 0.92861038446426392 0.92861038446426392
0.93175184726715088 0.93175184726715088 0.93175184726715088
0.93929862976074219 0.93929862976074219 0.93929862976074219
0.94516801834106445 0.94516801834106445 0.94516801834106445
0.95936411619186401 0.95936411619186401 0.95936411619186401
