luts/instant_pro/fuji_fp-100c_--.cube
# Created by: G'MIC (https://gmic.eu)
TITLE "fuji_fp-100c_--"
# LUT size
LUT_3D_SIZE 13
# Data domain
DOMAIN_MIN 0.0 0.0 0.0
DOMAIN_MAX 1.0 1.0 1.0
# LUT data points
0.015145394951105118 0.016318242996931076 0.015908485278487206
0.050040360540151596 0.023198669776320457 0.018148085102438927
0.12109836935997009 0.02618846483528614 0.020232750102877617
0.21431456506252289 0.017128124833106995 0.021928630769252777
0.30569279193878174 0.0062169241718947887 0.022055815905332565
0.41384407877922058 0.002554979408159852 0.02374776266515255
0.5253722071647644 0.0015657910844311118 0.024975242093205452
0.64070111513137817 0.0038535024505108595 0.026793820783495903
0.74755716323852539 0.0069161509163677692 0.025764256715774536
0.83078736066818237 0.0093767652288079262 0.02353985421359539
0.89575648307800293 0.0072474312037229538 0.026297535747289658
0.95279735326766968 0.0078959446400403976 0.027184713631868362
0.99324208498001099 0.058151349425315857 0.034556802362203598
0.015968307852745056 0.061400905251502991 0.020363481715321541
0.060089245438575745 0.068073228001594543 0.020722122862935066
0.13574966788291931 0.073857657611370087 0.018902692943811417
0.22823566198348999 0.066423989832401276 0.02248719148337841
0.32026839256286621 0.051059722900390625 0.021800441667437553
0.43025577068328857 0.032668080180883408 0.025629051029682159
0.54260635375976562 0.015640901401638985 0.02628033235669136
0.65183180570602417 0.01169433631002903 0.023495228961110115
0.7513694167137146 0.0084113478660583496 0.019944973289966583
0.83058512210845947 0.010032010264694691 0.019310640171170235
0.89835315942764282 0.014615855179727077 0.022338179871439934
0.95740693807601929 0.047223377972841263 0.025992808863520622
0.99252116680145264 0.13166505098342896 0.042177207767963409
0.0051820492371916771 0.1373894214630127 0.02816428430378437
0.041006319224834442 0.14229631423950195 0.025912296026945114
0.12969067692756653 0.14881828427314758 0.019346648827195168
0.23351074755191803 0.15396660566329956 0.016800779849290848
0.33830311894416809 0.14763413369655609 0.01792723685503006
0.45577967166900635 0.13833580911159515 0.021365895867347717
0.57591277360916138 0.12528392672538757 0.022773668169975281
0.67866867780685425 0.11037962883710861 0.020231718197464943
0.76275515556335449 0.094803981482982635 0.017947761341929436
0.8367542028427124 0.10265588015317917 0.015317939221858978
0.8993571400642395 0.12335921823978424 0.027626650407910347
0.96024143695831299 0.16651704907417297 0.033759742975234985
0.99490052461624146 0.22503355145454407 0.052658379077911377
0.0046806037425994873 0.22649158537387848 0.039443761110305786
0.016843130812048912 0.22718019783496857 0.032354526221752167
0.10189545899629593 0.23558492958545685 0.022357357665896416
0.2250906378030777 0.24675494432449341 0.011744375340640545
0.35076150298118591 0.25041031837463379 0.014314718544483185
0.47764137387275696 0.25211876630783081 0.017214562743902206
0.60579544305801392 0.25448954105377197 0.012820973061025143
0.70315837860107422 0.24787053465843201 0.015168462879955769
0.78067904710769653 0.24089056253433228 0.016014399006962776
0.84695029258728027 0.24385949969291687 0.021704550832509995
0.90610331296920776 0.25966915488243103 0.033497288823127747
0.96414881944656372 0.2819691002368927 0.043073974549770355
0.99557375907897949 0.31404459476470947 0.068347588181495667
0.0030987458303570747 0.31819793581962585 0.04339924082159996
0.0088525805622339249 0.32026690244674683 0.039940465241670609
0.067575089633464813 0.32641792297363281 0.030424529686570168
0.20203405618667603 0.3360980749130249 0.019651705399155617
0.34375450015068054 0.34798231720924377 0.014719166792929173
0.4814508855342865 0.35581952333450317 0.013008162379264832
0.60265529155731201 0.35614883899688721 0.0079735098406672478
0.70522803068161011 0.35808506608009338 0.0081160450354218483
0.79259395599365234 0.36130237579345703 0.013464415445923805
0.85919272899627686 0.36207282543182373 0.026323132216930389
0.91666251420974731 0.37111780047416687 0.040470212697982788
0.96791344881057739 0.38328772783279419 0.062591820955276489
0.9945405125617981 0.40375348925590515 0.096095532178878784
0.0017210866790264845 0.40915107727050781 0.040650986135005951
0.0044207107275724411 0.41012364625930786 0.044311583042144775
0.045591887086629868 0.41331523656845093 0.040805384516716003
0.17925675213336945 0.42135900259017944 0.025153994560241699
0.31893455982208252 0.43148696422576904 0.0090220430865883827
0.45292571187019348 0.43868598341941833 0.010516955517232418
0.57607907056808472 0.44078835844993591 0.009743768721818924
0.68466842174530029 0.44549697637557983 0.0058920914307236671
0.78157442808151245 0.45123276114463806 0.0094828139990568161
0.85925507545471191 0.45842200517654419 0.020842833444476128
0.92105787992477417 0.46761542558670044 0.047988351434469223
0.97055524587631226 0.47509682178497314 0.083211980760097504
0.99423354864120483 0.48999166488647461 0.12049508094787598
0.0023727717343717813 0.48798033595085144 0.048464275896549225
0.0070650288835167885 0.49018800258636475 0.053701482713222504
0.025476597249507904 0.49214732646942139 0.051620721817016602
0.16383437812328339 0.49650058150291443 0.039727799594402313
0.29898077249526978 0.50470054149627686 0.017295343801379204
0.42351418733596802 0.51247662305831909 0.0093661593273282051
0.54370903968811035 0.51644212007522583 0.0076996595598757267
0.65621840953826904 0.52044737339019775 0.010380479507148266
0.75687104463577271 0.52427524328231812 0.012962670065462589
0.83984225988388062 0.53249490261077881 0.011855854652822018
0.91287505626678467 0.54393494129180908 0.021465182304382324
0.96926385164260864 0.55831325054168701 0.086494624614715576
0.99451041221618652 0.57405877113342285 0.15373080968856812
0.0024904287420213223 0.5632624626159668 0.064896993339061737
0.0053768381476402283 0.56587564945220947 0.069366797804832458
0.022525174543261528 0.56457877159118652 0.067701287567615509
0.16718810796737671 0.56324809789657593 0.06488298624753952
0.29682627320289612 0.5689205527305603 0.042250704020261765
0.41339775919914246 0.57894992828369141 0.016405846923589706
0.52365362644195557 0.58406603336334229 0.010741873644292355
0.63277214765548706 0.58606255054473877 0.014514070004224777
0.73138898611068726 0.59185254573822021 0.015161671675741673
0.81909662485122681 0.59988117218017578 0.014028198085725307
0.89409506320953369 0.61019498109817505 0.012993412092328072
0.95639950037002563 0.6228364109992981 0.028357546776533127
0.99235981702804565 0.64269161224365234 0.12005353718996048
0.0036174100823700428 0.63560962677001953 0.087718605995178223
0.0054896185174584389 0.636638343334198 0.088575221598148346
0.037231311202049255 0.63477957248687744 0.087967813014984131
0.18256409466266632 0.63421064615249634 0.085148938000202179
0.31176739931106567 0.63502663373947144 0.064503580331802368
0.4165252149105072 0.63812416791915894 0.032638430595397949
0.5184057354927063 0.64358216524124146 0.016380131244659424
0.61882174015045166 0.64971911907196045 0.01531505212187767
0.71420270204544067 0.65810078382492065 0.015730075538158417
0.80083423852920532 0.66525697708129883 0.014845694415271282
0.87594097852706909 0.67532080411911011 0.013198269531130791
0.94069302082061768 0.68632125854492188 0.014405284076929092
0.98923242092132568 0.69920384883880615 0.036812741309404373
0.005125890951603651 0.70690619945526123 0.12464503943920135
0.016819074749946594 0.70586657524108887 0.11875414103269577
0.10704519599676132 0.70496875047683716 0.11919701099395752
0.2460843026638031 0.70379436016082764 0.1184844970703125
0.35317856073379517 0.70291298627853394 0.10185997188091278
0.44252964854240417 0.70175564289093018 0.078246861696243286
0.52077651023864746 0.70374661684036255 0.03735719621181488
0.60987573862075806 0.71163386106491089 0.016039710491895676
0.70053666830062866 0.72042667865753174 0.013754676096141338
0.78379243612289429 0.72898972034454346 0.011674454435706139
0.86090362071990967 0.73983436822891235 0.014481443911790848
0.9268149733543396 0.75037753582000732 0.016216756775975227
0.97979468107223511 0.7581247091293335 0.0111833605915308
0.091948054730892181 0.77652043104171753 0.17544734477996826
0.14154088497161865 0.77673166990280151 0.18139249086380005
0.23167464137077332 0.77368193864822388 0.18117310106754303
0.31693676114082336 0.77014052867889404 0.17660978436470032
0.40913715958595276 0.76952612400054932 0.17123062908649445
0.48653677105903625 0.76906353235244751 0.15825404226779938
0.55305427312850952 0.77020573616027832 0.12706424295902252
0.62508010864257812 0.77574247121810913 0.073277987539768219
0.69760781526565552 0.78274214267730713 0.031762860715389252
0.77479696273803711 0.79223626852035522 0.017027521505951881
0.85214871168136597 0.80378460884094238 0.015266642905771732
0.92032837867736816 0.81326067447662354 0.011883275583386421
0.97371941804885864 0.81920027732849121 0.011436821892857552
0.30051586031913757 0.85034114122390747 0.2672882080078125
0.32264935970306396 0.84897047281265259 0.26740804314613342
0.36547207832336426 0.84628629684448242 0.26666384935379028
0.41907402873039246 0.84418606758117676 0.26590245962142944
0.48206478357315063 0.84130603075027466 0.2680363655090332
0.54589223861694336 0.84115087985992432 0.26596313714981079
0.60500568151473999 0.84284192323684692 0.25158828496932983
0.67606532573699951 0.84764933586120605 0.22098618745803833
0.73466676473617554 0.85261577367782593 0.18545070290565491
0.79219228029251099 0.85965687036514282 0.13074411451816559
0.85566449165344238 0.86870133876800537 0.078408859670162201
0.92059004306793213 0.87770324945449829 0.0325482077896595
0.97581440210342407 0.88466989994049072 0.012735539115965366
0.48710787296295166 0.92426568269729614 0.41279873251914978
0.49986687302589417 0.92319947481155396 0.41145962476730347
0.52302056550979614 0.92259770631790161 0.41361358761787415
0.55635285377502441 0.92175775766372681 0.41561603546142578
0.60116082429885864 0.92144834995269775 0.42123898863792419
0.64634460210800171 0.91958475112915039 0.42253059148788452
0.69132930040359497 0.92019432783126831 0.42411565780639648
0.74247747659683228 0.92313706874847412 0.40907317399978638
0.78692692518234253 0.92666113376617432 0.3919433057308197
0.83429139852523804 0.93253213167190552 0.36895567178726196
0.88491439819335938 0.93924850225448608 0.33881232142448425
0.93802887201309204 0.94617730379104614 0.2933867871761322
0.98739820718765259 0.95238173007965088 0.22287151217460632
0.020990634337067604 0.016804235056042671 0.06354764848947525
0.059866826981306076 0.021986942738294601 0.071856103837490082
0.1168673038482666 0.02564983069896698 0.068717405200004578
0.2070777416229248 0.018851365894079208 0.07390160858631134
0.307127445936203 0.0068546519614756107 0.077281862497329712
0.41308537125587463 0.0049066133797168732 0.081211626529693604
0.52736091613769531 0.0055698170326650143 0.083995282649993896
0.64167004823684692 0.0040798410773277283 0.084460601210594177
0.741973876953125 0.0057975770905613899 0.083504259586334229
0.8221975564956665 0.0078532500192523003 0.080786235630512238
0.88915163278579712 0.007876422256231308 0.084414385259151459
0.95041376352310181 0.0070745730772614479 0.086069874465465546
0.99011141061782837 0.068326704204082489 0.095241948962211609
0.01422481145709753 0.065921470522880554 0.074118629097938538
0.061271801590919495 0.07297234982252121 0.082589738070964813
0.13368706405162811 0.07711435854434967 0.078073658049106598
0.22230090200901031 0.073906965553760529 0.078566685318946838
0.32186111807823181 0.059131801128387451 0.079906195402145386
0.43210089206695557 0.041176352649927139 0.087166011333465576
0.54804497957229614 0.028322018682956696 0.089448519051074982
0.65344202518463135 0.019080473110079765 0.083931341767311096
0.74598139524459839 0.016524221748113632 0.081379100680351257
0.82374542951583862 0.015986289829015732 0.079471111297607422
0.89105397462844849 0.025689009577035904 0.084432773292064667
0.95051705837249756 0.056701257824897766 0.090965360403060913
0.98755538463592529 0.13563503324985504 0.10308010876178741
0.005769781768321991 0.14574892818927765 0.089271485805511475
0.042383499443531036 0.15225233137607574 0.092631638050079346
0.12892022728919983 0.15996405482292175 0.085171766579151154
0.23362360894680023 0.16235837340354919 0.072145752608776093
0.3460853099822998 0.15956196188926697 0.082018472254276276
0.4658624529838562 0.15055057406425476 0.095105923712253571
0.5823742151260376 0.14365731179714203 0.091746523976325989
0.67667317390441895 0.12363611906766891 0.087258465588092804
0.7567330002784729 0.11051320284605026 0.085797645151615143
0.8306763768196106 0.11209259182214737 0.084795854985713959
0.89429259300231934 0.1280021071434021 0.09317982941865921
0.95167207717895508 0.16502945125102997 0.10357736051082611
0.98767036199569702 0.22688376903533936 0.11703706532716751
0.0039344937540590763 0.24334318935871124 0.10640731453895569
0.016701119020581245 0.24164406955242157 0.10139462351799011
0.10824768990278244 0.24977926909923553 0.090894393622875214
0.23564568161964417 0.25730746984481812 0.068427368998527527
0.36521613597869873 0.26208963990211487 0.06453239917755127
0.49199995398521423 0.26532873511314392 0.076032139360904694
0.60946613550186157 0.26389357447624207 0.083450093865394592
0.69859230518341064 0.25172358751296997 0.088944666087627411
0.77493631839752197 0.24487100541591644 0.088815338909626007
0.84291630983352661 0.24838708341121674 0.093868061900138855
0.90157210826873779 0.25633525848388672 0.10364566743373871
0.95763838291168213 0.2780604362487793 0.11501061171293259
0.99003607034683228 0.31119304895401001 0.1327538788318634
0.0019299525301903486 0.3384583592414856 0.11380776762962341
0.0056535159237682819 0.33620235323905945 0.10989075899124146
0.081982329487800598 0.34209662675857544 0.10218674689531326
0.22422824800014496 0.34827733039855957 0.083417795598506927
0.35951262712478638 0.35907557606697083 0.049043048173189163
0.49157178401947021 0.36670634150505066 0.030076839029788971
0.61053133010864258 0.36674845218658447 0.045321386307477951
0.7106095552444458 0.36621209979057312 0.070998460054397583
0.79360508918762207 0.3665720522403717 0.089971162378787994
0.85527467727661133 0.36491715908050537 0.10238883644342422
0.91110652685165405 0.37014356255531311 0.11614541709423065
0.96184635162353516 0.38348963856697083 0.12937526404857635
0.9901236891746521 0.40211445093154907 0.15574245154857635
0.0019694310612976551 0.42484208941459656 0.11474916338920593
0.0057049170136451721 0.42511016130447388 0.11561563611030579
0.058361396193504333 0.4268011748790741 0.11279205977916718
0.20640471577644348 0.42989397048950195 0.096236571669578552
0.33645755052566528 0.44163081049919128 0.05833873525261879
0.46782183647155762 0.44969245791435242 0.02490215003490448
0.58907043933868408 0.45144924521446228 0.015335546806454659
0.69419288635253906 0.45313283801078796 0.024182023480534554
0.78648620843887329 0.45821073651313782 0.045740824192762375
0.86052429676055908 0.46409720182418823 0.090142421424388885
0.9197571873664856 0.4709990918636322 0.12467630207538605
0.96351975202560425 0.47902765870094299 0.14631862938404083
0.98636716604232788 0.48820632696151733 0.17416281998157501
0.0026329788379371166 0.49839729070663452 0.11562616378068924
0.0078032547608017921 0.50111222267150879 0.11791180074214935
0.033416315913200378 0.50311720371246338 0.1174076572060585
0.1876213401556015 0.50176751613616943 0.10960573703050613
0.31684678792953491 0.51079297065734863 0.076908692717552185
0.43766024708747864 0.51864856481552124 0.036496885120868683
0.55659645795822144 0.52335011959075928 0.012873586267232895
0.66508501768112183 0.52711379528045654 0.011147024109959602
0.76075345277786255 0.52970337867736816 0.012363298796117306
0.84430098533630371 0.53603148460388184 0.029404435306787491
0.91409933567047119 0.5485343337059021 0.081279069185256958
0.96525794267654419 0.56044381856918335 0.14985661208629608
0.98615473508834839 0.57095706462860107 0.19584228098392487
0.0030044256709516048 0.57275474071502686 0.12691977620124817
0.0063322028145194054 0.57397407293319702 0.12737663090229034
0.029211800545454025 0.57377052307128906 0.12580820918083191
0.18039384484291077 0.56992137432098389 0.1245478019118309
0.31145808100700378 0.57333260774612427 0.10057971626520157
0.42068672180175781 0.5816270112991333 0.0545487180352211
0.52840429544448853 0.58716034889221191 0.021999882534146309
0.63540613651275635 0.5913013219833374 0.01320355013012886
0.73359096050262451 0.59713530540466309 0.01384124718606472
0.8218996524810791 0.60211968421936035 0.01634267158806324
0.89634352922439575 0.61211580038070679 0.021956633776426315
0.95502924919128418 0.62520807981491089 0.07447873055934906
0.98826807737350464 0.64397513866424561 0.17528942227363586
0.0042209848761558533 0.64254814386367798 0.14605712890625
0.0063702603802084923 0.64220976829528809 0.1407800167798996
0.046413391828536987 0.64103859663009644 0.13747385144233704
0.20107291638851166 0.63913971185684204 0.14058326184749603
0.32437995076179504 0.63758814334869385 0.13054418563842773
0.42647108435630798 0.64207547903060913 0.097563676536083221
0.52060890197753906 0.64740860462188721 0.046615719795227051
0.61531883478164673 0.65400898456573486 0.01659240759909153
0.71215325593948364 0.66243177652359009 0.013693132437765598
0.80043774843215942 0.66647148132324219 0.013173391111195087
0.87767666578292847 0.67487460374832153 0.012338271364569664
0.94224590063095093 0.68590265512466431 0.02321280725300312
0.98884868621826172 0.70155489444732666 0.086974106729030609
0.0054169450886547565 0.71048873662948608 0.16887255012989044
0.020296419039368629 0.70967227220535278 0.16196690499782562
0.12080208212137222 0.7077677845954895 0.16037239134311676
0.24851667881011963 0.7053757905960083 0.16362029314041138
0.35762450098991394 0.70344424247741699 0.15950019657611847
0.44403201341629028 0.70374041795730591 0.13856585323810577
0.52664202451705933 0.70711857080459595 0.097266174852848053
0.60977107286453247 0.71393972635269165 0.044874947518110275
0.69608110189437866 0.72170007228851318 0.014912833459675312
0.78063809871673584 0.72899973392486572 0.01014525443315506
0.85887187719345093 0.73758375644683838 0.01231828611344099
0.92760235071182251 0.74843531847000122 0.016651825979351997
0.98359948396682739 0.7583087682723999 0.017399119213223457
0.10352488607168198 0.77936583757400513 0.20758682489395142
0.15498059988021851 0.77741682529449463 0.21188615262508392
0.23563686013221741 0.77436327934265137 0.21184735000133514
0.31879830360412598 0.77090591192245483 0.20670117437839508
0.40329840779304504 0.76939797401428223 0.20287494361400604
0.48045694828033447 0.76791960000991821 0.1931438148021698
0.55004346370697021 0.7689250111579895 0.17026291787624359
0.62771004438400269 0.77715450525283813 0.1304800808429718
0.6987345814704895 0.78477829694747925 0.076550878584384918
0.7712632417678833 0.79095077514648438 0.024816820397973061
0.84881788492202759 0.80116420984268188 0.012335265055298805
0.91818034648895264 0.81162744760513306 0.010798031464219093
0.97407913208007812 0.82035952806472778 0.0072785024531185627
0.30202034115791321 0.85056853294372559 0.28995940089225769
0.32819885015487671 0.8483957052230835 0.29185479879379272
0.36825847625732422 0.8479117751121521 0.29075208306312561
0.41912892460823059 0.84496897459030151 0.28843531012535095
0.48018825054168701 0.8429945707321167 0.2899814248085022
0.54289674758911133 0.84101366996765137 0.28772780299186707
0.60234880447387695 0.84211540222167969 0.27576771378517151
0.67088115215301514 0.84755986928939819 0.25512385368347168
0.73141652345657349 0.85417419672012329 0.23079955577850342
0.79012024402618408 0.85890108346939087 0.1795789897441864
0.8562738299369812 0.86834442615509033 0.1091742143034935
0.9193006157875061 0.87765824794769287 0.054414354264736176
0.97436624765396118 0.88525331020355225 0.018488610163331032
0.4871990978717804 0.92472201585769653 0.42739993333816528
0.5006633996963501 0.92218571901321411 0.42681410908699036
0.52340066432952881 0.92255532741546631 0.42955058813095093
0.55533444881439209 0.92210251092910767 0.43119177222251892
0.59879100322723389 0.9215240478515625 0.43494126200675964
0.64256542921066284 0.91995644569396973 0.43692377209663391
0.68984061479568481 0.92039346694946289 0.43793579936027527
0.73869174718856812 0.92252326011657715 0.42625376582145691
0.78482329845428467 0.9268873929977417 0.41128918528556824
0.83153027296066284 0.93055373430252075 0.38702914118766785
0.8833121657371521 0.93803352117538452 0.35346075892448425
0.93673312664031982 0.94553601741790771 0.31312298774719238
0.98594850301742554 0.95177251100540161 0.24653339385986328
0.027854170650243759 0.02029501274228096 0.14404198527336121
0.087691813707351685 0.017408229410648346 0.15994574129581451
0.15759386122226715 0.01076609268784523 0.16334600746631622
0.21029162406921387 0.023069659247994423 0.150043785572052
0.29316526651382446 0.028502639383077621 0.15137270092964172
0.40107405185699463 0.011586477048695087 0.15496598184108734
0.52234607934951782 0.0096894660964608192 0.16022036969661713
0.63786476850509644 0.0080942492932081223 0.16273412108421326
0.73828613758087158 0.0044707651250064373 0.16076461970806122
0.81529301404953003 0.0067789563909173012 0.15701882541179657
0.88363379240036011 0.0078685088083148003 0.15811830759048462
0.94689458608627319 0.008834419772028923 0.15695144236087799
0.98804056644439697 0.081771612167358398 0.16402314603328705
0.014543854631483555 0.06783612072467804 0.15203045308589935
0.066230267286300659 0.066677689552307129 0.16363680362701416
0.15648835897445679 0.065485276281833649 0.17170014977455139
0.22520948946475983 0.084129825234413147 0.16477325558662415
0.31418043375015259 0.084104500710964203 0.1622222363948822
0.4284217357635498 0.054040197283029556 0.16052420437335968
0.54778033494949341 0.034760374575853348 0.16198393702507019
0.65194809436798096 0.025674572214484215 0.16262054443359375
0.74229049682617188 0.020537102594971657 0.16205741465091705
0.81898778676986694 0.024529805406928062 0.15883876383304596
0.88701021671295166 0.032228179275989532 0.15975376963615417
0.94482159614562988 0.068386539816856384 0.16372211277484894
0.9848136305809021 0.14672806859016418 0.17025728523731232
0.0064326864667236805 0.14686913788318634 0.16558738052845001
0.044954441487789154 0.15576227009296417 0.17331321537494659
0.13991746306419373 0.16605255007743835 0.17764183878898621
0.24391232430934906 0.17289175093173981 0.17497619986534119
0.347921222448349 0.1788657158613205 0.1764848530292511
0.46656492352485657 0.16775698959827423 0.17694848775863647
0.5819699764251709 0.15753677487373352 0.17615489661693573
0.67425966262817383 0.13889797031879425 0.17205850780010223
0.75277972221374512 0.12885375320911407 0.16811577975749969
0.8266327977180481 0.12981460988521576 0.16634665429592133
0.89059710502624512 0.13844472169876099 0.17115767300128937
0.94449859857559204 0.17450800538063049 0.17661492526531219
0.98442673683166504 0.22877442836761475 0.18152628839015961
0.0041822693310678005 0.25281697511672974 0.19298703968524933
0.021391609683632851 0.25750148296356201 0.1945987343788147
0.12810498476028442 0.26710101962089539 0.19338084757328033
0.25348332524299622 0.27205979824066162 0.18760611116886139
0.37779116630554199 0.27841204404830933 0.1855836808681488
0.50305664539337158 0.28073215484619141 0.18435688316822052
0.61198568344116211 0.27335748076438904 0.1836310476064682
0.69551324844360352 0.25844964385032654 0.18047083914279938
0.77024549245834351 0.25224155187606812 0.17587821185588837
0.8389400839805603 0.25525268912315369 0.17783589661121368
0.89870953559875488 0.25783318281173706 0.1828286349773407
0.95237690210342407 0.27645748853683472 0.18699526786804199
0.98756557703018188 0.31066808104515076 0.19646501541137695
0.001383672934025526 0.35844483971595764 0.20587176084518433
0.0072979195974767208 0.36366710066795349 0.20727258920669556
