luts/instant_pro/fuji_fp-3000b_++.cube
# Created by: G'MIC (https://gmic.eu)
TITLE "fuji_fp-3000b_++"
# LUT size
LUT_3D_SIZE 5
# Data domain
DOMAIN_MIN 0.0 0.0 0.0
DOMAIN_MAX 1.0 1.0 1.0
# LUT data points
0.21176470816135406 0.21176470816135406 0.21176470816135406
0.22440205514431 0.22440205514431 0.22440205514431
0.28392088413238525 0.28392088413238525 0.28392088413238525
0.41838037967681885 0.41838037967681885 0.41838037967681885
0.6297149658203125 0.6297149658203125 0.6297149658203125
0.22309653460979462 0.22309653460979462 0.22309653460979462
0.25373092293739319 0.25373092293739319 0.25373092293739319
0.35039669275283813 0.35039669275283813 0.35039669275283813
0.47628974914550781 0.47628974914550781 0.47628974914550781
0.67824763059616089 0.67824763059616089 0.67824763059616089
0.29168581962585449 0.29168581962585449 0.29168581962585449
0.30189669132232666 0.30189669132232666 0.30189669132232666
0.47806704044342041 0.47806704044342041 0.47806704044342041
0.64842015504837036 0.64842015504837036 0.64842015504837036
0.77032178640365601 0.77032178640365601 0.77032178640365601
0.46857011318206787 0.46857011318206787 0.46857011318206787
0.44456321001052856 0.44456321001052856 0.44456321001052856
0.5143892765045166 0.5143892765045166 0.5143892765045166
0.74260908365249634 0.74260908365249634 0.74260908365249634
0.84823626279830933 0.84823626279830933 0.84823626279830933
0.75782942771911621 0.75782942771911621 0.75782942771911621
0.73546332120895386 0.73546332120895386 0.73546332120895386
0.74493855237960815 0.74493855237960815 0.74493855237960815
0.85052031278610229 0.85052031278610229 0.85052031278610229
0.89914721250534058 0.89914721250534058 0.89914721250534058
0.22564764320850372 0.22564764320850372 0.22564764320850372
0.24793168902397156 0.24793168902397156 0.24793168902397156
0.31750050187110901 0.31750050187110901 0.31750050187110901
0.46078029274940491 0.46078029274940491 0.46078029274940491
0.64383095502853394 0.64383095502853394 0.64383095502853394
0.25856161117553711 0.25856161117553711 0.25856161117553711
0.28352439403533936 0.28352439403533936 0.28352439403533936
0.38256540894508362 0.38256540894508362 0.38256540894508362
0.51280885934829712 0.51280885934829712 0.51280885934829712
0.70011252164840698 0.70011252164840698 0.70011252164840698
0.39221039414405823 0.39221039414405823 0.39221039414405823
0.38079684972763062 0.38079684972763062 0.38079684972763062
0.48270922899246216 0.48270922899246216 0.48270922899246216
0.66125208139419556 0.66125208139419556 0.66125208139419556
0.77887046337127686 0.77887046337127686 0.77887046337127686
0.55982893705368042 0.55982893705368042 0.55982893705368042
0.53210866451263428 0.53210866451263428 0.53210866451263428
0.55618268251419067 0.55618268251419067 0.55618268251419067
0.75687772035598755 0.75687772035598755 0.75687772035598755
0.85414987802505493 0.85414987802505493 0.85414987802505493
0.78682476282119751 0.78682476282119751 0.78682476282119751
0.75930380821228027 0.75930380821228027 0.75930380821228027
0.75525176525115967 0.75525176525115967 0.75525176525115967
0.84094351530075073 0.84094351530075073 0.84094351530075073
0.90480929613113403 0.90480929613113403 0.90480929613113403
0.32373806834220886 0.32373806834220886 0.32373806834220886
0.36122235655784607 0.36122235655784607 0.36122235655784607
0.42501717805862427 0.42501717805862427 0.42501717805862427
0.57675087451934814 0.57675087451934814 0.57675087451934814
0.75417512655258179 0.75417512655258179 0.75417512655258179
0.36290234327316284 0.36290234327316284 0.36290234327316284
0.4044668972492218 0.4044668972492218 0.4044668972492218
0.48253262042999268 0.48253262042999268 0.48253262042999268
0.61410892009735107 0.61410892009735107 0.61410892009735107
0.77093756198883057 0.77093756198883057 0.77093756198883057
0.49695825576782227 0.49695825576782227 0.49695825576782227
0.508525550365448 0.508525550365448 0.508525550365448
0.57181590795516968 0.57181590795516968 0.57181590795516968
0.69211727380752563 0.69211727380752563 0.69211727380752563
0.79195219278335571 0.79195219278335571 0.79195219278335571
0.70934706926345825 0.70934706926345825 0.70934706926345825
0.70104867219924927 0.70104867219924927 0.70104867219924927
0.67980509996414185 0.67980509996414185 0.67980509996414185
0.78174233436584473 0.78174233436584473 0.78174233436584473
0.85210728645324707 0.85210728645324707 0.85210728645324707
0.85697472095489502 0.85697472095489502 0.85697472095489502
0.8412632942199707 0.8412632942199707 0.8412632942199707
0.82718086242675781 0.82718086242675781 0.82718086242675781
0.856464684009552 0.856464684009552 0.856464684009552
0.90420174598693848 0.90420174598693848 0.90420174598693848
0.5788387656211853 0.5788387656211853 0.5788387656211853
0.60822176933288574 0.60822176933288574 0.60822176933288574
0.66402691602706909 0.66402691602706909 0.66402691602706909
0.70618361234664917 0.70618361234664917 0.70618361234664917
0.80656570196151733 0.80656570196151733 0.80656570196151733
0.62350904941558838 0.62350904941558838 0.62350904941558838
0.63546186685562134 0.63546186685562134 0.63546186685562134
0.69255703687667847 0.69255703687667847 0.69255703687667847
0.72259807586669922 0.72259807586669922 0.72259807586669922
0.8241877555847168 0.8241877555847168 0.8241877555847168
0.64386039972305298 0.64386039972305298 0.64386039972305298
0.6546403169631958 0.6546403169631958 0.6546403169631958
0.70938712358474731 0.70938712358474731 0.70938712358474731
0.77200877666473389 0.77200877666473389 0.77200877666473389
0.83554017543792725 0.83554017543792725 0.83554017543792725
0.75314682722091675 0.75314682722091675 0.75314682722091675
0.77751332521438599 0.77751332521438599 0.77751332521438599
0.79298222064971924 0.79298222064971924 0.79298222064971924
0.81988197565078735 0.81988197565078735 0.81988197565078735
0.86010628938674927 0.86010628938674927 0.86010628938674927
0.88384407758712769 0.88384407758712769 0.88384407758712769
0.89257031679153442 0.89257031679153442 0.89257031679153442
0.89525514841079712 0.89525514841079712 0.89525514841079712
0.88710868358612061 0.88710868358612061 0.88710868358612061
0.90291619300842285 0.90291619300842285 0.90291619300842285
0.83546167612075806 0.83546167612075806 0.83546167612075806
0.84604042768478394 0.84604042768478394 0.84604042768478394
0.86209392547607422 0.86209392547607422 0.86209392547607422
0.87410521507263184 0.87410521507263184 0.87410521507263184
0.88613742589950562 0.88613742589950562 0.88613742589950562
0.84297823905944824 0.84297823905944824 0.84297823905944824
0.85869133472442627 0.85869133472442627 0.85869133472442627
0.87093991041183472 0.87093991041183472 0.87093991041183472
0.88922005891799927 0.88922005891799927 0.88922005891799927
0.90792745351791382 0.90792745351791382 0.90792745351791382
0.8315855860710144 0.8315855860710144 0.8315855860710144
0.85698169469833374 0.85698169469833374 0.85698169469833374
0.87375056743621826 0.87375056743621826 0.87375056743621826
0.88868540525436401 0.88868540525436401 0.88868540525436401
0.90955263376235962 0.90955263376235962 0.90955263376235962
0.84512948989868164 0.84512948989868164 0.84512948989868164
0.86943221092224121 0.86943221092224121 0.86943221092224121
0.88391381502151489 0.88391381502151489 0.88391381502151489
0.88841331005096436 0.88841331005096436 0.88841331005096436
0.9029686450958252 0.9029686450958252 0.9029686450958252
0.89931756258010864 0.89931756258010864 0.89931756258010864
0.92031657695770264 0.92031657695770264 0.92031657695770264
0.92966228723526001 0.92966228723526001 0.92966228723526001
0.92016571760177612 0.92016571760177612 0.92016571760177612
0.91969239711761475 0.91969239711761475 0.91969239711761475
