luts/instant_pro/fuji_fp-100c_negative.cube
# Created by: G'MIC (https://gmic.eu)
TITLE "fuji_fp-100c_negative"
# LUT size
LUT_3D_SIZE 13
# Data domain
DOMAIN_MIN 0.0 0.0 0.0
DOMAIN_MAX 1.0 1.0 1.0
# LUT data points
0.056127510964870453 0.11023544520139694 0.086540713906288147
0.06834740936756134 0.1091979518532753 0.085175536572933197
0.083530768752098083 0.10745855420827866 0.084264405071735382
0.13337863981723785 0.10314950346946716 0.084093458950519562
0.21264262497425079 0.093534566462039948 0.085212200880050659
0.33171942830085754 0.068296737968921661 0.08694852888584137
0.46008330583572388 0.038574699312448502 0.085939399898052216
0.58469235897064209 0.016554499045014381 0.08292679488658905
0.69420319795608521 0.016404304653406143 0.078278787434101105
0.7869415283203125 0.052642971277236938 0.078343607485294342
0.86816972494125366 0.1645151823759079 0.092389903962612152
0.94153821468353271 0.28227642178535461 0.12029704451560974
0.9858049750328064 0.38099142909049988 0.16653567552566528
0.059833001345396042 0.12228712439537048 0.09205404669046402
0.075832068920135498 0.1211821436882019 0.089372850954532623
0.096433065831661224 0.1190507784485817 0.087644822895526886
0.150935098528862 0.11573901027441025 0.086254075169563293
0.23770685493946075 0.10988368839025497 0.084819898009300232
0.35478878021240234 0.090609639883041382 0.086223974823951721
0.47538754343986511 0.062745019793510437 0.085558213293552399
0.59162384271621704 0.040005072951316833 0.082068964838981628
0.69769477844238281 0.056978024542331696 0.07705359160900116
0.79087495803833008 0.12417298555374146 0.078453481197357178
0.87045305967330933 0.2173774391412735 0.093313001096248627
0.94116771221160889 0.31668365001678467 0.12669423222541809
0.98777157068252563 0.40409108996391296 0.17087747156620026
0.061487562954425812 0.13452024757862091 0.096589513123035431
0.081258796155452728 0.13597232103347778 0.094177082180976868
0.10528102517127991 0.13375376164913177 0.089949227869510651
0.17312681674957275 0.13468126952648163 0.087338753044605255
0.26759347319602966 0.13589520752429962 0.083809316158294678
0.37574195861816406 0.13205194473266602 0.082336157560348511
0.49317866563796997 0.13082559406757355 0.080145984888076782
0.60371690988540649 0.1322789192199707 0.075871534645557404
0.70374250411987305 0.16415514051914215 0.074833124876022339
0.79593974351882935 0.21469379961490631 0.076000586152076721
0.870350182056427 0.28581172227859497 0.095391683280467987
0.93620908260345459 0.36804211139678955 0.13109244406223297
0.98409593105316162 0.43994361162185669 0.18121504783630371
0.062741510570049286 0.15395407378673553 0.10310585051774979
0.086313106119632721 0.16060382127761841 0.10492203384637833
0.11676444113254547 0.16634693741798401 0.10184598714113235
0.19175457954406738 0.18350666761398315 0.097351595759391785
0.29334971308708191 0.20029053092002869 0.083068817853927612
0.40471675992012024 0.22004927694797516 0.06121419370174408
0.51733601093292236 0.22688506543636322 0.059513315558433533
0.62149757146835327 0.23424707353115082 0.059885960072278976
0.71416980028152466 0.26119661331176758 0.064596988260746002
0.79943215847015381 0.30121976137161255 0.075008317828178406
0.8706929087638855 0.35909602046012878 0.097628802061080933
0.93128091096878052 0.4247201681137085 0.13991515338420868
0.97864764928817749 0.48779463768005371 0.19983677566051483
0.063460648059844971 0.22266991436481476 0.13201604783535004
0.093945600092411041 0.22455127537250519 0.13258115947246552
0.13615746796131134 0.230948805809021 0.13062189519405365
0.19870999455451965 0.25350436568260193 0.1187543198466301
0.30893081426620483 0.28610801696777344 0.082495793700218201
0.43660861253738403 0.32445892691612244 0.032646551728248596
0.54372763633728027 0.33454188704490662 0.026216214522719383
0.63925838470458984 0.34337162971496582 0.03733723983168602
0.72445410490036011 0.35685864090919495 0.054066136479377747
0.80072939395904541 0.39160004258155823 0.075598247349262238
0.86874622106552124 0.43603998422622681 0.11042577773332596
0.92859607934951782 0.4821954071521759 0.16649799048900604
0.97565358877182007 0.53708219528198242 0.2247660756111145
0.060754723846912384 0.31240469217300415 0.17016023397445679
0.11312155425548553 0.3181098997592926 0.17636142671108246
0.16757692396640778 0.32624632120132446 0.17437726259231567
0.21832765638828278 0.34152939915657043 0.16203868389129639
0.30766600370407104 0.37016081809997559 0.13267762959003448
0.43311259150505066 0.41591966152191162 0.073853477835655212
0.54939907789230347 0.44963127374649048 0.024565452709794044
0.65113371610641479 0.46651676297187805 0.021194681525230408
0.73290026187896729 0.47628152370452881 0.041947353631258011
0.80340379476547241 0.48525288701057434 0.079277753829956055
0.86732357740402222 0.50940477848052979 0.13477982580661774
0.92610460519790649 0.54355341196060181 0.19962368905544281
0.97549229860305786 0.58556413650512695 0.25400421023368835
0.077417142689228058 0.40289774537086487 0.21452870965003967
0.14175635576248169 0.41063153743743896 0.22481656074523926
0.20015065371990204 0.42225661873817444 0.22678175568580627
0.25180512666702271 0.43821042776107788 0.22380055487155914
0.31516572833061218 0.4574553370475769 0.20957837998867035
0.41737321019172668 0.49361860752105713 0.17455302178859711
0.52805101871490479 0.53125083446502686 0.12167636305093765
0.64908063411712646 0.56809419393539429 0.05397358164191246
0.74045217037200928 0.58446943759918213 0.056804880499839783
0.80857867002487183 0.58304703235626221 0.11952586472034454
0.87332123517990112 0.59083133935928345 0.17700187861919403
0.93069469928741455 0.61596381664276123 0.23509000241756439
0.9787755012512207 0.64349889755249023 0.28666543960571289
0.13464832305908203 0.49301561713218689 0.2727293074131012
0.17830529808998108 0.50105839967727661 0.27878227829933167
0.23487642407417297 0.51286274194717407 0.28554165363311768
0.2968866229057312 0.52501732110977173 0.28919517993927002
0.35452032089233398 0.53824198246002197 0.28639712929725647
0.42477715015411377 0.56360679864883423 0.27183735370635986
0.5146256685256958 0.59287309646606445 0.2429615706205368
0.62170213460922241 0.62660431861877441 0.20230041444301605
0.72960972785949707 0.65828728675842285 0.16576354205608368
0.81626397371292114 0.67342323064804077 0.18517960608005524
0.88127917051315308 0.68025356531143188 0.22905363142490387
0.93817001581192017 0.69003033638000488 0.27897092700004578
0.97991019487380981 0.70194774866104126 0.33222907781600952
0.22685602307319641 0.57445842027664185 0.34486597776412964
0.25380909442901611 0.58286362886428833 0.34673482179641724
0.29698556661605835 0.5915675163269043 0.35463100671768188
0.3589513897895813 0.6024777889251709 0.36169794201850891
0.41377845406532288 0.61651337146759033 0.36007344722747803
0.46059045195579529 0.63217639923095703 0.35591316223144531
0.52694600820541382 0.65066701173782349 0.34274652600288391
0.62053227424621582 0.67837005853652954 0.32076427340507507
0.71701949834823608 0.70962047576904297 0.29787012934684753
0.81462281942367554 0.73990821838378906 0.27733621001243591
0.89073628187179565 0.75211077928543091 0.2978147566318512
0.94622653722763062 0.75643211603164673 0.34035566449165344
0.9831661581993103 0.76020294427871704 0.3887074887752533
0.33304604887962341 0.65654188394546509 0.42460277676582336
0.3542364239692688 0.66237032413482666 0.427388995885849
0.38466602563858032 0.66923737525939941 0.43496441841125488
0.43301877379417419 0.67868882417678833 0.44244527816772461
0.48017248511314392 0.68948715925216675 0.44184774160385132
0.51813560724258423 0.69781559705734253 0.44050759077072144
0.56454688310623169 0.70887523889541626 0.4361247718334198
0.63760781288146973 0.73074179887771606 0.42322304844856262
0.71611762046813965 0.75758218765258789 0.41341128945350647
0.79662144184112549 0.78433287143707275 0.40438944101333618
0.88733786344528198 0.80622369050979614 0.39589065313339233
0.95554244518280029 0.81711983680725098 0.41031691431999207
0.99074870347976685 0.81811678409576416 0.44016560912132263
0.44108331203460693 0.74003022909164429 0.50667935609817505
0.46083888411521912 0.74339282512664795 0.51189625263214111
0.48184245824813843 0.74763303995132446 0.51786607503890991
0.51127916574478149 0.75383728742599487 0.5239747166633606
0.55003368854522705 0.76084327697753906 0.52684557437896729
0.58636343479156494 0.76595747470855713 0.53013783693313599
0.62632685899734497 0.77410763502120972 0.52997076511383057
0.67113733291625977 0.78948068618774414 0.52484625577926636
0.73207175731658936 0.8110167384147644 0.52138108015060425
0.79686307907104492 0.82809299230575562 0.51587402820587158
0.87476503849029541 0.8453291654586792 0.51219195127487183
0.95173221826553345 0.86119586229324341 0.50666695833206177
0.99551522731781006 0.86923795938491821 0.50454550981521606
0.55531018972396851 0.81988924741744995 0.59115481376647949
0.57931214570999146 0.81913316249847412 0.59813445806503296
0.59753119945526123 0.82070541381835938 0.60340720415115356
0.60963708162307739 0.82471174001693726 0.60621160268783569
0.63420915603637695 0.82866489887237549 0.61161059141159058
0.66732305288314819 0.83332180976867676 0.61899560689926147
0.69982963800430298 0.83955520391464233 0.62301212549209595
0.73905092477798462 0.84964996576309204 0.61928492784500122
0.77857047319412231 0.86073523759841919 0.61801362037658691
0.82875537872314453 0.87180370092391968 0.61607068777084351
0.88432192802429199 0.88605523109436035 0.61743098497390747
0.94012641906738281 0.89556348323822021 0.6125292181968689
0.98827612400054932 0.90181863307952881 0.60637426376342773
0.69460499286651611 0.8878321647644043 0.68118232488632202
0.70560824871063232 0.88640332221984863 0.68417346477508545
0.71977794170379639 0.88676345348358154 0.68798148632049561
0.73467499017715454 0.88879227638244629 0.69197696447372437
0.75467389822006226 0.88963252305984497 0.69618803262710571
0.77842134237289429 0.89160692691802979 0.70164382457733154
0.80576926469802856 0.89549916982650757 0.70785552263259888
0.83086854219436646 0.89972823858261108 0.7067754864692688
0.85947650671005249 0.90608388185501099 0.70713430643081665
0.89063030481338501 0.91322684288024902 0.70602482557296753
0.92237043380737305 0.92197191715240479 0.70786744356155396
0.95516544580459595 0.92771214246749878 0.70721250772476196
0.98504465818405151 0.93228846788406372 0.70727455615997314
0.060802459716796875 0.10926368832588196 0.10279829800128937
0.070254847407341003 0.10800384730100632 0.095567233860492706
0.085764609277248383 0.10627973824739456 0.090691402554512024
0.1447431743144989 0.10013400763273239 0.093563690781593323
0.2355530858039856 0.082014940679073334 0.10071638226509094
0.35276764631271362 0.050393525511026382 0.10362756997346878
0.47746708989143372 0.025577036663889885 0.10723923146724701
0.59642928838729858 0.016560019925236702 0.11528472602367401
0.70038914680480957 0.020033907145261765 0.11759655177593231
0.78785997629165649 0.062116466462612152 0.12887290120124817
0.86299484968185425 0.16937263309955597 0.15554212033748627
0.93715983629226685 0.28724420070648193 0.18217465281486511
0.98948311805725098 0.38427376747131348 0.21699845790863037
0.061158768832683563 0.12022008001804352 0.10803385823965073
0.075668603181838989 0.11788821965456009 0.10199492424726486
0.097391985356807709 0.11528104543685913 0.097252026200294495
0.15624424815177917 0.11155568808317184 0.096325986087322235
0.25041812658309937 0.098298512399196625 0.10009098798036575
0.37406274676322937 0.080211803317070007 0.10760270804166794
0.49114766716957092 0.060424774885177612 0.11497096717357635
0.60202193260192871 0.043390505015850067 0.11673084646463394
0.70418047904968262 0.061767667531967163 0.11743192374706268
0.7915724515914917 0.13703237473964691 0.13504920899868011
0.86825037002563477 0.23215471208095551 0.16350631415843964
0.93457716703414917 0.32611298561096191 0.19477532804012299
0.98385560512542725 0.40778294205665588 0.22825239598751068
0.063572630286216736 0.13479536771774292 0.11303745210170746
0.082221224904060364 0.13634352385997772 0.11069121956825256
0.11169341206550598 0.13674631714820862 0.10662352293729782
0.17495450377464294 0.13667744398117065 0.10405560582876205
0.27557587623596191 0.13499027490615845 0.10254707932472229
0.39340654015541077 0.13133698701858521 0.10982498526573181
0.50523173809051514 0.13125665485858917 0.1142919510602951
0.61304956674575806 0.13344195485115051 0.11337558180093765
0.70911133289337158 0.16867239773273468 0.11973930895328522
0.79692548513412476 0.2228953093290329 0.13210698962211609
0.86756235361099243 0.29877263307571411 0.1622873991727829
0.9272351861000061 0.37389910221099854 0.19998522102832794
0.97973418235778809 0.44360411167144775 0.2347157746553421
0.066836610436439514 0.1620611697435379 0.12391892820596695
0.090143062174320221 0.16172003746032715 0.12171940505504608
0.12846867740154266 0.17241591215133667 0.12279161810874939
0.19839966297149658 0.1853504478931427 0.11945601552724838
0.30447378754615784 0.20003536343574524 0.10703770071268082
0.41447138786315918 0.2165650874376297 0.096108756959438324
0.52309751510620117 0.21849940717220306 0.10243521630764008
0.62529861927032471 0.23155272006988525 0.10743750631809235
0.71583014726638794 0.27084603905677795 0.1186850294470787
0.79974925518035889 0.30661529302597046 0.13316135108470917
0.86667364835739136 0.3622283935546875 0.16605570912361145
0.9259493350982666 0.43076580762863159 0.20716956257820129
0.97554141283035278 0.49167162179946899 0.25012969970703125
0.068445540964603424 0.22916775941848755 0.14963933825492859
0.10730204731225967 0.23254016041755676 0.15430231392383575
0.1532687246799469 0.24411055445671082 0.15729968249797821
0.21393886208534241 0.26036527752876282 0.14823423326015472
0.32080784440040588 0.29135650396347046 0.1233639270067215
0.44081100821495056 0.32582283020019531 0.085596613585948944
0.54602378606796265 0.33287155628204346 0.085423745214939117
0.6385115385055542 0.34263968467712402 0.099781662225723267
0.72533303499221802 0.36779335141181946 0.12171336263418198
0.80224812030792236 0.39781352877616882 0.14376682043075562
0.86837637424468994 0.43663424253463745 0.17894846200942993
0.92869991064071655 0.49149894714355469 0.22239808738231659
0.97555112838745117 0.54149490594863892 0.26906120777130127
0.079617582261562347 0.31520679593086243 0.1871415376663208
0.12854346632957458 0.32584604620933533 0.19680279493331909
0.1830422431230545 0.33877485990524292 0.20205666124820709
0.23747958242893219 0.35251027345657349 0.19698332250118256
0.3167107105255127 0.37607961893081665 0.1739526242017746
0.43728110194206238 0.41954442858695984 0.12732477486133575
0.55825555324554443 0.4572175145149231 0.084713399410247803
0.65461051464080811 0.47218406200408936 0.083400458097457886
0.73443084955215454 0.47812005877494812 0.11974140256643295
0.80426663160324097 0.48889127373695374 0.15941828489303589
0.86990094184875488 0.51589322090148926 0.19543354213237762
0.93100529909133911 0.55415123701095581 0.24139949679374695
0.97629272937774658 0.59246277809143066 0.29065054655075073
0.10399120301008224 0.41083595156669617 0.23548728227615356
0.15596009790897369 0.41856774687767029 0.24464108049869537
0.21588651835918427 0.43275484442710876 0.25355622172355652
0.26964882016181946 0.44597277045249939 0.25029665231704712
0.32649397850036621 0.46112006902694702 0.24030983448028564
0.41927802562713623 0.49417850375175476 0.21515139937400818
0.53386449813842773 0.53348350524902344 0.17240992188453674
0.65566188097000122 0.5693817138671875 0.12061839550733566
0.74176192283630371 0.5802491307258606 0.14366678893566132
0.81028670072555542 0.58477634191513062 0.19168484210968018
0.87456029653549194 0.59964817762374878 0.2282443642616272
0.9343147873878479 0.62185013294219971 0.2686150074005127
0.97859400510787964 0.6452905535697937 0.31961926817893982
0.15332701802253723 0.50303190946578979 0.29193153977394104
0.20198583602905273 0.50959086418151855 0.30468511581420898
0.25654393434524536 0.52099454402923584 0.31384983658790588
0.31583294272422791 0.53092128038406372 0.31455981731414795
0.37632116675376892 0.54291468858718872 0.30955347418785095
0.44213420152664185 0.56886053085327148 0.29608058929443359
0.51942700147628784 0.59540063142776489 0.27603110671043396
0.63227105140686035 0.62894713878631592 0.23727789521217346
0.73642230033874512 0.65972095727920532 0.21677534282207489
0.81804025173187256 0.67692679166793823 0.23171703517436981
0.88147920370101929 0.68303126096725464 0.26711741089820862
0.93849277496337891 0.69192516803741455 0.30633372068405151
0.98082619905471802 0.70361900329589844 0.35773739218711853
0.23763172328472137 0.58642303943634033 0.36159980297088623
0.26861482858657837 0.59135526418685913 0.36683660745620728
0.31625288724899292 0.59911519289016724 0.37633427977561951
0.37433269619941711 0.60921686887741089 0.38344475626945496
0.42899230122566223 0.6212993860244751 0.38240209221839905
0.48052245378494263 0.63681763410568237 0.37771010398864746
0.53933805227279663 0.65477937459945679 0.36889162659645081
0.62647384405136108 0.68159055709838867 0.34906521439552307
0.72720056772232056 0.71372014284133911 0.32335126399993896
0.81702995300292969 0.73954576253890991 0.31098303198814392
0.88713103532791138 0.74824917316436768 0.33163398504257202
0.94424945116043091 0.75324684381484985 0.36743271350860596
0.98491775989532471 0.7612377405166626 0.40944811701774597
0.33847567439079285 0.6658967137336731 0.43675059080123901
0.35258039832115173 0.66763633489608765 0.43532386422157288
0.39243924617767334 0.67509347200393677 0.4437883198261261
0.44446614384651184 0.68396532535552979 0.45593544840812683
0.48701846599578857 0.69221311807632446 0.46116164326667786
0.52436745166778564 0.70100909471511841 0.45991107821464539
0.57522428035736084 0.71500605344772339 0.45468401908874512
0.64319723844528198 0.73602879047393799 0.446602463722229
0.72403180599212646 0.76251262426376343 0.43131658434867859
0.80488830804824829 0.78502297401428223 0.42522558569908142
0.88583040237426758 0.8032689094543457 0.4243292510509491
0.95257848501205444 0.81347489356994629 0.43827024102210999
0.9895816445350647 0.81577169895172119 0.46365869045257568
0.44267219305038452 0.74409013986587524 0.5132288932800293
0.45552593469619751 0.7464260458946228 0.51593714952468872
0.4799785315990448 0.75064468383789062 0.52249211072921753
0.51753968000411987 0.75610208511352539 0.53222084045410156
0.55531400442123413 0.76194119453430176 0.5394403338432312
0.58731979131698608 0.76862376928329468 0.54281854629516602
0.62605947256088257 0.77722203731536865 0.5437198281288147
0.6760285496711731 0.7931477427482605 0.53950148820877075
0.73471254110336304 0.81203240156173706 0.53556728363037109
0.80289745330810547 0.8284791111946106 0.53263407945632935
0.87835204601287842 0.84523671865463257 0.53133159875869751
0.95179349184036255 0.85958296060562134 0.52723819017410278
0.99315822124481201 0.86727327108383179 0.52734130620956421
0.56339800357818604 0.81882971525192261 0.59756344556808472
0.57805180549621582 0.81876403093338013 0.60118144750595093
0.59475612640380859 0.82029306888580322 0.60582864284515381
0.61173659563064575 0.82428658008575439 0.61089420318603516
0.63521212339401245 0.82940268516540527 0.61733520030975342
0.66945725679397583 0.83354008197784424 0.62450128793716431
0.70723193883895874 0.83895480632781982 0.62996232509613037
0.74059593677520752 0.84896290302276611 0.62741261720657349
0.78379511833190918 0.85903280973434448 0.62480282783508301
0.83376210927963257 0.87006968259811401 0.62377631664276123
0.89272481203079224 0.88394969701766968 0.62419742345809937
0.948108971118927 0.89559811353683472 0.62348228693008423
0.98831367492675781 0.90184253454208374 0.62281274795532227
0.69749951362609863 0.88719779253005981 0.68537807464599609
0.70580059289932251 0.88566452264785767 0.68651741743087769
0.71820199489593506 0.88568401336669922 0.68869972229003906
0.73456943035125732 0.88771116733551025 0.69293254613876343
0.75024932622909546 0.88871318101882935 0.69619089365005493
0.77222692966461182 0.88788962364196777 0.69963353872299194
0.80507141351699829 0.89275467395782471 0.70645934343338013
0.82939845323562622 0.89785456657409668 0.70761805772781372
0.85834634304046631 0.90346795320510864 0.70674186944961548
0.89060121774673462 0.90969866514205933 0.70366090536117554
0.924072265625 0.91770792007446289 0.70380234718322754
0.9578174352645874 0.92584598064422607 0.70660555362701416
0.98679482936859131 0.93071091175079346 0.70792150497436523
0.066286183893680573 0.10768415033817291 0.12137427181005478
0.077515967190265656 0.10623131692409515 0.11761797964572906
0.094004131853580475 0.10442081838846207 0.11185311526060104
0.15082274377346039 0.10008655488491058 0.11292896419763565
0.24610544741153717 0.078785791993141174 0.12247756123542786
0.36875349283218384 0.036880955100059509 0.12919771671295166
0.49222877621650696 0.011081740260124207 0.14087893068790436
0.61310088634490967 0.0095308190211653709 0.15787379443645477
0.71139132976531982 0.020498955622315407 0.17761361598968506
0.79413282871246338 0.094477258622646332 0.20165002346038818
0.86781030893325806 0.20151133835315704 0.22982250154018402
0.93709272146224976 0.29945141077041626 0.25521311163902283
0.98650407791137695 0.39015659689903259 0.28885623812675476
0.059325214475393295 0.11756196618080139 0.13210904598236084
0.076608754694461823 0.11467808485031128 0.126722052693367
0.10449561476707458 0.11252681910991669 0.12101331353187561
0.16735677421092987 0.11100999265909195 0.12431175261735916
0.26383349299430847 0.097646318376064301 0.13327348232269287
0.38877558708190918 0.068128414452075958 0.1432918906211853
0.50771874189376831 0.038958679884672165 0.15512549877166748
0.61694389581680298 0.038027416914701462 0.16508397459983826
0.7133859395980835 0.078059524297714233 0.18317031860351562
0.79794132709503174 0.16247497498989105 0.20913204550743103
0.87110650539398193 0.24788349866867065 0.23737014830112457
0.93120259046554565 0.33108067512512207 0.26823794841766357
0.97961091995239258 0.41075754165649414 0.29852798581123352
0.060027658939361572 0.13127554953098297 0.13470427691936493
0.079408161342144012 0.13296733796596527 0.13788649439811707
0.11501163989305496 0.13746929168701172 0.13963964581489563
0.18735773861408234 0.14022272825241089 0.14155517518520355
0.28930652141571045 0.13578693568706512 0.14161519706249237
0.40818196535110474 0.12038684636354446 0.15102170407772064
0.52036494016647339 0.11743603646755219 0.16113793849945068
0.62447506189346313 0.14341139793395996 0.17536582052707672
0.71783065795898438 0.18261827528476715 0.18810492753982544
0.80176663398742676 0.23844209313392639 0.20842359960079193
0.86891323328018188 0.30631440877914429 0.23918376863002777
0.92633414268493652 0.37724268436431885 0.27584958076477051
0.97704046964645386 0.44583198428153992 0.30569586157798767
0.070944465696811676 0.16618002951145172 0.14954203367233276
0.092844612896442413 0.16724833846092224 0.1581912487745285
0.13386501371860504 0.17833459377288818 0.1652112603187561
0.21242271363735199 0.19109942018985748 0.16596680879592896
0.31665247678756714 0.20261798799037933 0.16216018795967102
0.42702221870422363 0.21501561999320984 0.16111786663532257
0.53584718704223633 0.21992050111293793 0.16635087132453918
0.63391464948654175 0.2445039302110672 0.17867827415466309
0.72346711158752441 0.28131633996963501 0.19207972288131714
0.80526351928710938 0.31940141320228577 0.21144498884677887
0.86913537979125977 0.37031447887420654 0.24428568780422211
0.92659056186676025 0.43746733665466309 0.28273770213127136
0.97554045915603638 0.49546447396278381 0.31589546799659729
0.10246650874614716 0.24304257333278656 0.1931605339050293
0.13197693228721619 0.24297043681144714 0.19881483912467957
0.17530533671379089 0.25539475679397583 0.20382595062255859
0.23406492173671722 0.27187803387641907 0.19936731457710266
0.32818064093589783 0.29581868648529053 0.18857964873313904
0.44559186697006226 0.32190096378326416 0.17466384172439575
