luts/instant_pro/fuji_fp-3000b_++.cube
# Created by: G'MIC (https://gmic.eu)
TITLE "fuji_fp-3000b_++"
# LUT size
LUT_3D_SIZE 7
# Data domain
DOMAIN_MIN 0.0 0.0 0.0
DOMAIN_MAX 1.0 1.0 1.0
# LUT data points
0.21176470816135406 0.21176470816135406 0.21176470816135406
0.21662846207618713 0.21662846207618713 0.21662846207618713
0.23775717616081238 0.23775717616081238 0.23775717616081238
0.28392088413238525 0.28392088413238525 0.28392088413238525
0.3630216121673584 0.3630216121673584 0.3630216121673584
0.48440006375312805 0.48440006375312805 0.48440006375312805
0.6297149658203125 0.6297149658203125 0.6297149658203125
0.21491572260856628 0.21491572260856628 0.21491572260856628
0.22597876191139221 0.22597876191139221 0.22597876191139221
0.26142135262489319 0.26142135262489319 0.26142135262489319
0.31661471724510193 0.31661471724510193 0.31661471724510193
0.39260205626487732 0.39260205626487732 0.39260205626487732
0.51363056898117065 0.51363056898117065 0.51363056898117065
0.65674412250518799 0.65674412250518799 0.65674412250518799
0.2378343790769577 0.2378343790769577 0.2378343790769577
0.24774570763111115 0.24774570763111115 0.24774570763111115
0.30649808049201965 0.30649808049201965 0.30649808049201965
0.39836063981056213 0.39836063981056213 0.39836063981056213
0.47179344296455383 0.47179344296455383 0.47179344296455383
0.57595419883728027 0.57595419883728027 0.57595419883728027
0.70486307144165039 0.70486307144165039 0.70486307144165039
0.29168581962585449 0.29168581962585449 0.29168581962585449
0.28728821873664856 0.28728821873664856 0.28728821873664856
0.34056314826011658 0.34056314826011658 0.34056314826011658
0.47806704044342041 0.47806704044342041 0.47806704044342041
0.60266953706741333 0.60266953706741333 0.60266953706741333
0.68599218130111694 0.68599218130111694 0.68599218130111694
0.77032178640365601 0.77032178640365601 0.77032178640365601
0.39207750558853149 0.39207750558853149 0.39207750558853149
0.3797244131565094 0.3797244131565094 0.3797244131565094
0.3861299455165863 0.3861299455165863 0.3861299455165863
0.48627060651779175 0.48627060651779175 0.48627060651779175
0.65059125423431396 0.65059125423431396 0.65059125423431396
0.76930791139602661 0.76930791139602661 0.76930791139602661
0.82878530025482178 0.82878530025482178 0.82878530025482178
0.55997246503829956 0.55997246503829956 0.55997246503829956
0.54347747564315796 0.54347747564315796 0.54347747564315796
0.50981825590133667 0.50981825590133667 0.50981825590133667
0.56818884611129761 0.56818884611129761 0.56818884611129761
0.71157723665237427 0.71157723665237427 0.71157723665237427
0.81304150819778442 0.81304150819778442 0.81304150819778442
0.86423689126968384 0.86423689126968384 0.86423689126968384
0.75782942771911621 0.75782942771911621 0.75782942771911621
0.7433476448059082 0.7433476448059082 0.7433476448059082
0.72840279340744019 0.72840279340744019 0.72840279340744019
0.74493855237960815 0.74493855237960815 0.74493855237960815
0.81991487741470337 0.81991487741470337 0.81991487741470337
0.87138116359710693 0.87138116359710693 0.87138116359710693
0.89914721250534058 0.89914721250534058 0.89914721250534058
0.21607318520545959 0.21607318520545959 0.21607318520545959
0.22707739472389221 0.22707739472389221 0.22707739472389221
0.2474924623966217 0.2474924623966217 0.2474924623966217
0.29828894138336182 0.29828894138336182 0.29828894138336182
0.37898364663124084 0.37898364663124084 0.37898364663124084
0.49401921033859253 0.49401921033859253 0.49401921033859253
0.6303175687789917 0.6303175687789917 0.6303175687789917
0.22717337310314178 0.22717337310314178 0.22717337310314178
0.24061761796474457 0.24061761796474457 0.24061761796474457
0.27311694622039795 0.27311694622039795 0.27311694622039795
0.33535605669021606 0.33535605669021606 0.33535605669021606
0.41498616337776184 0.41498616337776184 0.41498616337776184
0.5285341739654541 0.5285341739654541 0.5285341739654541
0.66614091396331787 0.66614091396331787 0.66614091396331787
0.26693829894065857 0.26693829894065857 0.26693829894065857
0.27092382311820984 0.27092382311820984 0.27092382311820984
0.31672647595405579 0.31672647595405579 0.31672647595405579
0.42026323080062866 0.42026323080062866 0.42026323080062866
0.49449536204338074 0.49449536204338074 0.49449536204338074
0.58800464868545532 0.58800464868545532 0.58800464868545532
0.71528083086013794 0.71528083086013794 0.71528083086013794
0.3465387225151062 0.3465387225151062 0.3465387225151062
0.33524730801582336 0.33524730801582336 0.33524730801582336
0.35955280065536499 0.35955280065536499 0.35955280065536499
0.48194444179534912 0.48194444179534912 0.48194444179534912
0.60734421014785767 0.60734421014785767 0.60734421014785767
0.69234365224838257 0.69234365224838257 0.69234365224838257
0.77600771188735962 0.77600771188735962 0.77600771188735962
0.45264795422554016 0.45264795422554016 0.45264795422554016
0.43485638499259949 0.43485638499259949 0.43485638499259949
0.42131158709526062 0.42131158709526062 0.42131158709526062
0.50637960433959961 0.50637960433959961 0.50637960433959961
0.66851717233657837 0.66851717233657837 0.66851717233657837
0.77630758285522461 0.77630758285522461 0.77630758285522461
0.83374345302581787 0.83374345302581787 0.83374345302581787
0.59763145446777344 0.59763145446777344 0.59763145446777344
0.58031457662582397 0.58031457662582397 0.58031457662582397
0.5483430027961731 0.5483430027961731 0.5483430027961731
0.58830827474594116 0.58830827474594116 0.58830827474594116
0.7160835862159729 0.7160835862159729 0.7160835862159729
0.81714344024658203 0.81714344024658203 0.81714344024658203
0.86883175373077393 0.86883175373077393 0.86883175373077393
0.77168595790863037 0.77168595790863037 0.77168595790863037
0.75588631629943848 0.75588631629943848 0.75588631629943848
0.73324072360992432 0.73324072360992432 0.73324072360992432
0.74601978063583374 0.74601978063583374 0.74601978063583374
0.81022316217422485 0.81022316217422485 0.81022316217422485
0.86805528402328491 0.86805528402328491 0.86805528402328491
0.90313196182250977 0.90313196182250977 0.90313196182250977
0.24330291152000427 0.24330291152000427 0.24330291152000427
0.2598225474357605 0.2598225474357605 0.2598225474357605
0.28276333212852478 0.28276333212852478 0.28276333212852478
0.34357622265815735 0.34357622265815735 0.34357622265815735
0.45796611905097961 0.45796611905097961 0.45796611905097961
0.5648987889289856 0.5648987889289856 0.5648987889289856
0.67141556739807129 0.67141556739807129 0.67141556739807129
0.2601659893989563 0.2601659893989563 0.2601659893989563
0.279520183801651 0.279520183801651 0.279520183801651
0.31016004085540771 0.31016004085540771 0.31016004085540771
0.37162739038467407 0.37162739038467407 0.37162739038467407
0.46833762526512146 0.46833762526512146 0.46833762526512146
0.58822143077850342 0.58822143077850342 0.58822143077850342
0.70435702800750732 0.70435702800750732 0.70435702800750732
0.31763958930969238 0.31763958930969238 0.31763958930969238
0.33246803283691406 0.33246803283691406 0.33246803283691406
0.35775619745254517 0.35775619745254517 0.35775619745254517
0.4337247908115387 0.4337247908115387 0.4337247908115387
0.51818811893463135 0.51818811893463135 0.51818811893463135
0.61471599340438843 0.61471599340438843 0.61471599340438843
0.73429405689239502 0.73429405689239502 0.73429405689239502
0.44091874361038208 0.44091874361038208 0.44091874361038208
0.44290393590927124 0.44290393590927124 0.44290393590927124
0.43443694710731506 0.43443694710731506 0.43443694710731506
0.49536693096160889 0.49536693096160889 0.49536693096160889
0.62342220544815063 0.62342220544815063 0.62342220544815063
0.70590263605117798 0.70590263605117798 0.70590263605117798
0.78195977210998535 0.78195977210998535 0.78195977210998535
0.55361360311508179 0.55361360311508179 0.55361360311508179
0.55009377002716064 0.55009377002716064 0.55009377002716064
0.51941299438476562 0.51941299438476562 0.51941299438476562
0.54803574085235596 0.54803574085235596 0.54803574085235596
0.68898546695709229 0.68898546695709229 0.68898546695709229
0.78433287143707275 0.78433287143707275 0.78433287143707275
0.83462774753570557 0.83462774753570557 0.83462774753570557
0.6733933687210083 0.6733933687210083 0.6733933687210083
0.66229850053787231 0.66229850053787231 0.66229850053787231
0.63309097290039062 0.63309097290039062 0.63309097290039062
0.63873463869094849 0.63873463869094849 0.63873463869094849
0.72940939664840698 0.72940939664840698 0.72940939664840698
0.82150769233703613 0.82150769233703613 0.82150769233703613
0.87052541971206665 0.87052541971206665 0.87052541971206665
0.80858856439590454 0.80858856439590454 0.80858856439590454
0.79427677392959595 0.79427677392959595 0.79427677392959595
0.7727658748626709 0.7727658748626709 0.7727658748626709
0.77253800630569458 0.77253800630569458 0.77253800630569458
0.81475186347961426 0.81475186347961426 0.81475186347961426
0.86777055263519287 0.86777055263519287 0.86777055263519287
0.90549266338348389 0.90549266338348389 0.90549266338348389
0.32373806834220886 0.32373806834220886 0.32373806834220886
0.3472822904586792 0.3472822904586792 0.3472822904586792
0.37670451402664185 0.37670451402664185 0.37670451402664185
0.42501717805862427 0.42501717805862427 0.42501717805862427
0.51416820287704468 0.51416820287704468 0.51416820287704468
0.6459963321685791 0.6459963321685791 0.6459963321685791
0.75417512655258179 0.75417512655258179 0.75417512655258179
0.34710708260536194 0.34710708260536194 0.34710708260536194
0.36984926462173462 0.36984926462173462 0.36984926462173462
0.40546613931655884 0.40546613931655884 0.40546613931655884
0.45336645841598511 0.45336645841598511 0.45336645841598511
0.53123676776885986 0.53123676776885986 0.53123676776885986
0.67149406671524048 0.67149406671524048 0.67149406671524048
0.76654183864593506 0.76654183864593506 0.76654183864593506
0.38808068633079529 0.38808068633079529 0.38808068633079529
0.41275206208229065 0.41275206208229065 0.41275206208229065
0.45081335306167603 0.45081335306167603 0.45081335306167603
0.51111012697219849 0.51111012697219849 0.51111012697219849
0.58339321613311768 0.58339321613311768 0.58339321613311768
0.68620014190673828 0.68620014190673828 0.68620014190673828
0.77546226978302002 0.77546226978302002 0.77546226978302002
0.49695825576782227 0.49695825576782227 0.49695825576782227
0.49858367443084717 0.49858367443084717 0.49858367443084717
0.52450823783874512 0.52450823783874512 0.52450823783874512
0.57181590795516968 0.57181590795516968 0.57181590795516968
0.65236061811447144 0.65236061811447144 0.65236061811447144
0.72589755058288574 0.72589755058288574 0.72589755058288574
0.79195219278335571 0.79195219278335571 0.79195219278335571
0.64083385467529297 0.64083385467529297 0.64083385467529297
0.64047843217849731 0.64047843217849731 0.64047843217849731
0.64519435167312622 0.64519435167312622 0.64519435167312622
0.64844566583633423 0.64844566583633423 0.64844566583633423
0.71194338798522949 0.71194338798522949 0.71194338798522949
0.79279738664627075 0.79279738664627075 0.79279738664627075
0.83222103118896484 0.83222103118896484 0.83222103118896484
0.76389682292938232 0.76389682292938232 0.76389682292938232
0.75042015314102173 0.75042015314102173 0.75042015314102173
0.74148523807525635 0.74148523807525635 0.74148523807525635
0.72323983907699585 0.72323983907699585 0.72323983907699585
0.75791603326797485 0.75791603326797485 0.75791603326797485
0.83085024356842041 0.83085024356842041 0.83085024356842041
0.86921077966690063 0.86921077966690063 0.86921077966690063
0.85697472095489502 0.85697472095489502 0.85697472095489502
0.84674131870269775 0.84674131870269775 0.84674131870269775
0.83559501171112061 0.83559501171112061 0.83559501171112061
0.82718086242675781 0.82718086242675781 0.82718086242675781
0.84000450372695923 0.84000450372695923 0.84000450372695923
0.87397462129592896 0.87397462129592896 0.87397462129592896
0.90420174598693848 0.90420174598693848 0.90420174598693848
0.48498016595840454 0.48498016595840454 0.48498016595840454
0.5050429105758667 0.5050429105758667 0.5050429105758667
0.53558671474456787 0.53558671474456787 0.53558671474456787
0.57589852809906006 0.57589852809906006 0.57589852809906006
0.61384010314941406 0.61384010314941406 0.61384010314941406
0.68213403224945068 0.68213403224945068 0.68213403224945068
0.79393309354782104 0.79393309354782104 0.79393309354782104
0.5148959755897522 0.5148959755897522 0.5148959755897522
0.52865362167358398 0.52865362167358398 0.52865362167358398
0.55981361865997314 0.55981361865997314 0.55981361865997314
0.60699784755706787 0.60699784755706787 0.60699784755706787
0.63238835334777832 0.63238835334777832 0.63238835334777832
0.70205098390579224 0.70205098390579224 0.70205098390579224
0.80115264654159546 0.80115264654159546 0.80115264654159546
0.53209823369979858 0.53209823369979858 0.53209823369979858
0.54458725452423096 0.54458725452423096 0.54458725452423096
0.58012890815734863 0.58012890815734863 0.58012890815734863
0.63581734895706177 0.63581734895706177 0.63581734895706177
0.67530971765518188 0.67530971765518188 0.67530971765518188
0.73997610807418823 0.73997610807418823 0.73997610807418823
0.81106513738632202 0.81106513738632202 0.81106513738632202
0.57306653261184692 0.57306653261184692 0.57306653261184692
0.58138453960418701 0.58138453960418701 0.58138453960418701
0.61145198345184326 0.61145198345184326 0.61145198345184326
0.65889972448348999 0.65889972448348999 0.65889972448348999
0.7117462158203125 0.7117462158203125 0.7117462158203125
0.7642098069190979 0.7642098069190979 0.7642098069190979
0.81588464975357056 0.81588464975357056 0.81588464975357056
0.67597669363021851 0.67597669363021851 0.67597669363021851
0.69017136096954346 0.69017136096954346 0.69017136096954346
0.70730233192443848 0.70730233192443848 0.70730233192443848
0.72122085094451904 0.72122085094451904 0.72122085094451904
0.7552143931388855 0.7552143931388855 0.7552143931388855
0.80213344097137451 0.80213344097137451 0.80213344097137451
0.83838081359863281 0.83838081359863281 0.83838081359863281
0.80295968055725098 0.80295968055725098 0.80295968055725098
0.79988163709640503 0.79988163709640503 0.79988163709640503
0.808116614818573 0.808116614818573 0.808116614818573
0.81027168035507202 0.81027168035507202 0.81027168035507202
0.81098628044128418 0.81098628044128418 0.81098628044128418
0.84187841415405273 0.84187841415405273 0.84187841415405273
0.86895835399627686 0.86895835399627686 0.86895835399627686
0.88191944360733032 0.88191944360733032 0.88191944360733032
0.88135278224945068 0.88135278224945068 0.88135278224945068
0.88324958086013794 0.88324958086013794 0.88324958086013794
0.88021427392959595 0.88021427392959595 0.88021427392959595
0.87428492307662964 0.87428492307662964 0.87428492307662964
0.88398498296737671 0.88398498296737671 0.88398498296737671
0.90241175889968872 0.90241175889968872 0.90241175889968872
0.67115533351898193 0.67115533351898193 0.67115533351898193
0.68591189384460449 0.68591189384460449 0.68591189384460449
0.7070203423500061 0.7070203423500061 0.7070203423500061
0.7413938045501709 0.7413938045501709 0.7413938045501709
0.77387118339538574 0.77387118339538574 0.77387118339538574
0.77878838777542114 0.77878838777542114 0.77878838777542114
0.82795041799545288 0.82795041799545288 0.82795041799545288
0.69602096080780029 0.69602096080780029 0.69602096080780029
0.70580506324768066 0.70580506324768066 0.70580506324768066
0.72299182415008545 0.72299182415008545 0.72299182415008545
0.74949246644973755 0.74949246644973755 0.74949246644973755
0.76741081476211548 0.76741081476211548 0.76741081476211548
0.79091924428939819 0.79091924428939819 0.79091924428939819
0.84101325273513794 0.84101325273513794 0.84101325273513794
0.7057487964630127 0.7057487964630127 0.7057487964630127
0.71321660280227661 0.71321660280227661 0.71321660280227661
0.73396754264831543 0.73396754264831543 0.73396754264831543
0.76120674610137939 0.76120674610137939 0.76120674610137939
0.7831345796585083 0.7831345796585083 0.7831345796585083
0.81645101308822632 0.81645101308822632 0.81645101308822632
0.85511553287506104 0.85511553287506104 0.85511553287506104
0.71239989995956421 0.71239989995956421 0.71239989995956421
0.72124320268630981 0.72124320268630981 0.72124320268630981
0.74754303693771362 0.74754303693771362 0.74754303693771362
0.76786869764328003 0.76786869764328003 0.76786869764328003
0.79442578554153442 0.79442578554153442 0.79442578554153442
0.82648813724517822 0.82648813724517822 0.82648813724517822
0.85862940549850464 0.85862940549850464 0.85862940549850464
0.74914652109146118 0.74914652109146118 0.74914652109146118
0.76457148790359497 0.76457148790359497 0.76457148790359497
0.78242307901382446 0.78242307901382446 0.78242307901382446
0.79426032304763794 0.79426032304763794 0.79426032304763794
0.81401318311691284 0.81401318311691284 0.81401318311691284
0.83861291408538818 0.83861291408538818 0.83861291408538818
0.86439758539199829 0.86439758539199829 0.86439758539199829
0.81539368629455566 0.81539368629455566 0.81539368629455566
0.83014786243438721 0.83014786243438721 0.83014786243438721
0.84561234712600708 0.84561234712600708 0.84561234712600708
0.8518519401550293 0.8518519401550293 0.8518519401550293
0.85304015874862671 0.85304015874862671 0.85304015874862671
0.86218547821044922 0.86218547821044922 0.86218547821044922
0.87886148691177368 0.87886148691177368 0.87886148691177368
0.88507592678070068 0.88507592678070068 0.88507592678070068
0.89429193735122681 0.89429193735122681 0.89429193735122681
0.90475767850875854 0.90475767850875854 0.90475767850875854
0.90607881546020508 0.90607881546020508 0.90607881546020508
0.89884793758392334 0.89884793758392334 0.89884793758392334
0.89609593152999878 0.89609593152999878 0.89609593152999878
0.9049564003944397 0.9049564003944397 0.9049564003944397
0.83546167612075806 0.83546167612075806 0.83546167612075806
0.84293347597122192 0.84293347597122192 0.84293347597122192
0.85016322135925293 0.85016322135925293 0.85016322135925293
0.86209392547607422 0.86209392547607422 0.86209392547607422
0.87340664863586426 0.87340664863586426 0.87340664863586426
0.8741498589515686 0.8741498589515686 0.8741498589515686
0.88613742589950562 0.88613742589950562 0.88613742589950562
0.84337282180786133 0.84337282180786133 0.84337282180786133
0.85348522663116455 0.85348522663116455 0.85348522663116455
0.85958749055862427 0.85958749055862427 0.85958749055862427
0.86666005849838257 0.86666005849838257 0.86666005849838257
0.87776666879653931 0.87776666879653931 0.87776666879653931
0.88698720932006836 0.88698720932006836 0.88698720932006836
0.900687575340271 0.900687575340271 0.900687575340271
0.83961856365203857 0.83961856365203857 0.83961856365203857
0.85309833288192749 0.85309833288192749 0.85309833288192749
0.86505508422851562 0.86505508422851562 0.86505508422851562
0.87398236989974976 0.87398236989974976 0.87398236989974976
0.8853258490562439 0.8853258490562439 0.8853258490562439
0.900035560131073 0.900035560131073 0.900035560131073
0.91197735071182251 0.91197735071182251 0.91197735071182251
0.8315855860710144 0.8315855860710144 0.8315855860710144
0.84765028953552246 0.84765028953552246 0.84765028953552246
0.86542057991027832 0.86542057991027832 0.86542057991027832
0.87375056743621826 0.87375056743621826 0.87375056743621826
0.88231652975082397 0.88231652975082397 0.88231652975082397
0.89522933959960938 0.89522933959960938 0.89522933959960938
0.90955263376235962 0.90955263376235962 0.90955263376235962
0.83585739135742188 0.83585739135742188 0.83585739135742188
0.85183548927307129 0.85183548927307129 0.85183548927307129
0.86825478076934814 0.86825478076934814 0.86825478076934814
0.87604629993438721 0.87604629993438721 0.87604629993438721
0.88141453266143799 0.88141453266143799 0.88141453266143799
0.88994938135147095 0.88994938135147095 0.88994938135147095
0.90374219417572021 0.90374219417572021 0.90374219417572021
0.85935682058334351 0.85935682058334351 0.85935682058334351
0.8742566704750061 0.8742566704750061 0.8742566704750061
0.88987261056900024 0.88987261056900024 0.88987261056900024
0.8963470458984375 0.8963470458984375 0.8963470458984375
0.89553844928741455 0.89553844928741455 0.89553844928741455
0.89580690860748291 0.89580690860748291 0.89580690860748291
0.90454578399658203 0.90454578399658203 0.90454578399658203
0.89931756258010864 0.89931756258010864 0.89931756258010864
0.91268324851989746 0.91268324851989746 0.91268324851989746
0.92603373527526855 0.92603373527526855 0.92603373527526855
0.92966228723526001 0.92966228723526001 0.92966228723526001
0.92391842603683472 0.92391842603683472 0.92391842603683472
0.91713428497314453 0.91713428497314453 0.91713428497314453
0.91969239711761475 0.91969239711761475 0.91969239711761475
