luts/instant_pro/fuji_fp-100c_negative_--.cube
# Created by: G'MIC (https://gmic.eu)
TITLE "fuji_fp-100c_negative_--"
# LUT size
LUT_3D_SIZE 13
# Data domain
DOMAIN_MIN 0.0 0.0 0.0
DOMAIN_MAX 1.0 1.0 1.0
# LUT data points
0.0018908631755039096 0.085848577320575714 0.046099420636892319
0.010656633414328098 0.086035661399364471 0.045928116887807846
0.08131244033575058 0.08475290983915329 0.041579496115446091
0.22260664403438568 0.068113796412944794 0.03957202285528183
0.37936258316040039 0.031591933220624924 0.033630609512329102
0.5318526029586792 0.011166307143867016 0.0330062136054039
0.65560066699981689 0.0069293002597987652 0.041626904159784317
0.75666528940200806 0.0081305410712957382 0.044038347899913788
0.83787548542022705 0.021810239180922508 0.031979415565729141
0.90080428123474121 0.11385213583707809 0.030696196481585503
0.95898616313934326 0.24310845136642456 0.028693359345197678
0.99534106254577637 0.33743065595626831 0.038448348641395569
0.99932754039764404 0.41190460324287415 0.081853874027729034
0.00027594473795033991 0.11090508103370667 0.057022783905267715
0.0077244029380381107 0.1084003821015358 0.049738042056560516
0.097034439444541931 0.11688517779111862 0.040428027510643005
0.24767915904521942 0.1073492169380188 0.031184790655970573
0.39582249522209167 0.059996675699949265 0.026192519813776016
0.53212684392929077 0.025068290531635284 0.025397192686796188
0.65508633852005005 0.015718244016170502 0.027674222365021706
0.75873064994812012 0.030800733715295792 0.02816690132021904
0.83641344308853149 0.093914374709129333 0.023537624627351761
0.89987450838088989 0.19320204854011536 0.023800583556294441
0.95362800359725952 0.29965803027153015 0.025791212916374207
0.98610204458236694 0.37278920412063599 0.038429319858551025
0.99835419654846191 0.4347255527973175 0.076736107468605042
0.0015814088983461261 0.14747117459774017 0.069661475718021393
0.0080748461186885834 0.1516689658164978 0.062150228768587112
0.087340019643306732 0.16348575055599213 0.042094435542821884
0.26570531725883484 0.17903941869735718 0.018239369615912437
0.41783681511878967 0.16733254492282867 0.017214113846421242
0.55046677589416504 0.14130090177059174 0.014482310973107815
0.66113877296447754 0.12648802995681763 0.014610694721341133
0.75729894638061523 0.15486416220664978 0.018594345077872276
0.83148342370986938 0.22527825832366943 0.017773168161511421
0.90070116519927979 0.29343974590301514 0.011290591210126877
0.95594912767410278 0.35364493727684021 0.01607297919690609
0.99240225553512573 0.41444528102874756 0.027967790141701698
0.99959796667098999 0.46649461984634399 0.068866372108459473
0.0030995686538517475 0.21922135353088379 0.10071725398302078
0.011044535785913467 0.22906437516212463 0.095651276409626007
0.059336956590414047 0.23773945868015289 0.075139068067073822
0.23822453618049622 0.27483779191970825 0.029467608779668808
0.42663970589637756 0.30429515242576599 0.0083691617473959923
0.56708252429962158 0.29216080904006958 0.0064172782003879547
0.67117476463317871 0.28383979201316833 0.0081247668713331223
0.75560194253921509 0.29927578568458557 0.011133485473692417
0.82939398288726807 0.34632909297943115 0.010768561623990536
0.89314448833465576 0.39037355780601501 0.013261099345982075
0.95136559009552002 0.42902716994285583 0.014375753700733185
0.99218916893005371 0.4653724730014801 0.021106615662574768
0.99928766489028931 0.50802969932556152 0.062774509191513062
0.003243554849177599 0.3184763491153717 0.14285482466220856
0.012005629949271679 0.32289788126945496 0.14073701202869415
0.070185989141464233 0.33538082242012024 0.1311604380607605
0.20792368054389954 0.36764964461326599 0.092598110437393188
0.37904244661331177 0.40957832336425781 0.025371013209223747
0.55097478628158569 0.43472269177436829 0.0050506740808486938
0.66306072473526001 0.42833676934242249 0.0058918674476444721
0.75145804882049561 0.43205827474594116 0.0050294464454054832
0.82344567775726318 0.44988486170768738 0.0080817723646759987
0.88583725690841675 0.47203579545021057 0.013500512577593327
0.94528782367706299 0.49485048651695251 0.011401352472603321
0.98626959323883057 0.52291685342788696 0.014648213051259518
0.99821007251739502 0.55391079187393188 0.054416101425886154
0.0063917720690369606 0.41140437126159668 0.18768388032913208
0.016267620027065277 0.41837123036384583 0.19367197155952454
0.094523727893829346 0.43463435769081116 0.19050894677639008
0.21028271317481995 0.45338746905326843 0.17147234082221985
0.33877229690551758 0.48144975304603577 0.12195198237895966
0.49179238080978394 0.51250290870666504 0.044546477496623993
0.63781201839447021 0.53610122203826904 0.0084405187517404556
0.73928934335708618 0.54191213846206665 0.0063863717950880527
0.81329333782196045 0.54008191823959351 0.0082364249974489212
0.87826526165008545 0.54671633243560791 0.011267717927694321
0.93990868330001831 0.55895423889160156 0.0096503915265202522
0.98377400636672974 0.57648646831512451 0.0090306298807263374
0.99816864728927612 0.59855872392654419 0.035466752946376801
0.012798698619008064 0.49258407950401306 0.24205553531646729
0.021799558773636818 0.50221794843673706 0.24680963158607483
0.11843620985746384 0.51287472248077393 0.24941124022006989
0.24545949697494507 0.52732759714126587 0.23589883744716644
0.34875893592834473 0.5430833101272583 0.21517299115657806
0.4588603675365448 0.56561112403869629 0.16800370812416077
0.58534878492355347 0.5896306037902832 0.085989601910114288
0.71185588836669922 0.61359012126922607 0.021530225872993469
0.80038756132125854 0.62163996696472168 0.0087599661201238632
0.86703956127166748 0.62323558330535889 0.011895048432052135
0.93290549516677856 0.62719881534576416 0.011623247526586056
0.98213118314743042 0.63495457172393799 0.0098714344203472137
0.99759072065353394 0.64696592092514038 0.025315960869193077
0.040027603507041931 0.56130486726760864 0.29360687732696533
0.089381948113441467 0.57079577445983887 0.30256083607673645
0.18220257759094238 0.57909208536148071 0.30988827347755432
0.28714713454246521 0.58839744329452515 0.30466094613075256
0.37462851405143738 0.59731245040893555 0.29364269971847534
0.45569905638694763 0.61070364713668823 0.2723298966884613
0.55635309219360352 0.63096523284912109 0.22564108669757843
0.67021602392196655 0.65520155429840088 0.14382977783679962
0.77695298194885254 0.6799963116645813 0.055951826274394989
0.86314749717712402 0.69445645809173584 0.015746980905532837
0.93057197332382202 0.69768261909484863 0.011290965601801872
0.98150479793548584 0.6991647481918335 0.016508543863892555
0.99756932258605957 0.70265519618988037 0.035139571875333786
0.17527078092098236 0.6275370717048645 0.35313621163368225
0.21233391761779785 0.63395452499389648 0.36338159441947937
0.26516550779342651 0.63940495252609253 0.36906617879867554
0.3460996150970459 0.6455458402633667 0.3675180971622467
0.4179670512676239 0.6510004997253418 0.36137542128562927
0.47875863313674927 0.65892678499221802 0.3524901270866394
0.5560956597328186 0.67570912837982178 0.32676765322685242
0.64711743593215942 0.69574832916259766 0.28429949283599854
0.74124628305435181 0.71811980009078979 0.22511570155620575
0.84156507253646851 0.74421846866607666 0.13027308881282806
0.92462891340255737 0.76002848148345947 0.071394257247447968
0.97541910409927368 0.76247388124465942 0.084000051021575928
0.99422049522399902 0.76319366693496704 0.12728981673717499
0.29914101958274841 0.69453799724578857 0.41716235876083374
0.32377809286117554 0.69528746604919434 0.42222464084625244
0.35645231604576111 0.69721114635467529 0.42674177885055542
0.41559720039367676 0.70093458890914917 0.4283812940120697
0.47159454226493835 0.70468270778656006 0.42980313301086426
0.52441155910491943 0.71182769536972046 0.42483359575271606
0.5823250412940979 0.72559249401092529 0.40753987431526184
0.64654248952865601 0.74217188358306885 0.38767799735069275
0.72699552774429321 0.76270854473114014 0.35571452975273132
0.81460011005401611 0.78357493877410889 0.30126467347145081
0.90356731414794922 0.80334824323654175 0.2319781631231308
0.97317987680435181 0.81855463981628418 0.19552239775657654
0.99255985021591187 0.81898975372314453 0.21474206447601318
0.40277603268623352 0.76189595460891724 0.48227515816688538
0.41979962587356567 0.758827805519104 0.48314651846885681
0.4396565854549408 0.75633817911148071 0.48367753624916077
0.47969037294387817 0.75713616609573364 0.48808401823043823
0.5268673300743103 0.75987255573272705 0.49591931700706482
0.57076358795166016 0.76558542251586914 0.49894958734512329
0.61802071332931519 0.77703672647476196 0.48783639073371887
0.67199879884719849 0.79348272085189819 0.4754478931427002
0.74166887998580933 0.81195914745330811 0.45268285274505615
0.81270796060562134 0.82708221673965454 0.42686986923217773
0.89267528057098389 0.84480798244476318 0.37533167004585266
0.95857769250869751 0.86198168992996216 0.32705718278884888
0.99309718608856201 0.87105244398117065 0.30400475859642029
0.5040971040725708 0.82701069116592407 0.54868882894515991
0.52475935220718384 0.82396560907363892 0.5543939471244812
0.54515844583511353 0.82169944047927856 0.55965143442153931
0.5744941234588623 0.82230895757675171 0.56554895639419556
0.61491483449935913 0.82386481761932373 0.57306468486785889
0.64978569746017456 0.82731592655181885 0.58092904090881348
0.6848030686378479 0.83587080240249634 0.57697248458862305
0.71865624189376831 0.84867560863494873 0.56643468141555786
0.76529717445373535 0.86236613988876343 0.55244898796081543
0.83064812421798706 0.8730279803276062 0.53702068328857422
0.89565789699554443 0.88633781671524048 0.50630182027816772
0.94928574562072754 0.90025418996810913 0.46850752830505371
0.98589116334915161 0.90671044588088989 0.44592970609664917
0.63519203662872314 0.89161771535873413 0.63937914371490479
0.64395737648010254 0.88817399740219116 0.64051097631454468
0.66309744119644165 0.88979035615921021 0.64759159088134766
0.68756794929504395 0.8895190954208374 0.65293610095977783
0.71158832311630249 0.88776028156280518 0.65771597623825073
0.74078667163848877 0.89104080200195312 0.66855001449584961
0.76986241340637207 0.89638000726699829 0.66978836059570312
0.79356276988983154 0.9030379056930542 0.66486579179763794
0.81704652309417725 0.90996634960174561 0.65470314025878906
0.8588518500328064 0.91811132431030273 0.64653760194778442
0.90131878852844238 0.92708504199981689 0.63035589456558228
0.94429546594619751 0.93230485916137695 0.60255581140518188
0.98053771257400513 0.93676203489303589 0.58905476331710815
0.0029171064961701632 0.08311588317155838 0.077954582870006561
0.012888051569461823 0.08417142927646637 0.077697187662124634
0.086352646350860596 0.081352546811103821 0.073281742632389069
0.23676197230815887 0.054329652339220047 0.077284015715122223
0.39103066921234131 0.016942806541919708 0.080053426325321198
0.5306810736656189 0.010937036015093327 0.096144355833530426
0.65288329124450684 0.01405944861471653 0.11132773756980896
0.75462180376052856 0.012079665437340736 0.11980907618999481
0.83234250545501709 0.067249104380607605 0.12131187319755554
0.89247256517410278 0.17367066442966461 0.12684030830860138
0.95056003332138062 0.27660670876502991 0.12618845701217651
0.988983154296875 0.35158351063728333 0.13942345976829529
0.99612957239151001 0.41873970627784729 0.17775751650333405
0.0017926533473655581 0.10394827276468277 0.090712033212184906
0.012326034717261791 0.10718868672847748 0.09113021194934845
0.11112851649522781 0.1150163859128952 0.087407596409320831
0.25748369097709656 0.10958480834960938 0.081023886799812317
0.40810200572013855 0.064110837876796722 0.085942573845386505
0.53942054510116577 0.036096997559070587 0.093937739729881287
0.65568262338638306 0.03583965077996254 0.10172702372074127
0.75523167848587036 0.065430119633674622 0.10724408179521561
0.83075755834579468 0.14101244509220123 0.10959439724683762
0.894550621509552 0.23554110527038574 0.11203019320964813
0.94999748468399048 0.31995663046836853 0.12003743648529053
0.98609930276870728 0.38728871941566467 0.13799643516540527
0.99560761451721191 0.44033971428871155 0.17287389934062958
0.0037468853406608105 0.15643279254436493 0.11507981270551682
0.014764329418540001 0.16138838231563568 0.11663733422756195
0.10550565272569656 0.17004522681236267 0.10721340030431747
0.27295756340026855 0.18540565669536591 0.081975094974040985
0.42286783456802368 0.17060199379920959 0.075782462954521179
0.55379027128219604 0.15673340857028961 0.079970896244049072
0.66149681806564331 0.15638791024684906 0.08691483736038208
0.75415658950805664 0.19252780079841614 0.09241224080324173
0.82927757501602173 0.25589096546173096 0.093530334532260895
0.89656722545623779 0.31317496299743652 0.095208458602428436
0.95183330774307251 0.36897268891334534 0.10683280974626541
0.98867100477218628 0.42705029249191284 0.12409836798906326
0.9964141845703125 0.47259807586669922 0.16479451954364777
0.0050386316142976284 0.23884813487529755 0.15584555268287659
0.015994861721992493 0.24027058482170105 0.14776220917701721
0.10374348610639572 0.25052687525749207 0.13511002063751221
0.25887531042098999 0.28017088770866394 0.10188082605600357
0.43468686938285828 0.30737999081611633 0.057139512151479721
0.56826996803283691 0.29869869351387024 0.057130388915538788
0.67087709903717041 0.29761126637458801 0.063345395028591156
0.75387787818908691 0.3203665018081665 0.066326364874839783
0.82775479555130005 0.36119180917739868 0.06725350022315979
0.89223700761795044 0.39542111754417419 0.079417988657951355
0.9490315318107605 0.43269127607345581 0.092448122799396515
0.9860159158706665 0.4731261134147644 0.11284000426530838
0.9958420991897583 0.51344245672225952 0.16246472299098969
0.0038908116985112429 0.3332349956035614 0.1939857006072998
0.020340265706181526 0.33478713035583496 0.18830819427967072
0.12131787836551666 0.3504033088684082 0.18217813968658447
0.24647274613380432 0.3767428994178772 0.1616370677947998
0.39949494600296021 0.41332870721817017 0.099625527858734131
0.55863469839096069 0.43748912215232849 0.045055732131004333
0.66553992033004761 0.43486496806144714 0.039648931473493576
0.74974030256271362 0.43363013863563538 0.03571612760424614
0.82343661785125732 0.44890683889389038 0.039751913398504257
0.88593524694442749 0.47207683324813843 0.061816196888685226
0.94435852766036987 0.49509555101394653 0.072439409792423248
0.98311978578567505 0.5275876522064209 0.093395188450813293
0.99462366104125977 0.55864137411117554 0.15773262083530426
0.008640289306640625 0.42518684267997742 0.23368076980113983
0.025460321456193924 0.43079575896263123 0.23161542415618896
0.1358548104763031 0.44362682104110718 0.23185072839260101
0.25806903839111328 0.46088242530822754 0.21722055971622467
0.37052801251411438 0.48577484488487244 0.18558713793754578
0.50839024782180786 0.51726096868515015 0.11777827143669128
0.64554798603057861 0.54032808542251587 0.044815678149461746
0.74088037014007568 0.5409361720085144 0.029350146651268005
0.81551104784011841 0.53795558214187622 0.033550173044204712
0.87948912382125854 0.54480159282684326 0.043399453163146973
0.93905413150787354 0.55666214227676392 0.044567301869392395
0.98213833570480347 0.57799220085144043 0.071398988366127014
0.99580973386764526 0.60281354188919067 0.13328658044338226
0.017399612814188004 0.50142174959182739 0.27191334962844849
0.050736401230096817 0.50913083553314209 0.27581465244293213
0.16047479212284088 0.52003705501556396 0.28187981247901917
0.27129366993904114 0.53204977512359619 0.27824735641479492
0.36800241470336914 0.54604321718215942 0.26237043738365173
0.47320663928985596 0.56819754838943481 0.22449482977390289
0.59477126598358154 0.59338670969009399 0.15650893747806549
0.71904498338699341 0.61730998754501343 0.069456867873668671
0.80616790056228638 0.62360858917236328 0.039401605725288391
0.8710663914680481 0.62352859973907471 0.045511476695537567
0.93257981538772583 0.62488359212875366 0.040865041315555573
0.98065167665481567 0.63640618324279785 0.066096886992454529
0.99624288082122803 0.65003758668899536 0.1221265122294426
0.082050353288650513 0.56620115041732788 0.31902322173118591
0.14214473962783813 0.57368093729019165 0.3290303647518158
0.219633549451828 0.58265328407287598 0.33619678020477295
0.31579002737998962 0.59291023015975952 0.33776053786277771
0.39584419131278992 0.60097271203994751 0.33133435249328613
0.47122347354888916 0.61400681734085083 0.30904421210289001
0.56925302743911743 0.63305938243865967 0.26509246230125427
0.67419004440307617 0.65608787536621094 0.20450785756111145
0.7828444242477417 0.68280380964279175 0.11137369275093079
0.8662261962890625 0.69534879922866821 0.074142083525657654
0.92699730396270752 0.69699192047119141 0.073501482605934143
0.97756302356719971 0.69736218452453613 0.086662471294403076
0.99333351850509644 0.70049428939819336 0.11595701426267624
0.20503102242946625 0.63045269250869751 0.37427571415901184
0.24482381343841553 0.63611447811126709 0.38433760404586792
0.29459366202354431 0.6415976881980896 0.39241707324981689
0.36114972829818726 0.64585667848587036 0.39363542199134827
0.43177142739295959 0.65189057588577271 0.38890686631202698
0.49303767085075378 0.66217976808547974 0.37944409251213074
0.56658494472503662 0.67781996726989746 0.35585039854049683
0.65203142166137695 0.6968684196472168 0.3181765079498291
0.74532932043075562 0.71918582916259766 0.26484715938568115
0.84477853775024414 0.74527347087860107 0.19644977152347565
0.92151927947998047 0.76009470224380493 0.15955065190792084
0.96662575006484985 0.76011472940444946 0.16014246642589569
0.9871901273727417 0.76041430234909058 0.18335212767124176
0.3077913224697113 0.69672310352325439 0.43352600932121277
0.33673194050788879 0.69830340147018433 0.43889322876930237
0.3783271312713623 0.70018678903579712 0.44662383198738098
0.42507839202880859 0.70125895738601685 0.44982236623764038
0.47474998235702515 0.70255172252655029 0.44949311017990112
0.53074449300765991 0.71267044544219971 0.44261062145233154
0.59019976854324341 0.72782301902770996 0.42715206742286682
0.65842849016189575 0.74428194761276245 0.40266934037208557
0.73248749971389771 0.76255077123641968 0.37499088048934937
0.81646227836608887 0.78315752744674683 0.33270904421806335
0.90153396129608154 0.80420666933059692 0.28209450840950012
0.96360838413238525 0.81675517559051514 0.26013937592506409
0.98683685064315796 0.81671690940856934 0.26292100548744202
0.40787005424499512 0.76318573951721191 0.49401113390922546
0.42629125714302063 0.76131957769393921 0.49626734852790833
0.45145803689956665 0.76006275415420532 0.49906596541404724
0.49305376410484314 0.76130121946334839 0.50466054677963257
0.53950262069702148 0.76237589120864868 0.5132024884223938
0.58195418119430542 0.7688291072845459 0.51109492778778076
0.62268036603927612 0.77931463718414307 0.49804022908210754
0.67373275756835938 0.79287278652191162 0.48468485474586487
0.74655133485794067 0.80958998203277588 0.46601569652557373
0.81889057159423828 0.8260493278503418 0.44495281577110291
0.88685590028762817 0.84217298030853271 0.40972104668617249
0.94877010583877563 0.85898751020431519 0.36995634436607361
0.98712372779846191 0.86861342191696167 0.34346234798431396
0.50622403621673584 0.82795095443725586 0.55611103773117065
0.53106445074081421 0.82679492235183716 0.56633156538009644
0.55207544565200806 0.82557982206344604 0.57017320394515991
0.57727670669555664 0.82609111070632935 0.57227760553359985
0.62024301290512085 0.82815796136856079 0.58209896087646484
0.65826499462127686 0.83161711692810059 0.5879625678062439
0.69164925813674927 0.83756422996520996 0.5822073221206665
0.72259461879730225 0.84541374444961548 0.574454665184021
0.76972395181655884 0.85834145545959473 0.56472516059875488
0.83308911323547363 0.87170398235321045 0.55370855331420898
0.89178478717803955 0.88451313972473145 0.53086376190185547
0.94146871566772461 0.89712369441986084 0.4937540590763092
0.98213011026382446 0.90695089101791382 0.46264958381652832
0.63624465465545654 0.89205265045166016 0.64297086000442505
0.64738869667053223 0.89053106307983398 0.64680910110473633
0.66673696041107178 0.89109790325164795 0.65218865871429443
0.68497031927108765 0.88929456472396851 0.65455549955368042
0.71159869432449341 0.88894599676132202 0.66075640916824341
0.74010854959487915 0.89076662063598633 0.66931653022766113
0.77061015367507935 0.89448612928390503 0.67239278554916382
0.79521876573562622 0.89921659231185913 0.66489380598068237
0.81971836090087891 0.90555626153945923 0.65640681982040405
0.85605651140213013 0.91382956504821777 0.65008461475372314
0.90052247047424316 0.9234510064125061 0.6363370418548584
0.94180989265441895 0.92989808320999146 0.61338585615158081
0.97791790962219238 0.9350772500038147 0.593578040599823
0.0070090051740407944 0.077913545072078705 0.16434760391712189
0.043296799063682556 0.077054522931575775 0.16021139919757843
0.12824496626853943 0.079538427293300629 0.15201970934867859
0.25315940380096436 0.060333564877510071 0.150093674659729
0.41525539755821228 0.015788942575454712 0.16807128489017487
0.54832339286804199 0.0096792783588171005 0.18699423968791962
0.66553330421447754 0.012344165705144405 0.20305080711841583
0.75999665260314941 0.045459117740392685 0.21774230897426605
0.83112740516662598 0.1378742903470993 0.22938694059848785
0.8891063928604126 0.23057802021503448 0.2361186146736145
0.94500863552093506 0.310985267162323 0.24572493135929108
0.98206382989883423 0.38076603412628174 0.2594950795173645
0.99465262889862061 0.43381747603416443 0.27936205267906189
0.0041228053160011768 0.10258718580007553 0.17013227939605713
0.035028122365474701 0.10561252385377884 0.17295940220355988
0.14877690374851227 0.11491729319095612 0.16910339891910553
0.27027571201324463 0.11228573322296143 0.1663299947977066
0.42100408673286438 0.06991036981344223 0.1755700558423996
0.55275183916091919 0.052496444433927536 0.1894972175359726
0.66483372449874878 0.075174860656261444 0.20651240646839142
0.7563822865486145 0.13588434457778931 0.21982142329216003
0.82959955930709839 0.2020193338394165 0.22354596853256226
0.89109033346176147 0.27434787154197693 0.22858944535255432
0.9467238187789917 0.34425020217895508 0.24054804444313049
0.98181891441345215 0.40588864684104919 0.25593551993370056
0.9946436882019043 0.45091837644577026 0.2753511369228363
0.0036452647764235735 0.15862841904163361 0.18447045981884003
0.018940884619951248 0.16402851045131683 0.19561350345611572
0.14180870354175568 0.18111547827720642 0.19928364455699921
0.28635162115097046 0.19635401666164398 0.18774092197418213
0.4301755428314209 0.1883646696805954 0.18488794565200806
0.55827432870864868 0.19207347929477692 0.19979208707809448
0.6649242639541626 0.20607833564281464 0.20951226353645325
0.75467824935913086 0.24467389285564423 0.2129090428352356
0.82723015546798706 0.29166445136070251 0.21062344312667847
0.89097636938095093 0.33838468790054321 0.21531079709529877
0.94530856609344482 0.39255279302597046 0.22774074971675873
0.97985875606536865 0.44356575608253479 0.24223290383815765
0.99446219205856323 0.48399823904037476 0.26703748106956482
0.0074779135175049305 0.2427729070186615 0.21545073390007019
0.048603087663650513 0.25171136856079102 0.22129589319229126
0.1647583544254303 0.27132746577262878 0.22621402144432068
0.29923820495605469 0.29635578393936157 0.21074594557285309
0.44533854722976685 0.31451579928398132 0.19238422811031342
0.56859433650970459 0.31290853023529053 0.19651134312152863
0.67112529277801514 0.32193973660469055 0.19903820753097534
0.75193279981613159 0.35043451189994812 0.19123879075050354
0.82339203357696533 0.38102513551712036 0.18974250555038452
0.8879508376121521 0.40878498554229736 0.20162995159626007
0.94082331657409668 0.4465039074420929 0.21584111452102661
0.97339153289794922 0.487153559923172 0.23107863962650299
0.9919121265411377 0.52298861742019653 0.26390355825424194
0.046131763607263565 0.34595128893852234 0.25929936766624451
0.099951617419719696 0.35281944274902344 0.26272487640380859
0.19630549848079681 0.36798608303070068 0.26361256837844849
0.29713267087936401 0.38826841115951538 0.25298911333084106
0.42515078186988831 0.41876369714736938 0.22378681600093842
