luts/instant_pro/fuji_fp-100c_++.cube
# Created by: G'MIC (https://gmic.eu)
TITLE "fuji_fp-100c_++"
# LUT size
LUT_3D_SIZE 5
# Data domain
DOMAIN_MIN 0.0 0.0 0.0
DOMAIN_MAX 1.0 1.0 1.0
# LUT data points
0.22880548238754272 0.15987864136695862 0.13188567757606506
0.25707396864891052 0.15067461133003235 0.11880110204219818
0.47121977806091309 0.12838327884674072 0.1119014099240303
0.75163739919662476 0.10592330992221832 0.07938116043806076
0.9753652811050415 0.16352719068527222 0.022692915052175522
0.21395039558410645 0.21523842215538025 0.11486323922872543
0.29416891932487488 0.23387961089611053 0.10159952193498611
0.53596824407577515 0.27025485038757324 0.064542688429355621
0.79754006862640381 0.28836771845817566 0.032426271587610245
0.97944509983062744 0.32389363646507263 0.0074225631542503834
0.14785362780094147 0.45217260718345642 0.043842840939760208
0.28688868880271912 0.44669410586357117 0.035096365958452225
0.52434861660003662 0.48910266160964966 0.005770574789494276
0.80527973175048828 0.53890740871429443 0.014156745746731758
0.99186915159225464 0.56534630060195923 0.022892357781529427
0.059247035533189774 0.68360286951065063 0.0031110874842852354
0.28973370790481567 0.67696624994277954 0.0097727011889219284
0.50987154245376587 0.69136834144592285 0.0057197273708879948
0.7555127739906311 0.72757869958877563 0.010040103457868099
0.96410298347473145 0.75109601020812988 0.0085901897400617599
0.44543975591659546 0.90863102674484253 0.3665529191493988
0.5094146728515625 0.90451729297637939 0.36294332146644592
0.65904158353805542 0.9016115665435791 0.38055965304374695
0.81042939424514771 0.9184720516204834 0.32287323474884033
0.97911751270294189 0.93706482648849487 0.19538320600986481
0.22789767384529114 0.14814972877502441 0.18454785645008087
0.30526253581047058 0.13162942230701447 0.2018468976020813
0.47019535303115845 0.10478903353214264 0.19587324559688568
0.76645630598068237 0.0090656057000160217 0.18030528724193573
0.97605466842651367 0.072138302028179169 0.17833574116230011
0.20849107205867767 0.23260295391082764 0.20732644200325012
0.32018890976905823 0.25065955519676208 0.22244666516780853
0.56348663568496704 0.25648090243339539 0.21770702302455902
0.80951154232025146 0.25091686844825745 0.19429373741149902
0.97923988103866577 0.30139768123626709 0.19253367185592651
0.089812032878398895 0.51408219337463379 0.23672720789909363
0.29937693476676941 0.5110774040222168 0.23124174773693085
0.5688251256942749 0.52369487285614014 0.16072298586368561
0.82940256595611572 0.55163812637329102 0.17491823434829712
0.98011279106140137 0.56723034381866455 0.25156155228614807
0.024755800142884254 0.7173694372177124 0.21628473699092865
0.28555911779403687 0.71052110195159912 0.22134976089000702
0.52488899230957031 0.71020263433456421 0.17947128415107727
0.76594763994216919 0.73729461431503296 0.047545146197080612
0.97772115468978882 0.75724214315414429 0.11447703093290329
0.43769484758377075 0.91279768943786621 0.4509548544883728
0.50594633817672729 0.90982317924499512 0.44760909676551819
0.65133154392242432 0.90487581491470337 0.46395459771156311
0.80813145637512207 0.91879189014434814 0.4418577253818512
0.97742164134979248 0.9380497932434082 0.34483569860458374
0.23921322822570801 0.12685345113277435 0.43757382035255432
0.38210508227348328 0.06423892080783844 0.49383589625358582
0.68736696243286133 0.0030226465314626694 0.56909811496734619
0.74862182140350342 0.13037945330142975 0.47373414039611816
0.96317631006240845 0.12221619486808777 0.46658420562744141
0.17686948180198669 0.23353102803230286 0.44586873054504395
0.34976714849472046 0.23021617531776428 0.50108808279037476
0.6835142970085144 0.19863221049308777 0.58161836862564087
0.77422267198562622 0.31853646039962769 0.50438088178634644
0.97337144613265991 0.27625653147697449 0.45495569705963135
0.14829660952091217 0.52107805013656616 0.5260733962059021
0.33299553394317627 0.54946959018707275 0.54574352502822876
0.62782198190689087 0.59287720918655396 0.58480602502822876
0.82249385118484497 0.57478255033493042 0.54519391059875488
0.97403454780578613 0.56328684091567993 0.50873470306396484
0.2387748658657074 0.76845043897628784 0.5783315896987915
0.38327598571777344 0.76535165309906006 0.56511318683624268
0.5741574764251709 0.75039201974868774 0.5306326150894165
0.78435224294662476 0.76361584663391113 0.49730876088142395
0.96643275022506714 0.78425103425979614 0.54057109355926514
0.44653117656707764 0.92383855581283569 0.62147563695907593
0.5031663179397583 0.92335969209671021 0.61382520198822021
0.64348024129867554 0.91597634553909302 0.62109291553497314
0.80765128135681152 0.91965764760971069 0.61110407114028931
0.97053563594818115 0.93999379873275757 0.56024247407913208
0.28397649526596069 0.074002131819725037 0.72961163520812988
0.4313274621963501 0.0096220429986715317 0.75150829553604126
0.72327065467834473 0.0036308288108557463 0.8044743537902832
0.95902931690216064 0.00069230020744726062 0.83238208293914795
0.97109478712081909 0.29757839441299438 0.75307375192642212
0.18616332113742828 0.21996450424194336 0.7292323112487793
0.37738928198814392 0.19172762334346771 0.74461996555328369
0.69343370199203491 0.13029736280441284 0.80716544389724731
0.94271385669708252 0.21383926272392273 0.83311057090759277
0.96028822660446167 0.44770398736000061 0.76946383714675903
0.0097569935023784637 0.44830262660980225 0.67406618595123291
0.23543576896190643 0.46061804890632629 0.69505470991134644
0.60239565372467041 0.51687389612197876 0.76874583959579468
0.87653708457946777 0.60437703132629395 0.81916648149490356
0.92744565010070801 0.63882482051849365 0.76603573560714722
0.29548370838165283 0.73632234334945679 0.75845241546630859
0.40263551473617554 0.74370765686035156 0.76553696393966675
0.60902637243270874 0.76774954795837402 0.78398615121841431
0.82431203126907349 0.81062418222427368 0.80837732553482056
0.94704586267471313 0.79863709211349487 0.78881818056106567
0.54015135765075684 0.93749880790710449 0.83946436643600464
0.58404040336608887 0.93777012825012207 0.83648526668548584
0.67770510911941528 0.93581283092498779 0.81839781999588013
0.80535584688186646 0.93570190668106079 0.80060374736785889
0.95524758100509644 0.94307470321655273 0.77551132440567017
0.48541542887687683 0.12739032506942749 0.95475220680236816
0.57076466083526611 0.060641016811132431 0.95988160371780396
0.76153630018234253 0.012622145004570484 0.96922558546066284
0.97857189178466797 0.0039215688593685627 0.96992349624633789
1 0.20119704306125641 0.98224657773971558
0.45095035433769226 0.30350977182388306 0.95057636499404907
0.55016303062438965 0.27535167336463928 0.95478469133377075
0.73839282989501953 0.25017657876014709 0.96462953090667725
0.9631500244140625 0.22932679951190948 0.98269861936569214
1 0.41874521970748901 0.97309863567352295
0.27653384208679199 0.52060502767562866 0.93064981698989868
0.41841542720794678 0.51685678958892822 0.93487399816513062
0.66568821668624878 0.53428941965103149 0.94548439979553223
0.90182602405548096 0.58413112163543701 0.96584051847457886
0.99374896287918091 0.66331356763839722 0.96480780839920044
0.24689313769340515 0.74498957395553589 0.91183239221572876
0.34114691615104675 0.73918426036834717 0.90975111722946167
0.52451819181442261 0.73678869009017944 0.91397053003311157
0.80426263809204102 0.77599245309829712 0.93529409170150757
0.97884583473205566 0.8265230655670166 0.96142488718032837
0.5910567045211792 0.92980998754501343 0.94540238380432129
0.6321561336517334 0.93512445688247681 0.95252597332000732
0.70640188455581665 0.93592160940170288 0.95321202278137207
0.82076966762542725 0.94128268957138062 0.95555585622787476
0.96827727556228638 0.96314162015914917 0.96064227819442749
