luts/instant_pro/fuji_fp-100c_+.cube
# Created by: G'MIC (https://gmic.eu)
TITLE "fuji_fp-100c_+"
# LUT size
LUT_3D_SIZE 7
# Data domain
DOMAIN_MIN 0.0 0.0 0.0
DOMAIN_MAX 1.0 1.0 1.0
# LUT data points
0.097421340644359589 0.069000527262687683 0.032087977975606918
0.15849213302135468 0.070236235857009888 0.036399316042661667
0.29716882109642029 0.054795045405626297 0.031467288732528687
0.4814734160900116 0.011352958157658577 0.0224470105022192
0.69675272703170776 0.007815132848918438 0.0093576172366738319
0.86372667551040649 0.0084721734747290611 0.0048036910593509674
0.97914832830429077 0.084919840097427368 0.002510265214368701
0.10207349061965942 0.14183492958545685 0.030142256990075111
0.17587406933307648 0.14547756314277649 0.027511896565556526
0.33440688252449036 0.15502133965492249 0.019539164379239082
0.52497738599777222 0.13943749666213989 0.013432580977678299
0.71915549039840698 0.1235116571187973 0.0054801641963422298
0.86664783954620361 0.15135367214679718 0.0047737867571413517
0.98272740840911865 0.22732418775558472 0.0045784595422446728
0.082107022404670715 0.28829023241996765 0.019555814564228058
0.19056341052055359 0.29282322525978088 0.012361773289740086
0.35416090488433838 0.31071874499320984 0.005770320538431406
0.56893140077590942 0.33370158076286316 0.0059955972246825695
0.75650238990783691 0.35563281178474426 0.0085323555395007133
0.8886256217956543 0.37219643592834473 0.0040526743978261948
0.98485112190246582 0.38774546980857849 0.0042169606313109398
0.015165815129876137 0.47178524732589722 0.0031138102058321238
0.16120059788227081 0.45983225107192993 0.0056152492761611938
0.33354702591896057 0.46200764179229736 0.0027027952019125223
0.53067231178283691 0.48880448937416077 0.0033463123254477978
0.73168808221817017 0.51537972688674927 0.0078431377187371254
0.88903117179870605 0.54200285673141479 0.0062573603354394436
0.99035912752151489 0.56348294019699097 0.045714255422353745
0.012386217713356018 0.61386567354202271 0.002571973716840148
0.17128156125545502 0.60921782255172729 0.0072443345561623573
0.34469780325889587 0.60629832744598389 0.0037023806944489479
0.50633811950683594 0.62261366844177246 0.0049862731248140335
0.68634402751922607 0.64669084548950195 0.0041599646210670471
0.856944739818573 0.67171990871429443 0.0083152018487453461
0.97854137420654297 0.69424241781234741 0.012803844176232815
0.15762880444526672 0.7575831413269043 0.082006536424160004
0.2599109411239624 0.75273311138153076 0.078813634812831879
0.39106744527816772 0.74583733081817627 0.079939596354961395
0.52594834566116333 0.75393503904342651 0.044787820428609848
0.68108212947845459 0.77722126245498657 0.011470315977931023
0.83487159013748169 0.79643648862838745 0.0093349386006593704
0.95667475461959839 0.80984830856323242 0.0048837848007678986
0.46099233627319336 0.9064180850982666 0.39342465996742249
0.49303978681564331 0.90455907583236694 0.39105448126792908
0.56460016965866089 0.90105235576629639 0.39656144380569458
0.66395998001098633 0.90069830417633057 0.40611475706100464
0.76201307773590088 0.9126703143119812 0.38646784424781799
0.8683018684387207 0.92421203851699829 0.33701711893081665
0.97855877876281738 0.93770557641983032 0.23864233493804932
0.111655592918396 0.071445047855377197 0.095881730318069458
0.18623837828636169 0.063522234559059143 0.11270585656166077
0.28976210951805115 0.064268641173839569 0.10266255587339401
0.49303862452507019 0.0083356965333223343 0.10901813954114914
0.69531071186065674 0.0044038658961653709 0.10525202751159668
0.86071163415908813 0.0098406178876757622 0.099444985389709473
0.97882652282714844 0.086248509585857391 0.097471125423908234
0.11650770902633667 0.1522938460111618 0.11417451500892639
0.19861699640750885 0.15902432799339294 0.12135536223649979
0.3510415256023407 0.16870293021202087 0.12178244441747665
0.54400116205215454 0.15030494332313538 0.11807357519865036
0.72283446788787842 0.14288584887981415 0.10717935115098953
0.8667718768119812 0.15568229556083679 0.10350991040468216
0.97850048542022705 0.22499731183052063 0.10981756448745728
0.089379988610744476 0.32868507504463196 0.15174897015094757
0.20700791478157043 0.33314597606658936 0.1427958607673645
0.38671353459358215 0.3428795337677002 0.1102856770157814
0.59279763698577881 0.35796305537223816 0.10210828483104706
0.76305931806564331 0.36245375871658325 0.11579368263483047
0.88713258504867554 0.3673662543296814 0.10883021354675293
0.98066419363021851 0.39413002133369446 0.1297639012336731
0.008830605074763298 0.50426924228668213 0.13700088858604431
0.17781095206737518 0.49721577763557434 0.13268996775150299
0.36113065481185913 0.49556452035903931 0.10021597146987915
0.55882722139358521 0.51299834251403809 0.032455578446388245
0.74781340360641479 0.53076326847076416 0.026540046557784081
0.89749360084533691 0.55131047964096069 0.1134001612663269
0.98240339756011963 0.56533962488174438 0.19509264826774597
0.013053834438323975 0.63853001594543457 0.14121554791927338
0.18715684115886688 0.63060098886489868 0.13317190110683441
0.36048716306686401 0.6275331974029541 0.12832732498645782
0.51707327365875244 0.63766074180603027 0.057589318603277206
0.69606930017471313 0.65969449281692505 0.010861131362617016
0.8622393012046814 0.67616140842437744 0.011365808546543121
0.98374980688095093 0.70000463724136353 0.13311542570590973
0.16836750507354736 0.76775658130645752 0.20917639136314392
0.26811254024505615 0.7647700309753418 0.20269300043582916
0.40241166949272156 0.75823855400085449 0.2050819993019104
0.54169780015945435 0.76446366310119629 0.18018947541713715
0.68009102344512939 0.77903157472610474 0.095114856958389282
0.83114564418792725 0.79849612712860107 0.016164608299732208
0.96656674146652222 0.81201821565628052 0.0079461038112640381
0.45998948812484741 0.90950721502304077 0.43525877594947815
0.49322989583015442 0.90875840187072754 0.43410372734069824
0.56823337078094482 0.90417420864105225 0.44245171546936035
0.65985679626464844 0.90304809808731079 0.4495256245136261
0.76324665546417236 0.91267073154449463 0.43453067541122437
0.86883533000946045 0.92442327737808228 0.39676344394683838
0.97817820310592651 0.93796402215957642 0.3142528235912323
0.11850425601005554 0.06994311511516571 0.24854321777820587
0.22782158851623535 0.035141695290803909 0.28251880407333374
0.41106879711151123 0.0091757234185934067 0.31349092721939087
0.49622079730033875 0.065955489873886108 0.27959829568862915
0.67384982109069824 0.032468341290950775 0.27978771924972534
0.84911513328552246 0.005112756509333849 0.26240396499633789
0.98149192333221436 0.040671046823263168 0.25197166204452515
0.12350331991910934 0.16072100400924683 0.26547142863273621
0.22632688283920288 0.1537715345621109 0.29288575053215027
0.42945453524589539 0.12925468385219574 0.34003821015357971
0.53691983222961426 0.18940992653369904 0.30836877226829529
0.71576142311096191 0.13607063889503479 0.28723695874214172
0.86999642848968506 0.12620414793491364 0.26996946334838867
0.98014479875564575 0.20476281642913818 0.27171134948730469
0.10999976098537445 0.3373318612575531 0.3263152539730072
0.22985826432704926 0.35640719532966614 0.34144064784049988
0.43121600151062012 0.38161963224411011 0.3667844831943512
0.60266566276550293 0.38667535781860352 0.35044482350349426
0.74911725521087646 0.37088221311569214 0.32701143622398376
0.87890183925628662 0.365446537733078 0.31031745672225952
0.97672420740127563 0.39078888297080994 0.30511081218719482
0.070706434547901154 0.54931157827377319 0.38220176100730896
0.23730288445949554 0.55000215768814087 0.37526294589042664
0.41231390833854675 0.54435592889785767 0.36246892809867859
0.59270739555358887 0.55077898502349854 0.32806384563446045
0.75985074043273926 0.56355786323547363 0.32796967029571533
0.88951826095581055 0.56901955604553223 0.3592982292175293
0.97974574565887451 0.57153147459030151 0.36865726113319397
0.11603397876024246 0.68113178014755249 0.36234539747238159
0.23181140422821045 0.67557597160339355 0.34996497631072998
0.39653360843658447 0.67035800218582153 0.34576791524887085
0.55103826522827148 0.66557139158248901 0.31489473581314087
0.71681892871856689 0.67932397127151489 0.26952803134918213
0.86999547481536865 0.69111776351928711 0.25958779454231262
0.97676289081573486 0.71703380346298218 0.38174504041671753
0.19791905581951141 0.78975576162338257 0.3678072988986969
0.28771895170211792 0.7878907322883606 0.36783027648925781
0.41851723194122314 0.77868932485580444 0.36577010154724121
0.55661994218826294 0.77701854705810547 0.35600489377975464
0.69509357213973999 0.78780943155288696 0.3199581503868103
0.83892941474914551 0.80338853597640991 0.25148466229438782
0.97138321399688721 0.81510692834854126 0.20850665867328644
0.45030653476715088 0.9152488112449646 0.51216405630111694
0.48664689064025879 0.91270709037780762 0.51060718297958374
0.56140708923339844 0.90928113460540771 0.51679748296737671
0.65609192848205566 0.90711551904678345 0.525779128074646
0.75746840238571167 0.9134102463722229 0.52208900451660156
0.86403930187225342 0.92534250020980835 0.48850971460342407
0.97384852170944214 0.93795526027679443 0.44288557767868042
0.1063489094376564 0.054733678698539734 0.45221799612045288
0.24167333543300629 0.022008379921317101 0.47792050242424011
0.4815593957901001 0.0016145893605425954 0.54871076345443726
0.69724613428115845 0.0011115579400211573 0.58396553993225098
0.71827602386474609 0.051793791353702545 0.49674674868583679
0.81229352951049805 0.18616169691085815 0.48736757040023804
0.96025460958480835 0.16803412139415741 0.4764731228351593
0.097778692841529846 0.15921890735626221 0.46411347389221191
0.23408232629299164 0.1416037529706955 0.4916330873966217
0.47521835565567017 0.081842027604579926 0.55997061729431152
0.70261108875274658 0.044877056032419205 0.59592950344085693
0.72768855094909668 0.21047841012477875 0.51779985427856445
0.8312034010887146 0.2685638964176178 0.49442112445831299
0.9664117693901062 0.25363117456436157 0.47792625427246094
0.10456061363220215 0.31618809700012207 0.45675712823867798
0.22229865193367004 0.32893073558807373 0.48807662725448608
0.43809190392494202 0.34511196613311768 0.54621690511703491
0.67458760738372803 0.37541225552558899 0.59910422563552856
0.73190844058990479 0.41622775793075562 0.54864501953125
0.85664767026901245 0.39781007170677185 0.50566655397415161
0.97474074363708496 0.37836325168609619 0.47359710931777954
0.1547400951385498 0.53058671951293945 0.54308569431304932
0.27512654662132263 0.54279321432113647 0.55148112773895264
0.43630671501159668 0.56612259149551392 0.56651544570922852
0.63678419589996338 0.59683579206466675 0.59675449132919312
0.75569379329681396 0.59802490472793579 0.57845014333724976
0.87290817499160767 0.56866449117660522 0.54084211587905884
0.97108572721481323 0.55513399839401245 0.52395987510681152
0.21607431769371033 0.71128171682357788 0.59837234020233154
0.3162483274936676 0.71120750904083252 0.58885997533798218
0.460225909948349 0.71330982446670532 0.57732784748077393
0.60024428367614746 0.71346402168273926 0.56717789173126221
0.73842501640319824 0.71283102035522461 0.55303633213043213
0.86906766891479492 0.72234261035919189 0.55203694105148315
0.96833693981170654 0.73173779249191284 0.59196370840072632
0.33850458264350891 0.81674313545227051 0.58703470230102539
0.3790421187877655 0.81382286548614502 0.57686072587966919
0.4499591588973999 0.81027477979660034 0.55662000179290771
0.57823431491851807 0.803200364112854 0.54685765504837036
0.7025337815284729 0.79994350671768188 0.53028011322021484
0.84076541662216187 0.81381964683532715 0.49499073624610901
0.963947594165802 0.82832425832748413 0.48943373560905457
0.45407527685165405 0.92456680536270142 0.62685579061508179
0.48054888844490051 0.92394894361495972 0.62045705318450928
0.55120003223419189 0.92091560363769531 0.61953496932983398
0.64953595399856567 0.91626459360122681 0.62587529420852661
0.7583957314491272 0.91766542196273804 0.63026565313339233
0.85756754875183105 0.92675143480300903 0.60762268304824829
0.96951782703399658 0.94051975011825562 0.57255584001541138
0.13898707926273346 0.0241063442081213 0.64890927076339722
0.27290040254592896 0.0083698946982622147 0.66598659753799438
0.48487451672554016 0.0022749060299247503 0.70478540658950806
0.73936700820922852 0 0.76146703958511353
0.88754385709762573 0.00056822533952072263 0.76622426509857178
0.89123380184173584 0.12454395741224289 0.6842460036277771
0.93603026866912842 0.35302332043647766 0.67812418937683105
0.12025062739849091 0.14927487075328827 0.65315341949462891
0.25559538602828979 0.12157941609621048 0.66833335161209106
0.47051557898521423 0.066900976002216339 0.70635354518890381
0.72164928913116455 0.016926560550928116 0.76241368055343628
0.8868984580039978 0.038841322064399719 0.77276569604873657
0.88912838697433472 0.26818260550498962 0.69650691747665405
0.93632566928863525 0.41467618942260742 0.68639427423477173
0.037215348333120346 0.29974845051765442 0.6353461742401123
0.21132457256317139 0.3055187463760376 0.65296107530593872
0.43589559197425842 0.31010639667510986 0.68354934453964233
0.68494147062301636 0.32655966281890869 0.74494606256484985
0.8563617467880249 0.38044187426567078 0.76704221963882446
0.87429863214492798 0.45231780409812927 0.70584875345230103
0.932914137840271 0.51017826795578003 0.6920279860496521
0.08509024977684021 0.47786176204681396 0.62731260061264038
0.21136656403541565 0.48381030559539795 0.63137835264205933
0.3869728147983551 0.50646257400512695 0.655082106590271
0.62166792154312134 0.55231314897537231 0.71438014507293701
0.80611008405685425 0.60262244939804077 0.75943481922149658
0.85508400201797485 0.61295419931411743 0.71527135372161865
0.9494936466217041 0.59443759918212891 0.6839563250541687
0.27545374631881714 0.67461091279983521 0.6973869800567627
0.34499147534370422 0.67750757932662964 0.69985288381576538
0.46764358878135681 0.69427728652954102 0.71370011568069458
0.61882609128952026 0.72592455148696899 0.7336764931678772
0.77029639482498169 0.75257158279418945 0.75515073537826538
0.86039721965789795 0.74691212177276611 0.73870211839675903
0.95527440309524536 0.7217566967010498 0.71251487731933594
0.39311069250106812 0.83631378412246704 0.75856608152389526
0.43498307466506958 0.83251678943634033 0.75178766250610352
0.52442651987075806 0.83149266242980957 0.74546712636947632
0.62784171104431152 0.83490937948226929 0.73776030540466309
0.73666608333587646 0.8300512433052063 0.7211155891418457
0.85294008255004883 0.8410758376121521 0.7177850604057312
0.95304113626480103 0.85025489330291748 0.71435952186584473
0.52675867080688477 0.93214601278305054 0.78242433071136475
0.55195432901382446 0.93173784017562866 0.77936530113220215
0.59660428762435913 0.93362855911254883 0.76702421903610229
0.65476089715957642 0.92786896228790283 0.74762362241744995
0.74888569116592407 0.92641711235046387 0.73565346002578735
0.85486406087875366 0.93066370487213135 0.73354774713516235
0.96336460113525391 0.93996900320053101 0.71071571111679077
0.27502331137657166 0.0078886896371841431 0.82132846117019653
0.36566665768623352 0.0063283434137701988 0.82461625337600708
0.52570521831512451 0.0047549079172313213 0.84120398759841919
0.71277767419815063 0.00095808738842606544 0.86434197425842285
0.9117882251739502 0.0014237796422094107 0.89483416080474854
0.99033033847808838 0.0074813393875956535 0.88592994213104248
0.99539130926132202 0.29508259892463684 0.83681917190551758
0.25919178128242493 0.14588287472724915 0.815296471118927
0.33995947241783142 0.11512704193592072 0.81788694858551025
0.50722986459732056 0.063251018524169922 0.83678871393203735
0.70333349704742432 0.021055722609162331 0.86596786975860596
0.90380227565765381 0.014626506716012955 0.89541447162628174
0.99524044990539551 0.14233581721782684 0.89331775903701782
0.99183446168899536 0.39029014110565186 0.83693146705627441
0.16487427055835724 0.30391094088554382 0.79916179180145264
0.27854827046394348 0.30305531620979309 0.8023872971534729
0.46459215879440308 0.29411888122558594 0.82193082571029663
0.67407405376434326 0.30427089333534241 0.85118609666824341
0.8745725154876709 0.33340165019035339 0.88594025373458862
0.97502332925796509 0.41949650645256042 0.88108468055725098
0.97936409711837769 0.52195042371749878 0.83524656295776367
0.010087315924465656 0.45280358195304871 0.75506532192230225
0.11249855160713196 0.46124783158302307 0.76108026504516602
0.36502000689506531 0.47150713205337524 0.78808021545410156
0.60389614105224609 0.51301449537277222 0.82024151086807251
0.82498657703399658 0.5752444863319397 0.86992418766021729
0.94119000434875488 0.60560816526412964 0.87515503168106079
0.95694661140441895 0.65156298875808716 0.84663599729537964
0.087847419083118439 0.62154769897460938 0.76872271299362183
0.1826002299785614 0.62479281425476074 0.77085894346237183
0.35367462038993835 0.63184237480163574 0.7781139612197876
0.52859389781951904 0.65749222040176392 0.79196786880493164
0.7439119815826416 0.71482998132705688 0.83900177478790283
0.90201574563980103 0.7601618766784668 0.87473589181900024
0.93514382839202881 0.7617868185043335 0.84727579355239868
0.38889828324317932 0.79369062185287476 0.82204347848892212
0.43112286925315857 0.79901975393295288 0.82361608743667603
0.51922285556793213 0.80496072769165039 0.8286435604095459
0.63361567258834839 0.8212091326713562 0.84316670894622803
0.74547827243804932 0.84007436037063599 0.85370135307312012
0.87422966957092285 0.86637359857559204 0.86522090435028076
0.94953209161758423 0.86436361074447632 0.85751897096633911
0.55829310417175293 0.93874216079711914 0.8902239203453064
0.57689207792282104 0.94031494855880737 0.88963776826858521
0.62597858905792236 0.93876516819000244 0.88537263870239258
0.69467705488204956 0.94040030241012573 0.8797454833984375
0.77367144823074341 0.94282203912734985 0.87016552686691284
0.86965841054916382 0.94211989641189575 0.8616713285446167
0.95855319499969482 0.94955766201019287 0.85338687896728516
0.48638612031936646 0.13323915004730225 0.95707988739013672
0.53143894672393799 0.099128022789955139 0.95735162496566772
0.63056844472885132 0.053474083542823792 0.96433413028717041
0.76579898595809937 0.01773548498749733 0.97098684310913086
0.91523462533950806 0.0062517500482499599 0.9773867130279541
0.99191796779632568 0.005422001238912344 0.98196589946746826
1 0.2393488883972168 0.98238092660903931
0.4777129590511322 0.24126940965652466 0.95473319292068481
0.52363866567611694 0.22813728451728821 0.95553481578826904
0.62290072441101074 0.19902370870113373 0.95903700590133667
0.7561943531036377 0.15085980296134949 0.96783387660980225
0.90677708387374878 0.10937069356441498 0.97977745532989502
0.99899065494537354 0.11530964821577072 0.98767763376235962
1 0.3559013307094574 0.97646099328994751
0.43557900190353394 0.38758751749992371 0.9452587366104126
0.49026238918304443 0.38714587688446045 0.94792020320892334
0.59124743938446045 0.37983617186546326 0.9511406421661377
0.73035502433776855 0.37166431546211243 0.96247738599777222
0.88229471445083618 0.38151174783706665 0.97133529186248779
0.99512726068496704 0.4174153208732605 0.97826993465423584
0.99911034107208252 0.51811003684997559 0.96705758571624756
0.30905324220657349 0.53253394365310669 0.92913514375686646
0.37522432208061218 0.52502715587615967 0.93148982524871826
0.51046258211135864 0.53078216314315796 0.9376143217086792
0.67669153213500977 0.55212867259979248 0.94687455892562866
0.83787280321121216 0.56984227895736694 0.96168971061706543
0.97251397371292114 0.60477709770202637 0.97409546375274658
0.99564999341964722 0.65676355361938477 0.96221613883972168
0.17825840413570404 0.67576009035110474 0.90741443634033203
0.25125589966773987 0.67159759998321533 0.90690368413925171
0.39261683821678162 0.66734927892684937 0.9107661247253418
0.56779110431671143 0.67135024070739746 0.92586559057235718
0.77018922567367554 0.70941734313964844 0.94739669561386108
0.92571181058883667 0.7429623007774353 0.96410882472991943
0.99091070890426636 0.77227950096130371 0.9653090238571167
0.39533409476280212 0.81221377849578857 0.92051464319229126
0.43003696203231812 0.81159234046936035 0.92160314321517944
0.48859366774559021 0.81095260381698608 0.91897749900817871
0.57164812088012695 0.80812919139862061 0.91763770580291748
0.68456929922103882 0.81135082244873047 0.9257577657699585
0.86092424392700195 0.84429788589477539 0.94782406091690063
0.97776740789413452 0.88081568479537964 0.95978564023971558
0.59562438726425171 0.93380522727966309 0.95044267177581787
0.60809445381164551 0.93217521905899048 0.9502137303352356
0.65185344219207764 0.93471598625183105 0.9513016939163208
0.70476359128952026 0.93709051609039307 0.95283174514770508
0.78200286626815796 0.93977826833724976 0.9556768536567688
0.87178927659988403 0.9498361349105835 0.95847404003143311
0.96440356969833374 0.96324270963668823 0.96434670686721802
