luts/instant_pro/fuji_fp-100c_negative_--.cube
# Created by: G'MIC (https://gmic.eu)
TITLE "fuji_fp-100c_negative_--"
# LUT size
LUT_3D_SIZE 5
# Data domain
DOMAIN_MIN 0.0 0.0 0.0
DOMAIN_MAX 1.0 1.0 1.0
# LUT data points
0.0018908631755039096 0.085848577320575714 0.046099420636892319
0.22260664403438568 0.068113796412944794 0.03957202285528183
0.65560066699981689 0.0069293002597987652 0.041626904159784317
0.90080428123474121 0.11385213583707809 0.030696196481585503
0.99932754039764404 0.41190460324287415 0.081853874027729034
0.0030995686538517475 0.21922135353088379 0.10071725398302078
0.23822453618049622 0.27483779191970825 0.029467608779668808
0.67117476463317871 0.28383979201316833 0.0081247668713331223
0.89314448833465576 0.39037355780601501 0.013261099345982075
0.99928766489028931 0.50802969932556152 0.062774509191513062
0.012798698619008064 0.49258407950401306 0.24205553531646729
0.24545949697494507 0.52732759714126587 0.23589883744716644
0.58534878492355347 0.5896306037902832 0.085989601910114288
0.86703956127166748 0.62323558330535889 0.011895048432052135
0.99759072065353394 0.64696592092514038 0.025315960869193077
0.29914101958274841 0.69453799724578857 0.41716235876083374
0.41559720039367676 0.70093458890914917 0.4283812940120697
0.5823250412940979 0.72559249401092529 0.40753987431526184
0.81460011005401611 0.78357493877410889 0.30126467347145081
0.99255985021591187 0.81898975372314453 0.21474206447601318
0.63519203662872314 0.89161771535873413 0.63937914371490479
0.68756794929504395 0.8895190954208374 0.65293610095977783
0.76986241340637207 0.89638000726699829 0.66978836059570312
0.8588518500328064 0.91811132431030273 0.64653760194778442
0.98053771257400513 0.93676203489303589 0.58905476331710815
0.022661395370960236 0.068991430103778839 0.273366779088974
0.31102120876312256 0.064975544810295105 0.26106351613998413
0.69965076446533203 0.017367808148264885 0.3068886399269104
0.8960755467414856 0.24350155889987946 0.33937227725982666
0.9930882453918457 0.45145189762115479 0.3823598325252533
0.0079840263351798058 0.24048854410648346 0.29250907897949219
0.33725807070732117 0.30782285332679749 0.32295054197311401
0.67591840028762817 0.35494408011436462 0.33137017488479614
0.88294428586959839 0.42885503172874451 0.33054140210151672
0.98915350437164307 0.53129875659942627 0.36395096778869629
0.22726565599441528 0.52555423974990845 0.40016677975654602
0.37845805287361145 0.54385340213775635 0.40286338329315186
0.62631171941757202 0.59763389825820923 0.3549339771270752
0.86874639987945557 0.62782543897628784 0.32274037599563599
0.99501127004623413 0.65415769815444946 0.34154018759727478
0.3503882884979248 0.69910299777984619 0.47735050320625305
0.45648011565208435 0.70843154191970825 0.49696794152259827
0.61030012369155884 0.73396182060241699 0.4887641966342926
0.8254544734954834 0.78691047430038452 0.43816742300987244
0.97699123620986938 0.82146519422531128 0.38534107804298401
0.63204991817474365 0.89296317100524902 0.6538388729095459
0.67748498916625977 0.89299041032791138 0.66311812400817871
0.77099668979644775 0.89439713954925537 0.6860845685005188
0.86187249422073364 0.91486400365829468 0.67132782936096191
0.97462737560272217 0.93216359615325928 0.63427406549453735
0.27587676048278809 0.01233011856675148 0.56492239236831665
0.54925441741943359 0.022723328322172165 0.58752661943435669
0.75628578662872314 0.34009832143783569 0.59760576486587524
0.93334591388702393 0.40863186120986938 0.61162889003753662
0.99995905160903931 0.49085903167724609 0.60394954681396484
0.054965555667877197 0.21247552335262299 0.56588369607925415
0.46565517783164978 0.29853308200836182 0.59077620506286621
0.73194926977157593 0.48475518822669983 0.60837012529373169
0.9216926097869873 0.52389466762542725 0.62209594249725342
0.99638950824737549 0.55585777759552002 0.61148738861083984
0.1035243347287178 0.50196391344070435 0.53845202922821045
0.35512328147888184 0.52911919355392456 0.56379133462905884
0.6700252890586853 0.61604994535446167 0.60298532247543335
0.86752057075500488 0.64877110719680786 0.60091972351074219
0.97781407833099365 0.67040431499481201 0.59315651655197144
0.40989395976066589 0.69433635473251343 0.59759235382080078
0.5126844048500061 0.71190077066421509 0.6051451563835144
0.65721088647842407 0.74466854333877563 0.61913031339645386
0.8404465913772583 0.79171037673950195 0.61341112852096558
0.98912101984024048 0.81454455852508545 0.59023076295852661
0.67129367589950562 0.89165592193603516 0.70896410942077637
0.68786603212356567 0.89175808429718018 0.70159852504730225
0.7689778208732605 0.90005314350128174 0.71327108144760132
0.87425887584686279 0.91367197036743164 0.72389322519302368
0.98614025115966797 0.93080931901931763 0.70331054925918579
0.61151385307312012 0.014142205007374287 0.753440260887146
0.73766958713531494 0.033740263432264328 0.76567989587783813
0.87729150056838989 0.39703506231307983 0.77020072937011719
0.96564018726348877 0.59708720445632935 0.76542443037033081
1 0.65057885646820068 0.76859009265899658
0.51693242788314819 0.22294777631759644 0.7473301887512207
0.66219890117645264 0.29883807897567749 0.75488048791885376
0.83943986892700195 0.49992966651916504 0.76667088270187378
0.94760704040527344 0.65620177984237671 0.76851892471313477
0.99715155363082886 0.7152169942855835 0.78371703624725342
0.019312120974063873 0.41768872737884521 0.70616382360458374
0.14146941900253296 0.45539110898971558 0.70918041467666626
0.71036458015441895 0.58456498384475708 0.74992018938064575
0.93666768074035645 0.73109316825866699 0.77303719520568848
0.99603784084320068 0.78600883483886719 0.78468221426010132
0.17754341661930084 0.66288059949874878 0.67513620853424072
0.32882764935493469 0.6761014461517334 0.68666154146194458
0.58392989635467529 0.71694105863571167 0.7162933349609375
0.87869572639465332 0.8080933690071106 0.75883239507675171
0.99335986375808716 0.82884502410888672 0.75890636444091797
0.52883780002593994 0.88655811548233032 0.76054477691650391
0.60291910171508789 0.88935112953186035 0.75994151830673218
0.74085652828216553 0.89749866724014282 0.76983720064163208
0.89628738164901733 0.9121241569519043 0.78929692506790161
0.9866253137588501 0.92972630262374878 0.79476404190063477
0.84197545051574707 0.29572287201881409 0.90191555023193359
0.88154637813568115 0.38375794887542725 0.89902329444885254
0.95584440231323242 0.53840774297714233 0.88988375663757324
0.9943116307258606 0.70748710632324219 0.88627785444259644
1 0.79213535785675049 0.86943858861923218
0.79287815093994141 0.40287637710571289 0.89620423316955566
0.84227043390274048 0.45964911580085754 0.89518344402313232
0.92995047569274902 0.58264809846878052 0.89093977212905884
0.98847347497940063 0.73492217063903809 0.88584703207015991
1 0.81110328435897827 0.88573634624481201
0.50266784429550171 0.4493306577205658 0.88926035165786743
0.65735077857971191 0.50658571720123291 0.88893574476242065
0.85162913799285889 0.62882536649703979 0.88828879594802856
0.98223745822906494 0.77799707651138306 0.89303243160247803
1 0.85369908809661865 0.88848817348480225
0.0028929316904395819 0.69114822149276733 0.86745035648345947
0.0065906448289752007 0.67946839332580566 0.87473726272583008
0.18390190601348877 0.65928065776824951 0.87381219863891602
0.90877693891525269 0.79129588603973389 0.88942414522171021
0.99526494741439819 0.8964611291885376 0.89552068710327148
0.30974474549293518 0.88849103450775146 0.87921607494354248
0.41023942828178406 0.88949394226074219 0.88411962985992432
0.58308631181716919 0.88961297273635864 0.88306260108947754
0.80695754289627075 0.89767491817474365 0.89853674173355103
0.98696273565292358 0.93529480695724487 0.91528290510177612
