luts/instant_pro/fuji_fp-100c_+.cube
# Created by: G'MIC (https://gmic.eu)
TITLE "fuji_fp-100c_+"
# LUT size
LUT_3D_SIZE 13
# Data domain
DOMAIN_MIN 0.0 0.0 0.0
DOMAIN_MAX 1.0 1.0 1.0
# LUT data points
0.097421340644359589 0.069000527262687683 0.032087977975606918
0.11780458688735962 0.070588551461696625 0.033830828964710236
0.15849213302135468 0.070236235857009888 0.036399316042661667
0.2190060168504715 0.069494210183620453 0.033906120806932449
0.29716882109642029 0.054795045405626297 0.031467288732528687
0.38141775131225586 0.028973089531064034 0.026434805244207382
0.4814734160900116 0.011352958157658577 0.0224470105022192
0.59218841791152954 0.00805638637393713 0.014773350208997726
0.69675272703170776 0.007815132848918438 0.0093576172366738319
0.78463494777679443 0.0060066673904657364 0.0076876920647919178
0.86372667551040649 0.0084721734747290611 0.0048036910593509674
0.92749744653701782 0.019295366480946541 0.0034520765766501427
0.97914832830429077 0.084919840097427368 0.002510265214368701
0.10055407136678696 0.098427757620811462 0.032719824463129044
0.12506343424320221 0.098953172564506531 0.034151323139667511
0.17135334014892578 0.099773064255714417 0.034096453338861465
0.22967085242271423 0.094419471919536591 0.032521668821573257
0.3074738085269928 0.088368043303489685 0.029156958684325218
0.39949190616607666 0.078281372785568237 0.024194290861487389
0.49691861867904663 0.049591273069381714 0.019465172663331032
0.60187429189682007 0.030521975830197334 0.010888387449085712
0.70295906066894531 0.021256765350699425 0.0055129555985331535
0.78694534301757812 0.022431077435612679 0.0058959061279892921
0.86373186111450195 0.037423480302095413 0.0031791387591511011
0.92801427841186523 0.081584915518760681 0.003711700439453125
0.97969436645507812 0.14690646529197693 0.0007207085145637393
0.10207349061965942 0.14183492958545685 0.030142256990075111
0.13335779309272766 0.14577706158161163 0.02994200773537159
0.17587406933307648 0.14547756314277649 0.027511896565556526
0.24846614897251129 0.15179501473903656 0.022986184805631638
0.33440688252449036 0.15502133965492249 0.019539164379239082
0.42624026536941528 0.14439061284065247 0.018050877377390862
0.52497738599777222 0.13943749666213989 0.013432580977678299
0.62814778089523315 0.13273985683917999 0.0091630825772881508
0.71915549039840698 0.1235116571187973 0.0054801641963422298
0.79751455783843994 0.13026940822601318 0.0039496179670095444
0.86664783954620361 0.15135367214679718 0.0047737867571413517
0.93167310953140259 0.18837748467922211 0.0062725888565182686
0.98272740840911865 0.22732418775558472 0.0045784595422446728
0.099274896085262299 0.20628735423088074 0.026892509311437607
0.1350371241569519 0.21091048419475555 0.02587210014462471
0.18407893180847168 0.21318605542182922 0.020379234105348587
0.26069897413253784 0.22191351652145386 0.012184711173176765
0.35277658700942993 0.22998596727848053 0.0094043510034680367
0.45054119825363159 0.23331381380558014 0.0090695545077323914
0.55676448345184326 0.24298672378063202 0.0064012715592980385
0.65851670503616333 0.24770763516426086 0.0077338875271379948
0.73879164457321167 0.24798725545406342 0.0072379168123006821
0.8124929666519165 0.25509157776832581 0.0040790485218167305
0.87533485889434814 0.26796436309814453 0.0046392106451094151
0.93717473745346069 0.28547719120979309 0.0076422449201345444
0.98490250110626221 0.30379238724708557 0.0076585807837545872
0.082107022404670715 0.28829023241996765 0.019555814564228058
0.12740887701511383 0.28736171126365662 0.018395772203803062
0.19056341052055359 0.29282322525978088 0.012361773289740086
0.25865814089775085 0.3004051148891449 0.0054789073765277863
0.35416090488433838 0.31071874499320984 0.005770320538431406
0.46307200193405151 0.32357668876647949 0.0080292494967579842
0.56893140077590942 0.33370158076286316 0.0059955972246825695
0.67336893081665039 0.34749841690063477 0.0075386199168860912
0.75650238990783691 0.35563281178474426 0.0085323555395007133
0.82730668783187866 0.36339476704597473 0.0053415633738040924
0.8886256217956543 0.37219643592834473 0.0040526743978261948
0.94293171167373657 0.37738445401191711 0.0060016559436917305
0.98485112190246582 0.38774546980857849 0.0042169606313109398
0.045773226767778397 0.37959206104278564 0.007372493389993906
0.10181670635938644 0.38046073913574219 0.0098732588812708855
0.17750248312950134 0.37957707047462463 0.0069826315157115459
0.2550322413444519 0.38054880499839783 0.0023097768425941467
0.3451208770275116 0.38785728812217712 0.0045679877512156963
0.44727188348770142 0.40143635869026184 0.0058049368672072887
0.5533607006072998 0.41206717491149902 0.0046380884014070034
0.66255855560302734 0.42677155137062073 0.006864884402602911
0.75630301237106323 0.44476470351219177 0.0096138296648859978
0.8307260274887085 0.4569970965385437 0.0078437505289912224
0.8955540657043457 0.46484166383743286 0.0050712884403765202
0.95098257064819336 0.470346599817276 0.0068194670602679253
0.98949146270751953 0.47643247246742249 0.0074937855824828148
0.015165815129876137 0.47178524732589722 0.0031138102058321238
0.074810191988945007 0.46560952067375183 0.00484441127628088
0.16120059788227081 0.45983225107192993 0.0056152492761611938
0.24738942086696625 0.45769694447517395 0.0036073422525078058
0.33354702591896057 0.46200764179229736 0.0027027952019125223
0.42882046103477478 0.47661232948303223 0.002898242324590683
0.53067231178283691 0.48880448937416077 0.0033463123254477978
0.6377488374710083 0.50007504224777222 0.0060978159308433533
0.73168808221817017 0.51537972688674927 0.0078431377187371254
0.81417226791381836 0.53006017208099365 0.0078431377187371254
0.88903117179870605 0.54200285673141479 0.0062573603354394436
0.95246803760528564 0.5533871054649353 0.0095264660194516182
0.99035912752151489 0.56348294019699097 0.045714255422353745
0.0088276583701372147 0.54116547107696533 0.0020153271034359932
0.056031964719295502 0.53745537996292114 0.0033606735523790121
0.15759666264057159 0.53510421514511108 0.0052054761908948421
0.25023296475410461 0.53220576047897339 0.0035532782785594463
0.33706700801849365 0.53456586599349976 0.0030250248964875937
0.42548683285713196 0.54624557495117188 0.0039815418422222137
0.51366716623306274 0.55700349807739258 0.0030848784372210503
0.61186766624450684 0.56836873292922974 0.0038794274441897869
0.7045283317565918 0.58151644468307495 0.0054835900664329529
0.7921370267868042 0.5948670506477356 0.0065844967029988766
0.87312144041061401 0.60738331079483032 0.0070504583418369293
0.93882614374160767 0.61957645416259766 0.0091892164200544357
0.98893100023269653 0.6342465877532959 0.051887854933738708
0.012386217713356018 0.61386567354202271 0.002571973716840148
0.065376490354537964 0.61118727922439575 0.0042806738056242466
0.17128156125545502 0.60921782255172729 0.0072443345561623573
0.26071047782897949 0.60412412881851196 0.0041015623137354851
0.34469780325889587 0.60629832744598389 0.0037023806944489479
0.4267730712890625 0.61417323350906372 0.0068741291761398315
0.50633811950683594 0.62261366844177246 0.0049862731248140335
0.59140485525131226 0.63426697254180908 0.0038487003184854984
0.68634402751922607 0.64669084548950195 0.0041599646210670471
0.7769438624382019 0.66015797853469849 0.0054534315131604671
0.856944739818573 0.67171990871429443 0.0083152018487453461
0.92271900177001953 0.68178462982177734 0.011851336807012558
0.97854137420654297 0.69424241781234741 0.012803844176232815
0.048063434660434723 0.68846899271011353 0.010372670367360115
0.1209438219666481 0.6870495080947876 0.01274662371724844
0.20131587982177734 0.68197321891784668 0.016726549714803696
0.28162148594856262 0.67674368619918823 0.018472319468855858
0.35853618383407593 0.67544233798980713 0.018626987934112549
0.43230661749839783 0.67924028635025024 0.010416681878268719
0.51031255722045898 0.6861305832862854 0.008637821301817894
0.59304291009902954 0.69878214597702026 0.0095388079062104225
0.68180018663406372 0.7123028039932251 0.0084137711673974991
0.76912128925323486 0.72463196516036987 0.0067882910370826721
0.8448595404624939 0.73454272747039795 0.0085053537040948868
0.9093329906463623 0.74394142627716064 0.01125762052834034
0.96542805433273315 0.75186735391616821 0.0081082815304398537
0.15762880444526672 0.7575831413269043 0.082006536424160004
0.20625166594982147 0.75622844696044922 0.080806180834770203
0.2599109411239624 0.75273311138153076 0.078813634812831879
0.32464522123336792 0.7492329478263855 0.080175586044788361
0.39106744527816772 0.74583733081817627 0.079939596354961395
0.45815730094909668 0.7470056414604187 0.071388527750968933
0.52594834566116333 0.75393503904342651 0.044787820428609848
0.60116815567016602 0.7662997841835022 0.025292295962572098
0.68108212947845459 0.77722126245498657 0.011470315977931023
0.76275616884231567 0.78707927465438843 0.0079507417976856232
0.83487159013748169 0.79643648862838745 0.0093349386006593704
0.90184634923934937 0.80462098121643066 0.008756331168115139
0.95667475461959839 0.80984830856323242 0.0048837848007678986
0.29537707567214966 0.83099275827407837 0.21417737007141113
0.32034775614738464 0.82801371812820435 0.21369041502475739
0.35511258244514465 0.82769507169723511 0.21308165788650513
0.40300393104553223 0.82456314563751221 0.21319113671779633
0.45737868547439575 0.82136827707290649 0.21585571765899658
0.51585489511489868 0.82127684354782104 0.21903899312019348
0.5786898136138916 0.82472723722457886 0.19958828389644623
0.63913315534591675 0.83358293771743774 0.17357918620109558
0.70305287837982178 0.84281259775161743 0.14148333668708801
0.76751047372817993 0.85060232877731323 0.09617798775434494
0.83507144451141357 0.85883325338363647 0.054503601044416428
0.90321445465087891 0.86664748191833496 0.023830818012356758
0.96000421047210693 0.87230014801025391 0.0046377894468605518
0.46099233627319336 0.9064180850982666 0.39342465996742249
0.4734044075012207 0.90438967943191528 0.39148989319801331
0.49303978681564331 0.90455907583236694 0.39105448126792908
0.5248839259147644 0.90191525220870972 0.39116784930229187
0.56460016965866089 0.90105235576629639 0.39656144380569458
0.61022698879241943 0.90021926164627075 0.40245804190635681
0.66395998001098633 0.90069830417633057 0.40611475706100464
0.71093845367431641 0.90677601099014282 0.40031856298446655
0.76201307773590088 0.9126703143119812 0.38646784424781799
0.81346482038497925 0.91895681619644165 0.36626929044723511
0.8683018684387207 0.92421203851699829 0.33701711893081665
0.92508059740066528 0.9311826229095459 0.29198154807090759
0.97855877876281738 0.93770557641983032 0.23864233493804932
0.10337139666080475 0.069592446088790894 0.053233981132507324
0.12822502851486206 0.071905918419361115 0.058071449398994446
0.15801225602626801 0.072464019060134888 0.057207398116588593
0.21600738167762756 0.071025446057319641 0.059100057929754257
0.2968696653842926 0.05391528457403183 0.059047237038612366
0.38682281970977783 0.028131162747740746 0.055778831243515015
0.48818796873092651 0.011815867386758327 0.058916173875331879
0.59729719161987305 0.0086254049092531204 0.055864043533802032
0.69602996110916138 0.0075335334986448288 0.045786134898662567
0.78188091516494751 0.0066012660972774029 0.037898629903793335
0.8613777756690979 0.007817600853741169 0.028686912730336189
0.92655783891677856 0.021878903731703758 0.023338573053479195
0.9788091778755188 0.089128993451595306 0.023681595921516418
0.10607803612947464 0.094544880092144012 0.057002589106559753
0.13881821930408478 0.102248415350914 0.064773708581924438
0.17842447757720947 0.10757805407047272 0.067275524139404297
0.23933635652065277 0.10219072550535202 0.066377840936183929
0.31354182958602905 0.091496020555496216 0.060968991369009018
0.40411904454231262 0.075058907270431519 0.059731770306825638
0.5027012825012207 0.052860245108604431 0.059702884405851364
0.60832488536834717 0.036655038595199585 0.052377168089151382
0.70273631811141968 0.029815509915351868 0.041234754025936127
0.78555381298065186 0.03409697487950325 0.034043539315462112
0.86355328559875488 0.041305080056190491 0.025592070072889328
0.92609316110610962 0.089156195521354675 0.026107639074325562
0.98147380352020264 0.14786508679389954 0.023086637258529663
0.10833314061164856 0.14922952651977539 0.060601416975259781
0.14402595162391663 0.15387243032455444 0.065258115530014038
0.18957649171352386 0.15493050217628479 0.067133583128452301
0.26141476631164551 0.16107060015201569 0.057800143957138062
0.3426206111907959 0.16235522925853729 0.054911252111196518
0.43619659543037415 0.15166309475898743 0.06515088677406311
0.53361141681671143 0.14580921828746796 0.056399941444396973
0.63357418775558472 0.14028190076351166 0.04297783225774765
0.71969354152679443 0.13760031759738922 0.034211624413728714
0.80009478330612183 0.14083892107009888 0.025954436510801315
0.86814981698989868 0.15534207224845886 0.026973215863108635
0.93352979421615601 0.18404532968997955 0.02669251337647438
0.98546415567398071 0.2229999303817749 0.02467682771384716
0.10448426008224487 0.21975657343864441 0.062876023352146149
0.14172598719596863 0.225566565990448 0.065892010927200317
0.19956301152706146 0.22911083698272705 0.061960242688655853
0.27864313125610352 0.23514711856842041 0.043241910636425018
0.36524802446365356 0.23979604244232178 0.031544074416160583
0.46662676334381104 0.24431057274341583 0.043238427489995956
0.56982088088989258 0.25012907385826111 0.03766033798456192
0.6629675030708313 0.25184199213981628 0.031380955129861832
0.741893470287323 0.25237521529197693 0.030774449929594994
0.81489211320877075 0.25496077537536621 0.023650046437978745
0.87647533416748047 0.26756078004837036 0.025558337569236755
0.9393429160118103 0.28508371114730835 0.025276603177189827
0.98725384473800659 0.30297121405601501 0.026067890226840973
0.079273700714111328 0.3037203848361969 0.062335353344678879
0.13046486675739288 0.30488446354866028 0.063886009156703949
0.20016393065452576 0.31001845002174377 0.057487040758132935
0.27500486373901367 0.31596776843070984 0.039786126464605331
0.36783686280250549 0.32447695732116699 0.018796404823660851
0.47510156035423279 0.33570155501365662 0.012629848904907703
0.57955890893936157 0.34524214267730713 0.016533032059669495
0.6783258318901062 0.35246691107749939 0.020677978172898293
0.75952988862991333 0.3572138249874115 0.022839624434709549
0.83055120706558228 0.36098721623420715 0.019850682467222214
0.8902551531791687 0.36880192160606384 0.022088833153247833
0.94603884220123291 0.37622919678688049 0.022496854886412621
0.98488318920135498 0.38910561800003052 0.033813163638114929
0.035334523767232895 0.3962523341178894 0.051308158785104752
0.10178716480731964 0.39842984080314636 0.056778524070978165
0.18202552199363708 0.39710566401481628 0.051329474896192551
0.26286536455154419 0.39743021130561829 0.034724801778793335
0.35189685225486755 0.40302664041519165 0.014365088194608688
0.45805072784423828 0.41593250632286072 0.0091934651136398315
0.56595253944396973 0.42661288380622864 0.0090518128126859665
0.66837072372436523 0.4350944459438324 0.0078448578715324402
0.75988984107971191 0.44739675521850586 0.0099222222343087196
0.83554363250732422 0.45620405673980713 0.014784255996346474
0.89700722694396973 0.46330127120018005 0.030728433281183243
0.95140743255615234 0.4689609706401825 0.036872759461402893
0.98816734552383423 0.47935426235198975 0.062375117093324661
0.011866760440170765 0.48269841074943542 0.042282793670892715
0.07490965723991394 0.47996413707733154 0.043585024774074554
0.16580042243003845 0.47546440362930298 0.043042052537202835
0.25486299395561218 0.47109785676002502 0.031312245875597
0.34372827410697937 0.47324910759925842 0.013984830118715763
0.43870958685874939 0.48630771040916443 0.006837119348347187
0.54402625560760498 0.49885532259941101 0.0059835547581315041
0.64662384986877441 0.50952917337417603 0.0063750771805644035
0.73843443393707275 0.52128380537033081 0.0076008215546607971
0.81938326358795166 0.53289812803268433 0.0091704120859503746
0.89312863349914551 0.5442277193069458 0.018229825422167778
0.95444202423095703 0.55582106113433838 0.061944775283336639
0.98770803213119507 0.56603109836578369 0.1172734871506691
0.0086836572736501694 0.55298566818237305 0.037386830896139145
0.05957692489027977 0.54962122440338135 0.034608595073223114
0.16306103765964508 0.54751211404800415 0.039235476404428482
0.25627154111862183 0.54320156574249268 0.034484580159187317
0.3435099720954895 0.54342895746231079 0.024070350453257561
0.43051475286483765 0.55411463975906372 0.012180029414594173
0.52167749404907227 0.56602394580841064 0.005837129894644022
0.61953383684158325 0.57779461145401001 0.0059053907170891762
0.71283948421478271 0.58871978521347046 0.0068298340775072575
0.79742914438247681 0.59946346282958984 0.0082001481205224991
0.87575215101242065 0.61006832122802734 0.0080780927091836929
0.94297122955322266 0.62064927816390991 0.021610753610730171
0.98715877532958984 0.63815528154373169 0.1119011789560318
0.01143233384937048 0.62324482202529907 0.039831679314374924
0.074358455836772919 0.6197589635848999 0.035530000925064087
0.1749175488948822 0.61617422103881836 0.03784039244055748
0.26396763324737549 0.61206388473510742 0.041437499225139618
0.34793767333030701 0.61293196678161621 0.033485114574432373
0.42638525366783142 0.6190001368522644 0.017415139824151993
0.50858861207962036 0.62801623344421387 0.0089692510664463043
0.59832453727722168 0.6405748724937439 0.0076850890181958675
0.69157731533050537 0.65323472023010254 0.0077002132311463356
0.77971792221069336 0.66390931606292725 0.0078480290248990059
0.85779458284378052 0.6724885106086731 0.0086724227294325829
0.92730045318603516 0.68249702453613281 0.012869367375969887
0.98391717672348022 0.69574379920959473 0.03893585130572319
0.056188754737377167 0.69361227750778198 0.071113929152488708
0.12622898817062378 0.69087409973144531 0.069138512015342712
0.20464828610420227 0.68552100658416748 0.067635223269462585
0.2847042977809906 0.68121099472045898 0.07284882664680481
0.36317023634910583 0.68055123090744019 0.067522354423999786
0.43579664826393127 0.68477261066436768 0.04329286515712738
0.51062119007110596 0.69235533475875854 0.025388948619365692
0.59250104427337646 0.70446598529815674 0.0094447266310453415
0.67902010679244995 0.71503269672393799 0.0078286565840244293
0.76444077491760254 0.7255675196647644 0.0083570145070552826
0.84279739856719971 0.73490643501281738 0.0082424990832805634
0.91153192520141602 0.74408978223800659 0.010116352699697018
0.9696422815322876 0.75286716222763062 0.0097151510417461395
0.1592269092798233 0.76128005981445312 0.14111514389514923
0.21020671725273132 0.7614138126373291 0.13966204226016998
0.26750391721725464 0.75754046440124512 0.13639461994171143
0.33144879341125488 0.75437366962432861 0.13928735256195068
0.39862701296806335 0.75072133541107178 0.13650983572006226
0.46388879418373108 0.75113660097122192 0.11887712776660919
0.52901864051818848 0.75856775045394897 0.09804108738899231
0.60195010900497437 0.76759308576583862 0.058611296117305756
0.67792606353759766 0.7774236798286438 0.025133214890956879
0.75777113437652588 0.78737634420394897 0.012149421498179436
0.83261877298355103 0.79645639657974243 0.0071093239821493626
0.90200161933898926 0.80516725778579712 0.0088677350431680679
0.95985525846481323 0.81094181537628174 0.0067019294947385788
0.29716813564300537 0.83285558223724365 0.24848443269729614
0.3244624137878418 0.8328927755355835 0.2499270886182785
0.36163574457168579 0.83172738552093506 0.25026825070381165
0.41028735041618347 0.83023732900619507 0.25036993622779846
0.46037957072257996 0.82563012838363647 0.24880833923816681
0.51672852039337158 0.82380837202072144 0.24416087567806244
0.57513302564620972 0.82702076435089111 0.23657207190990448
0.64183133840560913 0.83437269926071167 0.21394562721252441
0.71140950918197632 0.84410423040390015 0.17824938893318176
0.76944905519485474 0.85150033235549927 0.13549098372459412
0.8360668420791626 0.85923898220062256 0.08066093921661377
0.90393811464309692 0.86712366342544556 0.040476363152265549
0.96273207664489746 0.87308120727539062 0.011940182186663151
0.46249681711196899 0.90766578912734985 0.41172963380813599
0.47712576389312744 0.90804171562194824 0.41264712810516357
0.49639236927032471 0.90590518712997437 0.41105717420578003
0.52576351165771484 0.90547406673431396 0.40944710373878479
0.56684201955795288 0.90324896574020386 0.41514122486114502
0.6119990348815918 0.90159684419631958 0.42089024186134338
0.66021567583084106 0.90157812833786011 0.42269781231880188
0.7118222713470459 0.90663039684295654 0.41766539216041565
0.76633912324905396 0.91408085823059082 0.40706279873847961
0.81406974792480469 0.91913235187530518 0.38780170679092407
0.86857408285140991 0.92440158128738403 0.35980832576751709
0.92511230707168579 0.93094062805175781 0.31785321235656738
0.97871661186218262 0.93783044815063477 0.26538079977035522
0.111655592918396 0.071445047855377197 0.095881730318069458
0.14177426695823669 0.071236521005630493 0.1075592041015625
0.18623837828636169 0.063522234559059143 0.11270585656166077
0.22583681344985962 0.067202970385551453 0.10229266434907913
0.28976210951805115 0.064268641173839569 0.10266255587339401
0.38699418306350708 0.034766059368848801 0.10495855659246445
0.49303862452507019 0.0083356965333223343 0.10901813954114914
0.59999638795852661 0.0072600273415446281 0.11174756288528442
0.69531071186065674 0.0044038658961653709 0.10525202751159668
0.78149902820587158 0.0040240269154310226 0.10295119881629944
0.86071163415908813 0.0098406178876757622 0.099444985389709473
0.9267694354057312 0.026581574231386185 0.097519442439079285
0.97882652282714844 0.086248509585857391 0.097471125423908234
0.11539604514837265 0.098977349698543549 0.1036718338727951
0.14701747894287109 0.10464413464069366 0.11044250428676605
0.19402872025966644 0.10483688861131668 0.11604955047369003
0.24700546264648438 0.10328177362680435 0.11386623233556747
0.31551766395568848 0.098484694957733154 0.11107602715492249
0.40892267227172852 0.07641080766916275 0.11281941831111908
0.51216310262680054 0.049237404018640518 0.11252272129058838
0.61611497402191162 0.037305586040019989 0.11108438670635223
0.70480632781982422 0.034561112523078918 0.10736700147390366
0.78706842660903931 0.033310834318399429 0.10381101816892624
0.86190009117126465 0.048340246081352234 0.10008576512336731
0.9260445237159729 0.08970227837562561 0.10047037154436111
0.97628653049468994 0.14596682786941528 0.1031452864408493
0.11650770902633667 0.1522938460111618 0.11417451500892639
0.14963948726654053 0.15765567123889923 0.11730688065290451
0.19861699640750885 0.15902432799339294 0.12135536223649979
0.2683197557926178 0.16568125784397125 0.11987234652042389
0.3510415256023407 0.16870293021202087 0.12178244441747665
0.44484379887580872 0.15610033273696899 0.12250997871160507
0.54400116205215454 0.15030494332313538 0.11807357519865036
0.64004898071289062 0.14724752306938171 0.11245470494031906
0.72283446788787842 0.14288584887981415 0.10717935115098953
0.79892808198928833 0.14220564067363739 0.10387326776981354
0.8667718768119812 0.15568229556083679 0.10350991040468216
0.92838424444198608 0.18475700914859772 0.10459910333156586
0.97850048542022705 0.22499731183052063 0.10981756448745728
0.10849913209676743 0.23260602355003357 0.13620293140411377
0.14682026207447052 0.23728308081626892 0.1349339634180069
0.20700721442699432 0.24374856054782867 0.13446137309074402
0.2871614396572113 0.24878805875778198 0.12622146308422089
0.38073980808258057 0.25184696912765503 0.12556326389312744
0.48155432939529419 0.25397074222564697 0.1266939640045166
0.57900291681289673 0.25683248043060303 0.12323401868343353
0.6666373610496521 0.25601980090141296 0.11661620438098907
0.7453988790512085 0.25479823350906372 0.11186327785253525
0.81484872102737427 0.25695887207984924 0.10642889887094498
0.87654292583465576 0.26596716046333313 0.10499519109725952
0.93429005146026611 0.28539553284645081 0.10704263299703598
0.98150670528411865 0.3123929500579834 0.11530973017215729
0.089379988610744476 0.32868507504463196 0.15174897015094757
