luts/instant_pro/fuji_fp-100c_--.cube
# Created by: G'MIC (https://gmic.eu)
TITLE "fuji_fp-100c_--"
# LUT size
LUT_3D_SIZE 7
# Data domain
DOMAIN_MIN 0.0 0.0 0.0
DOMAIN_MAX 1.0 1.0 1.0
# LUT data points
0.015145394951105118 0.016318242996931076 0.015908485278487206
0.12109836935997009 0.02618846483528614 0.020232750102877617
0.30569279193878174 0.0062169241718947887 0.022055815905332565
0.5253722071647644 0.0015657910844311118 0.024975242093205452
0.74755716323852539 0.0069161509163677692 0.025764256715774536
0.89575648307800293 0.0072474312037229538 0.026297535747289658
0.99324208498001099 0.058151349425315857 0.034556802362203598
0.0051820492371916771 0.1373894214630127 0.02816428430378437
0.12969067692756653 0.14881828427314758 0.019346648827195168
0.33830311894416809 0.14763413369655609 0.01792723685503006
0.57591277360916138 0.12528392672538757 0.022773668169975281
0.76275515556335449 0.094803981482982635 0.017947761341929436
0.8993571400642395 0.12335921823978424 0.027626650407910347
0.99490052461624146 0.22503355145454407 0.052658379077911377
0.0030987458303570747 0.31819793581962585 0.04339924082159996
0.067575089633464813 0.32641792297363281 0.030424529686570168
0.34375450015068054 0.34798231720924377 0.014719166792929173
0.60265529155731201 0.35614883899688721 0.0079735098406672478
0.79259395599365234 0.36130237579345703 0.013464415445923805
0.91666251420974731 0.37111780047416687 0.040470212697982788
0.9945405125617981 0.40375348925590515 0.096095532178878784
0.0023727717343717813 0.48798033595085144 0.048464275896549225
0.025476597249507904 0.49214732646942139 0.051620721817016602
0.29898077249526978 0.50470054149627686 0.017295343801379204
0.54370903968811035 0.51644212007522583 0.0076996595598757267
0.75687104463577271 0.52427524328231812 0.012962670065462589
0.91287505626678467 0.54393494129180908 0.021465182304382324
0.99451041221618652 0.57405877113342285 0.15373080968856812
0.0036174100823700428 0.63560962677001953 0.087718605995178223
0.037231311202049255 0.63477957248687744 0.087967813014984131
0.31176739931106567 0.63502663373947144 0.064503580331802368
0.5184057354927063 0.64358216524124146 0.016380131244659424
0.71420270204544067 0.65810078382492065 0.015730075538158417
0.87594097852706909 0.67532080411911011 0.013198269531130791
0.98923242092132568 0.69920384883880615 0.036812741309404373
0.091948054730892181 0.77652043104171753 0.17544734477996826
0.23167464137077332 0.77368193864822388 0.18117310106754303
0.40913715958595276 0.76952612400054932 0.17123062908649445
0.55305427312850952 0.77020573616027832 0.12706424295902252
0.69760781526565552 0.78274214267730713 0.031762860715389252
0.85214871168136597 0.80378460884094238 0.015266642905771732
0.97371941804885864 0.81920027732849121 0.011436821892857552
0.48710787296295166 0.92426568269729614 0.41279873251914978
0.52302056550979614 0.92259770631790161 0.41361358761787415
0.60116082429885864 0.92144834995269775 0.42123898863792419
0.69132930040359497 0.92019432783126831 0.42411565780639648
0.78692692518234253 0.92666113376617432 0.3919433057308197
0.88491439819335938 0.93924850225448608 0.33881232142448425
0.98739820718765259 0.95238173007965088 0.22287151217460632
0.027854170650243759 0.02029501274228096 0.14404198527336121
0.15759386122226715 0.01076609268784523 0.16334600746631622
0.29316526651382446 0.028502639383077621 0.15137270092964172
0.52234607934951782 0.0096894660964608192 0.16022036969661713
0.73828613758087158 0.0044707651250064373 0.16076461970806122
0.88363379240036011 0.0078685088083148003 0.15811830759048462
0.98804056644439697 0.081771612167358398 0.16402314603328705
0.0064326864667236805 0.14686913788318634 0.16558738052845001
0.13991746306419373 0.16605255007743835 0.17764183878898621
0.347921222448349 0.1788657158613205 0.1764848530292511
0.5819699764251709 0.15753677487373352 0.17615489661693573
0.75277972221374512 0.12885375320911407 0.16811577975749969
0.89059710502624512 0.13844472169876099 0.17115767300128937
0.98442673683166504 0.22877442836761475 0.18152628839015961
0.001383672934025526 0.35844483971595764 0.20587176084518433
0.10064318776130676 0.36701682209968567 0.20016063749790192
0.37776237726211548 0.3769967257976532 0.16416311264038086
0.62200403213500977 0.37782028317451477 0.16225913166999817
0.78970468044281006 0.37003305554389954 0.18594929575920105
0.90789663791656494 0.37171420454978943 0.19471196830272675
0.98851948976516724 0.39819636940956116 0.21517138183116913
0.0030804653652012348 0.51873373985290527 0.19947275519371033
0.045788273215293884 0.52404642105102539 0.19756031036376953
0.34288197755813599 0.52579909563064575 0.17445926368236542
0.57726359367370605 0.53367620706558228 0.088101781904697418
0.76474261283874512 0.5388946533203125 0.081634432077407837
0.91297858953475952 0.55356061458587646 0.18813152611255646
0.98243105411529541 0.56838548183441162 0.24933357536792755
0.0059396633878350258 0.65069031715393066 0.20897810161113739
0.065109282732009888 0.65281885862350464 0.20557603240013123
0.33131635189056396 0.64555835723876953 0.20253436267375946
0.5300104022026062 0.65285009145736694 0.13903935253620148
0.71579408645629883 0.66790080070495605 0.040978763252496719
0.87872469425201416 0.67587524652481079 0.029385600239038467
0.98541533946990967 0.70640939474105835 0.18733365833759308
0.11143159866333008 0.78372114896774292 0.25839784741401672
0.25069433450698853 0.77986043691635132 0.26309466361999512
0.40452313423156738 0.77214992046356201 0.2569793164730072
0.55481475591659546 0.77110832929611206 0.23004278540611267
0.70444387197494507 0.78718537092208862 0.16083534061908722
0.84802651405334473 0.80022597312927246 0.036583095788955688
0.97807329893112183 0.81877881288528442 0.009686608798801899
0.48441702127456665 0.9273756742477417 0.44981247186660767
0.52294921875 0.92379224300384521 0.45119038224220276
0.59507894515991211 0.92167156934738159 0.45542997121810913
0.68915307521820068 0.92023342847824097 0.46242827177047729
0.78084731101989746 0.92541027069091797 0.43641430139541626
0.88334089517593384 0.93704712390899658 0.39072898030281067
0.98484724760055542 0.95101660490036011 0.29785844683647156
0.010213500820100307 0.015576486475765705 0.33162501454353333
0.18195229768753052 0.0063574844971299171 0.36692327260971069
0.43291246891021729 0.001959692221134901 0.39375880360603333
0.51245319843292236 0.056137010455131531 0.34288132190704346
0.69810789823532104 0.029593059793114662 0.33754786849021912
0.86993038654327393 0.006969063077121973 0.31178450584411621
0.98928225040435791 0.041911676526069641 0.30092000961303711
0.0065640169195830822 0.15000435709953308 0.33160009980201721
0.17157462239265442 0.1445419043302536 0.37152889370918274
0.44176012277603149 0.13415442407131195 0.4082636833190918
0.55539554357528687 0.20646603405475616 0.36881491541862488
0.73391628265380859 0.15350013971328735 0.34013307094573975
0.88714611530303955 0.13040450215339661 0.31804537773132324
0.98685240745544434 0.21441434323787689 0.31744325160980225
0.0022167130373418331 0.36100670695304871 0.38615956902503967
0.15127323567867279 0.38460803031921387 0.40322786569595337
0.44013556838035583 0.412554532289505 0.42623415589332581
0.62512964010238647 0.40528774261474609 0.40111953020095825
0.77236700057983398 0.37484818696975708 0.37373006343841553
0.89786911010742188 0.37037545442581177 0.35719200968742371
0.9887007474899292 0.39677178859710693 0.3474019467830658
0.0044780056923627853 0.57033103704452515 0.42714178562164307
0.18735864758491516 0.57999527454376221 0.42503315210342407
0.4223390519618988 0.57293736934661865 0.412229984998703
0.61661624908447266 0.57101619243621826 0.37898942828178406
0.77883756160736084 0.57097327709197998 0.37386587262153625
0.90272372961044312 0.56854027509689331 0.39852941036224365
0.97660619020462036 0.57944196462631226 0.40516936779022217
0.066985607147216797 0.69400167465209961 0.40114256739616394
0.19124987721443176 0.69058424234390259 0.39187359809875488
0.39553660154342651 0.68456017971038818 0.38408735394477844
0.56140297651290894 0.67502206563949585 0.35621672868728638
0.73249733448028564 0.68615072965621948 0.31465533375740051
0.88069415092468262 0.69204986095428467 0.30220100283622742
0.97884958982467651 0.72176444530487061 0.39742377400398254
0.15267223119735718 0.80146479606628418 0.39760738611221313
0.27305296063423157 0.79511910676956177 0.39715039730072021
0.41935974359512329 0.78765243291854858 0.38987252116203308
0.56737250089645386 0.78314292430877686 0.37515959143638611
0.71354597806930542 0.79232382774353027 0.33880883455276489
0.8576732873916626 0.80699855089187622 0.28405982255935669
0.97725594043731689 0.82267099618911743 0.23938053846359253
0.47456797957420349 0.93065017461776733 0.52130234241485596
0.5133671760559082 0.92893832921981812 0.5209345817565918
0.58961021900177002 0.9255671501159668 0.52458482980728149
0.68163198232650757 0.92218303680419922 0.52707260847091675
0.77935111522674561 0.92725855112075806 0.51061999797821045
0.88116943836212158 0.93758612871170044 0.48162883520126343
0.98225826025009155 0.95007163286209106 0.42213842272758484
0.013905872590839863 0.0062507628463208675 0.51292926073074341
0.18153512477874756 0.0014163596788421273 0.54001235961914062
0.49227967858314514 0.00076765171252191067 0.59496015310287476
0.73223084211349487 0.00097207463113591075 0.61638826131820679
0.74184620380401611 0.053510718047618866 0.5287705659866333
0.83089327812194824 0.18590082228183746 0.51118367910385132
0.96912264823913574 0.18302741646766663 0.50277101993560791
0.0099053774029016495 0.15242370963096619 0.51466816663742065
0.19401572644710541 0.13609205186367035 0.54429817199707031
0.49941736459732056 0.07559126615524292 0.60117846727371216
0.7324901819229126 0.051628861576318741 0.62316691875457764
0.74813252687454224 0.22452613711357117 0.54577606916427612
0.84371918439865112 0.28252899646759033 0.52070379257202148
0.96969044208526611 0.26959103345870972 0.50114840269088745
0.0041712443344295025 0.3231741189956665 0.50026035308837891
0.14564107358455658 0.34357461333274841 0.53005766868591309
0.45457252860069275 0.36385649442672729 0.57890337705612183
0.70161193609237671 0.39822912216186523 0.62258428335189819
0.74921244382858276 0.42904967069625854 0.56484758853912354
0.86681371927261353 0.40775319933891296 0.5255245566368103
0.98083353042602539 0.38355019688606262 0.49807700514793396
0.080271795392036438 0.54250907897949219 0.56621271371841431
0.26080149412155151 0.55984866619110107 0.57799416780471802
0.45532584190368652 0.58545368909835815 0.5964052677154541
0.65848243236541748 0.60951155424118042 0.61365759372711182
0.77696704864501953 0.60126233100891113 0.59053146839141846
0.8839983344078064 0.5699690580368042 0.5556328296661377
0.97580039501190186 0.56401979923248291 0.53732359409332275
0.23838557302951813 0.71836519241333008 0.60648965835571289
0.34423303604125977 0.72012507915496826 0.60502684116363525
0.48015421628952026 0.71900409460067749 0.59478074312210083
0.61281430721282959 0.71129083633422852 0.57482993602752686
0.75227487087249756 0.71280276775360107 0.56010240316390991
0.88117563724517822 0.72128534317016602 0.5522034764289856
0.97403210401535034 0.73332738876342773 0.58763664960861206
0.35224902629852295 0.81937414407730103 0.59046202898025513
0.39823395013809204 0.82070237398147583 0.58406966924667358
0.46947914361953735 0.81435161828994751 0.56314647197723389
0.58989834785461426 0.80222946405410767 0.54569166898727417
0.72027397155761719 0.79864871501922607 0.51980268955230713
0.85837113857269287 0.81523454189300537 0.49167782068252563
0.97277814149856567 0.83185881376266479 0.48974782228469849
0.47156804800033569 0.9391663670539856 0.62382286787033081
0.49561941623687744 0.9347836971282959 0.6176190972328186
0.56640338897705078 0.93453788757324219 0.616108238697052
0.66507172584533691 0.92892825603485107 0.61347430944442749
0.77248424291610718 0.92734885215759277 0.61300754547119141
0.87393820285797119 0.93781489133834839 0.5902780294418335
0.97770625352859497 0.95185065269470215 0.5474172830581665
0.089612551033496857 0.0025499381590634584 0.66957014799118042
0.27507951855659485 0.0010916017927229404 0.68773996829986572
0.5084647536277771 0.0010419808095321059 0.71487724781036377
0.77715849876403809 4.6314911742229015e-05 0.76644796133041382
0.90592187643051147 0.00089046999346464872 0.76361483335494995
0.90431672334671021 0.11955533176660538 0.68424129486083984
0.94931161403656006 0.34767523407936096 0.67948585748672485
0.13048714399337769 0.13206321001052856 0.674812912940979
0.2770589292049408 0.10423503071069717 0.68987113237380981
0.50566178560256958 0.060966987162828445 0.71956861019134521
0.75162434577941895 0.015346228145062923 0.76358491182327271
0.90485697984695435 0.047283127903938293 0.76900523900985718
0.90122604370117188 0.27251154184341431 0.69666200876235962
0.94706344604492188 0.41559076309204102 0.68670588731765747
0.03014354407787323 0.30432170629501343 0.65103459358215332
0.21708719432353973 0.31681740283966064 0.66940689086914062
0.46185356378555298 0.31409347057342529 0.69662564992904663
0.70652312040328979 0.32410970330238342 0.7449755072593689
0.86467921733856201 0.38242003321647644 0.76037400960922241
0.88476449251174927 0.45068162679672241 0.70724725723266602
0.9478115439414978 0.50423651933670044 0.68976116180419922
0.032267209142446518 0.47181487083435059 0.63286709785461426
0.19333252310752869 0.48745894432067871 0.64531964063644409
0.40555569529533386 0.51050472259521484 0.66408371925354004
0.64305531978607178 0.55496203899383545 0.71450132131576538
0.82634150981903076 0.60450279712677002 0.75578963756561279
0.86531585454940796 0.60858088731765747 0.71072065830230713
0.95546263456344604 0.59363210201263428 0.68013292551040649
0.30133023858070374 0.67232191562652588 0.69625228643417358
0.37936979532241821 0.68169081211090088 0.70212399959564209
0.50121158361434937 0.69953632354736328 0.71511489152908325
0.63626194000244141 0.72078227996826172 0.72803986072540283
0.78820693492889404 0.74762827157974243 0.74522674083709717
0.87274718284606934 0.74877357482910156 0.73030680418014526
0.96123576164245605 0.7194974422454834 0.69896745681762695
0.42006254196166992 0.83751779794692993 0.74900001287460327
0.46509662270545959 0.83552157878875732 0.7430645227432251
0.54718869924545288 0.83670598268508911 0.73808836936950684
0.64173990488052368 0.83484011888504028 0.72397243976593018
0.75344985723495483 0.83513414859771729 0.70896905660629272
0.86369198560714722 0.83768564462661743 0.68483328819274902
0.9640159010887146 0.85317009687423706 0.6999351978302002
0.53936928510665894 0.94606804847717285 0.77675926685333252
0.56307101249694824 0.94305819272994995 0.76893323659896851
0.61214804649353027 0.94407135248184204 0.76150774955749512
0.66325479745864868 0.9387020468711853 0.73454552888870239
0.76006090641021729 0.93864685297012329 0.72758728265762329
0.86205989122390747 0.94194436073303223 0.71209299564361572
0.9696459174156189 0.95387828350067139 0.6881290078163147
0.336210697889328 0.0045522800646722317 0.8166927695274353
0.41325300931930542 0.0038677889388054609 0.82262790203094482
0.57074588537216187 0.0030441733542829752 0.83368963003158569
0.76890808343887329 0.0024507709313184023 0.86224931478500366
0.94315201044082642 0.0025396009441465139 0.89112633466720581
0.99760037660598755 0.0035605037119239569 0.87791591882705688
0.99794584512710571 0.28760337829589844 0.8260798454284668
0.31096896529197693 0.11704705655574799 0.80692726373672485
0.41185668110847473 0.1049337163567543 0.81958115100860596
0.56530755758285522 0.05091426894068718 0.83588361740112305
0.74529814720153809 0.01641286164522171 0.86001253128051758
0.92781203985214233 0.012625660747289658 0.88734316825866699
0.99733704328536987 0.12696808576583862 0.88252979516983032
0.9922560453414917 0.38295355439186096 0.82372391223907471
0.24951699376106262 0.30356600880622864 0.79358315467834473
0.34339204430580139 0.30966418981552124 0.7997511625289917
0.5206102728843689 0.30690222978591919 0.81826436519622803
0.7119598388671875 0.30583074688911438 0.84762406349182129
0.89209342002868652 0.32858917117118835 0.87750482559204102
0.98082500696182251 0.40843102335929871 0.87346547842025757
0.9795042872428894 0.51442104578018188 0.82995486259460449
0.0082139410078525543 0.43680575489997864 0.75280165672302246
0.1532478928565979 0.44427523016929626 0.76184260845184326
0.40428373217582703 0.46815413236618042 0.78574484586715698
0.64056539535522461 0.50874489545822144 0.81850504875183105
0.8407016396522522 0.56157523393630981 0.85981690883636475
0.95114320516586304 0.60199779272079468 0.86741107702255249
0.96456968784332275 0.63881361484527588 0.83652967214584351
0.12161021679639816 0.60730963945388794 0.76192152500152588
0.22359739243984222 0.61666631698608398 0.76989877223968506
0.38903906941413879 0.62010490894317627 0.7743491530418396
0.55292761325836182 0.63854795694351196 0.77766019105911255
0.76417607069015503 0.7008364200592041 0.82741314172744751
0.91146910190582275 0.75538337230682373 0.86331856250762939
0.93772011995315552 0.75619292259216309 0.83419156074523926
0.41613087058067322 0.7900044322013855 0.81279081106185913
0.46114122867584229 0.7936246395111084 0.81639009714126587
0.54742968082427979 0.80451607704162598 0.82258105278015137
0.64461404085159302 0.81473720073699951 0.82874959707260132
0.75693994760513306 0.83898061513900757 0.84392595291137695
0.87722575664520264 0.86916756629943848 0.85977768898010254
0.96199482679367065 0.86285245418548584 0.8496282696723938
0.5573006272315979 0.94928300380706787 0.88826090097427368
0.58181869983673096 0.9483373761177063 0.88302004337310791
0.63121902942657471 0.94789969921112061 0.88037699460983276
0.69409143924713135 0.95148038864135742 0.87763917446136475
0.7693779468536377 0.95058035850524902 0.8592647910118103
0.85808056592941284 0.95049786567687988 0.84406286478042603
0.96660804748535156 0.96135604381561279 0.83413064479827881
0.55900794267654419 0.072916425764560699 0.95063984394073486
0.60408502817153931 0.054788164794445038 0.95361042022705078
0.69305139780044556 0.021761501207947731 0.95751446485519409
0.81422585248947144 0.0049831913784146309 0.96390509605407715
0.94557410478591919 0.0044026244431734085 0.97554737329483032
0.99931138753890991 0.0036613612901419401 0.98184454441070557
1 0.16887682676315308 0.97968977689743042
0.55214351415634155 0.22765076160430908 0.9456627368927002
0.59604614973068237 0.20626445114612579 0.94865584373474121
0.68429434299468994 0.16589035093784332 0.95439237356185913
0.80390000343322754 0.10455021262168884 0.96471607685089111
0.93311387300491333 0.056300532072782516 0.97531139850616455
0.99958920478820801 0.045215725898742676 0.98473513126373291
1 0.30567380785942078 0.97723573446273804
0.5173296332359314 0.38127976655960083 0.93815833330154419
0.56466293334960938 0.37932610511779785 0.94155937433242798
0.65661728382110596 0.36390480399131775 0.94698220491409302
0.778980553150177 0.35045188665390015 0.9541969895362854
0.9046252965927124 0.33775636553764343 0.9657558798789978
0.99540060758590698 0.3837297260761261 0.97461366653442383
0.99785816669464111 0.47882384061813354 0.96722298860549927
0.38419252634048462 0.50847357511520386 0.92315214872360229
0.45155921578407288 0.51018679141998291 0.92680460214614868
0.57767879962921143 0.52099144458770752 0.93317633867263794
0.72328424453735352 0.52792954444885254 0.94217664003372192
0.86406755447387695 0.54893302917480469 0.95642298460006714
0.98046088218688965 0.57606935501098633 0.96727913618087769
0.9954369068145752 0.6356702446937561 0.96409249305725098
0.25426051020622253 0.64692121744155884 0.9004095196723938
0.31863918900489807 0.64448755979537964 0.90106284618377686
0.43483209609985352 0.63905256986618042 0.90684962272644043
0.60028272867202759 0.64472019672393799 0.91981756687164307
0.78306305408477783 0.68334996700286865 0.93716984987258911
0.93748617172241211 0.72848224639892578 0.9639275074005127
0.98889517784118652 0.76227343082427979 0.96464669704437256
0.42884367704391479 0.80027788877487183 0.91928327083587646
0.45174002647399902 0.7971382737159729 0.9171486496925354
0.51242339611053467 0.79712879657745361 0.91641545295715332
0.59739559888839722 0.79687988758087158 0.91885900497436523
0.70487934350967407 0.7950165867805481 0.92246019840240479
0.86813879013061523 0.83822476863861084 0.95094943046569824
0.98276293277740479 0.87146341800689697 0.96713584661483765
0.59552085399627686 0.93607926368713379 0.95386916399002075
0.60913974046707153 0.9341844916343689 0.95432442426681519
0.64452260732650757 0.93572813272476196 0.95449411869049072
0.70306432247161865 0.93968641757965088 0.95615094900131226
0.77510696649551392 0.94298970699310303 0.95832335948944092
0.86043775081634521 0.95171868801116943 0.95409733057022095
0.97417140007019043 0.97006058692932129 0.96626269817352295
