luts/instant_pro/fuji_fp-3000b_+.cube
# Created by: G'MIC (https://gmic.eu)
TITLE "fuji_fp-3000b_+"
# LUT size
LUT_3D_SIZE 7
# Data domain
DOMAIN_MIN 0.0 0.0 0.0
DOMAIN_MAX 1.0 1.0 1.0
# LUT data points
0.096412628889083862 0.096412628889083862 0.096412628889083862
0.097111672163009644 0.097111672163009644 0.097111672163009644
0.13647831976413727 0.13647831976413727 0.13647831976413727
0.22524327039718628 0.22524327039718628 0.22524327039718628
0.34736457467079163 0.34736457467079163 0.34736457467079163
0.48813027143478394 0.48813027143478394 0.48813027143478394
0.6410067081451416 0.6410067081451416 0.6410067081451416
0.10553524643182755 0.10553524643182755 0.10553524643182755
0.1197742223739624 0.1197742223739624 0.1197742223739624
0.18849265575408936 0.18849265575408936 0.18849265575408936
0.28613013029098511 0.28613013029098511 0.28613013029098511
0.39025136828422546 0.39025136828422546 0.39025136828422546
0.52054232358932495 0.52054232358932495 0.52054232358932495
0.6692693829536438 0.6692693829536438 0.6692693829536438
0.15646941959857941 0.15646941959857941 0.15646941959857941
0.16707843542098999 0.16707843542098999 0.16707843542098999
0.28439539670944214 0.28439539670944214 0.28439539670944214
0.40426075458526611 0.40426075458526611 0.40426075458526611
0.47810006141662598 0.47810006141662598 0.47810006141662598
0.58252018690109253 0.58252018690109253 0.58252018690109253
0.71935969591140747 0.71935969591140747 0.71935969591140747
0.25403973460197449 0.25403973460197449 0.25403973460197449
0.23814545571804047 0.23814545571804047 0.23814545571804047
0.30730798840522766 0.30730798840522766 0.30730798840522766
0.45996513962745667 0.45996513962745667 0.45996513962745667
0.60761791467666626 0.60761791467666626 0.60761791467666626
0.69100713729858398 0.69100713729858398 0.69100713729858398
0.79090112447738647 0.79090112447738647 0.79090112447738647
0.39230138063430786 0.39230138063430786 0.39230138063430786
0.36938878893852234 0.36938878893852234 0.36938878893852234
0.3729710578918457 0.3729710578918457 0.3729710578918457
0.48396244645118713 0.48396244645118713 0.48396244645118713
0.66130602359771729 0.66130602359771729 0.66130602359771729
0.78925460577011108 0.78925460577011108 0.78925460577011108
0.86049747467041016 0.86049747467041016 0.86049747467041016
0.56978023052215576 0.56978023052215576 0.56978023052215576
0.55201238393783569 0.55201238393783569 0.55201238393783569
0.51874667406082153 0.51874667406082153 0.51874667406082153
0.58284419775009155 0.58284419775009155 0.58284419775009155
0.72257822751998901 0.72257822751998901 0.72257822751998901
0.83643877506256104 0.83643877506256104 0.83643877506256104
0.90136593580245972 0.90136593580245972 0.90136593580245972
0.76987981796264648 0.76987981796264648 0.76987981796264648
0.755939781665802 0.755939781665802 0.755939781665802
0.74402552843093872 0.74402552843093872 0.74402552843093872
0.7591211199760437 0.7591211199760437 0.7591211199760437
0.8246341347694397 0.8246341347694397 0.8246341347694397
0.8905903697013855 0.8905903697013855 0.8905903697013855
0.93615871667861938 0.93615871667861938 0.93615871667861938
0.12131991237401962 0.12131991237401962 0.12131991237401962
0.12891334295272827 0.12891334295272827 0.12891334295272827
0.17075403034687042 0.17075403034687042 0.17075403034687042
0.26115375757217407 0.26115375757217407 0.26115375757217407
0.38256657123565674 0.38256657123565674 0.38256657123565674
0.50670069456100464 0.50670069456100464 0.50670069456100464
0.64341574907302856 0.64341574907302856 0.64341574907302856
0.14037664234638214 0.14037664234638214 0.14037664234638214
0.15870837867259979 0.15870837867259979 0.15870837867259979
0.21415123343467712 0.21415123343467712 0.21415123343467712
0.3082631528377533 0.3082631528377533 0.3082631528377533
0.41275098919868469 0.41275098919868469 0.41275098919868469
0.537433922290802 0.537433922290802 0.537433922290802
0.67699742317199707 0.67699742317199707 0.67699742317199707
0.22504231333732605 0.22504231333732605 0.22504231333732605
0.23208193480968475 0.23208193480968475 0.23208193480968475
0.29427716135978699 0.29427716135978699 0.29427716135978699
0.41681912541389465 0.41681912541389465 0.41681912541389465
0.48461639881134033 0.48461639881134033 0.48461639881134033
0.59231209754943848 0.59231209754943848 0.59231209754943848
0.72443562746047974 0.72443562746047974 0.72443562746047974
0.33959564566612244 0.33959564566612244 0.33959564566612244
0.3105853796005249 0.3105853796005249 0.3105853796005249
0.33643606305122375 0.33643606305122375 0.33643606305122375
0.48463502526283264 0.48463502526283264 0.48463502526283264
0.60149639844894409 0.60149639844894409 0.60149639844894409
0.69504410028457642 0.69504410028457642 0.69504410028457642
0.79117071628570557 0.79117071628570557 0.79117071628570557
0.45982760190963745 0.45982760190963745 0.45982760190963745
0.42976313829421997 0.42976313829421997 0.42976313829421997
0.41686925292015076 0.41686925292015076 0.41686925292015076
0.50906068086624146 0.50906068086624146 0.50906068086624146
0.66664791107177734 0.66664791107177734 0.66664791107177734
0.78621822595596313 0.78621822595596313 0.78621822595596313
0.86034584045410156 0.86034584045410156 0.86034584045410156
0.60859405994415283 0.60859405994415283 0.60859405994415283
0.59078371524810791 0.59078371524810791 0.59078371524810791
0.56493622064590454 0.56493622064590454 0.56493622064590454
0.60902291536331177 0.60902291536331177 0.60902291536331177
0.73248624801635742 0.73248624801635742 0.73248624801635742
0.84173524379730225 0.84173524379730225 0.84173524379730225
0.90508294105529785 0.90508294105529785 0.90508294105529785
0.7886698842048645 0.7886698842048645 0.7886698842048645
0.77491390705108643 0.77491390705108643 0.77491390705108643
0.75726962089538574 0.75726962089538574 0.75726962089538574
0.77127206325531006 0.77127206325531006 0.77127206325531006
0.83487838506698608 0.83487838506698608 0.83487838506698608
0.89890706539154053 0.89890706539154053 0.89890706539154053
0.94403529167175293 0.94403529167175293 0.94403529167175293
0.19196617603302002 0.19196617603302002 0.19196617603302002
0.20771333575248718 0.20771333575248718 0.20771333575248718
0.24834318459033966 0.24834318459033966 0.24834318459033966
0.33132612705230713 0.33132612705230713 0.33132612705230713
0.46567285060882568 0.46567285060882568 0.46567285060882568
0.57725411653518677 0.57725411653518677 0.57725411653518677
0.68622100353240967 0.68622100353240967 0.68622100353240967
0.20482535660266876 0.20482535660266876 0.20482535660266876
0.23959821462631226 0.23959821462631226 0.23959821462631226
0.27781522274017334 0.27781522274017334 0.27781522274017334
0.35857012867927551 0.35857012867927551 0.35857012867927551
0.48005077242851257 0.48005077242851257 0.48005077242851257
0.59984767436981201 0.59984767436981201 0.59984767436981201
0.71000534296035767 0.71000534296035767 0.71000534296035767
0.30507996678352356 0.30507996678352356 0.30507996678352356
0.32638642191886902 0.32638642191886902 0.32638642191886902
0.34943205118179321 0.34943205118179321 0.34943205118179321
0.42422804236412048 0.42422804236412048 0.42422804236412048
0.51553189754486084 0.51553189754486084 0.51553189754486084
0.6214105486869812 0.6214105486869812 0.6214105486869812
0.73189789056777954 0.73189789056777954 0.73189789056777954
0.44590640068054199 0.44590640068054199 0.44590640068054199
0.4352874755859375 0.4352874755859375 0.4352874755859375
0.42987263202667236 0.42987263202667236 0.42987263202667236
0.52090120315551758 0.52090120315551758 0.52090120315551758
0.62176644802093506 0.62176644802093506 0.62176644802093506
0.70836532115936279 0.70836532115936279 0.70836532115936279
0.79055571556091309 0.79055571556091309 0.79055571556091309
0.57885730266571045 0.57885730266571045 0.57885730266571045
0.55945974588394165 0.55945974588394165 0.55945974588394165
0.52432680130004883 0.52432680130004883 0.52432680130004883
0.55034613609313965 0.55034613609313965 0.55034613609313965
0.68491029739379883 0.68491029739379883 0.68491029739379883
0.79723763465881348 0.79723763465881348 0.79723763465881348
0.85999614000320435 0.85999614000320435 0.85999614000320435
0.69808632135391235 0.69808632135391235 0.69808632135391235
0.68188595771789551 0.68188595771789551 0.68188595771789551
0.64911508560180664 0.64911508560180664 0.64911508560180664
0.65165674686431885 0.65165674686431885 0.65165674686431885
0.74334120750427246 0.74334120750427246 0.74334120750427246
0.84491920471191406 0.84491920471191406 0.84491920471191406
0.90541154146194458 0.90541154146194458 0.90541154146194458
0.83302301168441772 0.83302301168441772 0.83302301168441772
0.82113200426101685 0.82113200426101685 0.82113200426101685
0.80018728971481323 0.80018728971481323 0.80018728971481323
0.79736876487731934 0.79736876487731934 0.79736876487731934
0.83961600065231323 0.83961600065231323 0.83961600065231323
0.89903312921524048 0.89903312921524048 0.89903312921524048
0.94591790437698364 0.94591790437698364 0.94591790437698364
0.31919515132904053 0.31919515132904053 0.31919515132904053
0.33537253737449646 0.33537253737449646 0.33537253737449646
0.37935987114906311 0.37935987114906311 0.37935987114906311
0.43146300315856934 0.43146300315856934 0.43146300315856934
0.52617114782333374 0.52617114782333374 0.52617114782333374
0.66475903987884521 0.66475903987884521 0.66475903987884521
0.7587435245513916 0.7587435245513916 0.7587435245513916
0.34367963671684265 0.34367963671684265 0.34367963671684265
0.36543470621109009 0.36543470621109009 0.36543470621109009
0.41127663850784302 0.41127663850784302 0.41127663850784302
0.46820276975631714 0.46820276975631714 0.46820276975631714
0.55129468441009521 0.55129468441009521 0.55129468441009521
0.68017673492431641 0.68017673492431641 0.68017673492431641
0.77042090892791748 0.77042090892791748 0.77042090892791748
0.38495543599128723 0.38495543599128723 0.38495543599128723
0.40319880843162537 0.40319880843162537 0.40319880843162537
0.45040565729141235 0.45040565729141235 0.45040565729141235
0.51798778772354126 0.51798778772354126 0.51798778772354126
0.60204720497131348 0.60204720497131348 0.60204720497131348
0.6864284873008728 0.6864284873008728 0.6864284873008728
0.76579159498214722 0.76579159498214722 0.76579159498214722
0.49251621961593628 0.49251621961593628 0.49251621961593628
0.50689917802810669 0.50689917802810669 0.50689917802810669
0.5422777533531189 0.5422777533531189 0.5422777533531189
0.59324467182159424 0.59324467182159424 0.59324467182159424
0.66649973392486572 0.66649973392486572 0.66649973392486572
0.7414243221282959 0.7414243221282959 0.7414243221282959
0.80543762445449829 0.80543762445449829 0.80543762445449829
0.6549382209777832 0.6549382209777832 0.6549382209777832
0.65766185522079468 0.65766185522079468 0.65766185522079468
0.66223394870758057 0.66223394870758057 0.66223394870758057
0.64928305149078369 0.64928305149078369 0.64928305149078369
0.71588319540023804 0.71588319540023804 0.71588319540023804
0.81232768297195435 0.81232768297195435 0.81232768297195435
0.86267173290252686 0.86267173290252686 0.86267173290252686
0.77105021476745605 0.77105021476745605 0.77105021476745605
0.77095687389373779 0.77095687389373779 0.77095687389373779
0.75826960802078247 0.75826960802078247 0.75826960802078247
0.72991126775741577 0.72991126775741577 0.72991126775741577
0.76238846778869629 0.76238846778869629 0.76238846778869629
0.84738492965698242 0.84738492965698242 0.84738492965698242
0.90263372659683228 0.90263372659683228 0.90263372659683228
0.88054317235946655 0.88054317235946655 0.88054317235946655
0.87608736753463745 0.87608736753463745 0.87608736753463745
0.8617287278175354 0.8617287278175354 0.8617287278175354
0.84276652336120605 0.84276652336120605 0.84276652336120605
0.85345554351806641 0.85345554351806641 0.85345554351806641
0.89879590272903442 0.89879590272903442 0.89879590272903442
0.94242686033248901 0.94242686033248901 0.94242686033248901
0.48069596290588379 0.48069596290588379 0.48069596290588379
0.4904305636882782 0.4904305636882782 0.4904305636882782
0.5396696925163269 0.5396696925163269 0.5396696925163269
0.59898573160171509 0.59898573160171509 0.59898573160171509
0.63170719146728516 0.63170719146728516 0.63170719146728516
0.70176684856414795 0.70176684856414795 0.70176684856414795
0.79077011346817017 0.79077011346817017 0.79077011346817017
0.51260226964950562 0.51260226964950562 0.51260226964950562
0.52183276414871216 0.52183276414871216 0.52183276414871216
0.57033407688140869 0.57033407688140869 0.57033407688140869
0.62001848220825195 0.62001848220825195 0.62001848220825195
0.6554950475692749 0.6554950475692749 0.6554950475692749
0.71472644805908203 0.71472644805908203 0.71472644805908203
0.81587666273117065 0.81587666273117065 0.81587666273117065
0.54608196020126343 0.54608196020126343 0.54608196020126343
0.55735582113265991 0.55735582113265991 0.55735582113265991
0.59697204828262329 0.59697204828262329 0.59697204828262329
0.64359211921691895 0.64359211921691895 0.64359211921691895
0.68577182292938232 0.68577182292938232 0.68577182292938232
0.73682111501693726 0.73682111501693726 0.73682111501693726
0.81737041473388672 0.81737041473388672 0.81737041473388672
0.58349281549453735 0.58349281549453735 0.58349281549453735
0.60572963953018188 0.60572963953018188 0.60572963953018188
0.64009612798690796 0.64009612798690796 0.64009612798690796
0.68272107839584351 0.68272107839584351 0.68272107839584351
0.72962409257888794 0.72962409257888794 0.72962409257888794
0.78236335515975952 0.78236335515975952 0.78236335515975952
0.83569240570068359 0.83569240570068359 0.83569240570068359
0.68416458368301392 0.68416458368301392 0.68416458368301392
0.70546013116836548 0.70546013116836548 0.70546013116836548
0.7236330509185791 0.7236330509185791 0.7236330509185791
0.73458892107009888 0.73458892107009888 0.73458892107009888
0.76804137229919434 0.76804137229919434 0.76804137229919434
0.82562679052352905 0.82562679052352905 0.82562679052352905
0.87077522277832031 0.87077522277832031 0.87077522277832031
0.81443262100219727 0.81443262100219727 0.81443262100219727
0.81686556339263916 0.81686556339263916 0.81686556339263916
0.81921839714050293 0.81921839714050293 0.81921839714050293
0.80729490518569946 0.80729490518569946 0.80729490518569946
0.81783747673034668 0.81783747673034668 0.81783747673034668
0.86266225576400757 0.86266225576400757 0.86266225576400757
0.90320098400115967 0.90320098400115967 0.90320098400115967
0.91028845310211182 0.91028845310211182 0.91028845310211182
0.9080965518951416 0.9080965518951416 0.9080965518951416
0.90330266952514648 0.90330266952514648 0.90330266952514648
0.894542396068573 0.894542396068573 0.894542396068573
0.89597588777542114 0.89597588777542114 0.89597588777542114
0.91340726613998413 0.91340726613998413 0.91340726613998413
0.9413381814956665 0.9413381814956665 0.9413381814956665
0.66934198141098022 0.66934198141098022 0.66934198141098022
0.67557680606842041 0.67557680606842041 0.67557680606842041
0.71089476346969604 0.71089476346969604 0.71089476346969604
0.76110023260116577 0.76110023260116577 0.76110023260116577
0.79042160511016846 0.79042160511016846 0.79042160511016846
0.80082732439041138 0.80082732439041138 0.80082732439041138
0.83353716135025024 0.83353716135025024 0.83353716135025024
0.69628345966339111 0.69628345966339111 0.69628345966339111
0.70374530553817749 0.70374530553817749 0.70374530553817749
0.7332000732421875 0.7332000732421875 0.7332000732421875
0.77234053611755371 0.77234053611755371 0.77234053611755371
0.79928624629974365 0.79928624629974365 0.79928624629974365
0.8055412769317627 0.8055412769317627 0.8055412769317627
0.84342563152313232 0.84342563152313232 0.84342563152313232
0.72317028045654297 0.72317028045654297 0.72317028045654297
0.73225432634353638 0.73225432634353638 0.73225432634353638
0.7513163685798645 0.7513163685798645 0.7513163685798645
0.77868175506591797 0.77868175506591797 0.77868175506591797
0.80824822187423706 0.80824822187423706 0.80824822187423706
0.8256765604019165 0.8256765604019165 0.8256765604019165
0.85391533374786377 0.85391533374786377 0.85391533374786377
0.72739207744598389 0.72739207744598389 0.72739207744598389
0.73881006240844727 0.73881006240844727 0.73881006240844727
0.75227838754653931 0.75227838754653931 0.75227838754653931
0.78456902503967285 0.78456902503967285 0.78456902503967285
0.81832230091094971 0.81832230091094971 0.81832230091094971
0.84584265947341919 0.84584265947341919 0.84584265947341919
0.87379604578018188 0.87379604578018188 0.87379604578018188
0.77139729261398315 0.77139729261398315 0.77139729261398315
0.77387696504592896 0.77387696504592896 0.77387696504592896
0.77886247634887695 0.77886247634887695 0.77886247634887695
0.80913615226745605 0.80913615226745605 0.80913615226745605
0.83940279483795166 0.83940279483795166 0.83940279483795166
0.86725646257400513 0.86725646257400513 0.86725646257400513
0.89394313097000122 0.89394313097000122 0.89394313097000122
0.84960579872131348 0.84960579872131348 0.84960579872131348
0.84745979309082031 0.84745979309082031 0.84745979309082031
0.85040652751922607 0.85040652751922607 0.85040652751922607
0.86183649301528931 0.86183649301528931 0.86183649301528931
0.87789857387542725 0.87789857387542725 0.87789857387542725
0.89419651031494141 0.89419651031494141 0.89419651031494141
0.91507166624069214 0.91507166624069214 0.91507166624069214
0.92079335451126099 0.92079335451126099 0.92079335451126099
0.91850012540817261 0.91850012540817261 0.91850012540817261
0.91816872358322144 0.91816872358322144 0.91816872358322144
0.92268002033233643 0.92268002033233643 0.92268002033233643
0.92984485626220703 0.92984485626220703 0.92984485626220703
0.93232113122940063 0.93232113122940063 0.93232113122940063
0.94566482305526733 0.94566482305526733 0.94566482305526733
0.85204213857650757 0.85204213857650757 0.85204213857650757
0.85326260328292847 0.85326260328292847 0.85326260328292847
0.86609208583831787 0.86609208583831787 0.86609208583831787
0.88918101787567139 0.88918101787567139 0.88918101787567139
0.91058206558227539 0.91058206558227539 0.91058206558227539
0.91770529747009277 0.91770529747009277 0.91770529747009277
0.92341023683547974 0.92341023683547974 0.92341023683547974
0.86416357755661011 0.86416357755661011 0.86416357755661011
0.86777395009994507 0.86777395009994507 0.86777395009994507
0.87487643957138062 0.87487643957138062 0.87487643957138062
0.8871314525604248 0.8871314525604248 0.8871314525604248
0.90540021657943726 0.90540021657943726 0.90540021657943726
0.91156280040740967 0.91156280040740967 0.91156280040740967
0.91363847255706787 0.91363847255706787 0.91363847255706787
0.8715100884437561 0.8715100884437561 0.8715100884437561
0.87660568952560425 0.87660568952560425 0.87660568952560425
0.88017970323562622 0.88017970323562622 0.88017970323562622
0.88848310708999634 0.88848310708999634 0.88848310708999634
0.90619415044784546 0.90619415044784546 0.90619415044784546
0.91572707891464233 0.91572707891464233 0.91572707891464233
0.91490978002548218 0.91490978002548218 0.91490978002548218
0.86566692590713501 0.86566692590713501 0.86566692590713501
0.87190276384353638 0.87190276384353638 0.87190276384353638
0.87852495908737183 0.87852495908737183 0.87852495908737183
0.88969296216964722 0.88969296216964722 0.88969296216964722
0.90691149234771729 0.90691149234771729 0.90691149234771729
0.91741251945495605 0.91741251945495605 0.91741251945495605
0.92517030239105225 0.92517030239105225 0.92517030239105225
0.87066900730133057 0.87066900730133057 0.87066900730133057
0.87307894229888916 0.87307894229888916 0.87307894229888916
0.88027983903884888 0.88027983903884888 0.88027983903884888
0.89444059133529663 0.89444059133529663 0.89444059133529663
0.9121280312538147 0.9121280312538147 0.9121280312538147
0.92194420099258423 0.92194420099258423 0.92194420099258423
0.93325293064117432 0.93325293064117432 0.93325293064117432
0.8970416784286499 0.8970416784286499 0.8970416784286499
0.89651155471801758 0.89651155471801758 0.89651155471801758
0.90105587244033813 0.90105587244033813 0.90105587244033813
0.91164696216583252 0.91164696216583252 0.91164696216583252
0.92462801933288574 0.92462801933288574 0.92462801933288574
0.93137615919113159 0.93137615919113159 0.93137615919113159
0.94206374883651733 0.94206374883651733 0.94206374883651733
0.93584245443344116 0.93584245443344116 0.93584245443344116
0.93574005365371704 0.93574005365371704 0.93574005365371704
0.93797916173934937 0.93797916173934937 0.93797916173934937
0.94051849842071533 0.94051849842071533 0.94051849842071533
0.94991755485534668 0.94991755485534668 0.94991755485534668
0.95311260223388672 0.95311260223388672 0.95311260223388672
0.9610326886177063 0.9610326886177063 0.9610326886177063
