luts/instant_pro/fuji_fp-100c_cool.cube
# Created by: G'MIC (https://gmic.eu)
TITLE "fuji_fp-100c_cool"
# LUT size
LUT_3D_SIZE 13
# Data domain
DOMAIN_MIN 0.0 0.0 0.0
DOMAIN_MAX 1.0 1.0 1.0
# LUT data points
0.029020152986049652 0.067983426153659821 0.087669044733047485
0.058413680642843246 0.065641947090625763 0.09031212329864502
0.11904838681221008 0.064112946391105652 0.098048493266105652
0.19751380383968353 0.057369157671928406 0.097689986228942871
0.2887423038482666 0.039927300065755844 0.098325736820697784
0.39853718876838684 0.013126268982887268 0.10125799477100372
0.50987207889556885 0.0046667661517858505 0.10794945806264877
0.60783010721206665 0.0041589327156543732 0.11365562677383423
0.69464033842086792 0.0069706039503216743 0.11742441356182098
0.76936876773834229 0.0079272845759987831 0.1233440488576889
0.83877849578857422 0.015814254060387611 0.12704117596149445
0.90085220336914062 0.072137303650379181 0.13919518887996674
0.95780718326568604 0.15568970143795013 0.15265057981014252
0.028108095750212669 0.093810603022575378 0.094996601343154907
0.064507536590099335 0.091462001204490662 0.09497050940990448
0.13394887745380402 0.097442805767059326 0.097752347588539124
0.21695429086685181 0.095099098980426788 0.10008268058300018
0.3088047206401825 0.082526460289955139 0.10087106376886368
0.41660779714584351 0.069331437349319458 0.10551521182060242
0.51882654428482056 0.043294675648212433 0.10794125497341156
0.61229223012924194 0.032421622425317764 0.11157082766294479
0.70095926523208618 0.028808144852519035 0.11511784046888351
0.7745327353477478 0.048181109130382538 0.12334593385457993
0.84308010339736938 0.083204172551631927 0.13298912346363068
0.90364480018615723 0.14032864570617676 0.1458776444196701
0.96043568849563599 0.20102828741073608 0.15682631731033325
0.019049925729632378 0.13955032825469971 0.10314377397298813
0.070078469812870026 0.1442040354013443 0.10219674557447433
0.1430627703666687 0.14952316880226135 0.099285870790481567
0.23477843403816223 0.15879678726196289 0.094853930175304413
0.33490398526191711 0.16221918165683746 0.099141739308834076
0.4465976357460022 0.16141542792320251 0.10858374089002609
0.54395526647567749 0.14792825281620026 0.11431249231100082
0.6300586462020874 0.13874056935310364 0.11848455667495728
0.71112126111984253 0.13858954608440399 0.12477529048919678
0.78144359588623047 0.15631382167339325 0.13079217076301575
0.85008329153060913 0.18646240234375 0.13861449062824249
0.90924793481826782 0.22648826241493225 0.15116545557975769
0.96318167448043823 0.2619665265083313 0.16157357394695282
0.0079612135887145996 0.21829260885715485 0.11568189412355423
0.05473620817065239 0.22324246168136597 0.11383555084466934
0.14587125182151794 0.22931994497776031 0.1098051518201828
0.24515782296657562 0.23635639250278473 0.095781527459621429
0.35459437966346741 0.24997413158416748 0.085131548345088959
0.46670946478843689 0.25705635547637939 0.095791533589363098
0.56406456232070923 0.25917533040046692 0.11177325993776321
0.65267223119735718 0.25696679949760437 0.12190935015678406
0.72434252500534058 0.26015046238899231 0.13188503682613373
0.79158353805541992 0.27050194144248962 0.13849334418773651
0.85642623901367188 0.28523421287536621 0.14512799680233002
0.91248965263366699 0.30859717726707458 0.16171859204769135
0.9647136926651001 0.33630973100662231 0.17596393823623657
0.0036539563443511724 0.30714446306228638 0.12788859009742737
0.035241309553384781 0.31151682138442993 0.12595920264720917
0.13999173045158386 0.31777828931808472 0.12600460648536682
0.24569869041442871 0.32588794827461243 0.10925476998090744
0.35626083612442017 0.34043654799461365 0.082214340567588806
0.46619507670402527 0.35391148924827576 0.05927937850356102
0.56766611337661743 0.35918530821800232 0.071045055985450745
0.6611139178276062 0.36272168159484863 0.10320968925952911
0.73285210132598877 0.36913266777992249 0.13209883868694305
0.80194079875946045 0.37738972902297974 0.15004532039165497
0.85940843820571899 0.38556236028671265 0.16584250330924988
0.91261106729507446 0.3961336612701416 0.179546058177948
0.96632593870162964 0.41755509376525879 0.19233819842338562
0.0040472741238772869 0.39678189158439636 0.13977771997451782
0.012798489071428776 0.40341129899024963 0.13732016086578369
0.11856251209974289 0.40503111481666565 0.14056979119777679
0.23456116020679474 0.41111394762992859 0.12863118946552277
0.33796235918998718 0.42104387283325195 0.10213326662778854
0.44549086689949036 0.43572717905044556 0.055773418396711349
0.55261784791946411 0.44464686512947083 0.025400258600711823
0.64329606294631958 0.44719263911247253 0.041140463203191757
0.72328066825866699 0.45639580488204956 0.085044920444488525
0.80105310678482056 0.4703737199306488 0.13779988884925842
0.85920435190200806 0.48132786154747009 0.1765357106924057
0.91412347555160522 0.48808744549751282 0.20138399302959442
0.96550112962722778 0.49952906370162964 0.21240450441837311
0.0027623046189546585 0.48252001404762268 0.15096798539161682
0.0085283461958169937 0.48306897282600403 0.15274526178836823
0.091538295149803162 0.48443508148193359 0.15508216619491577
0.22039525210857391 0.48785790801048279 0.14754344522953033
0.31694233417510986 0.49517056345939636 0.1247720941901207
0.41477882862091064 0.50523185729980469 0.087454147636890411
0.52146929502487183 0.51752316951751709 0.030929401516914368
0.62116801738739014 0.52531427145004272 0.010662722401320934
0.70626389980316162 0.52981328964233398 0.028949422761797905
0.7840302586555481 0.54197138547897339 0.073682017624378204
0.8488084077835083 0.55490458011627197 0.14247490465641022
0.91181004047393799 0.56964462995529175 0.20533894002437592
0.96276992559432983 0.58195072412490845 0.2457597553730011
0.0042349421419203281 0.55541032552719116 0.17023903131484985
0.0071802176535129547 0.5552983283996582 0.16970933973789215
0.076237969100475311 0.55612659454345703 0.1699141263961792
0.21371321380138397 0.55708020925521851 0.16695277392864227
0.31225919723510742 0.56072288751602173 0.14956164360046387
0.40446847677230835 0.56810694932937622 0.12592075765132904
0.50106132030487061 0.57847291231155396 0.076339185237884521
0.59395647048950195 0.58953917026519775 0.028765032067894936
0.68158012628555298 0.59784525632858276 0.012237923219799995
0.76204210519790649 0.60654556751251221 0.017103966325521469
0.83485215902328491 0.61669248342514038 0.073098726570606232
0.89714515209197998 0.63018339872360229 0.15814585983753204
0.95385146141052246 0.64903891086578369 0.23842738568782806
0.006171761080622673 0.62585437297821045 0.19539172947406769
0.0078880311921238899 0.62430757284164429 0.18963608145713806
0.091449350118637085 0.62431114912033081 0.18959440290927887
0.21473416686058044 0.62042069435119629 0.18974882364273071
0.31112447381019592 0.62185066938400269 0.18112392723560333
0.39898747205734253 0.63016402721405029 0.16299650073051453
0.48327350616455078 0.63794952630996704 0.13306425511837006
0.56877106428146362 0.64892804622650146 0.083374440670013428
0.65492957830429077 0.66235131025314331 0.027377782389521599
0.73618787527084351 0.67078197002410889 0.010746540501713753
0.8131224513053894 0.67640042304992676 0.017442487180233002
0.8824000358581543 0.68536531925201416 0.072057567536830902
0.94290745258331299 0.70239055156707764 0.18093566596508026
0.0063150441274046898 0.69808667898178101 0.2220834493637085
0.026117242872714996 0.693767249584198 0.21449457108974457
0.12450592964887619 0.69080489873886108 0.21808156371116638
0.23505081236362457 0.68600863218307495 0.21863104403018951
0.32313406467437744 0.68665933609008789 0.21435545384883881
0.40329194068908691 0.69149684906005859 0.20414376258850098
0.48068919777870178 0.69697141647338867 0.1808629184961319
0.55778229236602783 0.70722579956054688 0.14972123503684998
0.63977962732315063 0.7200777530670166 0.093798495829105377
0.716694176197052 0.72999238967895508 0.043325789272785187
0.79471278190612793 0.73732656240463257 0.01453736238181591
0.86682695150375366 0.74328416585922241 0.013229474425315857
0.93269360065460205 0.75564432144165039 0.08550155907869339
0.075682051479816437 0.76678502559661865 0.25736197829246521
0.12482790648937225 0.7631034255027771 0.25812959671020508
0.19988353550434113 0.76029253005981445 0.2602350115776062
0.27974534034729004 0.75559258460998535 0.25857329368591309
0.35186073184013367 0.75369387865066528 0.25683203339576721
0.42235848307609558 0.75437331199645996 0.25219246745109558
0.49175143241882324 0.75884932279586792 0.23728133738040924
0.5624738335609436 0.76888495683670044 0.21611051261425018
0.63891732692718506 0.77993428707122803 0.18600407242774963
0.71437114477157593 0.78989976644515991 0.14025798439979553
0.78738486766815186 0.79811191558837891 0.074483282864093781
0.85686028003692627 0.80402207374572754 0.023368101567029953
0.92503148317337036 0.81211131811141968 0.018432063981890678
0.23043638467788696 0.83410203456878662 0.3256586492061615
0.25680220127105713 0.83313274383544922 0.32752948999404907
0.29615083336830139 0.8313446044921875 0.32409781217575073
0.35209494829177856 0.82858449220657349 0.32662966847419739
0.40978315472602844 0.82548558712005615 0.32756108045578003
0.47263577580451965 0.82538646459579468 0.32966956496238708
0.52993488311767578 0.82898718118667603 0.32075926661491394
0.59038704633712769 0.83645474910736084 0.30521953105926514
0.65483540296554565 0.8438563346862793 0.2907530665397644
0.72365760803222656 0.85340690612792969 0.26851063966751099
0.79298704862594604 0.86209577322006226 0.2299521416425705
0.86112427711486816 0.8687889575958252 0.17930413782596588
0.92487049102783203 0.87396079301834106 0.10183949023485184
0.39734295010566711 0.9102480411529541 0.44540345668792725
0.40934771299362183 0.90848731994628906 0.44503030180931091
0.43214082717895508 0.90615379810333252 0.4429110586643219
0.46686831116676331 0.90526151657104492 0.44445770978927612
0.50822156667709351 0.90379410982131958 0.44696015119552612
0.55905765295028687 0.90346670150756836 0.45435073971748352
0.60851097106933594 0.90384691953659058 0.45442834496498108
0.6558910608291626 0.90949857234954834 0.44752928614616394
0.70886510610580444 0.9149935245513916 0.44143742322921753
0.76548522710800171 0.92244511842727661 0.43144458532333374
0.82277011871337891 0.92841076850891113 0.41092613339424133
0.88448339700698853 0.93365645408630371 0.38975286483764648
0.9413488507270813 0.94039678573608398 0.35681909322738647
0.028828954324126244 0.067046448588371277 0.11507487297058105
0.061492457985877991 0.065193161368370056 0.11888085305690765
0.113495834171772 0.063859082758426666 0.12256798893213272
0.18980133533477783 0.062563084065914154 0.13174490630626678
0.29044502973556519 0.04178912565112114 0.13738951086997986
0.4033297598361969 0.013047685846686363 0.14034090936183929
0.51582199335098267 0.0061788372695446014 0.14842283725738525
0.61414450407028198 0.0050902571529150009 0.15278513729572296
0.69884413480758667 0.0070029315538704395 0.15507203340530396
0.77005809545516968 0.0089829983189702034 0.15824529528617859
0.83629482984542847 0.030416736379265785 0.16370378434658051
0.89731532335281372 0.09219658374786377 0.17492052912712097
0.95466780662536621 0.16429570317268372 0.18658557534217834
0.026166295632719994 0.093087166547775269 0.12726198136806488
0.070476338267326355 0.092579849064350128 0.13155563175678253
0.1374250054359436 0.098538897931575775 0.13698996603488922
0.214997798204422 0.1033564880490303 0.1410146951675415
0.31358295679092407 0.088301055133342743 0.14186157286167145
0.42190137505531311 0.072059124708175659 0.14716415107250214
0.52665811777114868 0.056587759405374527 0.15296067297458649
0.61994129419326782 0.044710002839565277 0.15393844246864319
0.70367640256881714 0.04251403734087944 0.15534208714962006
0.77539396286010742 0.061323456466197968 0.16188712418079376
0.83970606327056885 0.10774741321802139 0.17235539853572845
0.9011884331703186 0.15760220587253571 0.18273462355136871
0.95788305997848511 0.20851670205593109 0.19145688414573669
0.014325235038995743 0.15071474015712738 0.14497525990009308
0.069299913942813873 0.15294972062110901 0.14534111320972443
0.15148375928401947 0.15818804502487183 0.14724093675613403
0.24201786518096924 0.16703563928604126 0.14175993204116821
0.34215268492698669 0.16921757161617279 0.14708004891872406
0.44874712824821472 0.1688736230134964 0.15872767567634583
0.54859286546707153 0.16223745048046112 0.16395430266857147
0.63691014051437378 0.15353967249393463 0.16531215608119965
0.7140575647354126 0.15374305844306946 0.16706660389900208
0.78259909152984619 0.16808119416236877 0.17019402980804443
0.84852224588394165 0.19861964881420135 0.17669825255870819
0.90825104713439941 0.23868289589881897 0.18791072070598602
0.96247994899749756 0.27296403050422668 0.19857442378997803
0.007047570776194334 0.23369602859020233 0.15855525434017181
0.054309457540512085 0.23535074293613434 0.15727037191390991
0.1539262980222702 0.23747751116752625 0.15560875833034515
0.25520750880241394 0.246199831366539 0.14485752582550049
0.36383667588233948 0.26014119386672974 0.14487273991107941
0.47052961587905884 0.26813742518424988 0.15872566401958466
0.56709557771682739 0.26877290010452271 0.16837383806705475
0.65757268667221069 0.26718947291374207 0.17238400876522064
0.72686278820037842 0.26968371868133545 0.17708471417427063
0.79179918766021729 0.27688747644424438 0.17896364629268646
0.85609734058380127 0.29007968306541443 0.18346221745014191
0.91154259443283081 0.31424960494041443 0.19756335020065308
0.96313542127609253 0.34257048368453979 0.20976503193378448
0.0078522032126784325 0.32887879014015198 0.17393860220909119
0.033236589282751083 0.32865875959396362 0.16966123878955841
0.14446578919887543 0.33039113879203796 0.16895183920860291
0.25327524542808533 0.3388659656047821 0.16029305756092072
0.36532849073410034 0.35180783271789551 0.14563189446926117
0.47306591272354126 0.36316648125648499 0.13104745745658875
0.57285940647125244 0.36794230341911316 0.14126615226268768
0.6664697527885437 0.37166640162467957 0.16064073145389557
0.73327451944351196 0.37321162223815918 0.1813519150018692
0.79780781269073486 0.37802615761756897 0.19058290123939514
0.85782521963119507 0.3858848512172699 0.20292699337005615
0.91238778829574585 0.4004552960395813 0.21609152853488922
0.96442234516143799 0.42200466990470886 0.22599421441555023
0.0065468582324683666 0.41419807076454163 0.18245452642440796
0.01641477644443512 0.41903108358383179 0.1798676997423172
0.12618380784988403 0.41923978924751282 0.18237854540348053
0.24249602854251862 0.42427733540534973 0.1756042093038559
0.34745687246322632 0.43159443140029907 0.15743570029735565
0.45330464839935303 0.44252517819404602 0.12714289128780365
0.55967670679092407 0.45305949449539185 0.094928145408630371
0.64845681190490723 0.45645403861999512 0.10283735394477844
0.72413986921310425 0.46222329139709473 0.14413493871688843
0.79689961671829224 0.47195664048194885 0.1854315847158432
0.85768985748291016 0.48118293285369873 0.21611258387565613
0.91242122650146484 0.48866909742355347 0.23718799650669098
0.96333914995193481 0.50365340709686279 0.24878005683422089
0.003037875285372138 0.49591255187988281 0.19121028482913971
0.0088822310790419579 0.49704691767692566 0.19198860228061676
0.097396105527877808 0.49737611413002014 0.19436319172382355
0.22732912003993988 0.49804332852363586 0.18946641683578491
0.32828882336616516 0.50475281476974487 0.16800422966480255
0.42420116066932678 0.51437872648239136 0.14402462542057037
0.5304451584815979 0.52464240789413452 0.098865270614624023
0.62774842977523804 0.53258329629898071 0.060211315751075745
0.70915144681930542 0.53858655691146851 0.079658001661300659
0.78649914264678955 0.54789769649505615 0.14145763218402863
0.8487885594367981 0.55845236778259277 0.19366252422332764
0.90952128171920776 0.57234364748001099 0.24510893225669861
0.95846265554428101 0.58315813541412354 0.27311891317367554
0.0046705659478902817 0.56633639335632324 0.20665508508682251
0.010356035083532333 0.56592631340026855 0.20619082450866699
0.084091410040855408 0.56515157222747803 0.20542491972446442
0.21953213214874268 0.56411147117614746 0.20072938501834869
0.31879332661628723 0.57039302587509155 0.18610699474811554
0.41043964028358459 0.57708227634429932 0.16997402906417847
0.50568306446075439 0.58571130037307739 0.13208989799022675
0.59954845905303955 0.59542900323867798 0.084261439740657806
0.68667876720428467 0.60297638177871704 0.041269414126873016
0.76566678285598755 0.61042970418930054 0.062794521450996399
0.83402103185653687 0.62029331922531128 0.13273158669471741
0.89550554752349854 0.63475602865219116 0.20421989262104034
0.9491460919380188 0.65127444267272949 0.27169230580329895
0.0056752674281597137 0.63340586423873901 0.22522358596324921
0.0099771982058882713 0.63268482685089111 0.22059617936611176
0.092365086078643799 0.63053601980209351 0.22020840644836426
0.22277092933654785 0.62809509038925171 0.22102409601211548
0.31764215230941772 0.63265383243560791 0.21499358117580414
0.4044482409954071 0.6376226544380188 0.20322383940219879
0.4873720109462738 0.64436995983123779 0.17980864644050598
0.57427322864532471 0.65497708320617676 0.13420434296131134
0.66181939840316772 0.66619127988815308 0.077430412173271179
0.74207812547683716 0.67259293794631958 0.032335676252841949
0.81661242246627808 0.67828315496444702 0.045068103820085526
0.88312017917633057 0.68904924392700195 0.12859858572483063
0.94207513332366943 0.70579850673675537 0.22330364584922791
0.0078098522499203682 0.70096081495285034 0.24668200314044952
0.031518690288066864 0.70021259784698486 0.24330583214759827
0.1299179345369339 0.69502562284469604 0.24523495137691498
0.23866842687129974 0.69250637292861938 0.24497994780540466
0.32858008146286011 0.69359302520751953 0.24054886400699615
0.40673559904098511 0.69538295269012451 0.23258760571479797
0.48277208209037781 0.70044505596160889 0.21513842046260834
0.56331014633178711 0.71121358871459961 0.18527011573314667
0.64448922872543335 0.72271507978439331 0.14363653957843781
0.72101396322250366 0.73167210817337036 0.096439063549041748
0.79813659191131592 0.73858267068862915 0.035973120480775833
0.86958533525466919 0.7447473406791687 0.03568490594625473
0.93414092063903809 0.75862377882003784 0.14086832106113434
0.086435385048389435 0.76912206411361694 0.28109550476074219
0.13348820805549622 0.7655521035194397 0.28336688876152039
0.20589442551136017 0.76131612062454224 0.28509190678596497
0.28642866015434265 0.75823831558227539 0.28395792841911316
0.35819593071937561 0.75734293460845947 0.28290987014770508
0.43054544925689697 0.75823956727981567 0.28035759925842285
0.49693205952644348 0.7619439959526062 0.2695862352848053
0.56667375564575195 0.77151453495025635 0.25155070424079895
0.63868427276611328 0.78150779008865356 0.22385169565677643
0.7149314284324646 0.79108142852783203 0.18869665265083313
0.78831171989440918 0.79866987466812134 0.13476744294166565
0.85782599449157715 0.80391454696655273 0.059761602431535721
0.92598670721054077 0.81188029050827026 0.042424339801073074
0.23430299758911133 0.83821743726730347 0.34572961926460266
0.25954136252403259 0.8359178900718689 0.34692063927650452
0.30067294836044312 0.83278799057006836 0.34775525331497192
0.35438358783721924 0.8312419056892395 0.34478220343589783
0.41214725375175476 0.82850873470306396 0.34616035223007202
0.47521960735321045 0.82925903797149658 0.34738969802856445
0.53270548582077026 0.83163529634475708 0.34180155396461487
0.5939483642578125 0.83964687585830688 0.33134132623672485
0.65547031164169312 0.84609425067901611 0.31433272361755371
0.72416919469833374 0.8552018404006958 0.29554012417793274
0.79516643285751343 0.86324292421340942 0.26262116432189941
0.8617558479309082 0.86728215217590332 0.21483944356441498
0.92708474397659302 0.87319403886795044 0.13773749768733978
0.39734238386154175 0.9120902419090271 0.46005555987358093
0.40967658162117004 0.90994560718536377 0.45696717500686646
0.43279454112052917 0.90611320734024048 0.45647373795509338
0.46793827414512634 0.90607947111129761 0.45608112215995789
0.51009607315063477 0.905284583568573 0.46153059601783752
0.55644720792770386 0.90480858087539673 0.46339541673660278
0.60720705986022949 0.90518683195114136 0.46536308526992798
0.65597176551818848 0.91015756130218506 0.46230965852737427
0.70922142267227173 0.91637152433395386 0.45840692520141602
0.76440554857254028 0.92303168773651123 0.44557592272758484
0.82335346937179565 0.92933768033981323 0.42609748244285583
0.88427627086639404 0.93357008695602417 0.40581798553466797
0.94033706188201904 0.93974989652633667 0.3744957447052002
0.026180805638432503 0.064463041722774506 0.17494465410709381
0.075916960835456848 0.059999667108058929 0.18369586765766144
0.14435778558254242 0.048542171716690063 0.18567444384098053
0.197267085313797 0.057562150061130524 0.18163596093654633
0.28482356667518616 0.053974032402038574 0.18686304986476898
0.39652174711227417 0.023495933040976524 0.19010813534259796
0.51107829809188843 0.0086867837235331535 0.20143452286720276
0.61141043901443481 0.0059372098185122013 0.20464353263378143
0.69667279720306396 0.004208284430205822 0.20569659769535065
0.76731127500534058 0.017121452838182449 0.21054723858833313
0.83268839120864868 0.053138777613639832 0.21625591814517975
0.89361226558685303 0.11434278637170792 0.22415724396705627
0.95390778779983521 0.17660702764987946 0.22896502912044525
0.023504504933953285 0.093124791979789734 0.18214297294616699
0.085725776851177216 0.094457916915416718 0.1958385705947876
0.15938323736190796 0.091708838939666748 0.20015676319599152
0.21876926720142365 0.10237866640090942 0.19733218848705292
0.30881607532501221 0.098922222852706909 0.19804929196834564
0.41864073276519775 0.075933091342449188 0.20054373145103455
0.52661049365997314 0.05939769372344017 0.20747539401054382
0.62271034717559814 0.059432070702314377 0.21179449558258057
0.70341700315475464 0.066921219229698181 0.21393990516662598
0.77222746610641479 0.09004732221364975 0.21958534419536591
0.83570533990859985 0.12831734120845795 0.22726239264011383
0.89805716276168823 0.1717790961265564 0.23249012231826782
0.95698469877243042 0.21786157786846161 0.23509909212589264
0.014528686180710793 0.15658418834209442 0.20586563646793365
0.076318375766277313 0.15904541313648224 0.20848053693771362
0.15828579664230347 0.16333428025245667 0.2101585865020752
0.24696560204029083 0.17219968140125275 0.21256372332572937
0.34776335954666138 0.17880879342556 0.21689645946025848
0.45056095719337463 0.17211629450321198 0.22100843489170074
0.5492749810218811 0.16841338574886322 0.22621020674705505
0.63788580894470215 0.1670459508895874 0.2274663895368576
0.71310329437255859 0.17402154207229614 0.22809654474258423
0.78032994270324707 0.18497121334075928 0.22828248143196106
0.84413081407546997 0.2100972980260849 0.23196861147880554
0.90499824285507202 0.2448822557926178 0.23744723200798035
0.96132463216781616 0.27931466698646545 0.24326217174530029
0.010410637594759464 0.2482312023639679 0.22923493385314941
0.061498396098613739 0.25149121880531311 0.22784993052482605
0.16418847441673279 0.25632795691490173 0.22853067517280579
0.26491361856460571 0.26355549693107605 0.22749286890029907
0.37683218717575073 0.27289614081382751 0.22629290819168091
0.47997117042541504 0.27757778763771057 0.23288072645664215
0.57278859615325928 0.27562227845191956 0.24063262343406677
0.65514403581619263 0.27327561378479004 0.24137073755264282
0.72352141141891479 0.27699613571166992 0.2415880560874939
0.78874588012695312 0.28394612669944763 0.24038006365299225
0.85159462690353394 0.29514274001121521 0.24020203948020935
0.90786784887313843 0.31947794556617737 0.24947598576545715
0.95944935083389282 0.3473961353302002 0.25820288062095642
0.0068840323947370052 0.3540475070476532 0.24861130118370056
0.04200642928481102 0.3554055392742157 0.24118252098560333
0.15562063455581665 0.35428479313850403 0.24125154316425323
0.26854655146598816 0.36030778288841248 0.23748524487018585
0.38227590918540955 0.36891919374465942 0.22127433121204376
