luts/instant_pro/fuji_fp-100c_++.cube
# Created by: G'MIC (https://gmic.eu)
TITLE "fuji_fp-100c_++"
# LUT size
LUT_3D_SIZE 7
# Data domain
DOMAIN_MIN 0.0 0.0 0.0
DOMAIN_MAX 1.0 1.0 1.0
# LUT data points
0.22880548238754272 0.15987864136695862 0.13188567757606506
0.24469760060310364 0.15416674315929413 0.12396010011434555
0.30799025297164917 0.14666213095188141 0.11609345674514771
0.47121977806091309 0.12838327884674072 0.1119014099240303
0.66234278678894043 0.10871119797229767 0.095903687179088593
0.84048342704772949 0.10441680252552032 0.060033760964870453
0.9753652811050415 0.16352719068527222 0.022692915052175522
0.22299498319625854 0.1777188777923584 0.12138813734054565
0.25071349740028381 0.18382251262664795 0.11761823296546936
0.34257051348686218 0.18849793076515198 0.10876888036727905
0.50349181890487671 0.19781912863254547 0.095271013677120209
0.70147073268890381 0.2061695009469986 0.06521625816822052
0.86017149686813354 0.22022084891796112 0.034988701343536377
0.98057836294174194 0.25911033153533936 0.012037195265293121
0.19441722333431244 0.2907043993473053 0.097153998911380768
0.24959929287433624 0.2847747802734375 0.097665555775165558
0.36208716034889221 0.30961942672729492 0.070675596594810486
0.55313122272491455 0.3437652587890625 0.026540284976363182
0.74041646718978882 0.36835950613021851 0.015994487330317497
0.88483089208602905 0.38278552889823914 0.011694425716996193
0.984233558177948 0.40250340104103088 0.0087400395423173904
0.14785362780094147 0.45217260718345642 0.043842840939760208
0.2320106029510498 0.44851037859916687 0.044372648000717163
0.35186594724655151 0.45097246766090393 0.018129162490367889
0.52434861660003662 0.48910266160964966 0.005770574789494276
0.72010886669158936 0.52340656518936157 0.0078011308796703815
0.88233363628387451 0.54800599813461304 0.012016535736620426
0.99186915159225464 0.56534630060195923 0.022892357781529427
0.065850153565406799 0.60762220621109009 0.0047490289434790611
0.2056821882724762 0.60234099626541138 0.010394018143415451
0.35891711711883545 0.60195404291152954 0.0083693563938140869
0.5051000714302063 0.62275850772857666 0.0040001962333917618
0.67841088771820068 0.65209132432937622 0.0071601420640945435
0.84567075967788696 0.67691689729690552 0.015066647902131081
0.97227764129638672 0.69309711456298828 0.010406089946627617
0.13833069801330566 0.75997847318649292 0.028610633686184883
0.24280251562595367 0.75529372692108154 0.029687544330954552
0.38531953096389771 0.75095844268798828 0.032775610685348511
0.52571719884872437 0.75876027345657349 0.022405438125133514
0.67435616254806519 0.77669107913970947 0.0067114736884832382
0.83016473054885864 0.79870080947875977 0.0091346139088273048
0.96178984642028809 0.81135654449462891 0.004404015839099884
0.44543975591659546 0.90863102674484253 0.3665529191493988
0.47530221939086914 0.90492725372314453 0.35884961485862732
0.55341005325317383 0.9030722975730896 0.36961397528648376
0.65904158353805542 0.9016115665435791 0.38055965304374695
0.75751841068267822 0.91231751441955566 0.34792855381965637
0.86736035346984863 0.92516988515853882 0.2969609797000885
0.97911751270294189 0.93706482648849487 0.19538320600986481
0.22500307857990265 0.15178759396076202 0.14595042169094086
0.24989239871501923 0.14880697429180145 0.15203998982906342
0.30595523118972778 0.14348512887954712 0.1444583386182785
0.47967317700386047 0.101850725710392 0.14452585577964783
0.67347413301467896 0.043668709695339203 0.13976946473121643
0.84478932619094849 0.033186729997396469 0.12614652514457703
0.97254389524459839 0.11528671532869339 0.12063691020011902
0.2179885059595108 0.18732273578643799 0.15059873461723328
0.25378328561782837 0.18660412728786469 0.15384414792060852
0.35329285264015198 0.19202493131160736 0.15386778116226196
0.52868938446044922 0.1794632226228714 0.15163461863994598
0.70843261480331421 0.17012353241443634 0.14100860059261322
0.86043375730514526 0.17289464175701141 0.12421261519193649
0.9791070818901062 0.23592342436313629 0.11790388822555542
0.18601433932781219 0.31124505400657654 0.16362123191356659
0.2501596212387085 0.3205220103263855 0.16521233320236206
0.39285776019096375 0.33145913481712341 0.14949388802051544
0.57515770196914673 0.35326799750328064 0.12212720513343811
0.75075322389602661 0.36619988083839417 0.1214703842997551
0.88590985536575317 0.36921972036361694 0.11001905798912048
0.98232096433639526 0.39370426535606384 0.11547663062810898
0.1016639843583107 0.48423030972480774 0.14207674562931061
0.2217831015586853 0.48734340071678162 0.14390565454959869
0.37054848670959473 0.48835757374763489 0.11954017728567123
0.54727184772491455 0.50661897659301758 0.041940264403820038
0.73679089546203613 0.53168463706970215 0.027814155444502831
0.89678704738616943 0.55143207311630249 0.088325977325439453
0.98371028900146484 0.56783902645111084 0.16832998394966125
0.023665662854909897 0.63332027196884155 0.11451664566993713
0.1928286999464035 0.63663572072982788 0.12474306672811508
0.35477861762046814 0.62988448143005371 0.10708309710025787
0.51324498653411865 0.63573282957077026 0.045813541859388351
0.69047921895980835 0.66398352384567261 0.0086580310016870499
0.85993075370788574 0.67912650108337402 0.010921687819063663
0.98357337713241577 0.69842040538787842 0.088282190263271332
0.13007761538028717 0.76826965808868408 0.16362741589546204
0.24755075573921204 0.76690053939819336 0.16205209493637085
0.39241310954093933 0.76405876874923706 0.1670566201210022
0.53259754180908203 0.76487475633621216 0.11860202252864838
0.67508399486541748 0.78275138139724731 0.040253166109323502
0.83143872022628784 0.80042111873626709 0.008946557529270649
0.96629351377487183 0.81204319000244141 0.005799521692097187
0.4383493959903717 0.90902829170227051 0.40976244211196899
0.47510790824890137 0.90764552354812622 0.40875938534736633
0.55609863996505737 0.90611594915390015 0.41822260618209839
0.65516555309295654 0.90489745140075684 0.42910489439964294
0.76032799482345581 0.91324871778488159 0.41005778312683105
0.8682091236114502 0.92536669969558716 0.36407408118247986
0.97945374250411987 0.93811243772506714 0.27125400304794312
0.23212967813014984 0.14483848214149475 0.24373893439769745
0.28975111246109009 0.12728722393512726 0.28378039598464966
0.41200274229049683 0.072845250368118286 0.30296444892883301
0.48358017206192017 0.11141399294137955 0.27559766173362732
0.66081762313842773 0.047379542142152786 0.27472823858261108
0.84201610088348389 0.0054235868155956268 0.26245260238647461
0.98131704330444336 0.022886881604790688 0.24124540388584137
0.21743194758892059 0.1856779009103775 0.26199400424957275
0.27470847964286804 0.17924745380878448 0.28572696447372437
0.42484861612319946 0.15831588208675385 0.32301616668701172
0.52352911233901978 0.1938580721616745 0.29706305265426636
0.70184886455535889 0.13657209277153015 0.28168034553527832
0.8681374192237854 0.10064725577831268 0.25829324126243591
0.98271328210830688 0.18093250691890717 0.25411981344223022
0.18969197571277618 0.32227292656898499 0.30871203541755676
0.25556886196136475 0.34813329577445984 0.32735440135002136
0.4289318323135376 0.36196061968803406 0.34669977426528931
0.59010368585586548 0.36482399702072144 0.32635048031806946
0.74948000907897949 0.35576298832893372 0.3058108389377594
0.8832208514213562 0.35396528244018555 0.28980749845504761
0.98011273145675659 0.3842945396900177 0.28455671668052673
0.08362840861082077 0.53837889432907104 0.36288106441497803
0.23674437403678894 0.54104733467102051 0.35706990957260132
0.40390759706497192 0.53777927160263062 0.34539264440536499
0.58951777219772339 0.54746907949447632 0.29850348830223083
0.75611519813537598 0.56012481451034546 0.3007931113243103
0.89408612251281738 0.56322091817855835 0.33721590042114258
0.97861206531524658 0.57111161947250366 0.3446115255355835
0.070005185902118683 0.68200159072875977 0.33684277534484863
0.1975330114364624 0.67648184299468994 0.32683810591697693
0.3763052225112915 0.66923129558563232 0.31745541095733643
0.54206568002700806 0.66197293996810913 0.29344889521598816
0.71595686674118042 0.67983144521713257 0.23007752001285553
0.87125623226165771 0.69247555732727051 0.225785031914711
0.97954601049423218 0.71470636129379272 0.35472515225410461
0.11986417323350906 0.79236471652984619 0.34806284308433533
0.24607989192008972 0.78832614421844482 0.34154322743415833
0.39503416419029236 0.77900403738021851 0.33636176586151123
0.53969359397888184 0.77770084142684937 0.32784029841423035
0.68582814931869507 0.79102373123168945 0.28350752592086792
0.83629101514816284 0.80426925420761108 0.19066892564296722
0.97177660465240479 0.81497597694396973 0.1546657383441925
0.43634694814682007 0.91665136814117432 0.50184178352355957
0.46997356414794922 0.91451042890548706 0.49704423546791077
0.54980349540710449 0.91084736585617065 0.5013771653175354
0.64769792556762695 0.90702968835830688 0.50749343633651733
0.75521057844161987 0.91324460506439209 0.50637644529342651
0.86183041334152222 0.92600095272064209 0.47641709446907043
0.97451722621917725 0.93695122003555298 0.41879749298095703
0.23921322822570801 0.12685345113277435 0.43757382035255432
0.31147950887680054 0.10193855315446854 0.47155535221099854
0.49137723445892334 0.010151328518986702 0.53269404172897339
0.68736696243286133 0.0030226465314626694 0.56909811496734619
0.70986449718475342 0.048072561621665955 0.4829770028591156
0.80967265367507935 0.16129344701766968 0.47362297773361206
0.96317631006240845 0.12221619486808777 0.46658420562744141
0.19763335585594177 0.18375332653522491 0.44658982753753662
0.28441977500915527 0.17314186692237854 0.47307804226875305
0.4817715585231781 0.10190693289041519 0.54411143064498901
0.69476461410522461 0.043641138821840286 0.5825609564781189
0.72107136249542236 0.19756986200809479 0.50531017780303955
0.83167022466659546 0.24336142838001251 0.48362195491790771
0.97238314151763916 0.21320641040802002 0.46353542804718018
0.17246517539024353 0.31274521350860596 0.44492679834365845
0.24444584548473358 0.31681925058364868 0.46454727649688721
0.44134032726287842 0.33519691228866577 0.52549523115158081
0.66542255878448486 0.35639321804046631 0.58320683240890503
0.72923821210861206 0.40092751383781433 0.53194916248321533
0.85723817348480225 0.38054636120796204 0.48817050457000732
0.97665297985076904 0.36022377014160156 0.45838415622711182
0.14829660952091217 0.52107805013656616 0.5260733962059021
0.25805565714836121 0.5339776873588562 0.53498309850692749
0.42443159222602844 0.56226485967636108 0.55761039257049561
0.62782198190689087 0.59287720918655396 0.58480602502822876
0.75992774963378906 0.59112644195556641 0.56272107362747192
0.87543439865112305 0.5647086501121521 0.5289953351020813
0.97403454780578613 0.56328684091567993 0.50873470306396484
0.16113197803497314 0.71509808301925659 0.58486640453338623
0.28045845031738281 0.71274089813232422 0.57964742183685303
0.43132069706916809 0.71284765005111694 0.56736952066421509
0.58988893032073975 0.70701569318771362 0.55346214771270752
0.74051672220230103 0.71175813674926758 0.52534884214401245
0.86965882778167725 0.72540140151977539 0.53401130437850952
0.96897321939468384 0.73032295703887939 0.57736432552337646
0.30907031893730164 0.81985121965408325 0.57749044895172119
0.35502743721008301 0.8178328275680542 0.56414538621902466
0.43586426973342896 0.81278866529464722 0.5423046350479126
0.57378131151199341 0.80207431316375732 0.53476190567016602
0.69536924362182617 0.80159056186676025 0.50448226928710938
0.83847767114639282 0.81648999452590942 0.47597548365592957
0.96683496236801147 0.82528102397918701 0.47101685404777527
0.44653117656707764 0.92383855581283569 0.62147563695907593
0.47650393843650818 0.92441320419311523 0.6173020601272583
0.54449683427810669 0.91937458515167236 0.61344450712203979
0.64348024129867554 0.91597634553909302 0.62109291553497314
0.7553330659866333 0.91465705633163452 0.62076663970947266
0.85899341106414795 0.92529797554016113 0.59731143712997437
0.97053563594818115 0.93999379873275757 0.56024247407913208
0.25836953520774841 0.094903282821178436 0.64209944009780884
0.34542369842529297 0.050004921853542328 0.65481024980545044
0.50162440538406372 0.0066095837391912937 0.69153499603271484
0.73670023679733276 0.0033446967136114836 0.75227642059326172
0.89060676097869873 0.0005890789907425642 0.76622581481933594
0.89367592334747314 0.083399169147014618 0.67899376153945923
0.94109606742858887 0.32389679551124573 0.67398011684417725
0.20786979794502258 0.17478275299072266 0.64241111278533936
0.30962690711021423 0.14199405908584595 0.65757858753204346
0.48509946465492249 0.073203682899475098 0.69957059621810913
0.72270762920379639 0.011109535582363605 0.75861799716949463
0.88286513090133667 0.024583823978900909 0.76743066310882568
0.89372014999389648 0.23609535396099091 0.69278156757354736
0.94030284881591797 0.3982214629650116 0.67852610349655151
0.090109609067440033 0.2907925546169281 0.62396252155303955
0.22339792549610138 0.29437115788459778 0.64269578456878662
0.43530997633934021 0.29398658871650696 0.68041056394577026
0.68780791759490967 0.30824235081672668 0.74646443128585815
0.8567160964012146 0.35945159196853638 0.76280301809310913
0.87245190143585205 0.44550859928131104 0.70151758193969727
0.93343979120254517 0.50109225511550903 0.68474781513214111
0.07815919816493988 0.46414202451705933 0.61552810668945312
0.18960206210613251 0.47637057304382324 0.62675833702087402
0.37697109580039978 0.49352017045021057 0.65047645568847656
0.61203503608703613 0.53815162181854248 0.71545231342315674
0.80430811643600464 0.59829992055892944 0.75311177968978882
0.84856796264648438 0.61494982242584229 0.71166086196899414
0.94254910945892334 0.59377747774124146 0.67409354448318481
0.22942306101322174 0.67631959915161133 0.6940121054649353
0.31328514218330383 0.6801409125328064 0.69772469997406006
0.45082449913024902 0.69516164064407349 0.70918577909469604
0.60645246505737305 0.71618402004241943 0.72676360607147217
0.76681303977966309 0.75471723079681396 0.7495349645614624
0.86078625917434692 0.75281530618667603 0.73560255765914917
0.95314669609069824 0.72610944509506226 0.7053559422492981
0.36643296480178833 0.83748352527618408 0.75162839889526367
0.41975000500679016 0.83582544326782227 0.74584430456161499
0.51723599433898926 0.83634650707244873 0.74115365743637085
0.62103134393692017 0.83394324779510498 0.72887766361236572
0.73885154724121094 0.83484834432601929 0.72205841541290283
0.84929519891738892 0.8406180739402771 0.71061855554580688
0.95088487863540649 0.85055512189865112 0.71618515253067017
0.52865254878997803 0.93390053510665894 0.78154242038726807
0.54835051298141479 0.93071126937866211 0.77527350187301636
0.59502500295639038 0.92952251434326172 0.76450198888778687
0.65317040681838989 0.92870962619781494 0.74466317892074585
0.74624735116958618 0.92605876922607422 0.73780155181884766
0.8544573187828064 0.93123799562454224 0.72855359315872192
0.95945507287979126 0.94155275821685791 0.70689594745635986
0.33195751905441284 0.053352013230323792 0.80952954292297363
0.39749810099601746 0.011340616270899773 0.82129615545272827
0.53752440214157104 0.0075681349262595177 0.83486950397491455
0.71459180116653442 0.0035806694068014622 0.85887140035629272
0.91297751665115356 0.0010218003299087286 0.89567679166793823
0.99549329280853271 0.0057100183330476284 0.88361614942550659
0.99530965089797974 0.27041769027709961 0.83169877529144287
0.29487091302871704 0.15187351405620575 0.81264525651931763
0.37108489871025085 0.12392733991146088 0.81781435012817383
0.51561611890792847 0.065164126455783844 0.83816623687744141
0.70068979263305664 0.014788354746997356 0.86378949880599976
0.90622186660766602 0.007352746557444334 0.89721810817718506
0.99454504251480103 0.10112379491329193 0.89146953821182251
0.99116653203964233 0.36847278475761414 0.83879572153091431
0.16100417077541351 0.28961330652236938 0.79917222261428833
0.28811129927635193 0.28882879018783569 0.80545717477798462
0.469880610704422 0.2856132984161377 0.82551372051239014
0.66833591461181641 0.28115534782409668 0.85047376155853271
0.87741822004318237 0.31704810261726379 0.88622528314590454
0.97867345809936523 0.40673249959945679 0.88456958532333374
0.97995913028717041 0.50971466302871704 0.83785003423690796
0.008436569944024086 0.44269058108329773 0.7533079981803894
0.082551531493663788 0.44880056381225586 0.76256257295608521
0.35315638780593872 0.45811781287193298 0.78725767135620117
0.6003233790397644 0.50211459398269653 0.82458347082138062
0.81758749485015869 0.56033539772033691 0.86968362331390381
0.93619424104690552 0.61071228981018066 0.87113034725189209
0.9518502950668335 0.64531731605529785 0.83625084161758423
0.038516774773597717 0.62092375755310059 0.76791894435882568
0.12199379503726959 0.62087547779083252 0.76774770021438599
0.31686106324195862 0.63092929124832153 0.777354896068573
0.51686865091323853 0.65161252021789551 0.78920960426330566
0.7303357720375061 0.70762568712234497 0.83513027429580688
0.89962863922119141 0.76199650764465332 0.86989349126815796
0.93215847015380859 0.76444405317306519 0.84575575590133667
0.36625945568084717 0.794048011302948 0.81946253776550293
0.41714659333229065 0.79751944541931152 0.82195192575454712
0.51126241683959961 0.80808383226394653 0.82906293869018555
0.62675052881240845 0.8217623233795166 0.84196096658706665
0.7380378246307373 0.83592915534973145 0.84577172994613647
0.87396728992462158 0.86673784255981445 0.867828369140625
0.95589381456375122 0.86424249410629272 0.86146658658981323
0.55491763353347778 0.93779110908508301 0.8874630331993103
0.5767359733581543 0.9367181658744812 0.88358396291732788
0.62398248910903931 0.94014114141464233 0.88612574338912964
0.69761514663696289 0.94047969579696655 0.87814372777938843
0.77110695838928223 0.94054698944091797 0.87069666385650635
0.86396121978759766 0.94332903623580933 0.85934489965438843
0.95871978998184204 0.94990092515945435 0.84318250417709351
0.48541542887687683 0.12739032506942749 0.95475220680236816
0.52842056751251221 0.0888533815741539 0.95841306447982788
0.62704634666442871 0.039993628859519958 0.96316766738891602
0.76153630018234253 0.012622145004570484 0.96922558546066284
0.91440445184707642 0.0068856035359203815 0.97345954179763794
0.99879813194274902 0.0078206527978181839 0.97063744068145752
1 0.20119704306125641 0.98224657773971558
0.46828213334083557 0.22475139796733856 0.95488643646240234
0.51674765348434448 0.21239879727363586 0.95533984899520874
0.61847281455993652 0.16957654058933258 0.95906668901443481
0.7497183084487915 0.11753827333450317 0.9688602089881897
0.90383410453796387 0.072411343455314636 0.98061656951904297
0.99914014339447021 0.067833319306373596 0.98857963085174561
1 0.33779081702232361 0.97865325212478638
0.41658443212509155 0.37886795401573181 0.94516050815582275
0.47215923666954041 0.36636573076248169 0.94910413026809692
0.58266526460647583 0.36274826526641846 0.9524264931678772
0.72514784336090088 0.36017319560050964 0.96089273691177368
0.8822217583656311 0.36775881052017212 0.97396653890609741
0.98494291305541992 0.40183877944946289 0.97880220413208008
0.99979138374328613 0.50082236528396606 0.96343874931335449
0.27653384208679199 0.52060502767562866 0.93064981698989868
0.35110324621200562 0.51562035083770752 0.93234395980834961
0.49726828932762146 0.52131050825119019 0.93888825178146362
0.66568821668624878 0.53428941965103149 0.94548439979553223
0.83191025257110596 0.56175345182418823 0.96225994825363159
0.97066229581832886 0.60697537660598755 0.97219151258468628
0.99374896287918091 0.66331356763839722 0.96480780839920044
0.13979814946651459 0.67303186655044556 0.90790367126464844
0.1955290287733078 0.66808491945266724 0.90626955032348633
0.36987924575805664 0.66405820846557617 0.91153377294540405
0.56321793794631958 0.67122840881347656 0.92277580499649048
0.76785969734191895 0.70828211307525635 0.94456446170806885
0.91733866930007935 0.74545323848724365 0.95811718702316284
0.98828154802322388 0.77882891893386841 0.96535742282867432
0.38338664174079895 0.81317377090454102 0.92038565874099731
0.41641709208488464 0.81179726123809814 0.91987133026123047
0.48231515288352966 0.81153929233551025 0.92010694742202759
0.57152432203292847 0.8120381236076355 0.92278385162353516
0.68444150686264038 0.81250464916229248 0.92351055145263672
0.85691565275192261 0.84251368045806885 0.94503688812255859
0.97614175081253052 0.87408411502838135 0.9605562686920166
0.5910567045211792 0.92980998754501343 0.94540238380432129
0.61293250322341919 0.93344056606292725 0.95042532682418823
0.65256530046463013 0.93507212400436401 0.95253998041152954
0.70640188455581665 0.93592160940170288 0.95321202278137207
0.77983236312866211 0.93679732084274292 0.95345288515090942
0.87035280466079712 0.94935721158981323 0.95761215686798096
0.96827727556228638 0.96314162015914917 0.96064227819442749
