luts/instant_pro/fuji_fp-100c_negative_+++.cube
# Created by: G'MIC (https://gmic.eu)
TITLE "fuji_fp-100c_negative_+++"
# LUT size
LUT_3D_SIZE 5
# Data domain
DOMAIN_MIN 0.0 0.0 0.0
DOMAIN_MAX 1.0 1.0 1.0
# LUT data points
0.21862399578094482 0.16857144236564636 0.22937218844890594
0.27086916565895081 0.1594451516866684 0.22545969486236572
0.47791418433189392 0.16380493342876434 0.22649453580379486
0.78242141008377075 0.22901029884815216 0.23018914461135864
0.98654305934906006 0.41488838195800781 0.23151779174804688
0.2161598801612854 0.22470566630363464 0.23752903938293457
0.2777751088142395 0.24608328938484192 0.23538860678672791
0.5228697657585144 0.28913447260856628 0.22420543432235718
0.79487895965576172 0.36441183090209961 0.21959254145622253
0.98940932750701904 0.49887624382972717 0.22573612630367279
0.22974291443824768 0.42264094948768616 0.27924355864524841
0.30976599454879761 0.44428688287734985 0.28159603476524353
0.54514867067337036 0.53781366348266602 0.23433041572570801
0.81379806995391846 0.60001057386398315 0.20298661291599274
0.98501908779144287 0.65282350778579712 0.24156765639781952
0.35227367281913757 0.67250174283981323 0.37876123189926147
0.44490054249763489 0.68190521001815796 0.39624765515327454
0.59147512912750244 0.71926987171173096 0.39791515469551086
0.80248314142227173 0.78269588947296143 0.36178138852119446
0.9962005615234375 0.80986493825912476 0.38169977068901062
0.73612600564956665 0.87063729763031006 0.58099609613418579
0.77197402715682983 0.87216252088546753 0.58925050497055054
0.83812606334686279 0.87773942947387695 0.60471910238265991
0.91491973400115967 0.89479905366897583 0.60329580307006836
0.99666851758956909 0.91223430633544922 0.60158705711364746
0.23179283738136292 0.15776526927947998 0.27052503824234009
0.29539316892623901 0.16808469593524933 0.27296862006187439
0.52572381496429443 0.158382847905159 0.28655523061752319
0.8099139928817749 0.21015411615371704 0.30860075354576111
0.9885563850402832 0.42410102486610413 0.35450923442840576
0.22343121469020844 0.23513258993625641 0.28686732053756714
0.30084031820297241 0.25960594415664673 0.3000638484954834
0.55855709314346313 0.29277157783508301 0.30284526944160461
0.81405353546142578 0.36618399620056152 0.31910604238510132
0.99075597524642944 0.51289087533950806 0.35516107082366943
0.29657432436943054 0.45237815380096436 0.34685194492340088
0.35907357931137085 0.47640141844749451 0.34627330303192139
0.57527607679367065 0.54675745964050293 0.33002570271492004
0.82147598266601562 0.59826213121414185 0.31543916463851929
0.99041718244552612 0.65733510255813599 0.36928805708885193
0.3971002995967865 0.68715518712997437 0.4304642379283905
0.47726255655288696 0.70100033283233643 0.44777077436447144
0.61296910047531128 0.72743350267410278 0.46129316091537476
0.80905008316040039 0.78483635187149048 0.44171464443206787
0.98895877599716187 0.80565035343170166 0.44490182399749756
0.73324775695800781 0.87366414070129395 0.59326744079589844
0.77028089761734009 0.87521970272064209 0.60025328397750854
0.84722316265106201 0.87699884176254272 0.61614048480987549
0.9289708137512207 0.89410799741744995 0.61705034971237183
0.99271368980407715 0.91059994697570801 0.61901158094406128
0.31365174055099487 0.142319455742836 0.41365709900856018
0.44154909253120422 0.16024430096149445 0.43014436960220337
0.63312608003616333 0.24928155541419983 0.45552480220794678
0.87638461589813232 0.32540485262870789 0.5131305456161499
0.99830013513565063 0.47672522068023682 0.52559465169906616
0.22710782289505005 0.22799666225910187 0.42804598808288574
0.40341335535049438 0.26547977328300476 0.45585975050926208
0.64356440305709839 0.38125663995742798 0.48693162202835083
0.86706030368804932 0.46551245450973511 0.52697634696960449
0.99610394239425659 0.55025988817214966 0.54077577590942383
0.23486025631427765 0.44569334387779236 0.45576950907707214
0.3633551299571991 0.47655153274536133 0.47655203938484192
0.62950253486633301 0.573028564453125 0.51657730340957642
0.83137589693069458 0.62723362445831299 0.53106963634490967
0.98679530620574951 0.682273268699646 0.54525697231292725
0.45569613575935364 0.6923028826713562 0.53332746028900146
0.54036635160446167 0.70946460962295532 0.54204326868057251
0.67498159408569336 0.74343228340148926 0.55124247074127197
0.84064775705337524 0.78841626644134521 0.55693936347961426
0.99430769681930542 0.80182218551635742 0.56009483337402344
0.75392740964889526 0.87309408187866211 0.62051844596862793
0.78134983777999878 0.87731719017028809 0.62232369184494019
0.84910982847213745 0.87780439853668213 0.63226175308227539
0.94420605897903442 0.89063805341720581 0.64681714773178101
0.99661964178085327 0.90562456846237183 0.64768677949905396
0.55573862791061401 0.042316898703575134 0.6167944073677063
0.66479694843292236 0.052526079118251801 0.63157522678375244
0.83570146560668945 0.29371583461761475 0.64756059646606445
0.92836290597915649 0.54584425687789917 0.64226037263870239
0.99937301874160767 0.63969880342483521 0.65572255849838257
0.48042801022529602 0.21355888247489929 0.61819952726364136
0.6106497049331665 0.24859538674354553 0.63022124767303467
0.80764275789260864 0.42063239216804504 0.6455724835395813
0.92433387041091919 0.63036477565765381 0.64242124557495117
0.99892944097518921 0.69787085056304932 0.65689736604690552
0.015503243543207645 0.40757730603218079 0.59872269630432129
0.24269035458564758 0.42069229483604431 0.6126895546913147
0.70315778255462646 0.55542504787445068 0.64030694961547852
0.91381204128265381 0.7307131290435791 0.64955681562423706
0.99580287933349609 0.77137845754623413 0.66757005453109741
0.30310836434364319 0.66613113880157471 0.5979582667350769
0.41046470403671265 0.68044084310531616 0.60565763711929321
0.62774920463562012 0.72032827138900757 0.62463510036468506
0.89416998624801636 0.79701906442642212 0.65001076459884644
0.99655318260192871 0.82509392499923706 0.66141033172607422
0.66587406396865845 0.87111389636993408 0.65565246343612671
0.71623069047927856 0.87347805500030518 0.65775203704833984
0.83218592405319214 0.88117605447769165 0.66583538055419922
0.96071648597717285 0.89170581102371216 0.68990898132324219
0.99868285655975342 0.90566730499267578 0.70576900243759155
0.83489829301834106 0.15213821828365326 0.76102745532989502
0.87485116720199585 0.26448950171470642 0.75854134559631348
0.96079474687576294 0.47041177749633789 0.75641131401062012
0.99974721670150757 0.6950874924659729 0.74835610389709473
1 0.78593456745147705 0.73998826742172241
0.78965848684310913 0.29524770379066467 0.75662887096405029
0.83755165338516235 0.36875855922698975 0.75703006982803345
0.93460750579833984 0.54185217618942261 0.75586587190628052
0.99670219421386719 0.72502940893173218 0.75085890293121338
1 0.80092185735702515 0.74293231964111328
0.52216225862503052 0.39316174387931824 0.75383597612380981
0.66292333602905273 0.45543584227561951 0.75392192602157593
0.84925258159637451 0.60901463031768799 0.75281065702438354
0.99258166551589966 0.76671391725540161 0.75153440237045288
1 0.83678072690963745 0.75671792030334473
0.001932929502800107 0.68176984786987305 0.73052161931991577
0.002162005752325058 0.66944390535354614 0.72951400279998779
0.35048887133598328 0.65476453304290771 0.74293535947799683
0.93482786417007446 0.78855323791503906 0.75515466928482056
1 0.88201618194580078 0.77026128768920898
0.56918585300445557 0.87054026126861572 0.7469906210899353
0.61078661680221558 0.87168174982070923 0.74963665008544922
0.71492117643356323 0.87281537055969238 0.7492290735244751
0.89261472225189209 0.88483154773712158 0.76333266496658325
0.99962157011032104 0.91175800561904907 0.78036302328109741
