luts/instant_pro/fuji_fp-100c_negative.cube
# Created by: G'MIC (https://gmic.eu)
TITLE "fuji_fp-100c_negative"
# LUT size
LUT_3D_SIZE 5
# Data domain
DOMAIN_MIN 0.0 0.0 0.0
DOMAIN_MAX 1.0 1.0 1.0
# LUT data points
0.056127510964870453 0.11023544520139694 0.086540713906288147
0.13337863981723785 0.10314950346946716 0.084093458950519562
0.46008330583572388 0.038574699312448502 0.085939399898052216
0.7869415283203125 0.052642971277236938 0.078343607485294342
0.9858049750328064 0.38099142909049988 0.16653567552566528
0.062741510570049286 0.15395407378673553 0.10310585051774979
0.19175457954406738 0.18350666761398315 0.097351595759391785
0.51733601093292236 0.22688506543636322 0.059513315558433533
0.79943215847015381 0.30121976137161255 0.075008317828178406
0.97864764928817749 0.48779463768005371 0.19983677566051483
0.077417142689228058 0.40289774537086487 0.21452870965003967
0.25180512666702271 0.43821042776107788 0.22380055487155914
0.52805101871490479 0.53125083446502686 0.12167636305093765
0.80857867002487183 0.58304703235626221 0.11952586472034454
0.9787755012512207 0.64349889755249023 0.28666543960571289
0.33304604887962341 0.65654188394546509 0.42460277676582336
0.43301877379417419 0.67868882417678833 0.44244527816772461
0.56454688310623169 0.70887523889541626 0.4361247718334198
0.79662144184112549 0.78433287143707275 0.40438944101333618
0.99074870347976685 0.81811678409576416 0.44016560912132263
0.69460499286651611 0.8878321647644043 0.68118232488632202
0.73467499017715454 0.88879227638244629 0.69197696447372437
0.80576926469802856 0.89549916982650757 0.70785552263259888
0.89063030481338501 0.91322684288024902 0.70602482557296753
0.98504465818405151 0.93228846788406372 0.70727455615997314
0.07534288614988327 0.10315397381782532 0.15579186379909515
0.17347678542137146 0.098396226763725281 0.16059498488903046
0.51974952220916748 0.0060060089454054832 0.20766420662403107
0.8112683892250061 0.089326865971088409 0.27205079793930054
0.98135817050933838 0.39969936013221741 0.37404933571815491
0.056543104350566864 0.17196366190910339 0.20051340758800507
0.23423293232917786 0.19845272600650787 0.23365890979766846
0.55448895692825317 0.23643068969249725 0.25128722190856934
0.81439483165740967 0.33236700296401978 0.29839903116226196
0.97554200887680054 0.50108563899993896 0.39206996560096741
0.22307775914669037 0.44034320116043091 0.34460616111755371
0.32427498698234558 0.47061276435852051 0.34677162766456604
0.56303483247756958 0.54815846681594849 0.33274835348129272
0.81128889322280884 0.60353785753250122 0.34803676605224609
0.97960418462753296 0.66014939546585083 0.42932906746864319
0.38595587015151978 0.68514233827590942 0.4859263002872467
0.46272850036621094 0.693004310131073 0.5037115216255188
0.60662841796875 0.72957885265350342 0.51023310422897339
0.81037700176239014 0.7860599160194397 0.50784367322921753
0.99069178104400635 0.82197999954223633 0.53597009181976318
0.69220203161239624 0.88949167728424072 0.69272565841674805
0.72795861959457397 0.88683831691741943 0.69870412349700928
0.81488513946533203 0.89506810903549194 0.71894121170043945
0.90455168485641479 0.91055548191070557 0.71438372135162354
0.9936516284942627 0.93335813283920288 0.72799026966094971
0.20820909738540649 0.053628150373697281 0.42815631628036499
0.39515480399131775 0.014050337485969067 0.45650428533554077
0.62386423349380493 0.17231184244155884 0.48584696650505066
0.86247247457504272 0.2903449535369873 0.55220341682434082
0.99559754133224487 0.46532592177391052 0.59209722280502319
0.031122574582695961 0.1573912501335144 0.45815691351890564
0.35075691342353821 0.19139441847801208 0.49088504910469055
0.62714558839797974 0.3642784059047699 0.52684211730957031
0.85575991868972778 0.45734459161758423 0.57970184087753296
0.99679666757583618 0.5455208420753479 0.60183846950531006
0.11585910618305206 0.43106940388679504 0.48743060231208801
0.32102227210998535 0.46944880485534668 0.51468110084533691
0.60633963346481323 0.56778979301452637 0.56784635782241821
0.81553566455841064 0.6266862154006958 0.59244656562805176
0.98892474174499512 0.6825861930847168 0.62186276912689209
0.41200166940689087 0.68413698673248291 0.59487974643707275
0.50707530975341797 0.7031857967376709 0.60773497819900513
0.65331101417541504 0.74691319465637207 0.63250964879989624
0.82589495182037354 0.78937458992004395 0.63773518800735474
0.98681116104125977 0.82094895839691162 0.66238343715667725
0.71791881322860718 0.88707727193832397 0.7259107232093811
0.73899167776107788 0.89128595590591431 0.72996300458908081
0.81330293416976929 0.89934200048446655 0.74044501781463623
0.91313332319259644 0.91302496194839478 0.76143544912338257
0.9906991720199585 0.93094688653945923 0.76583778858184814
0.4833429753780365 0.0070177861489355564 0.66803491115570068
0.62101024389266968 0.016246555373072624 0.69782930612564087
0.79907262325286865 0.22215977311134338 0.72543001174926758
0.90958923101425171 0.5361747145652771 0.72843676805496216
0.99001103639602661 0.63291871547698975 0.75193154811859131
0.40931427478790283 0.11398719251155853 0.69066363573074341
0.56221902370452881 0.16002441942691803 0.70327013731002808
0.78114086389541626 0.4103367030620575 0.73210406303405762
0.90273845195770264 0.62184423208236694 0.74169570207595825
0.99509578943252563 0.68798971176147461 0.76553875207901001
0.020428482443094254 0.37301540374755859 0.67668205499649048
0.11802389472723007 0.40344542264938354 0.68169641494750977
0.66573536396026611 0.55500048398971558 0.72664386034011841
0.90176326036453247 0.72219973802566528 0.7550927996635437
0.99458438158035278 0.78200733661651611 0.78047114610671997
0.23112590610980988 0.66398662328720093 0.67425435781478882
0.35885876417160034 0.67716050148010254 0.68694519996643066
0.57918745279312134 0.70994752645492554 0.71907508373260498
0.86199432611465454 0.80293494462966919 0.76109319925308228
0.99250704050064087 0.84431487321853638 0.78227859735488892
0.61269640922546387 0.8866695761680603 0.76641303300857544
0.66665685176849365 0.88793438673019409 0.76987230777740479
0.79325175285339355 0.89773368835449219 0.78236263990402222
0.93020933866500854 0.91183924674987793 0.81298762559890747
0.99215686321258545 0.91973870992660522 0.81823211908340454
0.80280518531799316 0.086020417511463165 0.86763095855712891
0.84744250774383545 0.20158345997333527 0.86985218524932861
0.92935973405838013 0.45457130670547485 0.86908751726150513
0.99572134017944336 0.68986690044403076 0.86897182464599609
0.99732851982116699 0.79435592889785767 0.8639710545539856
0.75026601552963257 0.26746568083763123 0.86609196662902832
0.80255806446075439 0.35584530234336853 0.86735117435455322
0.9096301794052124 0.53144592046737671 0.86569619178771973
0.9888032078742981 0.72179770469665527 0.86915361881256104
0.99769431352615356 0.80917119979858398 0.87071520090103149
0.44381421804428101 0.38133963942527771 0.86338907480239868
0.61762106418609619 0.45250046253204346 0.86364960670471191
0.81877821683883667 0.60355198383331299 0.86693978309631348
0.97961360216140747 0.7679297924041748 0.87603998184204102
1 0.86389929056167603 0.88214951753616333
0.0079151531681418419 0.67708063125610352 0.84588414430618286
0.0045361090451478958 0.66800594329833984 0.85293436050415039
0.2192251980304718 0.65496045351028442 0.85544317960739136
0.90334028005599976 0.79536324739456177 0.87968999147415161
0.99883216619491577 0.89953881502151489 0.89196199178695679
0.47707560658454895 0.88466089963912964 0.87088710069656372
0.5373721718788147 0.88498133420944214 0.87498944997787476
0.66434985399246216 0.8931538462638855 0.87806093692779541
0.8562127947807312 0.90310239791870117 0.89843881130218506
0.99080997705459595 0.93465608358383179 0.91881591081619263
