luts/instant_pro/fuji_fp-100c_negative_-.cube
# Created by: G'MIC (https://gmic.eu)
TITLE "fuji_fp-100c_negative_-"
# LUT size
LUT_3D_SIZE 13
# Data domain
DOMAIN_MIN 0.0 0.0 0.0
DOMAIN_MAX 1.0 1.0 1.0
# LUT data points
0.016502080485224724 0.11705953627824783 0.11003106832504272
0.035988181829452515 0.11635978519916534 0.10489463061094284
0.10323136299848557 0.11626961082220078 0.10295628756284714
0.19346435368061066 0.11113589257001877 0.10252320766448975
0.29270145297050476 0.10147923231124878 0.10771897435188293
0.41365319490432739 0.075184270739555359 0.11060315370559692
0.5310521125793457 0.043954901397228241 0.11051222681999207
0.63471651077270508 0.038897942751646042 0.11571027338504791
0.72557145357131958 0.076789364218711853 0.1272217184305191
0.80597883462905884 0.14932774007320404 0.13826429843902588
0.87899953126907349 0.2366180419921875 0.15608227252960205
0.94730877876281738 0.32663914561271667 0.17516724765300751
0.98799765110015869 0.40822127461433411 0.20774765312671661
0.013453464955091476 0.12759135663509369 0.10757067799568176
0.042714137583971024 0.13524384796619415 0.10888082534074783
0.11348330974578857 0.13849927484989166 0.10810099542140961
0.2083098441362381 0.13215440511703491 0.10415501147508621
0.31165429949760437 0.12302225083112717 0.1071983203291893
0.43115440011024475 0.11469107121229172 0.11060825735330582
0.54505902528762817 0.1025393158197403 0.11253727972507477
0.63906902074813843 0.10366038978099823 0.11766650527715683
0.72449654340744019 0.14440381526947021 0.1282346248626709
0.80848395824432373 0.19583021104335785 0.13798010349273682
0.88048171997070312 0.27296337485313416 0.15596921741962433
0.94634008407592773 0.35397070646286011 0.17547188699245453
0.98785358667373657 0.42753785848617554 0.20903387665748596
0.016463963314890862 0.15205420553684235 0.11556350439786911
0.045611035078763962 0.15949338674545288 0.11660151928663254
0.1167452484369278 0.1675056666135788 0.11680343002080917
0.21770614385604858 0.17023669183254242 0.11285581439733505
0.33055600523948669 0.1744159609079361 0.10375234484672546
0.45166245102882385 0.17539516091346741 0.10578688234090805
0.55871027708053589 0.17732326686382294 0.11033371835947037
0.6456720232963562 0.19214683771133423 0.11747974902391434
0.73086047172546387 0.22751504182815552 0.12737084925174713
0.81074070930480957 0.26648417115211487 0.13993330299854279
0.88144534826278687 0.32795307040214539 0.15781058371067047
0.94639813899993896 0.39331448078155518 0.17824690043926239
0.98608195781707764 0.45933079719543457 0.21449154615402222
0.020336749032139778 0.20448404550552368 0.1401812881231308
0.062189768999814987 0.21286436915397644 0.14039945602416992
0.12349773943424225 0.22393305599689484 0.13699924945831299
0.21914830803871155 0.24086923897266388 0.12853199243545532
0.35185283422470093 0.26439130306243896 0.10267012566328049
0.46944865584373474 0.26645165681838989 0.09811980277299881
0.56942278146743774 0.26759690046310425 0.10288624465465546
0.65858703851699829 0.28019356727600098 0.10991582274436951
0.73633933067321777 0.30983215570449829 0.12438680976629257
0.81013369560241699 0.34541013836860657 0.14063543081283569
0.88052821159362793 0.39685571193695068 0.16137753427028656
0.94325953722000122 0.44578057527542114 0.18910974264144897
0.98396658897399902 0.49934551119804382 0.22357384860515594
0.024806827306747437 0.27849355340003967 0.17297478020191193
0.081232450902462006 0.28956449031829834 0.17526951432228088
0.14504921436309814 0.30011817812919617 0.17074191570281982
0.21643164753913879 0.31633758544921875 0.16455641388893127
0.34069961309432983 0.34935367107391357 0.13628523051738739
0.4773065447807312 0.38255620002746582 0.092292115092277527
0.58134305477142334 0.38580232858657837 0.087764650583267212
0.66620737314224243 0.37495046854019165 0.10643327236175537
0.73677158355712891 0.38924819231033325 0.1212017759680748
0.80986166000366211 0.42078468203544617 0.13642925024032593
0.88080877065658569 0.45807823538780212 0.16213604807853699
0.9458845853805542 0.49897363781929016 0.1924346536397934
0.98720932006835938 0.54441392421722412 0.23242571949958801
0.038741510361433029 0.36382290720939636 0.21310776472091675
0.10559388995170593 0.37072432041168213 0.21846459805965424
0.16922380030155182 0.38159275054931641 0.2174530029296875
0.23132376372814178 0.3963068425655365 0.21537031233310699
0.32244932651519775 0.42371729016304016 0.19529496133327484
0.44947013258934021 0.45893523097038269 0.15154995024204254
0.57941573858261108 0.48731821775436401 0.1067645475268364
0.66762083768844604 0.48421978950500488 0.11930830776691437
0.73992758989334106 0.48452979326248169 0.13097409904003143
0.81189662218093872 0.49628147482872009 0.13825404644012451
0.88096988201141357 0.52117741107940674 0.16358599066734314
0.94771492481231689 0.55514365434646606 0.19591134786605835
0.98925173282623291 0.59133684635162354 0.24374598264694214
0.082463718950748444 0.44725698232650757 0.26162031292915344
0.14910954236984253 0.45210093259811401 0.26863595843315125
0.21445769071578979 0.46006163954734802 0.27054855227470398
0.2707010805606842 0.47072130441665649 0.27039715647697449
0.3387112021446228 0.4880448579788208 0.2622164785861969
0.43133100867271423 0.51841044425964355 0.2376132607460022
0.54175055027008057 0.54629606008529663 0.20456735789775848
0.65823459625244141 0.56968528032302856 0.16686367988586426
0.7455248236656189 0.58008015155792236 0.15868566930294037
0.8147660493850708 0.5843435525894165 0.17707549035549164
0.88369190692901611 0.59766072034835815 0.19282218813896179
0.95021027326583862 0.61818206310272217 0.21923480927944183
0.99196368455886841 0.64393579959869385 0.25740143656730652
0.18107128143310547 0.52102285623550415 0.32036855816841125
0.22265063226222992 0.52645504474639893 0.32736283540725708
0.27683570981025696 0.53320193290710449 0.33098894357681274
0.32825389504432678 0.54262173175811768 0.33072754740715027
0.37711411714553833 0.55239260196685791 0.32822349667549133
0.44301193952560425 0.57075393199920654 0.31738370656967163
0.52910882234573364 0.59390127658843994 0.29789096117019653
0.6331290602684021 0.61989611387252808 0.26374685764312744
0.73729270696640015 0.64961105585098267 0.23327332735061646
0.82117116451263428 0.66799980401992798 0.22804917395114899
0.88897734880447388 0.67825669050216675 0.24738563597202301
0.95320248603820801 0.69006258249282837 0.26962301135063171
0.98984551429748535 0.70292419195175171 0.29614472389221191
0.2843482494354248 0.59421062469482422 0.38132038712501526
0.31294658780097961 0.59997069835662842 0.38763284683227539
0.3453158438205719 0.60574382543563843 0.39215043187141418
0.38936921954154968 0.61301642656326294 0.39084237813949585
0.43283170461654663 0.61905592679977417 0.38820242881774902
0.48009562492370605 0.62875127792358398 0.38756260275840759
0.54751330614089966 0.64596128463745117 0.37650740146636963
0.62642675638198853 0.66950398683547974 0.35752120614051819
0.71961331367492676 0.69829481840133667 0.33278307318687439
0.81693792343139648 0.72874867916107178 0.30465584993362427
0.89431780576705933 0.74805569648742676 0.3065541684627533
0.95622819662094116 0.75645434856414795 0.32774543762207031
0.98519712686538696 0.76345503330230713 0.34751850366592407
0.36298593878746033 0.66540873050689697 0.43664076924324036
0.3868500292301178 0.6706586480140686 0.44411516189575195
0.41571548581123352 0.67710703611373901 0.45065057277679443
0.45472925901412964 0.68245869874954224 0.45164746046066284
0.49614539742469788 0.68670696020126343 0.45134156942367554
0.5384368896484375 0.69475936889648438 0.4548281729221344
0.5817866325378418 0.70466643571853638 0.45137041807174683
0.64898544549942017 0.72544413805007935 0.43604457378387451
0.720703125 0.74694979190826416 0.42117094993591309
0.80348885059356689 0.77252089977264404 0.40663599967956543
0.89228880405426025 0.80040305852890015 0.38939645886421204
0.95874369144439697 0.81662005186080933 0.38639146089553833
0.98499608039855957 0.81971454620361328 0.39665892720222473
0.44090703129768372 0.7374413013458252 0.49336656928062439
0.46052205562591553 0.74060428142547607 0.50031310319900513
0.48320987820625305 0.74597471952438354 0.50726693868637085
0.51805597543716431 0.7500724196434021 0.51155900955200195
0.55710816383361816 0.75357824563980103 0.51755440235137939
0.59845912456512451 0.76055747270584106 0.52100509405136108
0.63560843467712402 0.76824033260345459 0.51522183418273926
0.67789936065673828 0.78148180246353149 0.5077480673789978
0.74018740653991699 0.80092030763626099 0.50233274698257446
0.81324756145477295 0.82400894165039062 0.49495038390159607
0.89164227247238159 0.84678971767425537 0.4786338210105896
0.95293909311294556 0.86220663785934448 0.46426606178283691
0.99128979444503784 0.87031537294387817 0.45839688181877136
0.53954958915710449 0.81098920106887817 0.56456297636032104
0.55508154630661011 0.81206351518630981 0.57024955749511719
0.56856954097747803 0.81562906503677368 0.57354390621185303
0.59208220243453979 0.81807595491409302 0.57860487699508667
0.62462037801742554 0.82087689638137817 0.58684039115905762
0.66626113653182983 0.82537597417831421 0.59236901998519897
0.70883220434188843 0.83152323961257935 0.59315502643585205
0.74030297994613647 0.8397376537322998 0.59193277359008789
0.77904421091079712 0.85495090484619141 0.5889127254486084
0.82774639129638672 0.87382727861404419 0.58237278461456299
0.88870364427566528 0.88715642690658569 0.57299244403839111
0.94778519868850708 0.89725697040557861 0.56359595060348511
0.98733484745025635 0.90430748462677002 0.55689346790313721
0.67030298709869385 0.88357824087142944 0.65636414289474487
0.67749178409576416 0.88235574960708618 0.65848058462142944
0.69077438116073608 0.88491755723953247 0.66350442171096802
0.70998787879943848 0.88647854328155518 0.66921377182006836
0.73070919513702393 0.88592237234115601 0.67192912101745605
0.76311314105987549 0.88794702291488647 0.68118178844451904
0.79532033205032349 0.89178562164306641 0.68445491790771484
0.81725561618804932 0.89670348167419434 0.68425518274307251
0.84598290920257568 0.90752160549163818 0.68439656496047974
0.87518441677093506 0.9160008430480957 0.68106949329376221
0.91697937250137329 0.92272746562957764 0.67574578523635864
0.95445811748504639 0.9272693395614624 0.6676785945892334
0.9845154881477356 0.93252259492874146 0.6671639084815979
0.014764674007892609 0.11476823687553406 0.11862703412771225
0.03264312818646431 0.1150270476937294 0.1165124773979187
0.10093739628791809 0.11747400462627411 0.11740182340145111
0.19750452041625977 0.11371418088674545 0.12597078084945679
0.31002509593963623 0.10381477326154709 0.14154285192489624
0.42602860927581787 0.088212154805660248 0.15028078854084015
0.53779065608978271 0.071028724312782288 0.1545642614364624
0.63961160182952881 0.073640726506710052 0.16335967183113098
0.72562253475189209 0.12336849421262741 0.1771826446056366
0.80491191148757935 0.1788008064031601 0.18596065044403076
0.87484282255172729 0.2588132917881012 0.20767013728618622
0.94121336936950684 0.34532195329666138 0.23019012808799744
0.98852217197418213 0.42386060953140259 0.2564757764339447
0.013504507020115852 0.13148538768291473 0.12934599816799164
0.03928559273481369 0.13495558500289917 0.1332634836435318
0.11904420703649521 0.14356787502765656 0.13523927330970764
0.21439853310585022 0.14189064502716064 0.13502596318721771
0.32296890020370483 0.13437576591968536 0.14428409934043884
0.44014415144920349 0.12740319967269897 0.15035584568977356
0.55182933807373047 0.12736134231090546 0.15781585872173309
0.64395606517791748 0.1381312757730484 0.16594617068767548
0.72813475131988525 0.1741873025894165 0.17629207670688629
0.80761313438415527 0.21716301143169403 0.18552316725254059
0.87677526473999023 0.28825333714485168 0.20689328014850616
0.94355475902557373 0.36276733875274658 0.22717717289924622
0.99274760484695435 0.43418362736701965 0.25331702828407288
0.02368532121181488 0.1583537757396698 0.14184162020683289
0.061062157154083252 0.16712097823619843 0.14993426203727722
0.13194285333156586 0.18017908930778503 0.1518155038356781
0.22781960666179657 0.18312785029411316 0.14885963499546051
0.33758485317230225 0.17875242233276367 0.14445284008979797
0.4544365406036377 0.18555128574371338 0.15011060237884521
0.56190580129623413 0.19769835472106934 0.15925142168998718
0.65100634098052979 0.21438209712505341 0.1637633889913559
0.73176485300064087 0.24563094973564148 0.17534765601158142
0.80802363157272339 0.28108203411102295 0.18913912773132324
0.87778621912002563 0.33763256669044495 0.21204932034015656
0.9427916407585144 0.40620872378349304 0.23324631154537201
0.98865240812301636 0.46669209003448486 0.2599850594997406
0.054424285888671875 0.21244695782661438 0.16924594342708588
0.099940851330757141 0.22113998234272003 0.17300601303577423
0.1504022628068924 0.23217995464801788 0.17107093334197998
0.23162262141704559 0.24452827870845795 0.16394174098968506
0.35308575630187988 0.26415398716926575 0.15330402553081512
0.4714713990688324 0.27552616596221924 0.15136052668094635
0.57165467739105225 0.27958941459655762 0.15639303624629974
0.66097956895828247 0.28887414932250977 0.15893000364303589
0.73514318466186523 0.32052308320999146 0.17472946643829346
0.80743956565856934 0.35500422120094299 0.19247281551361084
0.87766796350479126 0.40221360325813293 0.21617206931114197
0.94181352853775024 0.45609748363494873 0.24130178987979889
0.98436254262924194 0.50834929943084717 0.27044570446014404
0.069794386625289917 0.28908070921897888 0.20198528468608856
0.12018445879220963 0.29971295595169067 0.20750688016414642
0.17412739992141724 0.310649573802948 0.20822909474372864
0.24157418310642242 0.32620927691459656 0.20759019255638123
0.35463866591453552 0.35560581088066101 0.18509159982204437
0.48301482200622559 0.38357260823249817 0.15291045606136322
0.5812256932258606 0.38698604702949524 0.15221573412418365
0.66450220346450806 0.38161376118659973 0.16277788579463959
0.73510533571243286 0.39557656645774841 0.17517350614070892
0.80733126401901245 0.42509511113166809 0.18952319025993347
0.8767932653427124 0.46486127376556396 0.21532909572124481
0.94363105297088623 0.50624459981918335 0.24203319847583771
0.98684120178222656 0.54990303516387939 0.27411043643951416
0.078349784016609192 0.37414824962615967 0.23785457015037537
0.13804051280021667 0.38321417570114136 0.24561911821365356
0.19855637848377228 0.39329048991203308 0.24908378720283508
0.26167154312133789 0.40707927942276001 0.25386196374893188
0.34477713704109192 0.43143579363822937 0.23946146667003632
0.46026220917701721 0.46161925792694092 0.20202934741973877
0.58303374052047729 0.48928862810134888 0.16845205426216125
0.66628068685531616 0.49033519625663757 0.17724339663982391
0.73733890056610107 0.48813721537590027 0.18661490082740784
0.80956089496612549 0.49704521894454956 0.19165389239788055
0.87692999839782715 0.52483665943145752 0.21766173839569092
0.94367998838424683 0.56051838397979736 0.24628341197967529
0.98813605308532715 0.59403800964355469 0.28061860799789429
0.12498981505632401 0.45692074298858643 0.28255942463874817
0.17886741459369659 0.46260225772857666 0.29212167859077454
0.23623804748058319 0.46995198726654053 0.29571005702018738
0.29463878273963928 0.48013046383857727 0.30009514093399048
0.35649645328521729 0.49510100483894348 0.29457381367683411
0.43821918964385986 0.52064329385757446 0.27175495028495789
0.55130249261856079 0.54787713289260864 0.24456803500652313
0.66024929285049438 0.57034397125244141 0.2212904691696167
0.74381333589553833 0.57867521047592163 0.21340472996234894
0.81278711557388306 0.58597499132156372 0.22425104677677155
0.88070034980773926 0.59950059652328491 0.24272100627422333
0.94603580236434937 0.61962282657623291 0.2658027708530426
0.98983585834503174 0.6457938551902771 0.29658952355384827
0.2083880603313446 0.52834618091583252 0.33497041463851929
0.24329124391078949 0.53257358074188232 0.34097063541412354
0.28820320963859558 0.53739672899246216 0.34532856941223145
0.34342056512832642 0.54944914579391479 0.35155701637268066
0.39189815521240234 0.55847787857055664 0.35210612416267395
0.45573782920837402 0.57509541511535645 0.34380373358726501
0.53572505712509155 0.59681278467178345 0.32678109407424927
0.63625997304916382 0.62275546789169312 0.29936471581459045
0.74087744951248169 0.65068399906158447 0.26563742756843567
0.81965726613998413 0.66838985681533813 0.26910844445228577
0.88678479194641113 0.67830497026443481 0.29037919640541077
0.95012563467025757 0.69062560796737671 0.30656039714813232
0.99035406112670898 0.70033043622970581 0.32222652435302734
0.28905725479125977 0.59552514553070068 0.3865131139755249
0.31592953205108643 0.60050034523010254 0.3925778865814209
0.34674942493438721 0.60504883527755737 0.39832648634910583
0.39665946364402771 0.6150016188621521 0.4061400294303894
0.44630211591720581 0.62354582548141479 0.40941119194030762
0.4955902099609375 0.63465034961700439 0.40759679675102234
0.55394399166107178 0.65021264553070068 0.3984673023223877
0.63222360610961914 0.67343688011169434 0.38062563538551331
0.72584825754165649 0.70044118165969849 0.35421106219291687
0.81789720058441162 0.72763478755950928 0.33932816982269287
0.89504098892211914 0.74674016237258911 0.3387056291103363
0.95461136102676392 0.75638282299041748 0.35205292701721191
0.98039501905441284 0.76048308610916138 0.36384469270706177
0.36605003476142883 0.66658300161361694 0.44377300143241882
0.38635081052780151 0.6702953577041626 0.44911769032478333
0.41781109571456909 0.6766170859336853 0.45709222555160522
0.45659813284873962 0.68086701631546021 0.46307060122489929
0.49775874614715576 0.68501019477844238 0.46457171440124512
0.5410538911819458 0.69366347789764404 0.46532541513442993
0.58585226535797119 0.70557332038879395 0.46375936269760132
0.65202885866165161 0.72714614868164062 0.4538523256778717
0.72368258237838745 0.74902468919754028 0.43913924694061279
0.80769449472427368 0.77420926094055176 0.42386049032211304
0.89529615640640259 0.80057370662689209 0.40302273631095886
0.95816904306411743 0.81638550758361816 0.39618590474128723
0.97391593456268311 0.81850796937942505 0.40728756785392761
0.4473298192024231 0.74042600393295288 0.50335931777954102
0.46032896637916565 0.74067646265029907 0.50676989555358887
0.48717397451400757 0.74579483270645142 0.51435458660125732
0.52206176519393921 0.74843013286590576 0.52051365375518799
0.55393904447555542 0.74807107448577881 0.52314656972885132
0.59383827447891235 0.75433504581451416 0.52587610483169556
0.63659262657165527 0.76705950498580933 0.52619814872741699
0.68658995628356934 0.78431755304336548 0.52144074440002441
0.74558234214782715 0.80238252878189087 0.51631736755371094
0.81524330377578735 0.82411569356918335 0.50715351104736328
0.89538955688476562 0.84684187173843384 0.48654377460479736
0.95478671789169312 0.86008483171463013 0.4756605327129364
0.98389601707458496 0.86571663618087769 0.47836029529571533
0.53860360383987427 0.81470209360122681 0.56906306743621826
0.55534309148788452 0.81358474493026733 0.57537728548049927
0.56738680601119995 0.81716090440750122 0.57747536897659302
0.59603691101074219 0.81865578889846802 0.58349591493606567
0.6339423656463623 0.81620079278945923 0.59399175643920898
0.66970497369766235 0.82020944356918335 0.60127383470535278
0.70578914880752563 0.82948684692382812 0.6011931300163269
0.73886394500732422 0.841724693775177 0.59842395782470703
0.78298574686050415 0.85718715190887451 0.59730422496795654
0.83358240127563477 0.8736836314201355 0.59302443265914917
0.89113593101501465 0.88593345880508423 0.58199954032897949
0.94396907091140747 0.89508146047592163 0.57177037000656128
0.98554748296737671 0.90366882085800171 0.56206351518630981
0.66923469305038452 0.88519740104675293 0.65872812271118164
0.680308997631073 0.88421726226806641 0.66289937496185303
0.68851172924041748 0.8865199089050293 0.66423588991165161
0.70900881290435791 0.88692128658294678 0.66916477680206299
0.73940461874008179 0.8859938383102417 0.67769372463226318
0.76399379968643188 0.88696074485778809 0.68352675437927246
0.79570931196212769 0.89187073707580566 0.69097471237182617
0.81884413957595825 0.89775973558425903 0.68771570920944214
0.84314936399459839 0.90458643436431885 0.68401950597763062
0.87681418657302856 0.91397958993911743 0.68163657188415527
0.91706448793411255 0.92112535238265991 0.67599177360534668
0.95256143808364868 0.92642199993133545 0.67106395959854126
0.98560053110122681 0.93331021070480347 0.67255783081054688
0.025634750723838806 0.11470717191696167 0.15940548479557037
0.059728510677814484 0.11750330030918121 0.16639851033687592
0.11789108067750931 0.11797869950532913 0.1605944037437439
0.20059061050415039 0.11613606661558151 0.16204546391963959
0.31950393319129944 0.10324592143297195 0.18141844868659973
0.43945476412773132 0.074759252369403839 0.19032870233058929
0.55124169588088989 0.067237734794616699 0.20140650868415833
0.64994269609451294 0.10103373974561691 0.2217077910900116
0.73239719867706299 0.15965192019939423 0.24109484255313873
0.80506795644760132 0.21853108704090118 0.25758284330368042
0.87096500396728516 0.28935050964355469 0.27657404541969299
0.93479663133621216 0.36472639441490173 0.29644405841827393
0.98589885234832764 0.43398007750511169 0.32005205750465393
0.014862943440675735 0.1314597874879837 0.17309708893299103
0.044172279536724091 0.13207066059112549 0.1743154376745224
0.13450121879577637 0.14257785677909851 0.18048632144927979
0.2232336699962616 0.14765831828117371 0.18190957605838776
0.3291817307472229 0.1411246657371521 0.19007512927055359
0.44657129049301147 0.13094452023506165 0.20025773346424103
0.55935066938400269 0.1354861706495285 0.21391385793685913
0.65460324287414551 0.15934967994689941 0.22528982162475586
0.73930007219314575 0.19793957471847534 0.24104712903499603
0.80948150157928467 0.24896183609962463 0.25751930475234985
0.87322342395782471 0.31451675295829773 0.27736389636993408
0.93882304430007935 0.38160040974617004 0.2960016131401062
0.98871254920959473 0.44365400075912476 0.31979015469551086
0.022063819691538811 0.16226746141910553 0.18525533378124237
0.063345998525619507 0.16826088726520538 0.19223758578300476
0.14207398891448975 0.17992527782917023 0.19862048327922821
0.2425311952829361 0.18610677123069763 0.1987806111574173
0.34770593047142029 0.18648172914981842 0.19778740406036377
0.46106636524200439 0.1927681565284729 0.20812977850437164
0.57079070806503296 0.20292010903358459 0.22035001218318939
0.66099649667739868 0.2272474467754364 0.22846102714538574
0.740753173828125 0.26138103008270264 0.24256972968578339
0.80833667516708374 0.30356210470199585 0.26079672574996948
0.87432003021240234 0.35929280519485474 0.28298243880271912
0.93751895427703857 0.42254453897476196 0.30176690220832825
0.98525792360305786 0.47549387812614441 0.32604169845581055
0.067290455102920532 0.21823568642139435 0.21039766073226929
0.11820587515830994 0.22710563242435455 0.21763508021831512
0.17424784600734711 0.23923856019973755 0.2202087938785553
0.25144678354263306 0.25151151418685913 0.22136899828910828
0.36114561557769775 0.26713153719902039 0.2178083211183548
0.47843301296234131 0.27766832709312439 0.21413879096508026
0.57963615655899048 0.28669330477714539 0.22293929755687714
0.66511934995651245 0.30641672015190125 0.23285655677318573
0.73826426267623901 0.3383362889289856 0.2464185357093811
0.80551987886428833 0.37452182173728943 0.26168909668922424
0.87335813045501709 0.42020875215530396 0.28572866320610046
0.93549907207489014 0.47081172466278076 0.30994844436645508
0.98080360889434814 0.51653081178665161 0.33592492341995239
0.12300539016723633 0.29940712451934814 0.24997067451477051
0.1603371649980545 0.30969491600990295 0.2531028687953949
0.20748937129974365 0.31984707713127136 0.25536510348320007
0.26614153385162354 0.33428925275802612 0.25374016165733337
0.36363157629966736 0.35973748564720154 0.24272392690181732
0.4906381368637085 0.3836815357208252 0.22238437831401825
0.58501154184341431 0.38801592588424683 0.22839763760566711
0.66614508628845215 0.39352607727050781 0.24109655618667603
