luts/instant_pro/fuji_fp-100c.cube
# Created by: G'MIC (https://gmic.eu)
TITLE "fuji_fp-100c"
# LUT size
LUT_3D_SIZE 13
# Data domain
DOMAIN_MIN 0.0 0.0 0.0
DOMAIN_MAX 1.0 1.0 1.0
# LUT data points
0.046761039644479752 0.063500210642814636 0.078773021697998047
0.074591182172298431 0.064592353999614716 0.076903730630874634
0.13551093637943268 0.064487934112548828 0.079922318458557129
0.21521563827991486 0.054179202765226364 0.081458896398544312
0.3057156503200531 0.032970055937767029 0.080416314303874969
0.40990173816680908 0.01034152414649725 0.080858178436756134
0.51446032524108887 0.0044309729710221291 0.084074355661869049
0.61607247591018677 0.0054862974211573601 0.088569134473800659
0.7115929126739502 0.007822912186384201 0.089871376752853394
0.79433673620223999 0.0058449092321097851 0.087680116295814514
0.86572176218032837 0.006715049035847187 0.086800701916217804
0.93036055564880371 0.018513428047299385 0.087992452085018158
0.98051244020462036 0.091076284646987915 0.095848232507705688
0.052314430475234985 0.087329462170600891 0.082414306700229645
0.089452736079692841 0.091641910374164581 0.081046432256698608
0.15225501358509064 0.097628436982631683 0.080186672508716583
0.2345527857542038 0.092374719679355621 0.080863922834396362
0.32982626557350159 0.075567521154880524 0.080332964658737183
0.42933559417724609 0.052856341004371643 0.080518417060375214
0.53160500526428223 0.030809799209237099 0.082467429339885712
0.62790191173553467 0.020556416362524033 0.084872409701347351
0.7189299464225769 0.018471019342541695 0.084575667977333069
0.79727810621261597 0.023183874785900116 0.083651885390281677
0.86742675304412842 0.041074536740779877 0.085733480751514435
0.93100267648696899 0.085749067366123199 0.092809595167636871
0.98099464178085327 0.15455672144889832 0.10091560333967209
0.045779120177030563 0.1413724273443222 0.086900241672992706
0.094216503202915192 0.14919495582580566 0.086153097450733185
0.16346034407615662 0.14986129105091095 0.07815571129322052
0.24983073770999908 0.15316669642925262 0.072425484657287598
0.35047325491905212 0.15150345861911774 0.068367153406143188
0.45722046494483948 0.14793086051940918 0.072913810610771179
0.55375635623931885 0.13496106863021851 0.078486904501914978
0.6428266167640686 0.12131856381893158 0.080183617770671844
0.72884303331375122 0.11642710119485855 0.083240211009979248
0.80498898029327393 0.13016429543495178 0.086448907852172852
0.87146610021591187 0.15235668420791626 0.09158884733915329
0.93390071392059326 0.18986813724040985 0.098340019583702087
0.98567408323287964 0.23330032825469971 0.10497680306434631
0.02640685997903347 0.21684092283248901 0.090106770396232605
0.086947590112686157 0.21764858067035675 0.088761501014232635
0.16747367382049561 0.22290784120559692 0.077639654278755188
0.25722888112068176 0.23346537351608276 0.059241455048322678
0.36897331476211548 0.24761985242366791 0.040879342705011368
0.48061847686767578 0.2528669536113739 0.045802216976881027
0.57654052972793579 0.25094279646873474 0.0570346899330616
0.66190016269683838 0.2459806501865387 0.063296452164649963
0.74360024929046631 0.24447184801101685 0.078503869473934174
0.81723147630691528 0.25575351715087891 0.089065253734588623
0.87857061624526978 0.27044209837913513 0.095530927181243896
0.9388623833656311 0.2926056981086731 0.10255951434373856
0.99001616239547729 0.30991947650909424 0.10819540917873383
0.0055921967141330242 0.30831080675125122 0.092251874506473541
0.057838872075080872 0.30857321619987488 0.090306691825389862
0.15391691029071808 0.31075176596641541 0.081525258719921112
0.25091326236724854 0.32315143942832947 0.060361165553331375
0.36459624767303467 0.34139737486839294 0.025663996115326881
0.47910964488983154 0.3524421751499176 0.014263496734201908
0.58049511909484863 0.35447770357131958 0.025827176868915558
0.67392319440841675 0.35925310850143433 0.039077460765838623
0.75908273458480835 0.36306878924369812 0.066029518842697144
0.82942032814025879 0.3689119815826416 0.087781094014644623
0.88785260915756226 0.37592431902885437 0.099542208015918732
0.94341462850570679 0.38757091760635376 0.11350172758102417
0.9898945689201355 0.39660897850990295 0.12276139855384827
0.0041637644171714783 0.40036320686340332 0.097301632165908813
0.024309733882546425 0.40311464667320251 0.092867635190486908
0.13194209337234497 0.40171822905540466 0.087777890264987946
0.2365441620349884 0.40996673703193665 0.064895644783973694
0.34090030193328857 0.42232254147529602 0.030387518927454948
0.45472091436386108 0.43419966101646423 0.010734947398304939
0.56134539842605591 0.44107097387313843 0.011981096118688583
0.65676504373550415 0.44638910889625549 0.011514865793287754
0.75040429830551147 0.45281916856765747 0.017841937020421028
0.83033591508865356 0.46159106492996216 0.05608883872628212
0.89548879861831665 0.47060006856918335 0.10433229804039001
0.94846314191818237 0.47777697443962097 0.1296776682138443
0.99103575944900513 0.48330545425415039 0.14004193246364594
0.0033505908213555813 0.48108950257301331 0.10022756457328796
0.010482938028872013 0.48124802112579346 0.097510002553462982
0.10740602016448975 0.48147872090339661 0.097752034664154053
0.22575266659259796 0.48575612902641296 0.084516532719135284
0.32240471243858337 0.49192216992378235 0.053935166448354721
0.42415860295295715 0.49983745813369751 0.019379978999495506
0.53033703565597534 0.51175743341445923 0.0089827897027134895
0.63121622800827026 0.52011650800704956 0.0070144953206181526
0.72548919916152954 0.52606600522994995 0.0068968231789767742
0.81242632865905762 0.53474301099777222 0.011110044084489346
0.88625317811965942 0.54485934972763062 0.050375889986753464
0.95000845193862915 0.56043028831481934 0.12414700537919998
0.98723286390304565 0.57041305303573608 0.17339393496513367
0.0043825483880937099 0.55400103330612183 0.11108607798814774
0.009296836331486702 0.55379027128219604 0.109563909471035
0.082721218466758728 0.55329018831253052 0.11061743646860123
0.21901139616966248 0.55384117364883423 0.10939908772706985
0.31417638063430786 0.55773115158081055 0.079075366258621216
0.40388315916061401 0.56540215015411377 0.038716007024049759
0.50307315587997437 0.5765538215637207 0.012969043105840683
0.60446763038635254 0.58596605062484741 0.0078483885154128075
0.69916987419128418 0.59256142377853394 0.0075301225297152996
0.78741210699081421 0.60191875696182251 0.0090801017358899117
0.86714726686477661 0.60982644557952881 0.010106958448886871
0.93534219264984131 0.62086755037307739 0.045532539486885071
0.98176395893096924 0.63809579610824585 0.14280323684215546
0.0072919959202408791 0.62406772375106812 0.13212031126022339
0.010980359278619289 0.62386035919189453 0.12720347940921783
0.086675532162189484 0.62188321352005005 0.12693063914775848
0.21654865145683289 0.61786580085754395 0.12529173493385315
0.31341195106506348 0.62068891525268555 0.1050422340631485
0.39869475364685059 0.62693440914154053 0.070094689726829529
0.48565930128097534 0.63563406467437744 0.027370452880859375
0.58004629611968994 0.64599961042404175 0.0080050453543663025
0.67420732975006104 0.65684646368026733 0.010023319162428379
0.76488912105560303 0.66477984189987183 0.013849729672074318
0.84641945362091064 0.6709563136100769 0.013144459575414658
0.92114394903182983 0.68027800321578979 0.011113454587757587
0.9809805154800415 0.69346457719802856 0.05654989555478096
0.0059502245858311653 0.69571781158447266 0.15470373630523682
0.022109117358922958 0.69313353300094604 0.1479424387216568
0.11838420480489731 0.69066751003265381 0.15050716698169708
0.2391296774148941 0.68554157018661499 0.150364950299263
0.32578304409980774 0.68293380737304688 0.14067244529724121
0.40709483623504639 0.68613636493682861 0.11630675196647644
0.48903834819793701 0.69469070434570312 0.071617782115936279
0.57191580533981323 0.70490872859954834 0.027399204671382904
0.66113334894180298 0.71498191356658936 0.015704914927482605
0.75140255689620972 0.72265392541885376 0.01562030240893364
0.83339124917984009 0.7307465672492981 0.015475134365260601
0.90792113542556763 0.74097347259521484 0.014978041872382164
0.97315233945846558 0.75035333633422852 0.010798884555697441
0.064539350569248199 0.76576346158981323 0.18832626938819885
0.11976934969425201 0.7635953426361084 0.18879272043704987
0.2015967071056366 0.7608674168586731 0.19089309871196747
0.28372567892074585 0.75588029623031616 0.18929657340049744
0.36203745007514954 0.75218039751052856 0.18679443001747131
0.43394625186920166 0.75081926584243774 0.17741815745830536
0.5137026309967041 0.75989437103271484 0.14707520604133606
0.58980202674865723 0.769214928150177 0.10847743600606918
0.66264402866363525 0.77596431970596313 0.051300603896379471
0.74315977096557617 0.78342431783676147 0.019130421802401543
0.8251112699508667 0.79277479648590088 0.01319586019963026
0.9023016095161438 0.80253344774246216 0.013691427186131477
0.96544629335403442 0.80946755409240723 0.0086826402693986893
0.23551666736602783 0.83551114797592163 0.25999316573143005
0.26177996397018433 0.83450049161911011 0.25918936729431152
0.30624032020568848 0.832175612449646 0.26009196043014526
0.36541801691055298 0.83062887191772461 0.26323163509368896
0.42692190408706665 0.82772713899612427 0.26267746090888977
0.48853090405464172 0.82562941312789917 0.25814953446388245
0.55642998218536377 0.8301159143447876 0.24817223846912384
0.62212306261062622 0.83727800846099854 0.2274816632270813
0.69663721323013306 0.84318971633911133 0.19124537706375122
0.76903760433197021 0.84935510158538818 0.13681986927986145
0.83436912298202515 0.85707825422286987 0.08454565703868866
0.90503048896789551 0.86547785997390747 0.033389370888471603
0.9666782021522522 0.8714098334312439 0.010254789143800735
0.41364535689353943 0.9102054238319397 0.38456714153289795
0.42851275205612183 0.90926200151443481 0.38373827934265137
0.45681485533714294 0.90817278623580933 0.38643267750740051
0.49198299646377563 0.90699374675750732 0.38672611117362976
0.53858649730682373 0.90599846839904785 0.39131870865821838
0.58937233686447144 0.90398091077804565 0.39397791028022766
0.64307928085327148 0.90450567007064819 0.39582663774490356
0.69678753614425659 0.90926814079284668 0.3884015679359436
0.7564048171043396 0.914406418800354 0.37190377712249756
0.81538528203964233 0.91829192638397217 0.34594303369522095
0.87202244997024536 0.9251171350479126 0.31697195768356323
0.93010330200195312 0.9315112829208374 0.26966741681098938
0.98324465751647949 0.93759435415267944 0.20025396347045898
0.051456347107887268 0.064671926200389862 0.10694644600152969
0.081418387591838837 0.062678255140781403 0.10759948939085007
0.13582514226436615 0.062186297029256821 0.1095866784453392
0.20844252407550812 0.057757403701543808 0.11211800575256348
0.30780488252639771 0.030120266601443291 0.11168675124645233
0.41587740182876587 0.0091627985239028931 0.11967343837022781
0.52505600452423096 0.007525470107793808 0.12691196799278259
0.62256187200546265 0.0063865659758448601 0.13169878721237183
0.71328836679458618 0.0069193374365568161 0.1317393034696579
0.79541623592376709 0.0079871378839015961 0.12917891144752502
0.86554497480392456 0.0075759440660476685 0.12789952754974365
0.92800521850585938 0.032889917492866516 0.1315157413482666
0.97921395301818848 0.1103510856628418 0.13704554736614227
0.055359229445457458 0.090728491544723511 0.11636032164096832
0.095747895538806915 0.093550242483615875 0.11884040385484695
0.15438421070575714 0.095005720853805542 0.11569320410490036
0.23448605835437775 0.09807344526052475 0.12006653100252151
0.33027246594429016 0.083565041422843933 0.12167011201381683
0.43669140338897705 0.059273410588502884 0.12361980974674225
0.53977352380752563 0.040792025625705719 0.12588095664978027
0.63225662708282471 0.029668411239981651 0.1298934668302536
0.71895712614059448 0.027441989630460739 0.1293175220489502
0.79758012294769287 0.032810959964990616 0.12695977091789246
0.86766594648361206 0.054662309587001801 0.12882933020591736
0.93139398097991943 0.10315126925706863 0.13440598547458649
0.98435801267623901 0.16820782423019409 0.14085030555725098
0.050158675760030746 0.14911438524723053 0.12540486454963684
0.098921865224838257 0.15720091760158539 0.12715588510036469
0.1695498526096344 0.15971268713474274 0.12309637665748596
0.25519326329231262 0.16335612535476685 0.11629330366849899
0.35542818903923035 0.15836922824382782 0.11596959084272385
0.46643143892288208 0.15794776380062103 0.12246356904506683
0.5642549991607666 0.14683149755001068 0.1268390566110611
0.64840859174728394 0.1350824385881424 0.13184034824371338
0.73089379072189331 0.13459219038486481 0.13247431814670563
0.80373430252075195 0.14442627131938934 0.13261313736438751
0.86923325061798096 0.17013716697692871 0.13594928383827209
0.93464177846908569 0.20525650680065155 0.13917525112628937
0.98859447240829468 0.23955829441547394 0.14577968418598175
0.028684623539447784 0.23377436399459839 0.13706029951572418
0.093603439629077911 0.23148965835571289 0.13305084407329559
0.17671018838882446 0.2351563423871994 0.12649326026439667
0.26927334070205688 0.2448308914899826 0.11119049787521362
0.37988987565040588 0.25731936097145081 0.1041070967912674
0.49126851558685303 0.2633129358291626 0.11289478093385696
0.58716452121734619 0.26090174913406372 0.12396029382944107
0.66863125562667847 0.25537317991256714 0.13090059161186218
0.74524319171905518 0.25707283616065979 0.1338030993938446
0.81428068876266479 0.26605534553527832 0.13662678003311157
0.87582921981811523 0.2803935706615448 0.14096122980117798
0.93643248081207275 0.29664856195449829 0.14751100540161133
0.98781895637512207 0.31612294912338257 0.15586674213409424
0.006793587002903223 0.32726606726646423 0.13835354149341583
0.060359176248311996 0.32623744010925293 0.13705472648143768
0.16276513040065765 0.32731124758720398 0.13118563592433929
0.26596537232398987 0.33744147419929504 0.11594721674919128
0.38042205572128296 0.35418620705604553 0.086549766361713409
0.4885958731174469 0.36152762174606323 0.065072856843471527
0.58795177936553955 0.36427515745162964 0.084232494235038757
0.67839455604553223 0.36805877089500427 0.10944207757711411
0.75858646631240845 0.37058347463607788 0.13039904832839966
0.82580339908599854 0.37596705555915833 0.14073386788368225
0.8849339485168457 0.37859603762626648 0.14714497327804565
0.94232970476150513 0.38735759258270264 0.15724673867225647
0.98919928073883057 0.3978484570980072 0.16593459248542786
0.004143150057643652 0.41582784056663513 0.14321374893188477
0.024917243048548698 0.41882157325744629 0.13927267491817474
0.14051012694835663 0.41793546080589294 0.13692040741443634
0.25562098622322083 0.42419895529747009 0.12083623558282852
0.36423695087432861 0.43599170446395874 0.090264387428760529
0.47028028964996338 0.4434857964515686 0.053279727697372437
0.57079601287841797 0.45118659734725952 0.028581252321600914
0.66317546367645264 0.45455148816108704 0.046642407774925232
0.75357311964035034 0.46053823828697205 0.080997928977012634
0.82937222719192505 0.46836555004119873 0.12208157777786255
0.89518576860427856 0.47329327464103699 0.15526434779167175
0.94802463054656982 0.48051667213439941 0.17266063392162323
0.98813551664352417 0.48773068189620972 0.18845397233963013
0.0033043057192116976 0.49381443858146667 0.14664478600025177
0.012079814448952675 0.49474793672561646 0.14403218030929565
0.12049400806427002 0.4955858588218689 0.14400072395801544
0.239540696144104 0.49788665771484375 0.1366618275642395
0.34095391631126404 0.50411266088485718 0.11406850069761276
0.44206088781356812 0.51239949464797974 0.073715761303901672
0.54291784763336182 0.52409344911575317 0.026523500680923462
0.63947457075119019 0.52714157104492188 0.014144613407552242
0.73181617259979248 0.53115367889404297 0.020881533622741699
0.81690961122512817 0.54060941934585571 0.051376566290855408
0.8888554573059082 0.55116546154022217 0.1140124723315239
0.94751518964767456 0.562785804271698 0.17216366529464722
0.98663884401321411 0.57310628890991211 0.2136719673871994
0.0055433684028685093 0.5646173357963562 0.15638858079910278
0.0089073032140731812 0.56555122137069702 0.151932492852211
0.093558460474014282 0.56538844108581543 0.1544451117515564
0.22600360214710236 0.56581252813339233 0.15916959941387177
0.32724568247795105 0.56990605592727661 0.14016939699649811
0.41958510875701904 0.57677572965621948 0.10352659225463867
0.51198041439056396 0.58460837602615356 0.048496320843696594
0.60872191190719604 0.59108960628509521 0.015962278470396996
0.70486342906951904 0.59773248434066772 0.0082819024100899696
0.79207420349121094 0.60565280914306641 0.014545978978276253
0.87030833959579468 0.61424535512924194 0.036903500556945801
0.93605029582977295 0.62601572275161743 0.10885494202375412
0.98225539922714233 0.64157140254974365 0.19531013071537018
0.0080626988783478737 0.63180863857269287 0.17104049026966095
0.011856019496917725 0.6327899694442749 0.16523599624633789
0.093694321811199188 0.63212436437606812 0.1673235148191452
0.22550082206726074 0.63156425952911377 0.1744525283575058
0.3258918821811676 0.63110119104385376 0.16307993233203888
0.41490766406059265 0.63570183515548706 0.1332099586725235
0.50082308053970337 0.64327359199523926 0.082759663462638855
0.58567219972610474 0.65154165029525757 0.032816372811794281
0.67692011594772339 0.66066205501556396 0.0096422536298632622
0.76704877614974976 0.66674607992172241 0.013065173290669918
0.85053074359893799 0.67280954122543335 0.012406831607222557
0.92309212684631348 0.68201291561126709 0.027597149834036827
0.98109477758407593 0.69511979818344116 0.11289170384407043
0.0083017684519290924 0.69980150461196899 0.18804317712783813
0.027160989120602608 0.69974404573440552 0.1830088347196579
0.12795527279376984 0.69786882400512695 0.18867498636245728
0.24783644080162048 0.69562125205993652 0.19305483996868134
0.3334466814994812 0.69168335199356079 0.1839013546705246
0.41524910926818848 0.69212156534194946 0.16349795460700989
0.50070112943649292 0.7006421685218811 0.12490691989660263
0.58398747444152832 0.71067380905151367 0.077657870948314667
0.6631506085395813 0.71861368417739868 0.030382104218006134
0.74972325563430786 0.7247469425201416 0.014503838494420052
0.83243000507354736 0.73235070705413818 0.012627351097762585
0.90840935707092285 0.74066698551177979 0.014033987186849117
0.97524726390838623 0.75086581707000732 0.023779625073075294
0.070098787546157837 0.768818199634552 0.21773876249790192
0.11659086495637894 0.765605628490448 0.22301138937473297
0.19899842143058777 0.76461523771286011 0.22490003705024719
0.29173153638839722 0.76222199201583862 0.22685545682907104
0.36946016550064087 0.75727319717407227 0.22194883227348328
0.44112256169319153 0.75581955909729004 0.21481065452098846
0.52304834127426147 0.76463675498962402 0.19116312265396118
0.59964817762374878 0.77204334735870361 0.14761461317539215
0.66929668188095093 0.77830749750137329 0.095593713223934174
0.74350804090499878 0.78539508581161499 0.041133671998977661
0.82323247194290161 0.79469889402389526 0.016928862780332565
0.90024846792221069 0.80297625064849854 0.012318644672632217
0.96480977535247803 0.81011480093002319 0.0081057231873273849
0.23282112181186676 0.83783465623855591 0.2825617790222168
0.26270624995231628 0.83689194917678833 0.28571143746376038
0.31121411919593811 0.83578670024871826 0.28723827004432678
0.36806610226631165 0.83404940366744995 0.28747427463531494
0.43005663156509399 0.82976168394088745 0.28653168678283691
0.49277576804161072 0.82901167869567871 0.28458401560783386
0.56089526414871216 0.83279216289520264 0.27506068348884583
0.62971889972686768 0.83792304992675781 0.25571480393409729
0.69969683885574341 0.84423917531967163 0.22615619003772736
0.77146798372268677 0.85081601142883301 0.17832544445991516
0.8375963568687439 0.85891777276992798 0.1145818829536438
0.9041752815246582 0.86565577983856201 0.054089371114969254
0.9660831093788147 0.87215453386306763 0.013018634170293808
0.41371166706085205 0.91105937957763672 0.39925292134284973
0.42790377140045166 0.91078507900238037 0.39723515510559082
0.45882749557495117 0.90990269184112549 0.40267747640609741
0.49352523684501648 0.90843766927719116 0.40141564607620239
0.53723567724227905 0.9058271050453186 0.40330973267555237
0.5896226167678833 0.90436089038848877 0.40796718001365662
0.64579659700393677 0.90622460842132568 0.41277393698692322
0.70114290714263916 0.90978872776031494 0.40562716126441956
0.75650203227996826 0.91415560245513916 0.39139559864997864
0.8159177303314209 0.91961181163787842 0.3684808611869812
0.87380778789520264 0.92565435171127319 0.3355674147605896
0.9299120306968689 0.93128377199172974 0.29319709539413452
0.98430651426315308 0.93816220760345459 0.22800184786319733
0.060026608407497406 0.062550246715545654 0.15834517776966095
0.10515788942575455 0.055432770401239395 0.16994728147983551
0.17040619254112244 0.042747601866722107 0.17390081286430359
0.21795980632305145 0.052607472985982895 0.16417130827903748
0.29767972230911255 0.050122968852519989 0.16862697899341583
0.4098164439201355 0.019805848598480225 0.17364400625228882
0.52303397655487061 0.0085493354126811028 0.17981649935245514
0.62622171640396118 0.0057920869439840317 0.17957739531993866
0.71319717168807983 0.0043531530536711216 0.18017064034938812
0.79123580455780029 0.0061447443440556526 0.18242231011390686
0.86228644847869873 0.012592555023729801 0.18297123908996582
0.92523926496505737 0.048456437885761261 0.18726295232772827
0.97413331270217896 0.11975646764039993 0.19575618207454681
0.059654835611581802 0.091720476746559143 0.16738879680633545
0.10664772987365723 0.095123335719108582 0.17680692672729492
0.17512799799442291 0.089073151350021362 0.18192158639431
0.24126416444778442 0.098387867212295532 0.18031877279281616
0.32366415858268738 0.093886174261569977 0.17868044972419739
0.43414491415023804 0.065137453377246857 0.17815226316452026
0.54284358024597168 0.042918097227811813 0.18059173226356506
0.63762712478637695 0.035221412777900696 0.18305917084217072
0.71946674585342407 0.039310693740844727 0.18642228841781616
0.79392486810684204 0.052285436540842056 0.18774780631065369
0.86292183399200439 0.077189818024635315 0.18973356485366821
0.92699044942855835 0.12255887687206268 0.19548074901103973
0.9797247052192688 0.17633543908596039 0.20119760930538177
0.055041011422872543 0.1562381237745285 0.18580563366413116
0.10858675092458725 0.16329802572727203 0.19230389595031738
0.1832868903875351 0.16374126076698303 0.19383960962295532
0.26600626111030579 0.16859318315982819 0.19029641151428223
0.36064338684082031 0.17121662199497223 0.18548983335494995
0.46740427613258362 0.16327378153800964 0.1888212263584137
0.56604146957397461 0.15629288554191589 0.19370567798614502
0.65225708484649658 0.15195682644844055 0.1941685676574707
0.729714035987854 0.15421470999717712 0.19478195905685425
0.79927486181259155 0.16332483291625977 0.19643944501876831
0.86547565460205078 0.18347837030887604 0.19793029129505157
0.92871320247650146 0.21370106935501099 0.20167003571987152
0.98122239112854004 0.24801316857337952 0.20686803758144379
0.029269438236951828 0.2483818531036377 0.20851269364356995
0.10194352269172668 0.2488865852355957 0.20717597007751465
0.18964006006717682 0.25235477089881897 0.20487146079540253
0.28555178642272949 0.26450902223587036 0.19652190804481506
0.39064556360244751 0.27178841829299927 0.18770664930343628
0.49225679039955139 0.27388647198677063 0.19701492786407471
0.58686023950576782 0.27027133107185364 0.20225432515144348
0.67061841487884521 0.26666176319122314 0.2011745274066925
0.74185752868652344 0.26787397265434265 0.20128871500492096
0.80922681093215942 0.27580362558364868 0.20273584127426147
0.87171489000320435 0.28473815321922302 0.20431162416934967
0.93152296543121338 0.29999491572380066 0.20766526460647583
0.98371785879135132 0.3245602548122406 0.21240419149398804
0.011896021664142609 0.35204952955245972 0.21403229236602783
0.074177265167236328 0.35565546154975891 0.21483182907104492
0.17878256738185883 0.35872721672058105 0.21429246664047241
0.2872670590877533 0.36268189549446106 0.20313449203968048
