luts/instant_pro/fuji_fp-100c_alt.cube
# Created by: G'MIC (https://gmic.eu)
TITLE "fuji_fp-100c_alt"
# LUT size
LUT_3D_SIZE 5
# Data domain
DOMAIN_MIN 0.0 0.0 0.0
DOMAIN_MAX 1.0 1.0 1.0
# LUT data points
0.030877744778990746 0.0095699978992342949 0.019319571554660797
0.12101274728775024 0.005995641928166151 0.0055837444961071014
0.28548848628997803 0.007298189215362072 0.0014298532623797655
0.56974619626998901 0 0
0.80529636144638062 0.0014441695529967546 0.00071838975418359041
0.12118662148714066 0.18881125748157501 0.07298964262008667
0.1892617791891098 0.17430399358272552 0.05700085312128067
0.38213148713111877 0.13908486068248749 0.019110720604658127
0.64251601696014404 0.06415887176990509 1.4540728443535045e-05
0.83718812465667725 0.0042237676680088043 0.00033060708665288985
0.18204078078269958 0.49145108461380005 0.1392858624458313
0.30161246657371521 0.47524461150169373 0.1222035139799118
0.51603788137435913 0.44791609048843384 0.081271931529045105
0.74015349149703979 0.39386022090911865 0.038261443376541138
0.90790212154388428 0.31170699000358582 0.014093211852014065
0.45565521717071533 0.73102420568466187 0.099897705018520355
0.54017764329910278 0.73163187503814697 0.090666800737380981
0.69251143932342529 0.71856987476348877 0.073513790965080261
0.84924548864364624 0.69983512163162231 0.062358271330595016
0.97202801704406738 0.66432797908782959 0.054416026920080185
0.81162232160568237 0.85943984985351562 0.011457988992333412
0.83509975671768188 0.85842746496200562 0.020264405757188797
0.89200848340988159 0.85125243663787842 0.0089425630867481232
0.96799254417419434 0.84715569019317627 0.0082075381651520729
1 0.83375388383865356 0.0074084713123738766
0.026538534089922905 0.025634016841650009 0.1536315530538559
0.11694356799125671 0.015727996826171875 0.13088227808475494
0.30522489547729492 0.0028470058459788561 0.086859039962291718
0.57223182916641235 0 0.028500890359282494
0.79792660474777222 0.0046977773308753967 0.0016422197222709656
0.11500599980354309 0.20863953232765198 0.20585434138774872
0.19318149983882904 0.1933862566947937 0.1908746063709259
0.39192157983779907 0.1501365453004837 0.15269364416599274
0.6394619345664978 0.085280969738960266 0.086578413844108582
0.83103615045547485 0.017649542540311813 0.035853635519742966
0.18174709379673004 0.49284547567367554 0.27548903226852417
0.30149650573730469 0.49234423041343689 0.26263889670372009
0.51228779554367065 0.46384117007255554 0.22791431844234467
0.73455345630645752 0.4154505729675293 0.18256883323192596
0.90397578477859497 0.34560698270797729 0.14799851179122925
0.45703867077827454 0.74849587678909302 0.27141711115837097
0.53688973188400269 0.74800765514373779 0.25961202383041382
0.68048787117004395 0.73322802782058716 0.24023512005805969
0.82929003238677979 0.71500545740127563 0.21863466501235962
0.96239960193634033 0.68820273876190186 0.22284404933452606
0.80225777626037598 0.87275439500808716 0.044118393212556839
0.82434195280075073 0.87001079320907593 0.047723866999149323
0.8788524866104126 0.86578738689422607 0.05079173669219017
0.95174998044967651 0.86105698347091675 0.064337395131587982
0.99895018339157104 0.85087454319000244 0.088888369500637054
0.011731570586562157 0.053477149456739426 0.36047819256782532
0.11336619406938553 0.037297476083040237 0.35182595252990723
0.31024894118309021 0.007162430789321661 0.30998894572257996
0.56788402795791626 0 0.23950989544391632
0.78629553318023682 0 0.19835929572582245
0.10937453806400299 0.23687188327312469 0.43685063719749451
0.18969267606735229 0.22031010687351227 0.43042057752609253
0.3923681378364563 0.17648179829120636 0.39956814050674438
0.63184231519699097 0.11641719937324524 0.3355347216129303
0.81677794456481934 0.041870895773172379 0.28628578782081604
0.1300235241651535 0.53807365894317627 0.54713594913482666
0.27573683857917786 0.53501194715499878 0.53630822896957397
0.50197672843933105 0.50110304355621338 0.50596457719802856
0.72220247983932495 0.45689964294433594 0.46807143092155457
0.88159549236297607 0.38132089376449585 0.42878708243370056
0.42630580067634583 0.78935408592224121 0.59624677896499634
0.50991201400756836 0.78602367639541626 0.58733415603637695
0.65540212392807007 0.77292299270629883 0.56904858350753784
0.80234050750732422 0.7544974684715271 0.55377089977264404
0.93014669418334961 0.7287524938583374 0.54828321933746338
0.7628326416015625 0.91289037466049194 0.49665734171867371
0.78470516204833984 0.91225552558898926 0.48352280259132385
0.83247214555740356 0.90806376934051514 0.48630523681640625
0.90534281730651855 0.90249812602996826 0.50772958993911743
0.98977410793304443 0.89336222410202026 0.52362930774688721
0.0175602026283741 0.081789739429950714 0.61244511604309082
0.11281630396842957 0.065286509692668915 0.59720802307128906
0.31107231974601746 0.024014685302972794 0.54922163486480713
0.5681530237197876 0.0033448762260377407 0.48098370432853699
0.7777971625328064 0 0.44618955254554749
0.091813631355762482 0.26225405931472778 0.69278770685195923
0.18075476586818695 0.24884328246116638 0.67491406202316284
0.3976670503616333 0.20403264462947845 0.62875169515609741
0.63051408529281616 0.1401342898607254 0.56913083791732788
0.80645334720611572 0.054013945162296295 0.52131205797195435
0.14202845096588135 0.56774759292602539 0.78772431612014771
0.28447133302688599 0.55636310577392578 0.76655012369155884
0.50729519128799438 0.52375692129135132 0.72828048467636108
0.71346569061279297 0.48153135180473328 0.68919634819030762
0.86632400751113892 0.39686036109924316 0.644603431224823
0.43264514207839966 0.82358217239379883 0.84107726812362671
0.50787895917892456 0.81477826833724976 0.82966232299804688
0.64498591423034668 0.79707193374633789 0.80521553754806519
0.78343915939331055 0.78234058618545532 0.78551149368286133
0.90827953815460205 0.75387799739837646 0.76105225086212158
0.7308964729309082 0.95620405673980713 0.82047009468078613
0.75112694501876831 0.95382058620452881 0.81912904977798462
0.79990768432617188 0.94582724571228027 0.7989497184753418
0.86983209848403931 0.93683063983917236 0.79635727405548096
0.96210789680480957 0.93002480268478394 0.79766625165939331
0.028109770268201828 0.091262295842170715 0.78102129697799683
0.14838352799415588 0.081170953810214996 0.76200348138809204
0.35730507969856262 0.048037942498922348 0.71001625061035156
0.59733164310455322 0.0078624049201607704 0.64016586542129517
0.77746498584747314 0 0.5952649712562561
0.11954952776432037 0.270252525806427 0.83634763956069946
0.23491282761096954 0.25506812334060669 0.8170856237411499
0.44332325458526611 0.21319898962974548 0.76831388473510742
0.65120673179626465 0.14890302717685699 0.70812618732452393
0.80363672971725464 0.059903550893068314 0.651691734790802
0.2485310286283493 0.56706112623214722 0.91079896688461304
0.36024090647697449 0.55891239643096924 0.89323735237121582
0.55053389072418213 0.5294191837310791 0.85423415899276733
0.72799360752105713 0.4975983202457428 0.81656181812286377
0.86283218860626221 0.40176224708557129 0.76542723178863525
0.49906009435653687 0.83375871181488037 0.96068412065505981
0.55786025524139404 0.82861471176147461 0.95050102472305298
0.67088407278060913 0.81342774629592896 0.93352609872817993
0.79024946689605713 0.80006927251815796 0.91379034519195557
0.90514862537384033 0.76453453302383423 0.88350075483322144
0.74068909883499146 0.97559982538223267 0.97991526126861572
0.76223236322402954 0.97648704051971436 0.97130286693572998
0.80218702554702759 0.97525703907012939 0.9729691743850708
0.86691766977310181 0.96460896730422974 0.96155112981796265
0.95739847421646118 0.95762395858764648 0.9568665623664856
