luts/instant_pro/fuji_fp-100c_negative_-.cube
# Created by: G'MIC (https://gmic.eu)
TITLE "fuji_fp-100c_negative_-"
# LUT size
LUT_3D_SIZE 7
# Data domain
DOMAIN_MIN 0.0 0.0 0.0
DOMAIN_MAX 1.0 1.0 1.0
# LUT data points
0.016502080485224724 0.11705953627824783 0.11003106832504272
0.10323136299848557 0.11626961082220078 0.10295628756284714
0.29270145297050476 0.10147923231124878 0.10771897435188293
0.5310521125793457 0.043954901397228241 0.11051222681999207
0.72557145357131958 0.076789364218711853 0.1272217184305191
0.87899953126907349 0.2366180419921875 0.15608227252960205
0.98799765110015869 0.40822127461433411 0.20774765312671661
0.016463963314890862 0.15205420553684235 0.11556350439786911
0.1167452484369278 0.1675056666135788 0.11680343002080917
0.33055600523948669 0.1744159609079361 0.10375234484672546
0.55871027708053589 0.17732326686382294 0.11033371835947037
0.73086047172546387 0.22751504182815552 0.12737084925174713
0.88144534826278687 0.32795307040214539 0.15781058371067047
0.98608195781707764 0.45933079719543457 0.21449154615402222
0.024806827306747437 0.27849355340003967 0.17297478020191193
0.14504921436309814 0.30011817812919617 0.17074191570281982
0.34069961309432983 0.34935367107391357 0.13628523051738739
0.58134305477142334 0.38580232858657837 0.087764650583267212
0.73677158355712891 0.38924819231033325 0.1212017759680748
0.88080877065658569 0.45807823538780212 0.16213604807853699
0.98720932006835938 0.54441392421722412 0.23242571949958801
0.082463718950748444 0.44725698232650757 0.26162031292915344
0.21445769071578979 0.46006163954734802 0.27054855227470398
0.3387112021446228 0.4880448579788208 0.2622164785861969
0.54175055027008057 0.54629606008529663 0.20456735789775848
0.7455248236656189 0.58008015155792236 0.15868566930294037
0.88369190692901611 0.59766072034835815 0.19282218813896179
0.99196368455886841 0.64393579959869385 0.25740143656730652
0.2843482494354248 0.59421062469482422 0.38132038712501526
0.3453158438205719 0.60574382543563843 0.39215043187141418
0.43283170461654663 0.61905592679977417 0.38820242881774902
0.54751330614089966 0.64596128463745117 0.37650740146636963
0.71961331367492676 0.69829481840133667 0.33278307318687439
0.89431780576705933 0.74805569648742676 0.3065541684627533
0.98519712686538696 0.76345503330230713 0.34751850366592407
0.44090703129768372 0.7374413013458252 0.49336656928062439
0.48320987820625305 0.74597471952438354 0.50726693868637085
0.55710816383361816 0.75357824563980103 0.51755440235137939
0.63560843467712402 0.76824033260345459 0.51522183418273926
0.74018740653991699 0.80092030763626099 0.50233274698257446
0.89164227247238159 0.84678971767425537 0.4786338210105896
0.99128979444503784 0.87031537294387817 0.45839688181877136
0.67030298709869385 0.88357824087142944 0.65636414289474487
0.69077438116073608 0.88491755723953247 0.66350442171096802
0.73070919513702393 0.88592237234115601 0.67192912101745605
0.79532033205032349 0.89178562164306641 0.68445491790771484
0.84598290920257568 0.90752160549163818 0.68439656496047974
0.91697937250137329 0.92272746562957764 0.67574578523635864
0.9845154881477356 0.93252259492874146 0.6671639084815979
0.025634750723838806 0.11470717191696167 0.15940548479557037
0.11789108067750931 0.11797869950532913 0.1605944037437439
0.31950393319129944 0.10324592143297195 0.18141844868659973
0.55124169588088989 0.067237734794616699 0.20140650868415833
0.73239719867706299 0.15965192019939423 0.24109484255313873
0.87096500396728516 0.28935050964355469 0.27657404541969299
0.98589885234832764 0.43398007750511169 0.32005205750465393
0.022063819691538811 0.16226746141910553 0.18525533378124237
0.14207398891448975 0.17992527782917023 0.19862048327922821
0.34770593047142029 0.18648172914981842 0.19778740406036377
0.57079070806503296 0.20292010903358459 0.22035001218318939
0.740753173828125 0.26138103008270264 0.24256972968578339
0.87432003021240234 0.35929280519485474 0.28298243880271912
0.98525792360305786 0.47549387812614441 0.32604169845581055
0.12300539016723633 0.29940712451934814 0.24997067451477051
0.20748937129974365 0.31984707713127136 0.25536510348320007
0.36363157629966736 0.35973748564720154 0.24272392690181732
0.58501154184341431 0.38801592588424683 0.22839763760566711
0.73849844932556152 0.41069129109382629 0.25058254599571228
0.87186712026596069 0.47899654507637024 0.282277911901474
0.97979414463043213 0.5576484203338623 0.34127670526504517
0.1849270761013031 0.46820074319839478 0.323020339012146
0.26135870814323425 0.47970312833786011 0.3306134045124054
0.38284873962402344 0.50309294462203979 0.33652204275131226
0.55976605415344238 0.54740822315216064 0.30478799343109131
0.74513822793960571 0.58146601915359497 0.27966684103012085
0.87991917133331299 0.59995347261428833 0.2989095151424408
0.98681735992431641 0.64734441041946411 0.34489858150482178
0.31144234538078308 0.60358226299285889 0.4088100790977478
0.37008479237556458 0.61221587657928467 0.42391183972358704
0.46202212572097778 0.62890744209289551 0.43270114064216614
0.56842148303985596 0.65450513362884521 0.42477273941040039
0.7298855185508728 0.69959789514541626 0.39103057980537415
0.89660859107971191 0.74680978059768677 0.37734544277191162
0.98758751153945923 0.75714737176895142 0.39936947822570801
0.45330065488815308 0.74244660139083862 0.51470917463302612
0.48680001497268677 0.74470782279968262 0.52120506763458252
0.55584448575973511 0.74914044141769409 0.5347362756729126
0.64256411790847778 0.76965481042861938 0.54372739791870117
0.74935472011566162 0.80422711372375488 0.531150221824646
0.89376235008239746 0.84547442197799683 0.50940549373626709
0.99168503284454346 0.86743366718292236 0.4977889358997345
0.66595602035522461 0.88480395078659058 0.66115158796310425
0.69006264209747314 0.88644742965698242 0.6697571873664856
0.74075114727020264 0.88897037506103516 0.68313014507293701
0.793243408203125 0.89361000061035156 0.69505226612091064
0.84280335903167725 0.90414881706237793 0.68890917301177979
0.91789883375167847 0.92201036214828491 0.68383181095123291
0.98743605613708496 0.93275988101959229 0.68010795116424561
0.094559736549854279 0.10572285205125809 0.30977901816368103
0.23445945978164673 0.10964419692754745 0.32494625449180603
0.3896605372428894 0.13454505801200867 0.3224843442440033
0.59908872842788696 0.13069693744182587 0.35444071888923645
0.77621948719024658 0.19162704050540924 0.38344660401344299
0.89928698539733887 0.30643120408058167 0.41422209143638611
0.9892810583114624 0.44205224514007568 0.46543669700622559
0.016242127865552902 0.15907706320285797 0.33105871081352234
0.2042963057756424 0.17640748620033264 0.34351059794425964
0.41051319241523743 0.23091186583042145 0.35873407125473022
0.59575504064559937 0.2599155604839325 0.37917217612266541
0.76315104961395264 0.30325978994369507 0.40086469054222107
0.88354939222335815 0.389394611120224 0.43303510546684265
0.98711740970611572 0.48734447360038757 0.47173720598220825
0.05073586106300354 0.30214077234268188 0.3548644483089447
0.19340531527996063 0.32230553030967712 0.37775498628616333
0.42295938730239868 0.37673783302307129 0.39690342545509338
0.60253137350082397 0.42785075306892395 0.4059872031211853
0.75434643030166626 0.45112425088882446 0.41667473316192627
0.88229227066040039 0.49453267455101013 0.43325433135032654
0.97868013381958008 0.56433814764022827 0.47013041377067566
0.25238168239593506 0.47943755984306335 0.42817431688308716
0.34233704209327698 0.49278798699378967 0.43683448433876038
0.45622655749320984 0.52184033393859863 0.44704580307006836
0.58656513690948486 0.55437237024307251 0.44203376770019531
0.74626618623733521 0.5820002555847168 0.43291890621185303
0.87781620025634766 0.61260443925857544 0.44522017240524292
0.98374152183532715 0.65068376064300537 0.47023710608482361
0.40992450714111328 0.6158905029296875 0.49516397714614868
0.43156200647354126 0.62127184867858887 0.49496275186538696
0.50388187170028687 0.63920056819915771 0.49964869022369385
0.59926515817642212 0.66077804565429688 0.50389236211776733
0.74386000633239746 0.70550537109375 0.49410545825958252
0.89495974779129028 0.74029898643493652 0.48351490497589111
0.99124926328659058 0.7525750994682312 0.49695706367492676
0.48697444796562195 0.74425876140594482 0.55973255634307861
0.50787639617919922 0.7486920952796936 0.56100994348526001
0.57017624378204346 0.7620776891708374 0.57092911005020142
0.66577154397964478 0.77804774045944214 0.58851343393325806
0.7587396502494812 0.80677592754364014 0.58733963966369629
0.89342302083969116 0.84370946884155273 0.57315456867218018
0.99259853363037109 0.86451297998428345 0.56809288263320923
0.66578501462936401 0.88826626539230347 0.67718172073364258
0.6843147873878479 0.88956916332244873 0.6816946268081665
0.72760647535324097 0.89023977518081665 0.69052457809448242
0.79902774095535278 0.89521867036819458 0.71039754152297974
0.86056941747665405 0.90686464309692383 0.71254366636276245
0.92251098155975342 0.91844451427459717 0.70843011140823364
0.98789459466934204 0.93112671375274658 0.71357458829879761
0.23181979358196259 0.07456168532371521 0.46640065312385559
0.35230708122253418 0.066383227705955505 0.49004727602005005
0.53474634885787964 0.13156908750534058 0.51290470361709595
0.65425354242324829 0.2748056948184967 0.51957911252975464
0.77681964635848999 0.33105868101119995 0.5402413010597229
0.9374193549156189 0.41810855269432068 0.58120131492614746
0.99443596601486206 0.47696596384048462 0.59187966585159302
0.17139622569084167 0.15656116604804993 0.49332877993583679
0.31203731894493103 0.17716525495052338 0.50485837459564209
0.51811891794204712 0.25125497579574585 0.52276706695556641
0.64745038747787476 0.36570703983306885 0.53193652629852295
0.77731120586395264 0.4123578667640686 0.55526018142700195
0.93280947208404541 0.4638039767742157 0.58733540773391724
0.99875324964523315 0.50259077548980713 0.59408789873123169
0.016135137528181076 0.28624406456947327 0.49796339869499207
0.11696603894233704 0.30373623967170715 0.50822645425796509
0.45683315396308899 0.38024243712425232 0.53287011384963989
0.64640289545059204 0.4820837676525116 0.55629664659500122
0.77319240570068359 0.50577288866043091 0.57222449779510498
0.91022020578384399 0.53990215063095093 0.59067803621292114
0.99647361040115356 0.57590270042419434 0.60196846723556519
0.18141168355941772 0.46627748012542725 0.50539922714233398
0.28861227631568909 0.48282793164253235 0.51564162969589233
0.43574506044387817 0.50922781229019165 0.54257214069366455
0.62901264429092407 0.57453662157058716 0.56849056482315063
0.76106423139572144 0.60298842191696167 0.57586824893951416
0.88686740398406982 0.62430757284164429 0.58887028694152832
0.98532801866531372 0.66288125514984131 0.60525184869766235
0.38308602571487427 0.60569649934768677 0.55535155534744263
0.43972831964492798 0.61731797456741333 0.56259214878082275
0.52508759498596191 0.63939094543457031 0.57663959264755249
0.63482928276062012 0.6712232232093811 0.59118396043777466
0.75859171152114868 0.71326261758804321 0.59684234857559204
0.90199464559555054 0.74296146631240845 0.59638971090316772
0.99613803625106812 0.75194764137268066 0.59864836931228638
0.49563157558441162 0.74348139762878418 0.6205981969833374
0.53839206695556641 0.7510254979133606 0.62732952833175659
0.59212982654571533 0.76300728321075439 0.62679004669189453
0.67079013586044312 0.78374838829040527 0.63562476634979248
0.77265387773513794 0.81247967481613159 0.64867603778839111
0.90255570411682129 0.84490692615509033 0.64663833379745483
0.99686181545257568 0.86716079711914062 0.64695912599563599
0.68718826770782471 0.88705253601074219 0.71294134855270386
0.70943516492843628 0.88930821418762207 0.71675801277160645
0.73819637298583984 0.8910059928894043 0.71597146987915039
0.79172074794769287 0.89716207981109619 0.72618705034255981
0.8704150915145874 0.90748268365859985 0.74391824007034302
0.93565529584884644 0.91978937387466431 0.74224555492401123
0.99086183309555054 0.93283581733703613 0.74257946014404297
0.40455010533332825 0.018449341878294945 0.62023746967315674
0.49531397223472595 0.020013801753520966 0.63001501560211182
0.63292622566223145 0.1258346289396286 0.64483487606048584
0.76079213619232178 0.35466012358665466 0.66067957878112793
0.83601385354995728 0.46373263001441956 0.66855019330978394
0.92271554470062256 0.50629770755767822 0.68216824531555176
0.99254375696182251 0.58316689729690552 0.72131246328353882
0.37437048554420471 0.13208304345607758 0.626220703125
0.46075326204299927 0.16324937343597412 0.63355332612991333
0.6217920184135437 0.2566472589969635 0.65155696868896484
0.75690555572509766 0.41831251978874207 0.67145341634750366
0.83816385269165039 0.50511091947555542 0.67870718240737915
0.92874777317047119 0.54734236001968384 0.69465214014053345
0.99560630321502686 0.6183321475982666 0.72331345081329346
0.16390769183635712 0.26827052235603333 0.61889439821243286
0.34423565864562988 0.30677205324172974 0.62829720973968506
0.54913735389709473 0.37960678339004517 0.64753639698028564
0.72316008806228638 0.49210202693939209 0.67323321104049683
0.83003926277160645 0.57712668180465698 0.69017815589904785
0.92802560329437256 0.62155181169509888 0.70972752571105957
0.99657744169235229 0.67604804039001465 0.72983580827713013
0.02398599311709404 0.43215259909629822 0.6025460958480835
0.10096500068902969 0.44605216383934021 0.60711205005645752
0.37172049283981323 0.48224654793739319 0.62754052877426147
0.64666682481765747 0.56141597032546997 0.66784298419952393
0.8264462947845459 0.6600496768951416 0.70340424776077271
0.93267369270324707 0.69947898387908936 0.72359645366668701
0.99244308471679688 0.73474645614624023 0.72771561145782471
0.29748374223709106 0.59110242128372192 0.60968267917633057
0.35182064771652222 0.5996277928352356 0.6184195876121521
0.45617419481277466 0.6159813404083252 0.63649100065231323
0.59960883855819702 0.65420407056808472 0.66508835554122925
0.788360595703125 0.72626042366027832 0.70324122905731201
0.91948771476745605 0.76990044116973877 0.71692734956741333
0.99450033903121948 0.79033553600311279 0.72246301174163818
0.4174029529094696 0.7266659140586853 0.66098469495773315
0.45560097694396973 0.73575800657272339 0.66661685705184937
0.54598987102508545 0.74934762716293335 0.67952245473861694
0.67351919412612915 0.78049767017364502 0.69975376129150391
0.8001708984375 0.81405037641525269 0.72549819946289062
0.91532051563262939 0.84934967756271362 0.73028451204299927
0.99215686321258545 0.86947506666183472 0.73239684104919434
0.64427775144577026 0.88425314426422119 0.74152547121047974
0.67504900693893433 0.8870282769203186 0.74496769905090332
0.7311934232711792 0.89112120866775513 0.75192826986312866
0.79944789409637451 0.89800435304641724 0.75797051191329956
0.87599128484725952 0.90657281875610352 0.77337568998336792
0.94553244113922119 0.91959083080291748 0.78707826137542725
0.99130058288574219 0.92937642335891724 0.78849148750305176
0.6254962682723999 0.0079872282221913338 0.75127673149108887
0.68534964323043823 0.016814004629850388 0.76309812068939209
0.76600563526153564 0.17346039414405823 0.76691019535064697
0.86274808645248413 0.37825030088424683 0.76997613906860352
0.94914370775222778 0.54829472303390503 0.7847900390625
0.98182773590087891 0.63038426637649536 0.78247839212417603
0.99446064233779907 0.65697449445724487 0.778667151927948
0.60398632287979126 0.14053913950920105 0.75508570671081543
0.65397006273269653 0.17745575308799744 0.75894904136657715
0.74491411447525024 0.29335510730743408 0.76391714811325073
0.8566582202911377 0.44574570655822754 0.77759206295013428
0.94322949647903442 0.58301591873168945 0.78951632976531982
0.98085111379623413 0.66281425952911377 0.78384053707122803
0.99771445989608765 0.68142473697662354 0.78036457300186157
0.48999381065368652 0.29671406745910645 0.74945241212844849
0.56683516502380371 0.32376015186309814 0.75419753789901733
0.69221878051757812 0.39900195598602295 0.76285135746002197
0.81898206472396851 0.50530308485031128 0.77620995044708252
0.9301183819770813 0.63367766141891479 0.79357540607452393
0.97472882270812988 0.71446055173873901 0.792400062084198
0.99785465002059937 0.73854494094848633 0.7979435920715332
0.027417037636041641 0.38555926084518433 0.72951674461364746
0.1387677788734436 0.40611356496810913 0.73270434141159058
0.48416179418563843 0.46330744028091431 0.7480170726776123
0.72612655162811279 0.55313694477081299 0.76883316040039062
0.89092791080474854 0.67992383241653442 0.7893792986869812
0.96984899044036865 0.76516121625900269 0.79896765947341919
0.99712705612182617 0.80214333534240723 0.81596004962921143
0.016629820689558983 0.57157260179519653 0.71175491809844971
0.037850681692361832 0.5774310827255249 0.7129175066947937
0.18158091604709625 0.58738970756530762 0.72172433137893677
0.47246143221855164 0.60450464487075806 0.74368661642074585
0.80054765939712524 0.70816570520401001 0.77940070629119873
0.96481132507324219 0.8144950270652771 0.80485576391220093
0.99624645709991455 0.83931046724319458 0.81977945566177368
0.26038429141044617 0.71267569065093994 0.71579748392105103
0.30760964751243591 0.71666926145553589 0.72033631801605225
0.41408097743988037 0.7301141619682312 0.72856950759887695
0.56186258792877197 0.75718504190444946 0.74693125486373901
0.74231445789337158 0.78733712434768677 0.77326083183288574
0.93865817785263062 0.861439049243927 0.80582404136657715
0.99437242746353149 0.88221246004104614 0.82114291191101074
0.48791623115539551 0.88308179378509521 0.78026974201202393
0.51971864700317383 0.88463836908340454 0.78199833631515503
0.59600043296813965 0.88928139209747314 0.78435242176055908
0.71019071340560913 0.89690142869949341 0.79153233766555786
0.84619748592376709 0.90665751695632935 0.81027680635452271
0.94931066036224365 0.91904598474502563 0.83305782079696655
0.99498122930526733 0.93024677038192749 0.84499722719192505
0.81823652982711792 0.21854329109191895 0.87290781736373901
0.84050774574279785 0.27973881363868713 0.87473684549331665
0.88393557071685791 0.37577340006828308 0.87333953380584717
0.94621187448501587 0.49615317583084106 0.87351399660110474
0.99278616905212402 0.62131422758102417 0.87736082077026367
0.99712997674942017 0.73802375793457031 0.87013977766036987
1 0.7820812463760376 0.86329901218414307
0.80192774534225464 0.30832058191299438 0.87401473522186279
0.82516944408416748 0.34520137310028076 0.87328410148620605
0.87472027540206909 0.42151990532875061 0.87186902761459351
0.93287169933319092 0.52065920829772949 0.87422966957092285
0.98695015907287598 0.63814496994018555 0.87726849317550659
0.99697130918502808 0.75199604034423828 0.87270075082778931
0.99996769428253174 0.79954427480697632 0.86493432521820068
0.72792506217956543 0.39348417520523071 0.87146466970443726
0.76323211193084717 0.41675731539726257 0.87259066104888916
0.81803572177886963 0.47550287842750549 0.86950206756591797
0.89924812316894531 0.56830000877380371 0.87385356426239014
0.97454738616943359 0.669841468334198 0.87765973806381226
0.9951968789100647 0.77805632352828979 0.87766426801681519
1 0.81047815084457397 0.87393879890441895
0.48509249091148376 0.42698773741722107 0.86774057149887085
0.57648229598999023 0.45329290628433228 0.8678516149520874
0.7102658748626709 0.50830525159835815 0.86957311630249023
0.8398444652557373 0.5955769419670105 0.87554550170898438
0.95244663953781128 0.70364499092102051 0.8797721266746521
0.99657434225082397 0.81064307689666748 0.88428562879562378
0.99994385242462158 0.85214352607727051 0.88699501752853394
0.0028051489498466253 0.59750717878341675 0.84930700063705444
0.0066644256003201008 0.58143788576126099 0.85729992389678955
0.12133876979351044 0.56802153587341309 0.86135250329971313
0.58521002531051636 0.59432440996170044 0.8698270320892334
0.87202310562133789 0.72175484895706177 0.87798929214477539
0.98748612403869629 0.83415460586547852 0.88647657632827759
0.99754029512405396 0.88464987277984619 0.89090883731842041
0.0079870037734508514 0.75701922178268433 0.84937006235122681
0.0038805345539003611 0.75559300184249878 0.84494835138320923
0.033152036368846893 0.75596755743026733 0.85331708192825317
0.26118826866149902 0.74699938297271729 0.86117219924926758
0.57689237594604492 0.7393454909324646 0.86993682384490967
0.93581604957580566 0.847606360912323 0.89062768220901489
0.99626737833023071 0.91382962465286255 0.90746718645095825
0.42033535242080688 0.88485777378082275 0.87207949161529541
0.45294693112373352 0.88461780548095703 0.87274599075317383
0.51096004247665405 0.88460844755172729 0.87082624435424805
0.62331461906433105 0.88856977224349976 0.8771248459815979
0.76061594486236572 0.89466476440429688 0.89016431570053101
0.90649503469467163 0.91018235683441162 0.89949554204940796
0.99067592620849609 0.93217098712921143 0.91668212413787842
