luts/instant_pro/fuji_fp-100c_negative.cube
# Created by: G'MIC (https://gmic.eu)
TITLE "fuji_fp-100c_negative"
# LUT size
LUT_3D_SIZE 7
# Data domain
DOMAIN_MIN 0.0 0.0 0.0
DOMAIN_MAX 1.0 1.0 1.0
# LUT data points
0.056127510964870453 0.11023544520139694 0.086540713906288147
0.083530768752098083 0.10745855420827866 0.084264405071735382
0.21264262497425079 0.093534566462039948 0.085212200880050659
0.46008330583572388 0.038574699312448502 0.085939399898052216
0.69420319795608521 0.016404304653406143 0.078278787434101105
0.86816972494125366 0.1645151823759079 0.092389903962612152
0.9858049750328064 0.38099142909049988 0.16653567552566528
0.061487562954425812 0.13452024757862091 0.096589513123035431
0.10528102517127991 0.13375376164913177 0.089949227869510651
0.26759347319602966 0.13589520752429962 0.083809316158294678
0.49317866563796997 0.13082559406757355 0.080145984888076782
0.70374250411987305 0.16415514051914215 0.074833124876022339
0.870350182056427 0.28581172227859497 0.095391683280467987
0.98409593105316162 0.43994361162185669 0.18121504783630371
0.063460648059844971 0.22266991436481476 0.13201604783535004
0.13615746796131134 0.230948805809021 0.13062189519405365
0.30893081426620483 0.28610801696777344 0.082495793700218201
0.54372763633728027 0.33454188704490662 0.026216214522719383
0.72445410490036011 0.35685864090919495 0.054066136479377747
0.86874622106552124 0.43603998422622681 0.11042577773332596
0.97565358877182007 0.53708219528198242 0.2247660756111145
0.077417142689228058 0.40289774537086487 0.21452870965003967
0.20015065371990204 0.42225661873817444 0.22678175568580627
0.31516572833061218 0.4574553370475769 0.20957837998867035
0.52805101871490479 0.53125083446502686 0.12167636305093765
0.74045217037200928 0.58446943759918213 0.056804880499839783
0.87332123517990112 0.59083133935928345 0.17700187861919403
0.9787755012512207 0.64349889755249023 0.28666543960571289
0.22685602307319641 0.57445842027664185 0.34486597776412964
0.29698556661605835 0.5915675163269043 0.35463100671768188
0.41377845406532288 0.61651337146759033 0.36007344722747803
0.52694600820541382 0.65066701173782349 0.34274652600288391
0.71701949834823608 0.70962047576904297 0.29787012934684753
0.89073628187179565 0.75211077928543091 0.2978147566318512
0.9831661581993103 0.76020294427871704 0.3887074887752533
0.44108331203460693 0.74003022909164429 0.50667935609817505
0.48184245824813843 0.74763303995132446 0.51786607503890991
0.55003368854522705 0.76084327697753906 0.52684557437896729
0.62632685899734497 0.77410763502120972 0.52997076511383057
0.73207175731658936 0.8110167384147644 0.52138108015060425
0.87476503849029541 0.8453291654586792 0.51219195127487183
0.99551522731781006 0.86923795938491821 0.50454550981521606
0.69460499286651611 0.8878321647644043 0.68118232488632202
0.71977794170379639 0.88676345348358154 0.68798148632049561
0.75467389822006226 0.88963252305984497 0.69618803262710571
0.80576926469802856 0.89549916982650757 0.70785552263259888
0.85947650671005249 0.90608388185501099 0.70713430643081665
0.92237043380737305 0.92197191715240479 0.70786744356155396
0.98504465818405151 0.93228846788406372 0.70727455615997314
0.066286183893680573 0.10768415033817291 0.12137427181005478
0.094004131853580475 0.10442081838846207 0.11185311526060104
0.24610544741153717 0.078785791993141174 0.12247756123542786
0.49222877621650696 0.011081740260124207 0.14087893068790436
0.71139132976531982 0.020498955622315407 0.17761361598968506
0.86781030893325806 0.20151133835315704 0.22982250154018402
0.98650407791137695 0.39015659689903259 0.28885623812675476
0.060027658939361572 0.13127554953098297 0.13470427691936493
0.11501163989305496 0.13746929168701172 0.13963964581489563
0.28930652141571045 0.13578693568706512 0.14161519706249237
0.52036494016647339 0.11743603646755219 0.16113793849945068
0.71783065795898438 0.18261827528476715 0.18810492753982544
0.86891323328018188 0.30631440877914429 0.23918376863002777
0.97704046964645386 0.44583198428153992 0.30569586157798767
0.10246650874614716 0.24304257333278656 0.1931605339050293
0.17530533671379089 0.25539475679397583 0.20382595062255859
0.32818064093589783 0.29581868648529053 0.18857964873313904
0.55315059423446655 0.33494007587432861 0.17347876727581024
0.72830504179000854 0.37452813982963562 0.19634357094764709
0.86962294578552246 0.44830077886581421 0.25570374727249146
0.97535955905914307 0.54273176193237305 0.33017280697822571
0.15454229712486267 0.42372420430183411 0.2787291407585144
0.23260551691055298 0.44307410717010498 0.29033508896827698
0.35260039567947388 0.47166958451271057 0.28747454285621643
0.55016732215881348 0.54141461849212646 0.25122514367103577
0.74289393424987793 0.57874095439910889 0.23957610130310059
0.87510257959365845 0.61152863502502441 0.29518228769302368
0.9807286262512207 0.65141898393630981 0.36617499589920044
0.25641030073165894 0.5987733006477356 0.3846248984336853
0.33476024866104126 0.60856878757476807 0.40418356657028198
0.44467511773109436 0.62783193588256836 0.41318708658218384
0.5540885329246521 0.66281235218048096 0.40253537893295288
0.73136222362518311 0.71569693088531494 0.37104618549346924
0.88596683740615845 0.74918967485427856 0.37795230746269226
0.98449808359146118 0.76404935121536255 0.45039454102516174
0.44805973768234253 0.7492748498916626 0.52276533842086792
0.4808306097984314 0.75452661514282227 0.53086644411087036
0.56185179948806763 0.76393425464630127 0.55681294202804565
0.63219249248504639 0.78130322694778442 0.56017786264419556
0.73541343212127686 0.81395018100738525 0.5531543493270874
0.88477587699890137 0.84554636478424072 0.55071866512298584
0.99497836828231812 0.86811155080795288 0.54918932914733887
0.69433808326721191 0.8878588080406189 0.68829786777496338
0.71709978580474854 0.8862420916557312 0.69164365530014038
0.75061523914337158 0.8894197940826416 0.70084643363952637
0.81283420324325562 0.89452105760574341 0.71372073888778687
0.86686795949935913 0.90529292821884155 0.71318358182907104
0.92886888980865479 0.91610002517700195 0.70565199851989746
0.99059110879898071 0.9316411018371582 0.71377724409103394
0.10554058849811554 0.094897732138633728 0.23696683347225189
0.18854895234107971 0.084586262702941895 0.2485346794128418
0.31266999244689941 0.073152743279933929 0.25083565711975098
0.54253989458084106 0.01978403702378273 0.29332125186920166
0.76472222805023193 0.017080239951610565 0.33888843655586243
0.90411961078643799 0.18777729570865631 0.37172594666481018
0.98734408617019653 0.40402424335479736 0.44759300351142883
0.02532634325325489 0.12836602330207825 0.26274749636650085
0.16098156571388245 0.12823675572872162 0.2751915454864502
0.35490536689758301 0.16153517365455627 0.29490995407104492
0.56261223554611206 0.16456922888755798 0.32790026068687439
0.75682997703552246 0.20163643360137939 0.35623577237129211
0.89237630367279053 0.31633684039115906 0.40053075551986694
0.97985380887985229 0.46339401602745056 0.45999473333358765
0.042600907385349274 0.24179551005363464 0.30063802003860474
0.15613545477390289 0.26604896783828735 0.33362972736358643
0.37614220380783081 0.31294578313827515 0.35442438721656799
0.58591222763061523 0.36671224236488342 0.3682313859462738
0.74800646305084229 0.41177457571029663 0.39049047231674194
0.88575285673141479 0.47463798522949219 0.42350941896438599
0.97746735811233521 0.56676566600799561 0.47728011012077332
0.21303378045558929 0.4445006251335144 0.39576488733291626
0.29921561479568481 0.46473336219787598 0.40892332792282104
0.4229467511177063 0.50266355276107788 0.41929355263710022
0.57372474670410156 0.55158084630966187 0.41311526298522949
0.7450675368309021 0.59456461668014526 0.42037293314933777
0.87622261047363281 0.63268542289733887 0.4523371160030365
0.9798283576965332 0.66839587688446045 0.49408861994743347
0.36957874894142151 0.61945611238479614 0.48738753795623779
0.39902591705322266 0.62612003087997437 0.48575720191001892
0.47878959774971008 0.64450079202651978 0.48868653178215027
0.59171938896179199 0.67804312705993652 0.50030034780502319
0.73861920833587646 0.71949100494384766 0.49716025590896606
0.88419073820114136 0.75320231914520264 0.50717651844024658
0.98226046562194824 0.77045536041259766 0.5425724983215332
0.50057274103164673 0.7583814263343811 0.58089727163314819
0.51111161708831787 0.76336550712585449 0.57739639282226562
0.56923836469650269 0.76987653970718384 0.58877062797546387
0.66063517332077026 0.79167509078979492 0.60296046733856201
0.74721580743789673 0.81354933977127075 0.60770922899246216
0.88997960090637207 0.8453027606010437 0.60677492618560791
0.98996078968048096 0.86452436447143555 0.61930549144744873
0.69575697183609009 0.88642024993896484 0.69911116361618042
0.71105325222015381 0.88997191190719604 0.70188254117965698
0.75476443767547607 0.89173215627670288 0.71102869510650635
0.82023173570632935 0.89654958248138428 0.72562003135681152
0.874184250831604 0.90674775838851929 0.73209798336029053
0.93927013874053955 0.91753965616226196 0.72722035646438599
0.99151754379272461 0.93040889501571655 0.73993659019470215
0.20820909738540649 0.053628150373697281 0.42815631628036499
0.30842664837837219 0.021111685782670975 0.44730278849601746
0.49415317177772522 0.021798407658934593 0.47139915823936462
0.62386423349380493 0.17231184244155884 0.48584696650505066
0.77237898111343384 0.22563247382640839 0.52004110813140869
0.93301624059677124 0.35720428824424744 0.57238990068435669
0.99559754133224487 0.46532592177391052 0.59209722280502319
0.12794399261474609 0.10742732137441635 0.45172545313835144
0.26435181498527527 0.10168848931789398 0.46797043085098267
0.48965898156166077 0.15556630492210388 0.49633866548538208
0.63028693199157715 0.2868601381778717 0.51201802492141724
0.77208155393600464 0.34148514270782471 0.54109460115432739
0.92616027593612671 0.43632987141609192 0.58202177286148071
0.9960942268371582 0.51082950830459595 0.59486919641494751
0.016757277771830559 0.23497085273265839 0.46560418605804443
0.072521224617958069 0.24456368386745453 0.48072680830955505
0.42284518480300903 0.31623727083206177 0.51484048366546631
0.63166898488998413 0.44605112075805664 0.54610955715179443
0.76594758033752441 0.49132537841796875 0.57065498828887939
0.9076722264289856 0.55091601610183716 0.59208577871322632
0.99214178323745728 0.59258192777633667 0.60913777351379395
0.11585910618305206 0.43106940388679504 0.48743060231208801
0.22224873304367065 0.4504113495349884 0.50510644912719727
0.41108015179634094 0.49346953630447388 0.53139567375183105
0.60633963346481323 0.56778979301452637 0.56784635782241821
0.75619280338287354 0.61003226041793823 0.58505368232727051
0.87785392999649048 0.6455075740814209 0.60366356372833252
0.98892474174499512 0.6825861930847168 0.62186276912689209
0.3311346173286438 0.60490721464157104 0.55905842781066895
0.40037423372268677 0.62153202295303345 0.56675785779953003
0.50852400064468384 0.64979428052902222 0.58223491907119751
0.62552428245544434 0.68836730718612671 0.60210955142974854
0.75229263305664062 0.72774946689605713 0.60978955030441284
0.89172136783599854 0.758220374584198 0.62233954668045044
0.98468607664108276 0.77501660585403442 0.6475868821144104
0.50702685117721558 0.75289463996887207 0.63512992858886719
0.52099812030792236 0.75954902172088623 0.64167946577072144
0.59758108854293823 0.77699542045593262 0.6459660530090332
0.68412905931472778 0.79875415563583374 0.66103935241699219
0.77335852384567261 0.81636965274810791 0.67059379816055298
0.90160542726516724 0.84906411170959473 0.67322570085525513
0.98832625150680542 0.86121374368667603 0.68702644109725952
0.71791881322860718 0.88707727193832397 0.7259107232093811
0.72086846828460693 0.88639301061630249 0.72603046894073486
0.75410956144332886 0.89311689138412476 0.72934776544570923
0.81330293416976929 0.89934200048446655 0.74044501781463623
0.88000619411468506 0.90630561113357544 0.75463187694549561
0.94606029987335205 0.92000925540924072 0.76240408420562744
0.9906991720199585 0.93094688653945923 0.76583778858184814
0.37074711918830872 0.0050178077071905136 0.59615796804428101
0.46730077266693115 0.010564123280346394 0.61816930770874023
0.62663203477859497 0.013834470883011818 0.64188134670257568
0.7508884072303772 0.21418631076812744 0.6621856689453125
0.8320082426071167 0.42214959859848022 0.67091655731201172
0.91215354204177856 0.48135513067245483 0.67950993776321411
0.99177449941635132 0.59812158346176147 0.72170048952102661
0.33795604109764099 0.046257857233285904 0.61581337451934814
0.44191601872444153 0.043052103370428085 0.62930554151535034
0.600780189037323 0.10642366856336594 0.64876079559326172
0.74000775814056396 0.3378756046295166 0.66707330942153931
0.82606089115142822 0.49282604455947876 0.67788064479827881
0.910927414894104 0.53879761695861816 0.68887138366699219
0.99608916044235229 0.63435381650924683 0.72983694076538086
0.10799998790025711 0.20647390186786652 0.61712187528610229
0.29238802194595337 0.2336571216583252 0.62926030158996582
0.53670203685760498 0.31425991654396057 0.65096014738082886
0.7163240909576416 0.46842357516288757 0.67880934476852417
0.81195509433746338 0.58236372470855713 0.69265544414520264
0.91102546453475952 0.63244354724884033 0.71165865659713745
0.99490612745285034 0.68749135732650757 0.73585426807403564
0.020139237865805626 0.40023612976074219 0.61409825086593628
0.030716706067323685 0.41514217853546143 0.61562752723693848
0.30977731943130493 0.45458382368087769 0.63428181409835815
0.62447375059127808 0.56293284893035889 0.67577183246612549
0.80819278955459595 0.66899764537811279 0.7036365270614624
0.9202650785446167 0.70404112339019775 0.71817159652709961
0.99354708194732666 0.73156750202178955 0.73057651519775391
0.21745701134204865 0.59756952524185181 0.61960732936859131
0.28991973400115967 0.60620373487472534 0.63010275363922119
0.43180787563323975 0.6290927529335022 0.64590084552764893
0.59169155359268188 0.66663849353790283 0.67939555644989014
0.78206855058670044 0.74118268489837646 0.71099978685379028
0.90715229511260986 0.77091658115386963 0.72254717350006104
0.99457412958145142 0.78467351198196411 0.73530089855194092
0.39580985903739929 0.74231022596359253 0.67489510774612427
0.44519177079200745 0.74963074922561646 0.68277990818023682
0.54400175809860229 0.76417046785354614 0.6925811767578125
0.66886287927627563 0.78482294082641602 0.71139258146286011
0.79968357086181641 0.82202184200286865 0.73344844579696655
0.91291588544845581 0.85084474086761475 0.74593043327331543
0.99572181701660156 0.87147271633148193 0.7491074800491333
0.67230522632598877 0.88665640354156494 0.75251340866088867
0.69184190034866333 0.88646811246871948 0.75656211376190186
0.75065213441848755 0.89198541641235352 0.75914168357849121
0.81592476367950439 0.89853280782699585 0.76650518178939819
0.89175200462341309 0.90595299005508423 0.78589862585067749
0.95853942632675171 0.91647469997406006 0.79853475093841553
0.99279958009719849 0.917072594165802 0.78976541757583618
0.59723836183547974 0.0094732549041509628 0.7371407151222229
0.65301477909088135 0.015223095193505287 0.74828040599822998
0.7547004222869873 0.016988104209303856 0.77055239677429199
0.8440479040145874 0.27252289652824402 0.77732157707214355
0.92163741588592529 0.54062741994857788 0.78132504224777222
0.97495931386947632 0.63868457078933716 0.77750527858734131
0.99042963981628418 0.67856383323669434 0.78665435314178467
0.57667630910873413 0.011368126608431339 0.75435400009155273
0.63571661710739136 0.028492378070950508 0.76294010877609253
0.73685503005981445 0.13686463236808777 0.77171933650970459
0.83900409936904907 0.3766937255859375 0.77825021743774414
0.91908246278762817 0.58158004283905029 0.78062933683395386
0.97164380550384521 0.66803985834121704 0.782817542552948
0.99171465635299683 0.69643282890319824 0.79431831836700439
0.45055925846099854 0.21558508276939392 0.7524559497833252
0.53682035207748413 0.24351935088634491 0.75871998071670532
0.66654872894287109 0.33715862035751343 0.76415294408798218
0.79928046464920044 0.47699844837188721 0.77730810642242432
0.9033510684967041 0.640880286693573 0.78841501474380493
0.97009432315826416 0.72273248434066772 0.79074591398239136
0.99576407670974731 0.75983685255050659 0.80510127544403076
0.016706744208931923 0.34381335973739624 0.73663473129272461
0.088299788534641266 0.35518553853034973 0.74298924207687378
0.44509109854698181 0.43001416325569153 0.75579929351806641
0.71605569124221802 0.55263286828994751 0.77278715372085571
0.88001745939254761 0.69246721267700195 0.78688728809356689
0.97083580493927002 0.7754330039024353 0.80144703388214111
0.9990924596786499 0.81365966796875 0.81719934940338135
0.008511682040989399 0.56492942571640015 0.71966564655303955
0.018132258206605911 0.56940537691116333 0.72682350873947144
0.10774697363376617 0.58513206243515015 0.731425940990448
0.45265132188796997 0.61245512962341309 0.7510564923286438
0.78370362520217896 0.72334378957748413 0.77780485153198242
0.96214276552200317 0.81341487169265747 0.803641676902771
0.99623554944992065 0.84459179639816284 0.82305967807769775
0.23428498208522797 0.72867864370346069 0.72710776329040527
0.29634395241737366 0.73327815532684326 0.73079639673233032
0.41846591234207153 0.74418294429779053 0.73883086442947388
0.57079601287841797 0.76189213991165161 0.75463980436325073
0.73980140686035156 0.78986865282058716 0.77773159742355347
0.93819034099578857 0.86086642742156982 0.80891668796539307
0.99202519655227661 0.89266300201416016 0.83331453800201416
0.53344094753265381 0.88610303401947021 0.78531551361083984
0.55945372581481934 0.88334017992019653 0.78508317470550537
0.63348817825317383 0.88909351825714111 0.78928303718566895
0.73512887954711914 0.89673101902008057 0.79664844274520874
0.86110258102416992 0.90322047472000122 0.81966876983642578
0.96365755796432495 0.91945350170135498 0.84450250864028931
0.99209272861480713 0.92607641220092773 0.85505133867263794
0.80280518531799316 0.086020417511463165 0.86763095855712891
0.82767599821090698 0.13186821341514587 0.86978840827941895
0.8722417950630188 0.28728991746902466 0.87013822793960571
0.92935973405838013 0.45457130670547485 0.86908751726150513
0.98675084114074707 0.62735974788665771 0.87170082330703735
0.99728202819824219 0.74787479639053345 0.86862212419509888
0.99732851982116699 0.79435592889785767 0.8639710545539856
0.77866071462631226 0.18580284714698792 0.86860471963882446
0.80080580711364746 0.24850691854953766 0.86865204572677612
0.85487586259841919 0.36365458369255066 0.86873012781143188
0.92220735549926758 0.50291413068771362 0.86531537771224976
0.97808897495269775 0.65060883760452271 0.87188714742660522
0.99726110696792603 0.76098203659057617 0.8710707426071167
0.99767154455184937 0.79143691062927246 0.87120062112808228
0.70229226350784302 0.32423356175422668 0.86459541320800781
0.74219828844070435 0.36159834265708923 0.86533641815185547
0.80482161045074463 0.44544443488121033 0.86606693267822266
0.89246517419815063 0.56622195243835449 0.87017655372619629
0.9648435115814209 0.67898720502853394 0.86616188287734985
0.99592262506484985 0.78519231081008911 0.87439125776290894
0.99899685382843018 0.83023130893707275 0.87170976400375366
0.44381421804428101 0.38133963942527771 0.86338907480239868
0.54636943340301514 0.41864928603172302 0.86364704370498657
0.68617457151412964 0.4965788722038269 0.86466485261917114
0.81877821683883667 0.60355198383331299 0.86693978309631348
0.94778823852539062 0.71828782558441162 0.8725704550743103
0.99146246910095215 0.8122904896736145 0.87798136472702026
1 0.86389929056167603 0.88214951753616333
0.0026728461962193251 0.57526344060897827 0.84992337226867676
0.0060823326930403709 0.55737709999084473 0.85361242294311523
0.094173550605773926 0.54956144094467163 0.85583198070526123
0.56986105442047119 0.60412114858627319 0.86258125305175781
0.86596840620040894 0.7350614070892334 0.87308752536773682
0.98774087429046631 0.83650296926498413 0.88366842269897461
0.99930733442306519 0.88852137327194214 0.88664925098419189
0.014273849315941334 0.75541001558303833 0.84614473581314087
0.0082374420017004013 0.75663119554519653 0.84397429227828979
0.052615925669670105 0.75509846210479736 0.84678453207015991
0.29194042086601257 0.74877160787582397 0.85307562351226807
0.59211772680282593 0.75230139493942261 0.86473160982131958
0.93917369842529297 0.85098618268966675 0.88570159673690796
0.99811577796936035 0.91527462005615234 0.90474110841751099
0.47707560658454895 0.88466089963912964 0.87088710069656372
0.50254321098327637 0.88464480638504028 0.86892575025558472
0.57238829135894775 0.88928860425949097 0.8767693042755127
0.66434985399246216 0.8931538462638855 0.87806093692779541
0.78610646724700928 0.90091633796691895 0.89613151550292969
0.91226261854171753 0.91027480363845825 0.89901721477508545
0.99080997705459595 0.93465608358383179 0.91881591081619263
