luts/instant_pro/fuji_fp-3000b.cube
# Created by: G'MIC (https://gmic.eu)
TITLE "fuji_fp-3000b"
# LUT size
LUT_3D_SIZE 5
# Data domain
DOMAIN_MIN 0.0 0.0 0.0
DOMAIN_MAX 1.0 1.0 1.0
# LUT data points
0.085671804845333099 0.085671804845333099 0.085671804845333099
0.12328703701496124 0.12328703701496124 0.12328703701496124
0.23300376534461975 0.23300376534461975 0.23300376534461975
0.41150462627410889 0.41150462627410889 0.41150462627410889
0.63011246919631958 0.63011246919631958 0.63011246919631958
0.14213180541992188 0.14213180541992188 0.14213180541992188
0.20770628750324249 0.20770628750324249 0.20770628750324249
0.34674358367919922 0.34674358367919922 0.34674358367919922
0.48664268851280212 0.48664268851280212 0.48664268851280212
0.66771572828292847 0.66771572828292847 0.66771572828292847
0.27476376295089722 0.27476376295089722 0.27476376295089722
0.28236144781112671 0.28236144781112671 0.28236144781112671
0.47830280661582947 0.47830280661582947 0.47830280661582947
0.65460824966430664 0.65460824966430664 0.65460824966430664
0.76342475414276123 0.76342475414276123 0.76342475414276123
0.48331224918365479 0.48331224918365479 0.48331224918365479
0.45141714811325073 0.45141714811325073 0.45141714811325073
0.53033393621444702 0.53033393621444702 0.53033393621444702
0.7387968897819519 0.7387968897819519 0.7387968897819519
0.84914594888687134 0.84914594888687134 0.84914594888687134
0.76045924425125122 0.76045924425125122 0.76045924425125122
0.73960137367248535 0.73960137367248535 0.73960137367248535
0.74773430824279785 0.74773430824279785 0.74773430824279785
0.85535001754760742 0.85535001754760742 0.85535001754760742
0.92742002010345459 0.92742002010345459 0.92742002010345459
0.14655396342277527 0.14655396342277527 0.14655396342277527
0.19977816939353943 0.19977816939353943 0.19977816939353943
0.32513719797134399 0.32513719797134399 0.32513719797134399
0.48180890083312988 0.48180890083312988 0.48180890083312988
0.64546030759811401 0.64546030759811401 0.64546030759811401
0.22683829069137573 0.22683829069137573 0.22683829069137573
0.26383680105209351 0.26383680105209351 0.26383680105209351
0.37055701017379761 0.37055701017379761 0.37055701017379761
0.52718329429626465 0.52718329429626465 0.52718329429626465
0.68613588809967041 0.68613588809967041 0.68613588809967041
0.4091792106628418 0.4091792106628418 0.4091792106628418
0.37154701352119446 0.37154701352119446 0.37154701352119446
0.50295895338058472 0.50295895338058472 0.50295895338058472
0.66850650310516357 0.66850650310516357 0.66850650310516357
0.76919138431549072 0.76919138431549072 0.76919138431549072
0.56875139474868774 0.56875139474868774 0.56875139474868774
0.53205341100692749 0.53205341100692749 0.53205341100692749
0.56000030040740967 0.56000030040740967 0.56000030040740967
0.7513391375541687 0.7513391375541687 0.7513391375541687
0.86102890968322754 0.86102890968322754 0.86102890968322754
0.79522645473480225 0.79522645473480225 0.79522645473480225
0.78005647659301758 0.78005647659301758 0.78005647659301758
0.76959609985351562 0.76959609985351562 0.76959609985351562
0.84722650051116943 0.84722650051116943 0.84722650051116943
0.93392246961593628 0.93392246961593628 0.93392246961593628
0.31684628129005432 0.31684628129005432 0.31684628129005432
0.37656140327453613 0.37656140327453613 0.37656140327453613
0.43500441312789917 0.43500441312789917 0.43500441312789917
0.58205890655517578 0.58205890655517578 0.58205890655517578
0.73799616098403931 0.73799616098403931 0.73799616098403931
0.37445291876792908 0.37445291876792908 0.37445291876792908
0.41222620010375977 0.41222620010375977 0.41222620010375977
0.48943105340003967 0.48943105340003967 0.48943105340003967
0.62177228927612305 0.62177228927612305 0.62177228927612305
0.75303369760513306 0.75303369760513306 0.75303369760513306
0.50171029567718506 0.50171029567718506 0.50171029567718506
0.52206301689147949 0.52206301689147949 0.52206301689147949
0.57128357887268066 0.57128357887268066 0.57128357887268066
0.69795280694961548 0.69795280694961548 0.69795280694961548
0.78662538528442383 0.78662538528442383 0.78662538528442383
0.70706403255462646 0.70706403255462646 0.70706403255462646
0.69582349061965942 0.69582349061965942 0.69582349061965942
0.67698055505752563 0.67698055505752563 0.67698055505752563
0.77613657712936401 0.77613657712936401 0.77613657712936401
0.87889200448989868 0.87889200448989868 0.87889200448989868
0.85863953828811646 0.85863953828811646 0.85863953828811646
0.85185843706130981 0.85185843706130981 0.85185843706130981
0.82939440011978149 0.82939440011978149 0.82939440011978149
0.85463142395019531 0.85463142395019531 0.85463142395019531
0.94115281105041504 0.94115281105041504 0.94115281105041504
0.56875431537628174 0.56875431537628174 0.56875431537628174
0.60758751630783081 0.60758751630783081 0.60758751630783081
0.68022578954696655 0.68022578954696655 0.68022578954696655
0.70160055160522461 0.70160055160522461 0.70160055160522461
0.80688369274139404 0.80688369274139404 0.80688369274139404
0.62174928188323975 0.62174928188323975 0.62174928188323975
0.62951475381851196 0.62951475381851196 0.62951475381851196
0.69071441888809204 0.69071441888809204 0.69071441888809204
0.73070633411407471 0.73070633411407471 0.73070633411407471
0.82504391670227051 0.82504391670227051 0.82504391670227051
0.64046758413314819 0.64046758413314819 0.64046758413314819
0.65728020668029785 0.65728020668029785 0.65728020668029785
0.7167542576789856 0.7167542576789856 0.7167542576789856
0.78338301181793213 0.78338301181793213 0.78338301181793213
0.84987705945968628 0.84987705945968628 0.84987705945968628
0.76682668924331665 0.76682668924331665 0.76682668924331665
0.76172459125518799 0.76172459125518799 0.76172459125518799
0.79567259550094604 0.79567259550094604 0.79567259550094604
0.83157730102539062 0.83157730102539062 0.83157730102539062
0.89486730098724365 0.89486730098724365 0.89486730098724365
0.88933199644088745 0.88933199644088745 0.88933199644088745
0.89635127782821655 0.89635127782821655 0.89635127782821655
0.90880972146987915 0.90880972146987915 0.90880972146987915
0.89019721746444702 0.89019721746444702 0.89019721746444702
0.93763244152069092 0.93763244152069092 0.93763244152069092
0.84334039688110352 0.84334039688110352 0.84334039688110352
0.85698926448822021 0.85698926448822021 0.85698926448822021
0.88245123624801636 0.88245123624801636 0.88245123624801636
0.89539182186126709 0.89539182186126709 0.89539182186126709
0.92334103584289551 0.92334103584289551 0.92334103584289551
0.85327446460723877 0.85327446460723877 0.85327446460723877
0.86419415473937988 0.86419415473937988 0.86419415473937988
0.8896259069442749 0.8896259069442749 0.8896259069442749
0.90890270471572876 0.90890270471572876 0.90890270471572876
0.90744823217391968 0.90744823217391968 0.90744823217391968
0.83947598934173584 0.83947598934173584 0.83947598934173584
0.85030335187911987 0.85030335187911987 0.85030335187911987
0.8798757791519165 0.8798757791519165 0.8798757791519165
0.90564775466918945 0.90564775466918945 0.90564775466918945
0.92351436614990234 0.92351436614990234 0.92351436614990234
0.86184287071228027 0.86184287071228027 0.86184287071228027
0.87015825510025024 0.87015825510025024 0.87015825510025024
0.89667636156082153 0.89667636156082153 0.89667636156082153
0.9156298041343689 0.9156298041343689 0.9156298041343689
0.94164019823074341 0.94164019823074341 0.94164019823074341
0.92744779586791992 0.92744779586791992 0.92744779586791992
0.93982720375061035 0.93982720375061035 0.93982720375061035
0.95354002714157104 0.95354002714157104 0.95354002714157104
0.94674313068389893 0.94674313068389893 0.94674313068389893
0.95852190256118774 0.95852190256118774 0.95852190256118774
