luts/instant_pro/fuji_fp-3000b_negative_-.cube
# Created by: G'MIC (https://gmic.eu)
TITLE "fuji_fp-3000b_negative_-"
# LUT size
LUT_3D_SIZE 7
# Data domain
DOMAIN_MIN 0.0 0.0 0.0
DOMAIN_MAX 1.0 1.0 1.0
# LUT data points
0.042409680783748627 0.042409680783748627 0.042409680783748627
0.063037127256393433 0.063037127256393433 0.063037127256393433
0.14231899380683899 0.14231899380683899 0.14231899380683899
0.26587995886802673 0.26587995886802673 0.26587995886802673
0.39369404315948486 0.39369404315948486 0.39369404315948486
0.5251617431640625 0.5251617431640625 0.5251617431640625
0.65828359127044678 0.65828359127044678 0.65828359127044678
0.10062777996063232 0.10062777996063232 0.10062777996063232
0.11652626842260361 0.11652626842260361 0.11652626842260361
0.19403569400310516 0.19403569400310516 0.19403569400310516
0.31669521331787109 0.31669521331787109 0.31669521331787109
0.44025337696075439 0.44025337696075439 0.44025337696075439
0.5609736442565918 0.5609736442565918 0.5609736442565918
0.68044555187225342 0.68044555187225342 0.68044555187225342
0.22541780769824982 0.22541780769824982 0.22541780769824982
0.22612251341342926 0.22612251341342926 0.22612251341342926
0.28220948576927185 0.28220948576927185 0.28220948576927185
0.38643890619277954 0.38643890619277954 0.38643890619277954
0.49635025858879089 0.49635025858879089 0.49635025858879089
0.60533028841018677 0.60533028841018677 0.60533028841018677
0.71363985538482666 0.71363985538482666 0.71363985538482666
0.38031414151191711 0.38031414151191711 0.38031414151191711
0.37010031938552856 0.37010031938552856 0.37010031938552856
0.39212161302566528 0.39212161302566528 0.39212161302566528
0.46170240640640259 0.46170240640640259 0.46170240640640259
0.55639922618865967 0.55639922618865967 0.55639922618865967
0.65691310167312622 0.65691310167312622 0.65691310167312622
0.7559705376625061 0.7559705376625061 0.7559705376625061
0.53877085447311401 0.53877085447311401 0.53877085447311401
0.52142184972763062 0.52142184972763062 0.52142184972763062
0.51858091354370117 0.51858091354370117 0.51858091354370117
0.56295347213745117 0.56295347213745117 0.56295347213745117
0.63659924268722534 0.63659924268722534 0.63659924268722534
0.71989661455154419 0.71989661455154419 0.71989661455154419
0.80499637126922607 0.80499637126922607 0.80499637126922607
0.70070517063140869 0.70070517063140869 0.70070517063140869
0.68637454509735107 0.68637454509735107 0.68637454509735107
0.67872488498687744 0.67872488498687744 0.67872488498687744
0.69841349124908447 0.69841349124908447 0.69841349124908447
0.7418137788772583 0.7418137788772583 0.7418137788772583
0.79847055673599243 0.79847055673599243 0.79847055673599243
0.86236369609832764 0.86236369609832764 0.86236369609832764
0.85720115900039673 0.85720115900039673 0.85720115900039673
0.84990608692169189 0.84990608692169189 0.84990608692169189
0.84512549638748169 0.84512549638748169 0.84512549638748169
0.84634244441986084 0.84634244441986084 0.84634244441986084
0.8605726957321167 0.8605726957321167 0.8605726957321167
0.89047503471374512 0.89047503471374512 0.89047503471374512
0.93171656131744385 0.93171656131744385 0.93171656131744385
0.1003643125295639 0.1003643125295639 0.1003643125295639
0.12386863678693771 0.12386863678693771 0.12386863678693771
0.19456736743450165 0.19456736743450165 0.19456736743450165
0.31273850798606873 0.31273850798606873 0.31273850798606873
0.41933134198188782 0.41933134198188782 0.41933134198188782
0.53790789842605591 0.53790789842605591 0.53790789842605591
0.66078037023544312 0.66078037023544312 0.66078037023544312
0.14658544957637787 0.14658544957637787 0.14658544957637787
0.16985003650188446 0.16985003650188446 0.16985003650188446
0.23487107455730438 0.23487107455730438 0.23487107455730438
0.34297436475753784 0.34297436475753784 0.34297436475753784
0.45605206489562988 0.45605206489562988 0.45605206489562988
0.56875789165496826 0.56875789165496826 0.56875789165496826
0.68102008104324341 0.68102008104324341 0.68102008104324341
0.29508492350578308 0.29508492350578308 0.29508492350578308
0.28475341200828552 0.28475341200828552 0.28475341200828552
0.31511938571929932 0.31511938571929932 0.31511938571929932
0.40023383498191833 0.40023383498191833 0.40023383498191833
0.50431567430496216 0.50431567430496216 0.50431567430496216
0.611949622631073 0.611949622631073 0.611949622631073
0.7177320122718811 0.7177320122718811 0.7177320122718811
0.44516089558601379 0.44516089558601379 0.44516089558601379
0.42564493417739868 0.42564493417739868 0.42564493417739868
0.42460280656814575 0.42460280656814575 0.42460280656814575
0.47395676374435425 0.47395676374435425 0.47395676374435425
0.56176555156707764 0.56176555156707764 0.56176555156707764
0.6626129150390625 0.6626129150390625 0.6626129150390625
0.7634204626083374 0.7634204626083374 0.7634204626083374
0.58930063247680664 0.58930063247680664 0.58930063247680664
0.5672115683555603 0.5672115683555603 0.5672115683555603
0.54767870903015137 0.54767870903015137 0.54767870903015137
0.57320582866668701 0.57320582866668701 0.57320582866668701
0.6405482292175293 0.6405482292175293 0.6405482292175293
0.72480595111846924 0.72480595111846924 0.72480595111846924
0.81178158521652222 0.81178158521652222 0.81178158521652222
0.73490357398986816 0.73490357398986816 0.73490357398986816
0.71802645921707153 0.71802645921707153 0.71802645921707153
0.6994708776473999 0.6994708776473999 0.6994708776473999
0.70770484209060669 0.70770484209060669 0.70770484209060669
0.74614614248275757 0.74614614248275757 0.74614614248275757
0.80266654491424561 0.80266654491424561 0.80266654491424561
0.86661100387573242 0.86661100387573242 0.86661100387573242
0.87548565864562988 0.87548565864562988 0.87548565864562988
0.86740708351135254 0.86740708351135254 0.86740708351135254
0.85530072450637817 0.85530072450637817 0.85530072450637817
0.8516191840171814 0.8516191840171814 0.8516191840171814
0.86452567577362061 0.86452567577362061 0.86452567577362061
0.89375823736190796 0.89375823736190796 0.89375823736190796
0.93515264987945557 0.93515264987945557 0.93515264987945557
0.23369625210762024 0.23369625210762024 0.23369625210762024
0.2781912088394165 0.2781912088394165 0.2781912088394165
0.31570172309875488 0.31570172309875488 0.31570172309875488
0.37844157218933105 0.37844157218933105 0.37844157218933105
0.47471800446510315 0.47471800446510315 0.47471800446510315
0.58665955066680908 0.58665955066680908 0.58665955066680908
0.68576771020889282 0.68576771020889282 0.68576771020889282
0.24351207911968231 0.24351207911968231 0.24351207911968231
0.28664401173591614 0.28664401173591614 0.28664401173591614
0.34352156519889832 0.34352156519889832 0.34352156519889832
0.40527528524398804 0.40527528524398804 0.40527528524398804
0.50051689147949219 0.50051689147949219 0.50051689147949219
0.60299265384674072 0.60299265384674072 0.60299265384674072
0.69830119609832764 0.69830119609832764 0.69830119609832764
0.3490721583366394 0.3490721583366394 0.3490721583366394
0.35967046022415161 0.35967046022415161 0.35967046022415161
0.39373019337654114 0.39373019337654114 0.39373019337654114
0.45061340928077698 0.45061340928077698 0.45061340928077698
0.53726983070373535 0.53726983070373535 0.53726983070373535
0.63522452116012573 0.63522452116012573 0.63522452116012573
0.73127657175064087 0.73127657175064087 0.73127657175064087
0.49717938899993896 0.49717938899993896 0.49717938899993896
0.4897712767124176 0.4897712767124176 0.4897712767124176
0.49215662479400635 0.49215662479400635 0.49215662479400635
0.51825451850891113 0.51825451850891113 0.51825451850891113
0.58707898855209351 0.58707898855209351 0.58707898855209351
0.67704141139984131 0.67704141139984131 0.67704141139984131
0.77120697498321533 0.77120697498321533 0.77120697498321533
0.63713318109512329 0.63713318109512329 0.63713318109512329
0.62858128547668457 0.62858128547668457 0.62858128547668457
0.60998177528381348 0.60998177528381348 0.60998177528381348
0.61060374975204468 0.61060374975204468 0.61060374975204468
0.66189831495285034 0.66189831495285034 0.66189831495285034
0.7360304594039917 0.7360304594039917 0.7360304594039917
0.81710302829742432 0.81710302829742432 0.81710302829742432
0.7686159610748291 0.7686159610748291 0.7686159610748291
0.76025044918060303 0.76025044918060303 0.76025044918060303
0.74114668369293213 0.74114668369293213 0.74114668369293213
0.73625630140304565 0.73625630140304565 0.73625630140304565
0.76371461153030396 0.76371461153030396 0.76371461153030396
0.81334495544433594 0.81334495544433594 0.81334495544433594
0.87258386611938477 0.87258386611938477 0.87258386611938477
0.89175105094909668 0.89175105094909668 0.89175105094909668
0.88760656118392944 0.88760656118392944 0.88760656118392944
0.87478214502334595 0.87478214502334595 0.87478214502334595
0.86681634187698364 0.86681634187698364 0.86681634187698364
0.87596362829208374 0.87596362829208374 0.87596362829208374
0.90295350551605225 0.90295350551605225 0.90295350551605225
0.94138026237487793 0.94138026237487793 0.94138026237487793
0.39704433083534241 0.39704433083534241 0.39704433083534241
0.43151545524597168 0.43151545524597168 0.43151545524597168
0.4862779974937439 0.4862779974937439 0.4862779974937439
0.51180684566497803 0.51180684566497803 0.51180684566497803
0.54688566923141479 0.54688566923141479 0.54688566923141479
0.65137827396392822 0.65137827396392822 0.65137827396392822
0.73681128025054932 0.73681128025054932 0.73681128025054932
0.40487596392631531 0.40487596392631531 0.40487596392631531
0.43618753552436829 0.43618753552436829 0.43618753552436829
0.49545356631278992 0.49545356631278992 0.49545356631278992
0.52313947677612305 0.52313947677612305 0.52313947677612305
0.57537674903869629 0.57537674903869629 0.57537674903869629
0.65860581398010254 0.65860581398010254 0.65860581398010254
0.74640941619873047 0.74640941619873047 0.74640941619873047
0.43599367141723633 0.43599367141723633 0.43599367141723633
0.45469081401824951 0.45469081401824951 0.45469081401824951
0.49715745449066162 0.49715745449066162 0.49715745449066162
0.54185754060745239 0.54185754060745239 0.54185754060745239
0.59962743520736694 0.59962743520736694 0.59962743520736694
0.67626005411148071 0.67626005411148071 0.67626005411148071
0.76011550426483154 0.76011550426483154 0.76011550426483154
0.53144955635070801 0.53144955635070801 0.53144955635070801
0.54281365871429443 0.54281365871429443 0.54281365871429443
0.56207072734832764 0.56207072734832764 0.56207072734832764
0.5892714262008667 0.5892714262008667 0.5892714262008667
0.63525891304016113 0.63525891304016113 0.63525891304016113
0.70304441452026367 0.70304441452026367 0.70304441452026367
0.78333669900894165 0.78333669900894165 0.78333669900894165
0.6724926233291626 0.6724926233291626 0.6724926233291626
0.67912530899047852 0.67912530899047852 0.67912530899047852
0.67519450187683105 0.67519450187683105 0.67519450187683105
0.67152857780456543 0.67152857780456543 0.67152857780456543
0.70030826330184937 0.70030826330184937 0.70030826330184937
0.75552845001220703 0.75552845001220703 0.75552845001220703
0.82388073205947876 0.82388073205947876 0.82388073205947876
0.79530322551727295 0.79530322551727295 0.79530322551727295
0.79647457599639893 0.79647457599639893 0.79647457599639893
0.78390800952911377 0.78390800952911377 0.78390800952911377
0.77649623155593872 0.77649623155593872 0.77649623155593872
0.79201096296310425 0.79201096296310425 0.79201096296310425
0.83042353391647339 0.83042353391647339 0.83042353391647339
0.88010257482528687 0.88010257482528687 0.88010257482528687
0.90373909473419189 0.90373909473419189 0.90373909473419189
0.90576517581939697 0.90576517581939697 0.90576517581939697
0.89811569452285767 0.89811569452285767 0.89811569452285767
0.88840222358703613 0.88840222358703613 0.88840222358703613
0.89330154657363892 0.89330154657363892 0.89330154657363892
0.91575813293457031 0.91575813293457031 0.91575813293457031
0.94762825965881348 0.94762825965881348 0.94762825965881348
0.5559355616569519 0.5559355616569519 0.5559355616569519
0.57107323408126831 0.57107323408126831 0.57107323408126831
0.61065578460693359 0.61065578460693359 0.61065578460693359
0.66298133134841919 0.66298133134841919 0.66298133134841919
0.68264114856719971 0.68264114856719971 0.68264114856719971
0.71358811855316162 0.71358811855316162 0.71358811855316162
0.78475737571716309 0.78475737571716309 0.78475737571716309
0.56884229183197021 0.56884229183197021 0.56884229183197021
0.58266180753707886 0.58266180753707886 0.58266180753707886
0.61931228637695312 0.61931228637695312 0.61931228637695312
0.65870314836502075 0.65870314836502075 0.65870314836502075
0.68490427732467651 0.68490427732467651 0.68490427732467651
0.71782886981964111 0.71782886981964111 0.71782886981964111
0.79498368501663208 0.79498368501663208 0.79498368501663208
0.5753248929977417 0.5753248929977417 0.5753248929977417
0.58217513561248779 0.58217513561248779 0.58217513561248779
0.60938239097595215 0.60938239097595215 0.60938239097595215
0.65611612796783447 0.65611612796783447 0.65611612796783447
0.69391727447509766 0.69391727447509766 0.69391727447509766
0.73399895429611206 0.73399895429611206 0.73399895429611206
0.79700964689254761 0.79700964689254761 0.79700964689254761
0.60483807325363159 0.60483807325363159 0.60483807325363159
0.61683589220046997 0.61683589220046997 0.61683589220046997
0.63112473487854004 0.63112473487854004 0.63112473487854004
0.67250615358352661 0.67250615358352661 0.67250615358352661
0.71012717485427856 0.71012717485427856 0.71012717485427856
0.74865496158599854 0.74865496158599854 0.74865496158599854
0.81091588735580444 0.81091588735580444 0.81091588735580444
0.71100550889968872 0.71100550889968872 0.71100550889968872
0.71407073736190796 0.71407073736190796 0.71407073736190796
0.71126633882522583 0.71126633882522583 0.71126633882522583
0.72691202163696289 0.72691202163696289 0.72691202163696289
0.75511914491653442 0.75511914491653442 0.75511914491653442
0.79275286197662354 0.79275286197662354 0.79275286197662354
0.84516316652297974 0.84516316652297974 0.84516316652297974
0.81522423028945923 0.81522423028945923 0.81522423028945923
0.81739038228988647 0.81739038228988647 0.81739038228988647
0.81223189830780029 0.81223189830780029 0.81223189830780029
0.81291896104812622 0.81291896104812622 0.81291896104812622
0.82773935794830322 0.82773935794830322 0.82773935794830322
0.85602623224258423 0.85602623224258423 0.85602623224258423
0.89364862442016602 0.89364862442016602 0.89364862442016602
0.91038012504577637 0.91038012504577637 0.91038012504577637
0.91540199518203735 0.91540199518203735 0.91540199518203735
0.91449469327926636 0.91449469327926636 0.91449469327926636
0.9082028865814209 0.9082028865814209 0.9082028865814209
0.91169166564941406 0.91169166564941406 0.91169166564941406
0.92806136608123779 0.92806136608123779 0.92806136608123779
0.95218378305435181 0.95218378305435181 0.95218378305435181
0.72113394737243652 0.72113394737243652 0.72113394737243652
0.72762441635131836 0.72762441635131836 0.72762441635131836
0.74712127447128296 0.74712127447128296 0.74712127447128296
0.78846007585525513 0.78846007585525513 0.78846007585525513
0.820578932762146 0.820578932762146 0.820578932762146
0.81660634279251099 0.81660634279251099 0.81660634279251099
0.84431082010269165 0.84431082010269165 0.84431082010269165
0.735798180103302 0.735798180103302 0.735798180103302
0.7383541464805603 0.7383541464805603 0.7383541464805603
0.75404912233352661 0.75404912233352661 0.75404912233352661
0.78973037004470825 0.78973037004470825 0.78973037004470825
0.81735920906066895 0.81735920906066895 0.81735920906066895
0.81890416145324707 0.81890416145324707 0.81890416145324707
0.84148716926574707 0.84148716926574707 0.84148716926574707
0.74297183752059937 0.74297183752059937 0.74297183752059937
0.73621189594268799 0.73621189594268799 0.73621189594268799
0.74775874614715576 0.74775874614715576 0.74775874614715576
0.78674626350402832 0.78674626350402832 0.78674626350402832
0.81827741861343384 0.81827741861343384 0.81827741861343384
0.82710009813308716 0.82710009813308716 0.82710009813308716
0.84592598676681519 0.84592598676681519 0.84592598676681519
0.74021685123443604 0.74021685123443604 0.74021685123443604
0.7366098165512085 0.7366098165512085 0.7366098165512085
0.74272102117538452 0.74272102117538452 0.74272102117538452
0.78493350744247437 0.78493350744247437 0.78493350744247437
0.82305973768234253 0.82305973768234253 0.82305973768234253
0.83624589443206787 0.83624589443206787 0.83624589443206787
0.86440873146057129 0.86440873146057129 0.86440873146057129
0.78003257513046265 0.78003257513046265 0.78003257513046265
0.77680808305740356 0.77680808305740356 0.77680808305740356
0.7759891152381897 0.7759891152381897 0.7759891152381897
0.80430734157562256 0.80430734157562256 0.80430734157562256
0.83641219139099121 0.83641219139099121 0.83641219139099121
0.86052870750427246 0.86052870750427246 0.86052870750427246
0.89142924547195435 0.89142924547195435 0.89142924547195435
0.84631490707397461 0.84631490707397461 0.84631490707397461
0.84709912538528442 0.84709912538528442 0.84709912538528442
0.84974640607833862 0.84974640607833862 0.84974640607833862
0.8607667088508606 0.8607667088508606 0.8607667088508606
0.87749165296554565 0.87749165296554565 0.87749165296554565
0.89592641592025757 0.89592641592025757 0.89592641592025757
0.92000263929367065 0.92000263929367065 0.92000263929367065
0.9214775562286377 0.9214775562286377 0.9214775562286377
0.92614877223968506 0.92614877223968506 0.92614877223968506
0.93001848459243774 0.93001848459243774 0.93001848459243774
0.93208891153335571 0.93208891153335571 0.93208891153335571
0.9357001781463623 0.9357001781463623 0.9357001781463623
0.94298815727233887 0.94298815727233887 0.94298815727233887
0.95821511745452881 0.95821511745452881 0.95821511745452881
0.87705200910568237 0.87705200910568237 0.87705200910568237
0.88103955984115601 0.88103955984115601 0.88103955984115601
0.89215177297592163 0.89215177297592163 0.89215177297592163
0.91596150398254395 0.91596150398254395 0.91596150398254395
0.93420946598052979 0.93420946598052979 0.93420946598052979
0.93259769678115845 0.93259769678115845 0.93259769678115845
0.93391579389572144 0.93391579389572144 0.93391579389572144
0.88064980506896973 0.88064980506896973 0.88064980506896973
0.88450831174850464 0.88450831174850464 0.88450831174850464
0.89495009183883667 0.89495009183883667 0.89495009183883667
0.91925764083862305 0.91925764083862305 0.91925764083862305
0.93980556726455688 0.93980556726455688 0.93980556726455688
0.94060367345809937 0.94060367345809937 0.94060367345809937
0.93128049373626709 0.93128049373626709 0.93128049373626709
0.8741987943649292 0.8741987943649292 0.8741987943649292
0.87648504972457886 0.87648504972457886 0.87648504972457886
0.88766127824783325 0.88766127824783325 0.88766127824783325
0.91466718912124634 0.91466718912124634 0.91466718912124634
0.93606388568878174 0.93606388568878174 0.93606388568878174
0.93592691421508789 0.93592691421508789 0.93592691421508789
0.93014246225357056 0.93014246225357056 0.93014246225357056
0.86361885070800781 0.86361885070800781 0.86361885070800781
0.86524957418441772 0.86524957418441772 0.86524957418441772
0.87798953056335449 0.87798953056335449 0.87798953056335449
0.90794354677200317 0.90794354677200317 0.90794354677200317
0.93054008483886719 0.93054008483886719 0.93054008483886719
0.9368593692779541 0.9368593692779541 0.9368593692779541
0.9430699348449707 0.9430699348449707 0.9430699348449707
0.87215030193328857 0.87215030193328857 0.87215030193328857
0.87326693534851074 0.87326693534851074 0.87326693534851074
0.88450407981872559 0.88450407981872559 0.88450407981872559
0.9092714786529541 0.9092714786529541 0.9092714786529541
0.92969268560409546 0.92969268560409546 0.92969268560409546
0.94429606199264526 0.94429606199264526 0.94429606199264526
0.95897668600082397 0.95897668600082397 0.95897668600082397
0.90317904949188232 0.90317904949188232 0.90317904949188232
0.90620571374893188 0.90620571374893188 0.90620571374893188
0.91589236259460449 0.91589236259460449 0.91589236259460449
0.92996490001678467 0.92996490001678467 0.92996490001678467
0.9425349235534668 0.9425349235534668 0.9425349235534668
0.95219713449478149 0.95219713449478149 0.95219713449478149
0.96473997831344604 0.96473997831344604 0.96473997831344604
0.95185261964797974 0.95185261964797974 0.95185261964797974
0.95787173509597778 0.95787173509597778 0.95787173509597778
0.96630680561065674 0.96630680561065674 0.96630680561065674
0.97227281332015991 0.97227281332015991 0.97227281332015991
0.97495502233505249 0.97495502233505249 0.97495502233505249
0.97400712966918945 0.97400712966918945 0.97400712966918945
0.97955691814422607 0.97955691814422607 0.97955691814422607
