luts/instant_pro/fuji_fp-3000b_negative_--.cube
# Created by: G'MIC (https://gmic.eu)
TITLE "fuji_fp-3000b_negative_--"
# LUT size
LUT_3D_SIZE 7
# Data domain
DOMAIN_MIN 0.0 0.0 0.0
DOMAIN_MAX 1.0 1.0 1.0
# LUT data points
0.051888514310121536 0.051888514310121536 0.051888514310121536
0.08344925194978714 0.08344925194978714 0.08344925194978714
0.17266795039176941 0.17266795039176941 0.17266795039176941
0.29895833134651184 0.29895833134651184 0.29895833134651184
0.42473921179771423 0.42473921179771423 0.42473921179771423
0.54396337270736694 0.54396337270736694 0.54396337270736694
0.66378486156463623 0.66378486156463623 0.66378486156463623
0.12383898347616196 0.12383898347616196 0.12383898347616196
0.1473589688539505 0.1473589688539505 0.1473589688539505
0.22865310311317444 0.22865310311317444 0.22865310311317444
0.34763309359550476 0.34763309359550476 0.34763309359550476
0.46569955348968506 0.46569955348968506 0.46569955348968506
0.57458698749542236 0.57458698749542236 0.57458698749542236
0.68311798572540283 0.68311798572540283 0.68311798572540283
0.25448116660118103 0.25448116660118103 0.25448116660118103
0.26010707020759583 0.26010707020759583 0.26010707020759583
0.31595656275749207 0.31595656275749207 0.31595656275749207
0.41329675912857056 0.41329675912857056 0.41329675912857056
0.51558047533035278 0.51558047533035278 0.51558047533035278
0.61283713579177856 0.61283713579177856 0.61283713579177856
0.71013373136520386 0.71013373136520386 0.71013373136520386
0.40416276454925537 0.40416276454925537 0.40416276454925537
0.39658510684967041 0.39658510684967041 0.39658510684967041
0.41934660077095032 0.41934660077095032 0.41934660077095032
0.48527848720550537 0.48527848720550537 0.48527848720550537
0.57082998752593994 0.57082998752593994 0.57082998752593994
0.65922540426254272 0.65922540426254272 0.65922540426254272
0.74681645631790161 0.74681645631790161 0.74681645631790161
0.5530884861946106 0.5530884861946106 0.5530884861946106
0.53749579191207886 0.53749579191207886 0.53749579191207886
0.53636693954467773 0.53636693954467773 0.53636693954467773
0.57945543527603149 0.57945543527603149 0.57945543527603149
0.64670538902282715 0.64670538902282715 0.64670538902282715
0.72114062309265137 0.72114062309265137 0.72114062309265137
0.79591268301010132 0.79591268301010132 0.79591268301010132
0.70757555961608887 0.70757555961608887 0.70757555961608887
0.69418752193450928 0.69418752193450928 0.69418752193450928
0.68814069032669067 0.68814069032669067 0.68814069032669067
0.7085157036781311 0.7085157036781311 0.7085157036781311
0.74997717142105103 0.74997717142105103 0.74997717142105103
0.80194520950317383 0.80194520950317383 0.80194520950317383
0.85830754041671753 0.85830754041671753 0.85830754041671753
0.86090254783630371 0.86090254783630371 0.86090254783630371
0.85411936044692993 0.85411936044692993 0.85411936044692993
0.85143089294433594 0.85143089294433594 0.85143089294433594
0.85463547706604004 0.85463547706604004 0.85463547706604004
0.87106508016586304 0.87106508016586304 0.87106508016586304
0.89886921644210815 0.89886921644210815 0.89886921644210815
0.9335210919380188 0.9335210919380188 0.9335210919380188
0.12250940501689911 0.12250940501689911 0.12250940501689911
0.15439251065254211 0.15439251065254211 0.15439251065254211
0.23204271495342255 0.23204271495342255 0.23204271495342255
0.34530335664749146 0.34530335664749146 0.34530335664749146
0.45116564631462097 0.45116564631462097 0.45116564631462097
0.55081874132156372 0.55081874132156372 0.55081874132156372
0.66436147689819336 0.66436147689819336 0.66436147689819336
0.18031977117061615 0.18031977117061615 0.18031977117061615
0.20931868255138397 0.20931868255138397 0.20931868255138397
0.27464872598648071 0.27464872598648071 0.27464872598648071
0.37461549043655396 0.37461549043655396 0.37461549043655396
0.4792710542678833 0.4792710542678833 0.4792710542678833
0.57877016067504883 0.57877016067504883 0.57877016067504883
0.68499976396560669 0.68499976396560669 0.68499976396560669
0.3274821937084198 0.3274821937084198 0.3274821937084198
0.32045876979827881 0.32045876979827881 0.32045876979827881
0.35108059644699097 0.35108059644699097 0.35108059644699097
0.42862164974212646 0.42862164974212646 0.42862164974212646
0.52229887247085571 0.52229887247085571 0.52229887247085571
0.61752879619598389 0.61752879619598389 0.61752879619598389
0.71483993530273438 0.71483993530273438 0.71483993530273438
0.46617311239242554 0.46617311239242554 0.46617311239242554
0.44882309436798096 0.44882309436798096 0.44882309436798096
0.45150801539421082 0.45150801539421082 0.45150801539421082
0.5001710057258606 0.5001710057258606 0.5001710057258606
0.57728719711303711 0.57728719711303711 0.57728719711303711
0.66457194089889526 0.66457194089889526 0.66457194089889526
0.75323563814163208 0.75323563814163208 0.75323563814163208
0.59850895404815674 0.59850895404815674 0.59850895404815674
0.57813829183578491 0.57813829183578491 0.57813829183578491
0.5640442967414856 0.5640442967414856 0.5640442967414856
0.59044957160949707 0.59044957160949707 0.59044957160949707
0.65077966451644897 0.65077966451644897 0.65077966451644897
0.72640889883041382 0.72640889883041382 0.72640889883041382
0.80331408977508545 0.80331408977508545 0.80331408977508545
0.73726332187652588 0.73726332187652588 0.73726332187652588
0.71992999315261841 0.71992999315261841 0.71992999315261841
0.70270031690597534 0.70270031690597534 0.70270031690597534
0.710612952709198 0.710612952709198 0.710612952709198
0.75117975473403931 0.75117975473403931 0.75117975473403931
0.8082466721534729 0.8082466721534729 0.8082466721534729
0.86642277240753174 0.86642277240753174 0.86642277240753174
0.87699776887893677 0.87699776887893677 0.87699776887893677
0.86690950393676758 0.86690950393676758 0.86690950393676758
0.85436481237411499 0.85436481237411499 0.85436481237411499
0.85292631387710571 0.85292631387710571 0.85292631387710571
0.87401443719863892 0.87401443719863892 0.87401443719863892
0.90697258710861206 0.90697258710861206 0.90697258710861206
0.94191908836364746 0.94191908836364746 0.94191908836364746
0.25267836451530457 0.25267836451530457 0.25267836451530457
0.30516627430915833 0.30516627430915833 0.30516627430915833
0.34678146243095398 0.34678146243095398 0.34678146243095398
0.4062809944152832 0.4062809944152832 0.4062809944152832
0.48999783396720886 0.48999783396720886 0.48999783396720886
0.58172613382339478 0.58172613382339478 0.58172613382339478
0.68738776445388794 0.68738776445388794 0.68738776445388794
0.26657575368881226 0.26657575368881226 0.26657575368881226
0.3106236457824707 0.3106236457824707 0.3106236457824707
0.36648067831993103 0.36648067831993103 0.36648067831993103
0.43166846036911011 0.43166846036911011 0.43166846036911011
0.51156657934188843 0.51156657934188843 0.51156657934188843
0.60600548982620239 0.60600548982620239 0.60600548982620239
0.70454055070877075 0.70454055070877075 0.70454055070877075
0.37446826696395874 0.37446826696395874 0.37446826696395874
0.38127464056015015 0.38127464056015015 0.38127464056015015
0.41313058137893677 0.41313058137893677 0.41313058137893677
0.47734475135803223 0.47734475135803223 0.47734475135803223
0.55080270767211914 0.55080270767211914 0.55080270767211914
0.6381150484085083 0.6381150484085083 0.6381150484085083
0.73074793815612793 0.73074793815612793 0.73074793815612793
0.51084131002426147 0.51084131002426147 0.51084131002426147
0.50361430644989014 0.50361430644989014 0.50361430644989014
0.50757640600204468 0.50757640600204468 0.50757640600204468
0.54164040088653564 0.54164040088653564 0.54164040088653564
0.60278403759002686 0.60278403759002686 0.60278403759002686
0.68248546123504639 0.68248546123504639 0.68248546123504639
0.76815712451934814 0.76815712451934814 0.76815712451934814
0.63876605033874512 0.63876605033874512 0.63876605033874512
0.63155460357666016 0.63155460357666016 0.63155460357666016
0.6174742579460144 0.6174742579460144 0.6174742579460144
0.6241157054901123 0.6241157054901123 0.6241157054901123
0.67019098997116089 0.67019098997116089 0.67019098997116089
0.74195069074630737 0.74195069074630737 0.74195069074630737
0.81811904907226562 0.81811904907226562 0.81811904907226562
0.76559054851531982 0.76559054851531982 0.76559054851531982
0.75562971830368042 0.75562971830368042 0.75562971830368042
0.73646938800811768 0.73646938800811768 0.73646938800811768
0.72683638334274292 0.72683638334274292 0.72683638334274292
0.76135522127151489 0.76135522127151489 0.76135522127151489
0.81995981931686401 0.81995981931686401 0.81995981931686401
0.87845200300216675 0.87845200300216675 0.87845200300216675
0.89181286096572876 0.89181286096572876 0.89181286096572876
0.88348591327667236 0.88348591327667236 0.88348591327667236
0.86829507350921631 0.86829507350921631 0.86829507350921631
0.8599773645401001 0.8599773645401001 0.8599773645401001
0.88002365827560425 0.88002365827560425 0.88002365827560425
0.9148789644241333 0.9148789644241333 0.9148789644241333
0.94935691356658936 0.94935691356658936 0.94935691356658936
0.4118179976940155 0.4118179976940155 0.4118179976940155
0.43848952651023865 0.43848952651023865 0.43848952651023865
0.49960634112358093 0.49960634112358093 0.49960634112358093
0.51724016666412354 0.51724016666412354 0.51724016666412354
0.5551522970199585 0.5551522970199585 0.5551522970199585
0.64109319448471069 0.64109319448471069 0.64109319448471069
0.7394413948059082 0.7394413948059082 0.7394413948059082
0.41036686301231384 0.41036686301231384 0.41036686301231384
0.43589836359024048 0.43589836359024048 0.43589836359024048
0.49689465761184692 0.49689465761184692 0.49689465761184692
0.53430825471878052 0.53430825471878052 0.53430825471878052
0.57146596908569336 0.57146596908569336 0.57146596908569336
0.65960800647735596 0.65960800647735596 0.65960800647735596
0.74454444646835327 0.74454444646835327 0.74454444646835327
0.4520244300365448 0.4520244300365448 0.4520244300365448
0.45788052678108215 0.45788052678108215 0.45788052678108215
0.51387488842010498 0.51387488842010498 0.51387488842010498
0.56680792570114136 0.56680792570114136 0.56680792570114136
0.60920804738998413 0.60920804738998413 0.60920804738998413
0.67933589220046997 0.67933589220046997 0.67933589220046997
0.75879937410354614 0.75879937410354614 0.75879937410354614
0.54424417018890381 0.54424417018890381 0.54424417018890381
0.55740451812744141 0.55740451812744141 0.55740451812744141
0.57854384183883667 0.57854384183883667 0.57854384183883667
0.6060599684715271 0.6060599684715271 0.6060599684715271
0.6490243673324585 0.6490243673324585 0.6490243673324585
0.71526867151260376 0.71526867151260376 0.71526867151260376
0.79052698612213135 0.79052698612213135 0.79052698612213135
0.66620814800262451 0.66620814800262451 0.66620814800262451
0.68006235361099243 0.68006235361099243 0.68006235361099243
0.67650943994522095 0.67650943994522095 0.67650943994522095
0.67631518840789795 0.67631518840789795 0.67631518840789795
0.7065538763999939 0.7065538763999939 0.7065538763999939
0.76716631650924683 0.76716631650924683 0.76716631650924683
0.8376762866973877 0.8376762866973877 0.8376762866973877
0.78889036178588867 0.78889036178588867 0.78889036178588867
0.79091352224349976 0.79091352224349976 0.79091352224349976
0.78375953435897827 0.78375953435897827 0.78375953435897827
0.77535367012023926 0.77535367012023926 0.77535367012023926
0.79092645645141602 0.79092645645141602 0.79092645645141602
0.8358231782913208 0.8358231782913208 0.8358231782913208
0.88936454057693481 0.88936454057693481 0.88936454057693481
0.90707457065582275 0.90707457065582275 0.90707457065582275
0.90368789434432983 0.90368789434432983 0.90368789434432983
0.89586746692657471 0.89586746692657471 0.89586746692657471
0.88797229528427124 0.88797229528427124 0.88797229528427124
0.89367800951004028 0.89367800951004028 0.89367800951004028
0.91765618324279785 0.91765618324279785 0.91765618324279785
0.95022642612457275 0.95022642612457275 0.95022642612457275
0.56490033864974976 0.56490033864974976 0.56490033864974976
0.57512617111206055 0.57512617111206055 0.57512617111206055
0.61831837892532349 0.61831837892532349 0.61831837892532349
0.66607028245925903 0.66607028245925903 0.66607028245925903
0.67318189144134521 0.67318189144134521 0.67318189144134521
0.70426362752914429 0.70426362752914429 0.70426362752914429
0.78326284885406494 0.78326284885406494 0.78326284885406494
0.57223927974700928 0.57223927974700928 0.57223927974700928
0.58018672466278076 0.58018672466278076 0.58018672466278076
0.6226123571395874 0.6226123571395874 0.6226123571395874
0.66917723417282104 0.66917723417282104 0.66917723417282104
0.68950802087783813 0.68950802087783813 0.68950802087783813
0.72386127710342407 0.72386127710342407 0.72386127710342407
0.78279143571853638 0.78279143571853638 0.78279143571853638
0.5820123553276062 0.5820123553276062 0.5820123553276062
0.58545994758605957 0.58545994758605957 0.58545994758605957
0.62526422739028931 0.62526422739028931 0.62526422739028931
0.66643434762954712 0.66643434762954712 0.66643434762954712
0.69624263048171997 0.69624263048171997 0.69624263048171997
0.73818093538284302 0.73818093538284302 0.73818093538284302
0.79350841045379639 0.79350841045379639 0.79350841045379639
0.60197389125823975 0.60197389125823975 0.60197389125823975
0.62743896245956421 0.62743896245956421 0.62743896245956421
0.65560257434844971 0.65560257434844971 0.65560257434844971
0.67811548709869385 0.67811548709869385 0.67811548709869385
0.71107840538024902 0.71107840538024902 0.71107840538024902
0.76157033443450928 0.76157033443450928 0.76157033443450928
0.81960910558700562 0.81960910558700562 0.81960910558700562
0.69874030351638794 0.69874030351638794 0.69874030351638794
0.71652090549468994 0.71652090549468994 0.71652090549468994
0.72603756189346313 0.72603756189346313 0.72603756189346313
0.72606486082077026 0.72606486082077026 0.72606486082077026
0.75006920099258423 0.75006920099258423 0.75006920099258423
0.80104053020477295 0.80104053020477295 0.80104053020477295
0.85709851980209351 0.85709851980209351 0.85709851980209351
0.81142610311508179 0.81142610311508179 0.81142610311508179
0.81826984882354736 0.81826984882354736 0.81826984882354736
0.82338851690292358 0.82338851690292358 0.82338851690292358
0.82219874858856201 0.82219874858856201 0.82219874858856201
0.82591283321380615 0.82591283321380615 0.82591283321380615
0.8566974401473999 0.8566974401473999 0.8566974401473999
0.89900857210159302 0.89900857210159302 0.89900857210159302
0.92103230953216553 0.92103230953216553 0.92103230953216553
0.91962724924087524 0.91962724924087524 0.91962724924087524
0.91966599225997925 0.91966599225997925 0.91966599225997925
0.91627097129821777 0.91627097129821777 0.91627097129821777
0.91193866729736328 0.91193866729736328 0.91193866729736328
0.92365258932113647 0.92365258932113647 0.92365258932113647
0.94929569959640503 0.94929569959640503 0.94929569959640503
0.72268122434616089 0.72268122434616089 0.72268122434616089
0.72765535116195679 0.72765535116195679 0.72765535116195679
0.7496640682220459 0.7496640682220459 0.7496640682220459
0.79304236173629761 0.79304236173629761 0.79304236173629761
0.81624037027359009 0.81624037027359009 0.81624037027359009
0.81243795156478882 0.81243795156478882 0.81243795156478882
0.82297432422637939 0.82297432422637939 0.82297432422637939
0.73448663949966431 0.73448663949966431 0.73448663949966431
0.73512476682662964 0.73512476682662964 0.73512476682662964
0.75458312034606934 0.75458312034606934 0.75458312034606934
0.79231256246566772 0.79231256246566772 0.79231256246566772
0.81187206506729126 0.81187206506729126 0.81187206506729126
0.81384050846099854 0.81384050846099854 0.81384050846099854
0.83225572109222412 0.83225572109222412 0.83225572109222412
0.73497474193572998 0.73497474193572998 0.73497474193572998
0.73494434356689453 0.73494434356689453 0.73494434356689453
0.7515639066696167 0.7515639066696167 0.7515639066696167
0.77865409851074219 0.77865409851074219 0.77865409851074219
0.80039459466934204 0.80039459466934204 0.80039459466934204
0.81722569465637207 0.81722569465637207 0.81722569465637207
0.8424258828163147 0.8424258828163147 0.8424258828163147
0.72473752498626709 0.72473752498626709 0.72473752498626709
0.73887717723846436 0.73887717723846436 0.73887717723846436
0.75429421663284302 0.75429421663284302 0.75429421663284302
0.76970201730728149 0.76970201730728149 0.76970201730728149
0.79627084732055664 0.79627084732055664 0.79627084732055664
0.83082562685012817 0.83082562685012817 0.83082562685012817
0.86638259887695312 0.86638259887695312 0.86638259887695312
0.77040618658065796 0.77040618658065796 0.77040618658065796
0.78049087524414062 0.78049087524414062 0.78049087524414062
0.78801470994949341 0.78801470994949341 0.78801470994949341
0.78776508569717407 0.78776508569717407 0.78776508569717407
0.81366252899169922 0.81366252899169922 0.81366252899169922
0.85703283548355103 0.85703283548355103 0.85703283548355103
0.89454388618469238 0.89454388618469238 0.89454388618469238
0.84533798694610596 0.84533798694610596 0.84533798694610596
0.85088992118835449 0.85088992118835449 0.85088992118835449
0.85652804374694824 0.85652804374694824 0.85652804374694824
0.85621374845504761 0.85621374845504761 0.85621374845504761
0.86698168516159058 0.86698168516159058 0.86698168516159058
0.89230221509933472 0.89230221509933472 0.89230221509933472
0.92090898752212524 0.92090898752212524 0.92090898752212524
0.93033629655838013 0.93033629655838013 0.93033629655838013
0.93136858940124512 0.93136858940124512 0.93136858940124512
0.93466579914093018 0.93466579914093018 0.93466579914093018
0.9337838888168335 0.9337838888168335 0.9337838888168335
0.93257516622543335 0.93257516622543335 0.93257516622543335
0.938495934009552 0.938495934009552 0.938495934009552
0.95513343811035156 0.95513343811035156 0.95513343811035156
0.87344169616699219 0.87344169616699219 0.87344169616699219
0.87759131193161011 0.87759131193161011 0.87759131193161011
0.89062213897705078 0.89062213897705078 0.89062213897705078
0.91527187824249268 0.91527187824249268 0.91527187824249268
0.93188703060150146 0.93188703060150146 0.93188703060150146
0.92581838369369507 0.92581838369369507 0.92581838369369507
0.92673039436340332 0.92673039436340332 0.92673039436340332
0.88076037168502808 0.88076037168502808 0.88076037168502808
0.88202577829360962 0.88202577829360962 0.88202577829360962
0.89141404628753662 0.89141404628753662 0.89141404628753662
0.91221791505813599 0.91221791505813599 0.91221791505813599
0.92429918050765991 0.92429918050765991 0.92429918050765991
0.91873157024383545 0.91873157024383545 0.91873157024383545
0.92069160938262939 0.92069160938262939 0.92069160938262939
0.87924039363861084 0.87924039363861084 0.87924039363861084
0.87730789184570312 0.87730789184570312 0.87730789184570312
0.8828393816947937 0.8828393816947937 0.8828393816947937
0.89960575103759766 0.89960575103759766 0.89960575103759766
0.91291838884353638 0.91291838884353638 0.91291838884353638
0.91572803258895874 0.91572803258895874 0.91572803258895874
0.9230344295501709 0.9230344295501709 0.9230344295501709
0.8679167628288269 0.8679167628288269 0.8679167628288269
0.86734485626220703 0.86734485626220703 0.86734485626220703
0.87227451801300049 0.87227451801300049 0.87227451801300049
0.88498926162719727 0.88498926162719727 0.88498926162719727
0.9049842357635498 0.9049842357635498 0.9049842357635498
0.92320770025253296 0.92320770025253296 0.92320770025253296
0.93912798166275024 0.93912798166275024 0.93912798166275024
0.87132000923156738 0.87132000923156738 0.87132000923156738
0.87367868423461914 0.87367868423461914 0.87367868423461914
0.87836194038391113 0.87836194038391113 0.87836194038391113
0.88702189922332764 0.88702189922332764 0.88702189922332764
0.91061979532241821 0.91061979532241821 0.91061979532241821
0.94066011905670166 0.94066011905670166 0.94066011905670166
0.95640188455581665 0.95640188455581665 0.95640188455581665
0.90222901105880737 0.90222901105880737 0.90222901105880737
0.90526479482650757 0.90526479482650757 0.90526479482650757
0.91169756650924683 0.91169756650924683 0.91169756650924683
0.91823792457580566 0.91823792457580566 0.91823792457580566
0.93284136056900024 0.93284136056900024 0.93284136056900024
0.95095467567443848 0.95095467567443848 0.95095467567443848
0.96470749378204346 0.96470749378204346 0.96470749378204346
0.95227539539337158 0.95227539539337158 0.95227539539337158
0.95762360095977783 0.95762360095977783 0.95762360095977783
0.96458488702774048 0.96458488702774048 0.96458488702774048
0.96832573413848877 0.96832573413848877 0.96832573413848877
0.97066253423690796 0.97066253423690796 0.97066253423690796
0.97287428379058838 0.97287428379058838 0.97287428379058838
0.97894430160522461 0.97894430160522461 0.97894430160522461
