luts/instant_pro/fuji_fp-3000b_--.cube
# Created by: G'MIC (https://gmic.eu)
TITLE "fuji_fp-3000b_--"
# LUT size
LUT_3D_SIZE 13
# Data domain
DOMAIN_MIN 0.0 0.0 0.0
DOMAIN_MAX 1.0 1.0 1.0
# LUT data points
0.030639259144663811 0.030639259144663811 0.030639259144663811
0.066519327461719513 0.066519327461719513 0.066519327461719513
0.11868084222078323 0.11868084222078323 0.11868084222078323
0.17088304460048676 0.17088304460048676 0.17088304460048676
0.21530476212501526 0.21530476212501526 0.21530476212501526
0.25844529271125793 0.25844529271125793 0.25844529271125793
0.30768147110939026 0.30768147110939026 0.30768147110939026
0.36119672656059265 0.36119672656059265 0.36119672656059265
0.41552051901817322 0.41552051901817322 0.41552051901817322
0.47002023458480835 0.47002023458480835 0.47002023458480835
0.52504825592041016 0.52504825592041016 0.52504825592041016
0.58162873983383179 0.58162873983383179 0.58162873983383179
0.63887655735015869 0.63887655735015869 0.63887655735015869
0.053829941898584366 0.053829941898584366 0.053829941898584366
0.089228689670562744 0.089228689670562744 0.089228689670562744
0.15015392005443573 0.15015392005443573 0.15015392005443573
0.20718324184417725 0.20718324184417725 0.20718324184417725
0.24486884474754333 0.24486884474754333 0.24486884474754333
0.27978226542472839 0.27978226542472839 0.27978226542472839
0.3258577287197113 0.3258577287197113 0.3258577287197113
0.37768381834030151 0.37768381834030151 0.37768381834030151
0.43008154630661011 0.43008154630661011 0.43008154630661011
0.48288378119468689 0.48288378119468689 0.48288378119468689
0.53656041622161865 0.53656041622161865 0.53656041622161865
0.59131991863250732 0.59131991863250732 0.59131991863250732
0.64699780941009521 0.64699780941009521 0.64699780941009521
0.10094541311264038 0.10094541311264038 0.10094541311264038
0.12565374374389648 0.12565374374389648 0.12565374374389648
0.18661783635616302 0.18661783635616302 0.18661783635616302
0.25092509388923645 0.25092509388923645 0.25092509388923645
0.28887790441513062 0.28887790441513062 0.28887790441513062
0.31857538223266602 0.31857538223266602 0.31857538223266602
0.36068472266197205 0.36068472266197205 0.36068472266197205
0.40629476308822632 0.40629476308822632 0.40629476308822632
0.45330557227134705 0.45330557227134705 0.45330557227134705
0.50232130289077759 0.50232130289077759 0.50232130289077759
0.55278843641281128 0.55278843641281128 0.55278843641281128
0.60480648279190063 0.60480648279190063 0.60480648279190063
0.65815019607543945 0.65815019607543945 0.65815019607543945
0.16539517045021057 0.16539517045021057 0.16539517045021057
0.1673123836517334 0.1673123836517334 0.1673123836517334
0.21094250679016113 0.21094250679016113 0.21094250679016113
0.28208959102630615 0.28208959102630615 0.28208959102630615
0.34302040934562683 0.34302040934562683 0.34302040934562683
0.38144752383232117 0.38144752383232117 0.38144752383232117
0.41450509428977966 0.41450509428977966 0.41450509428977966
0.44911143183708191 0.44911143183708191 0.44911143183708191
0.48769998550415039 0.48769998550415039 0.48769998550415039
0.53009909391403198 0.53009909391403198 0.53009909391403198
0.57517915964126587 0.57517915964126587 0.57517915964126587
0.623058021068573 0.623058021068573 0.623058021068573
0.67343634366989136 0.67343634366989136 0.67343634366989136
0.23335222899913788 0.23335222899913788 0.23335222899913788
0.22052052617073059 0.22052052617073059 0.22052052617073059
0.24255342781543732 0.24255342781543732 0.24255342781543732
0.30217447876930237 0.30217447876930237 0.30217447876930237
0.3711945116519928 0.3711945116519928 0.3711945116519928
0.42714554071426392 0.42714554071426392 0.42714554071426392
0.46957153081893921 0.46957153081893921 0.46957153081893921
0.50026905536651611 0.50026905536651611 0.50026905536651611
0.53145134449005127 0.53145134449005127 0.53145134449005127
0.56602901220321655 0.56602901220321655 0.56602901220321655
0.60375243425369263 0.60375243425369263 0.60375243425369263
0.64557987451553345 0.64557987451553345 0.64557987451553345
0.69231593608856201 0.69231593608856201 0.69231593608856201
0.29364517331123352 0.29364517331123352 0.29364517331123352
0.27949583530426025 0.27949583530426025 0.27949583530426025
0.28506189584732056 0.28506189584732056 0.28506189584732056
0.3199312686920166 0.3199312686920166 0.3199312686920166
0.37482905387878418 0.37482905387878418 0.37482905387878418
0.44226136803627014 0.44226136803627014 0.44226136803627014
0.50566768646240234 0.50566768646240234 0.50566768646240234
0.54573792219161987 0.54573792219161987 0.54573792219161987
0.57769131660461426 0.57769131660461426 0.57769131660461426
0.60774022340774536 0.60774022340774536 0.60774022340774536
0.63731980323791504 0.63731980323791504 0.63731980323791504
0.67183858156204224 0.67183858156204224 0.67183858156204224
0.71469807624816895 0.71469807624816895 0.71469807624816895
0.3404790461063385 0.3404790461063385 0.3404790461063385
0.32899367809295654 0.32899367809295654 0.32899367809295654
0.32759064435958862 0.32759064435958862 0.32759064435958862
0.34688308835029602 0.34688308835029602 0.34688308835029602
0.38947433233261108 0.38947433233261108 0.38947433233261108
0.45300939679145813 0.45300939679145813 0.45300939679145813
0.52088010311126709 0.52088010311126709 0.52088010311126709
0.57547807693481445 0.57547807693481445 0.57547807693481445
0.6180538535118103 0.6180538535118103 0.6180538535118103
0.65053051710128784 0.65053051710128784 0.65053051710128784
0.67551946640014648 0.67551946640014648 0.67551946640014648
0.7039150595664978 0.7039150595664978 0.7039150595664978
0.7425234317779541 0.7425234317779541 0.7425234317779541
0.3847515881061554 0.3847515881061554 0.3847515881061554
0.37542539834976196 0.37542539834976196 0.37542539834976196
0.37257859110832214 0.37257859110832214 0.37257859110832214
0.38414078950881958 0.38414078950881958 0.38414078950881958
0.41613468527793884 0.41613468527793884 0.41613468527793884
0.46827793121337891 0.46827793121337891 0.46827793121337891
0.53138953447341919 0.53138953447341919 0.53138953447341919
0.59379374980926514 0.59379374980926514 0.59379374980926514
0.64883917570114136 0.64883917570114136 0.64883917570114136
0.68913650512695312 0.68913650512695312 0.68913650512695312
0.71637207269668579 0.71637207269668579 0.71637207269668579
0.74310022592544556 0.74310022592544556 0.74310022592544556
0.7759624719619751 0.7759624719619751 0.7759624719619751
0.43447571992874146 0.43447571992874146 0.43447571992874146
0.42707797884941101 0.42707797884941101 0.42707797884941101
0.42346537113189697 0.42346537113189697 0.42346537113189697
0.42925480008125305 0.42925480008125305 0.42925480008125305
0.44949844479560852 0.44949844479560852 0.44949844479560852
0.48813474178314209 0.48813474178314209 0.48813474178314209
0.54262691736221313 0.54262691736221313 0.54262691736221313
0.60581427812576294 0.60581427812576294 0.60581427812576294
0.66726219654083252 0.66726219654083252 0.66726219654083252
0.71640598773956299 0.71640598773956299 0.71640598773956299
0.75104826688766479 0.75104826688766479 0.75104826688766479
0.78016328811645508 0.78016328811645508 0.78016328811645508
0.81046211719512939 0.81046211719512939 0.81046211719512939
0.49553957581520081 0.49553957581520081 0.49553957581520081
0.48972338438034058 0.48972338438034058 0.48972338438034058
0.48526528477668762 0.48526528477668762 0.48526528477668762
0.48439320921897888 0.48439320921897888 0.48439320921897888
0.49177062511444092 0.49177062511444092 0.49177062511444092
0.5150676965713501 0.5150676965713501 0.5150676965713501
0.55969405174255371 0.55969405174255371 0.55969405174255371
0.61951363086700439 0.61951363086700439 0.61951363086700439
0.68293875455856323 0.68293875455856323 0.68293875455856323
0.73742562532424927 0.73742562532424927 0.73742562532424927
0.77917897701263428 0.77917897701263428 0.77917897701263428
0.81230372190475464 0.81230372190475464 0.81230372190475464
0.84275281429290771 0.84275281429290771 0.84275281429290771
0.57220327854156494 0.57220327854156494 0.57220327854156494
0.5671541690826416 0.5671541690826416 0.5671541690826416
0.56134754419326782 0.56134754419326782 0.56134754419326782
0.55445617437362671 0.55445617437362671 0.55445617437362671
0.54919135570526123 0.54919135570526123 0.54919135570526123
0.55558091402053833 0.55558091402053833 0.55558091402053833
0.58894079923629761 0.58894079923629761 0.58894079923629761
0.64535301923751831 0.64535301923751831 0.64535301923751831
0.7079957127571106 0.7079957127571106 0.7079957127571106
0.76365894079208374 0.76365894079208374 0.76365894079208374
0.80797231197357178 0.80797231197357178 0.80797231197357178
0.84258800745010376 0.84258800745010376 0.84258800745010376
0.87314152717590332 0.87314152717590332 0.87314152717590332
0.66076910495758057 0.66076910495758057 0.66076910495758057
0.6571165919303894 0.6571165919303894 0.6571165919303894
0.6514778733253479 0.6514778733253479 0.6514778733253479
0.64268380403518677 0.64268380403518677 0.64268380403518677
0.62973511219024658 0.62973511219024658 0.62973511219024658
0.62132567167282104 0.62132567167282104 0.62132567167282104
0.64320218563079834 0.64320218563079834 0.64320218563079834
0.69326263666152954 0.69326263666152954 0.69326263666152954
0.75040394067764282 0.75040394067764282 0.75040394067764282
0.80196374654769897 0.80196374654769897 0.80196374654769897
0.84241968393325806 0.84241968393325806 0.84241968393325806
0.87558996677398682 0.87558996677398682 0.87558996677398682
0.90463888645172119 0.90463888645172119 0.90463888645172119
0.75337594747543335 0.75337594747543335 0.75337594747543335
0.75174218416213989 0.75174218416213989 0.75174218416213989
0.74859040975570679 0.74859040975570679 0.74859040975570679
0.74349957704544067 0.74349957704544067 0.74349957704544067
0.7327306866645813 0.7327306866645813 0.7327306866645813
0.71975535154342651 0.71975535154342651 0.71975535154342651
0.7287747859954834 0.7287747859954834 0.7287747859954834
0.76384079456329346 0.76384079456329346 0.76384079456329346
0.80994242429733276 0.80994242429733276 0.80994242429733276
0.85264188051223755 0.85264188051223755 0.85264188051223755
0.88618874549865723 0.88618874549865723 0.88618874549865723
0.9137643575668335 0.9137643575668335 0.9137643575668335
0.93964076042175293 0.93964076042175293 0.93964076042175293
0.069703072309494019 0.069703072309494019 0.069703072309494019
0.10116985440254211 0.10116985440254211 0.10116985440254211
0.1459561288356781 0.1459561288356781 0.1459561288356781
0.19257664680480957 0.19257664680480957 0.19257664680480957
0.23594251275062561 0.23594251275062561 0.23594251275062561
0.28006526827812195 0.28006526827812195 0.28006526827812195
0.32948428392410278 0.32948428392410278 0.32948428392410278
0.38080295920372009 0.38080295920372009 0.38080295920372009
0.43100768327713013 0.43100768327713013 0.43100768327713013
0.48032084107398987 0.48032084107398987 0.48032084107398987
0.53021824359893799 0.53021824359893799 0.53021824359893799
0.58209097385406494 0.58209097385406494 0.58209097385406494
0.63635545969009399 0.63635545969009399 0.63635545969009399
0.098156899213790894 0.098156899213790894 0.098156899213790894
0.12607727944850922 0.12607727944850922 0.12607727944850922
0.17103852331638336 0.17103852331638336 0.17103852331638336
0.21912406384944916 0.21912406384944916 0.21912406384944916
0.25930964946746826 0.25930964946746826 0.25930964946746826
0.29824924468994141 0.29824924468994141 0.29824924468994141
0.34312871098518372 0.34312871098518372 0.34312871098518372
0.39171507954597473 0.39171507954597473 0.39171507954597473
0.44068229198455811 0.44068229198455811 0.44068229198455811
0.48973748087882996 0.48973748087882996 0.48973748087882996
0.53970026969909668 0.53970026969909668 0.53970026969909668
0.59120798110961914 0.59120798110961914 0.59120798110961914
0.64496475458145142 0.64496475458145142 0.64496475458145142
0.15307380259037018 0.15307380259037018 0.15307380259037018
0.16663758456707001 0.16663758456707001 0.16663758456707001
0.20060110092163086 0.20060110092163086 0.20060110092163086
0.25091162323951721 0.25091162323951721 0.25091162323951721
0.29551246762275696 0.29551246762275696 0.29551246762275696
0.33317029476165771 0.33317029476165771 0.33317029476165771
0.37152034044265747 0.37152034044265747 0.37152034044265747
0.41266420483589172 0.41266420483589172 0.41266420483589172
0.4574742317199707 0.4574742317199707 0.4574742317199707
0.50494903326034546 0.50494903326034546 0.50494903326034546
0.55415159463882446 0.55415159463882446 0.55415159463882446
0.6054491400718689 0.6054491400718689 0.6054491400718689
0.65822190046310425 0.65822190046310425 0.65822190046310425
0.22050607204437256 0.22050607204437256 0.22050607204437256
0.21340610086917877 0.21340610086917877 0.21340610086917877
0.22759550809860229 0.22759550809860229 0.22759550809860229
0.27930396795272827 0.27930396795272827 0.27930396795272827
0.33740323781967163 0.33740323781967163 0.33740323781967163
0.3825344443321228 0.3825344443321228 0.3825344443321228
0.41592833399772644 0.41592833399772644 0.41592833399772644
0.44608047604560852 0.44608047604560852 0.44608047604560852
0.48490551114082336 0.48490551114082336 0.48490551114082336
0.52942246198654175 0.52942246198654175 0.52942246198654175
0.57588589191436768 0.57588589191436768 0.57588589191436768
0.62513935565948486 0.62513935565948486 0.62513935565948486
0.67656838893890381 0.67656838893890381 0.67656838893890381
0.27606865763664246 0.27606865763664246 0.27606865763664246
0.26170817017555237 0.26170817017555237 0.26170817017555237
0.26488581299781799 0.26488581299781799 0.26488581299781799
0.30570045113563538 0.30570045113563538 0.30570045113563538
0.36787733435630798 0.36787733435630798 0.36787733435630798
0.42649945616722107 0.42649945616722107 0.42649945616722107
0.46637853980064392 0.46637853980064392 0.46637853980064392
0.49294036626815796 0.49294036626815796 0.49294036626815796
0.52634131908416748 0.52634131908416748 0.52634131908416748
0.56439387798309326 0.56439387798309326 0.56439387798309326
0.60533177852630615 0.60533177852630615 0.60533177852630615
0.64990872144699097 0.64990872144699097 0.64990872144699097
0.69830787181854248 0.69830787181854248 0.69830787181854248
0.32497081160545349 0.32497081160545349 0.32497081160545349
0.31102985143661499 0.31102985143661499 0.31102985143661499
0.30684450268745422 0.30684450268745422 0.30684450268745422
0.32874602079391479 0.32874602079391479 0.32874602079391479
0.38205549120903015 0.38205549120903015 0.38205549120903015
0.4493812620639801 0.4493812620639801 0.4493812620639801
0.50497543811798096 0.50497543811798096 0.50497543811798096
0.54237979650497437 0.54237979650497437 0.54237979650497437
0.57519900798797607 0.57519900798797607 0.57519900798797607
0.60817915201187134 0.60817915201187134 0.60817915201187134
0.64168000221252441 0.64168000221252441 0.64168000221252441
0.67938554286956787 0.67938554286956787 0.67938554286956787
0.72265011072158813 0.72265011072158813 0.72265011072158813
0.36718001961708069 0.36718001961708069 0.36718001961708069
0.35478916764259338 0.35478916764259338 0.35478916764259338
0.34689420461654663 0.34689420461654663 0.34689420461654663
0.35760128498077393 0.35760128498077393 0.35760128498077393
0.3985152542591095 0.3985152542591095 0.3985152542591095
0.46094870567321777 0.46094870567321777 0.46094870567321777
0.52432268857955933 0.52432268857955933 0.52432268857955933
0.57603436708450317 0.57603436708450317 0.57603436708450317
0.61801189184188843 0.61801189184188843 0.61801189184188843
0.65281838178634644 0.65281838178634644 0.65281838178634644
0.6825108528137207 0.6825108528137207 0.6825108528137207
0.71400314569473267 0.71400314569473267 0.71400314569473267
0.75133484601974487 0.75133484601974487 0.75133484601974487
0.40770119428634644 0.40770119428634644 0.40770119428634644
0.39723002910614014 0.39723002910614014 0.39723002910614014
0.39027044177055359 0.39027044177055359 0.39027044177055359
0.39604336023330688 0.39604336023330688 0.39604336023330688
0.42470386624336243 0.42470386624336243 0.42470386624336243
0.47424352169036865 0.47424352169036865 0.47424352169036865
0.53488802909851074 0.53488802909851074 0.53488802909851074
0.59516918659210205 0.59516918659210205 0.59516918659210205
0.64902788400650024 0.64902788400650024 0.64902788400650024
0.69107186794281006 0.69107186794281006 0.69107186794281006
0.72328168153762817 0.72328168153762817 0.72328168153762817
0.75209623575210571 0.75209623575210571 0.75209623575210571
0.78461247682571411 0.78461247682571411 0.78461247682571411
0.45277494192123413 0.45277494192123413 0.45277494192123413
0.44500082731246948 0.44500082731246948 0.44500082731246948
0.43946760892868042 0.43946760892868042 0.43946760892868042
0.44141393899917603 0.44141393899917603 0.44141393899917603
0.45802289247512817 0.45802289247512817 0.45802289247512817
0.49286812543869019 0.49286812543869019 0.49286812543869019
0.54488527774810791 0.54488527774810791 0.54488527774810791
0.60644733905792236 0.60644733905792236 0.60644733905792236
0.66756182909011841 0.66756182909011841 0.66756182909011841
0.71885782480239868 0.71885782480239868 0.71885782480239868
0.75762301683425903 0.75762301683425903 0.75762301683425903
0.78840184211730957 0.78840184211730957 0.78840184211730957
0.81831580400466919 0.81831580400466919 0.81831580400466919
0.50896000862121582 0.50896000862121582 0.50896000862121582
0.50406539440155029 0.50406539440155029 0.50406539440155029
0.49904558062553406 0.49904558062553406 0.49904558062553406
0.4959837794303894 0.4959837794303894 0.4959837794303894
0.50080698728561401 0.50080698728561401 0.50080698728561401
0.52111673355102539 0.52111673355102539 0.52111673355102539
0.56218284368515015 0.56218284368515015 0.56218284368515015
0.62003237009048462 0.62003237009048462 0.62003237009048462
0.68294268846511841 0.68294268846511841 0.68294268846511841
0.7397921085357666 0.7397921085357666 0.7397921085357666
0.78453981876373291 0.78453981876373291 0.78453981876373291
0.81904596090316772 0.81904596090316772 0.81904596090316772
0.84933972358703613 0.84933972358703613 0.84933972358703613
0.58195710182189941 0.58195710182189941 0.58195710182189941
0.57822930812835693 0.57822930812835693 0.57822930812835693
0.57296979427337646 0.57296979427337646 0.57296979427337646
0.56555294990539551 0.56555294990539551 0.56555294990539551
0.5600929856300354 0.5600929856300354 0.5600929856300354
0.56644999980926514 0.56644999980926514 0.56644999980926514
0.59586054086685181 0.59586054086685181 0.59586054086685181
0.64713770151138306 0.64713770151138306 0.64713770151138306
0.70776599645614624 0.70776599645614624 0.70776599645614624
0.76422256231307983 0.76422256231307983 0.76422256231307983
0.81053179502487183 0.81053179502487183 0.81053179502487183
0.84706372022628784 0.84706372022628784 0.84706372022628784
0.87853634357452393 0.87853634357452393 0.87853634357452393
0.66743332147598267 0.66743332147598267 0.66743332147598267
0.66497910022735596 0.66497910022735596 0.66497910022735596
0.66040533781051636 0.66040533781051636 0.66040533781051636
0.65206742286682129 0.65206742286682129 0.65206742286682129
0.64098888635635376 0.64098888635635376 0.64098888635635376
0.63620257377624512 0.63620257377624512 0.63620257377624512
0.65417319536209106 0.65417319536209106 0.65417319536209106
0.69590318202972412 0.69590318202972412 0.69590318202972412
0.74900740385055542 0.74900740385055542 0.74900740385055542
0.7998543381690979 0.7998543381690979 0.7998543381690979
0.84241020679473877 0.84241020679473877 0.84241020679473877
0.87779951095581055 0.87779951095581055 0.87779951095581055
0.90861952304840088 0.90861952304840088 0.90861952304840088
0.75700193643569946 0.75700193643569946 0.75700193643569946
0.75688886642456055 0.75688886642456055 0.75688886642456055
0.75485432147979736 0.75485432147979736 0.75485432147979736
0.74936026334762573 0.74936026334762573 0.74936026334762573
0.73877453804016113 0.73877453804016113 0.73877453804016113
0.72914958000183105 0.72914958000183105 0.72914958000183105
0.73649531602859497 0.73649531602859497 0.73649531602859497
0.76541078090667725 0.76541078090667725 0.76541078090667725
0.80641204118728638 0.80641204118728638 0.80641204118728638
0.84802603721618652 0.84802603721618652 0.84802603721618652
0.88395166397094727 0.88395166397094727 0.88395166397094727
0.9144972562789917 0.9144972562789917 0.9144972562789917
0.94280582666397095 0.94280582666397095 0.94280582666397095
0.11698180437088013 0.11698180437088013 0.11698180437088013
0.14535568654537201 0.14535568654537201 0.14535568654537201
0.18323685228824615 0.18323685228824615 0.18323685228824615
0.22341600060462952 0.22341600060462952 0.22341600060462952
0.26246988773345947 0.26246988773345947 0.26246988773345947
0.3067566454410553 0.3067566454410553 0.3067566454410553
0.35805538296699524 0.35805538296699524 0.35805538296699524
0.40783590078353882 0.40783590078353882 0.40783590078353882
0.45255190134048462 0.45255190134048462 0.45255190134048462
0.49478214979171753 0.49478214979171753 0.49478214979171753
0.53769493103027344 0.53769493103027344 0.53769493103027344
0.58307862281799316 0.58307862281799316 0.58307862281799316
0.63377338647842407 0.63377338647842407 0.63377338647842407
0.1425023078918457 0.1425023078918457 0.1425023078918457
0.16800354421138763 0.16800354421138763 0.16800354421138763
0.2031371146440506 0.2031371146440506 0.2031371146440506
0.24315769970417023 0.24315769970417023 0.24315769970417023
0.28115984797477722 0.28115984797477722 0.28115984797477722
0.32073059678077698 0.32073059678077698 0.32073059678077698
0.36661884188652039 0.36661884188652039 0.36661884188652039
0.41353490948677063 0.41353490948677063 0.41353490948677063
0.45834967494010925 0.45834967494010925 0.45834967494010925
0.50187939405441284 0.50187939405441284 0.50187939405441284
0.54586070775985718 0.54586070775985718 0.54586070775985718
0.59202861785888672 0.59202861785888672 0.59202861785888672
0.64273875951766968 0.64273875951766968 0.64273875951766968
0.19576720893383026 0.19576720893383026 0.19576720893383026
0.20778407156467438 0.20778407156467438 0.20778407156467438
0.22992642223834991 0.22992642223834991 0.22992642223834991
0.26848042011260986 0.26848042011260986 0.26848042011260986
0.31069231033325195 0.31069231033325195 0.31069231033325195
0.35043683648109436 0.35043683648109436 0.35043683648109436
0.38834401965141296 0.38834401965141296 0.38834401965141296
0.42739933729171753 0.42739933729171753 0.42739933729171753
0.46912622451782227 0.46912622451782227 0.46912622451782227
0.51324194669723511 0.51324194669723511 0.51324194669723511
0.55911111831665039 0.55911111831665039 0.55911111831665039
0.60731643438339233 0.60731643438339233 0.60731643438339233
0.65891760587692261 0.65891760587692261 0.65891760587692261
0.26281827688217163 0.26281827688217163 0.26281827688217163
0.2582988440990448 0.2582988440990448 0.2582988440990448
0.26230049133300781 0.26230049133300781 0.26230049133300781
0.298033207654953 0.298033207654953 0.298033207654953
0.34719616174697876 0.34719616174697876 0.34719616174697876
0.39206242561340332 0.39206242561340332 0.39206242561340332
0.42556995153427124 0.42556995153427124 0.42556995153427124
0.45406228303909302 0.45406228303909302 0.45406228303909302
0.48987075686454773 0.48987075686454773 0.48987075686454773
0.53278732299804688 0.53278732299804688 0.53278732299804688
0.57919704914093018 0.57919704914093018 0.57919704914093018
0.62829244136810303 0.62829244136810303 0.62829244136810303
0.68017011880874634 0.68017011880874634 0.68017011880874634
0.3157564103603363 0.3157564103603363 0.3157564103603363
0.30900007486343384 0.30900007486343384 0.30900007486343384
0.30768448114395142 0.30768448114395142 0.30768448114395142
0.33126702904701233 0.33126702904701233 0.33126702904701233
0.38027232885360718 0.38027232885360718 0.38027232885360718
0.43595084547996521 0.43595084547996521 0.43595084547996521
0.47267505526542664 0.47267505526542664 0.47267505526542664
0.49619188904762268 0.49619188904762268 0.49619188904762268
