luts/instant_pro/fuji_fp-3000b_+++.cube
# Created by: G'MIC (https://gmic.eu)
TITLE "fuji_fp-3000b_+++"
# LUT size
LUT_3D_SIZE 5
# Data domain
DOMAIN_MIN 0.0 0.0 0.0
DOMAIN_MAX 1.0 1.0 1.0
# LUT data points
0.3120574951171875 0.3120574951171875 0.3120574951171875
0.32161363959312439 0.32161363959312439 0.32161363959312439
0.36861565709114075 0.36861565709114075 0.36861565709114075
0.46315193176269531 0.46315193176269531 0.46315193176269531
0.63445895910263062 0.63445895910263062 0.63445895910263062
0.32845556735992432 0.32845556735992432 0.32845556735992432
0.35033482313156128 0.35033482313156128 0.35033482313156128
0.42508754134178162 0.42508754134178162 0.42508754134178162
0.50307059288024902 0.50307059288024902 0.50307059288024902
0.68099236488342285 0.68099236488342285 0.68099236488342285
0.37699681520462036 0.37699681520462036 0.37699681520462036
0.38368207216262817 0.38368207216262817 0.38368207216262817
0.4947466254234314 0.4947466254234314 0.4947466254234314
0.66622453927993774 0.66622453927993774 0.66622453927993774
0.78043109178543091 0.78043109178543091 0.78043109178543091
0.49493664503097534 0.49493664503097534 0.49493664503097534
0.46704304218292236 0.46704304218292236 0.46704304218292236
0.53146106004714966 0.53146106004714966 0.53146106004714966
0.73756372928619385 0.73756372928619385 0.73756372928619385
0.85195285081863403 0.85195285081863403 0.85195285081863403
0.75865030288696289 0.75865030288696289 0.75865030288696289
0.73609614372253418 0.73609614372253418 0.73609614372253418
0.74641358852386475 0.74641358852386475 0.74641358852386475
0.82793086767196655 0.82793086767196655 0.82793086767196655
0.89842629432678223 0.89842629432678223 0.89842629432678223
0.31358811259269714 0.31358811259269714 0.31358811259269714
0.32882276177406311 0.32882276177406311 0.32882276177406311
0.38412386178970337 0.38412386178970337 0.38412386178970337
0.48700147867202759 0.48700147867202759 0.48700147867202759
0.64890462160110474 0.64890462160110474 0.64890462160110474
0.35183218121528625 0.35183218121528625 0.35183218121528625
0.36076858639717102 0.36076858639717102 0.36076858639717102
0.42949327826499939 0.42949327826499939 0.42949327826499939
0.53354299068450928 0.53354299068450928 0.53354299068450928
0.68407166004180908 0.68407166004180908 0.68407166004180908
0.44953811168670654 0.44953811168670654 0.44953811168670654
0.42828002572059631 0.42828002572059631 0.42828002572059631
0.50411450862884521 0.50411450862884521 0.50411450862884521
0.66999757289886475 0.66999757289886475 0.66999757289886475
0.77474319934844971 0.77474319934844971 0.77474319934844971
0.59523063898086548 0.59523063898086548 0.59523063898086548
0.55286359786987305 0.55286359786987305 0.55286359786987305
0.57282739877700806 0.57282739877700806 0.57282739877700806
0.75445574522018433 0.75445574522018433 0.75445574522018433
0.85925322771072388 0.85925322771072388 0.85925322771072388
0.80214172601699829 0.80214172601699829 0.80214172601699829
0.78057080507278442 0.78057080507278442 0.78057080507278442
0.77117067575454712 0.77117067575454712 0.77117067575454712
0.85142803192138672 0.85142803192138672 0.85142803192138672
0.91576355695724487 0.91576355695724487 0.91576355695724487
0.38163959980010986 0.38163959980010986 0.38163959980010986
0.41485226154327393 0.41485226154327393 0.41485226154327393
0.47426000237464905 0.47426000237464905 0.47426000237464905
0.59544748067855835 0.59544748067855835 0.59544748067855835
0.74829679727554321 0.74829679727554321 0.74829679727554321
0.42400214076042175 0.42400214076042175 0.42400214076042175
0.43853527307510376 0.43853527307510376 0.43853527307510376
0.51123082637786865 0.51123082637786865 0.51123082637786865
0.62372678518295288 0.62372678518295288 0.62372678518295288
0.75074392557144165 0.75074392557144165 0.75074392557144165
0.52518719434738159 0.52518719434738159 0.52518719434738159
0.53221362829208374 0.53221362829208374 0.53221362829208374
0.59603488445281982 0.59603488445281982 0.59603488445281982
0.69165080785751343 0.69165080785751343 0.69165080785751343
0.78636234998703003 0.78636234998703003 0.78636234998703003
0.71215778589248657 0.71215778589248657 0.71215778589248657
0.7058560848236084 0.7058560848236084 0.7058560848236084
0.67999625205993652 0.67999625205993652 0.67999625205993652
0.77908968925476074 0.77908968925476074 0.77908968925476074
0.86541485786437988 0.86541485786437988 0.86541485786437988
0.85958021879196167 0.85958021879196167 0.85958021879196167
0.84972929954528809 0.84972929954528809 0.84972929954528809
0.82052910327911377 0.82052910327911377 0.82052910327911377
0.85385900735855103 0.85385900735855103 0.85385900735855103
0.91411739587783813 0.91411739587783813 0.91411739587783813
0.5855289101600647 0.5855289101600647 0.5855289101600647
0.6173662543296814 0.6173662543296814 0.6173662543296814
0.6705511212348938 0.6705511212348938 0.6705511212348938
0.71849960088729858 0.71849960088729858 0.71849960088729858
0.79868215322494507 0.79868215322494507 0.79868215322494507
0.6311652660369873 0.6311652660369873 0.6311652660369873
0.64864808320999146 0.64864808320999146 0.64864808320999146
0.69080805778503418 0.69080805778503418 0.69080805778503418
0.7380414605140686 0.7380414605140686 0.7380414605140686
0.81679248809814453 0.81679248809814453 0.81679248809814453
0.63764482736587524 0.63764482736587524 0.63764482736587524
0.67394697666168213 0.67394697666168213 0.67394697666168213
0.71841579675674438 0.71841579675674438 0.71841579675674438
0.78252369165420532 0.78252369165420532 0.78252369165420532
0.8448185920715332 0.8448185920715332 0.8448185920715332
0.75432765483856201 0.75432765483856201 0.75432765483856201
0.77423352003097534 0.77423352003097534 0.77423352003097534
0.80143684148788452 0.80143684148788452 0.80143684148788452
0.83071333169937134 0.83071333169937134 0.83071333169937134
0.87900757789611816 0.87900757789611816 0.87900757789611816
0.89421027898788452 0.89421027898788452 0.89421027898788452
0.89437395334243774 0.89437395334243774 0.89437395334243774
0.88217419385910034 0.88217419385910034 0.88217419385910034
0.87531065940856934 0.87531065940856934 0.87531065940856934
0.90770399570465088 0.90770399570465088 0.90770399570465088
0.83555036783218384 0.83555036783218384 0.83555036783218384
0.84172189235687256 0.84172189235687256 0.84172189235687256
0.85680735111236572 0.85680735111236572 0.85680735111236572
0.87143141031265259 0.87143141031265259 0.87143141031265259
0.88320600986480713 0.88320600986480713 0.88320600986480713
0.85735917091369629 0.85735917091369629 0.85735917091369629
0.86239486932754517 0.86239486932754517 0.86239486932754517
0.8727983832359314 0.8727983832359314 0.8727983832359314
0.89072805643081665 0.89072805643081665 0.89072805643081665
0.90233147144317627 0.90233147144317627 0.90233147144317627
0.84103000164031982 0.84103000164031982 0.84103000164031982
0.8485608696937561 0.8485608696937561 0.8485608696937561
0.8714103102684021 0.8714103102684021 0.8714103102684021
0.89150971174240112 0.89150971174240112 0.89150971174240112
0.91149699687957764 0.91149699687957764 0.91149699687957764
0.84715765714645386 0.84715765714645386 0.84715765714645386
0.85864603519439697 0.85864603519439697 0.85864603519439697
0.87817215919494629 0.87817215919494629 0.87817215919494629
0.89267849922180176 0.89267849922180176 0.89267849922180176
0.91177397966384888 0.91177397966384888 0.91177397966384888
0.90129685401916504 0.90129685401916504 0.90129685401916504
0.91512763500213623 0.91512763500213623 0.91512763500213623
0.9188234806060791 0.9188234806060791 0.9188234806060791
0.9121706485748291 0.9121706485748291 0.9121706485748291
0.92070776224136353 0.92070776224136353 0.92070776224136353
