luts/instant_pro/fuji_fp-3000b_-.cube
# Created by: G'MIC (https://gmic.eu)
TITLE "fuji_fp-3000b_-"
# LUT size
LUT_3D_SIZE 13
# Data domain
DOMAIN_MIN 0.0 0.0 0.0
DOMAIN_MAX 1.0 1.0 1.0
# LUT data points
0.03450470045208931 0.03450470045208931 0.03450470045208931
0.046148113906383514 0.046148113906383514 0.046148113906383514
0.07330620288848877 0.07330620288848877 0.07330620288848877
0.11074447631835938 0.11074447631835938 0.11074447631835938
0.15534503757953644 0.15534503757953644 0.15534503757953644
0.20123268663883209 0.20123268663883209 0.20123268663883209
0.25053098797798157 0.25053098797798157 0.25053098797798157
0.30314749479293823 0.30314749479293823 0.30314749479293823
0.35765299201011658 0.35765299201011658 0.35765299201011658
0.41461989283561707 0.41461989283561707 0.41461989283561707
0.47614508867263794 0.47614508867263794 0.47614508867263794
0.5425422191619873 0.5425422191619873 0.5425422191619873
0.61040854454040527 0.61040854454040527 0.61040854454040527
0.048278164118528366 0.048278164118528366 0.048278164118528366
0.06714833527803421 0.06714833527803421 0.06714833527803421
0.11178512871265411 0.11178512871265411 0.11178512871265411
0.1567697674036026 0.1567697674036026 0.1567697674036026
0.1962776780128479 0.1962776780128479 0.1962776780128479
0.23395618796348572 0.23395618796348572 0.23395618796348572
0.27745503187179565 0.27745503187179565 0.27745503187179565
0.3264220654964447 0.3264220654964447 0.3264220654964447
0.37728920578956604 0.37728920578956604 0.37728920578956604
0.43047672510147095 0.43047672510147095 0.43047672510147095
0.48910906910896301 0.48910906910896301 0.48910906910896301
0.5529099702835083 0.5529099702835083 0.5529099702835083
0.61769616603851318 0.61769616603851318 0.61769616603851318
0.082002617418766022 0.082002617418766022 0.082002617418766022
0.096688695251941681 0.096688695251941681 0.096688695251941681
0.15119005739688873 0.15119005739688873 0.15119005739688873
0.20716598629951477 0.20716598629951477 0.20716598629951477
0.24956929683685303 0.24956929683685303 0.24956929683685303
0.28287422657012939 0.28287422657012939 0.28287422657012939
0.32001796364784241 0.32001796364784241 0.32001796364784241
0.36285299062728882 0.36285299062728882 0.36285299062728882
0.40705078840255737 0.40705078840255737 0.40705078840255737
0.45402857661247253 0.45402857661247253 0.45402857661247253
0.50829786062240601 0.50829786062240601 0.50829786062240601
0.56857562065124512 0.56857562065124512 0.56857562065124512
0.62989038228988647 0.62989038228988647 0.62989038228988647
0.13200104236602783 0.13200104236602783 0.13200104236602783
0.12928782403469086 0.12928782403469086 0.12928782403469086
0.16924487054347992 0.16924487054347992 0.16924487054347992
0.23639096319675446 0.23639096319675446 0.23639096319675446
0.29819241166114807 0.29819241166114807 0.29819241166114807
0.33971700072288513 0.33971700072288513 0.33971700072288513
0.37515893578529358 0.37515893578529358 0.37515893578529358
0.41195446252822876 0.41195446252822876 0.41195446252822876
0.44869077205657959 0.44869077205657959 0.44869077205657959
0.48838949203491211 0.48838949203491211 0.48838949203491211
0.53732538223266602 0.53732538223266602 0.53732538223266602
0.59298920631408691 0.59298920631408691 0.59298920631408691
0.65005213022232056 0.65005213022232056 0.65005213022232056
0.1935388594865799 0.1935388594865799 0.1935388594865799
0.1801525205373764 0.1801525205373764 0.1801525205373764
0.20059815049171448 0.20059815049171448 0.20059815049171448
0.25869867205619812 0.25869867205619812 0.25869867205619812
0.32698938250541687 0.32698938250541687 0.32698938250541687
0.38261497020721436 0.38261497020721436 0.38261497020721436
0.42736923694610596 0.42736923694610596 0.42736923694610596
0.46666732430458069 0.46666732430458069 0.46666732430458069
0.50094693899154663 0.50094693899154663 0.50094693899154663
0.53617751598358154 0.53617751598358154 0.53617751598358154
0.57866412401199341 0.57866412401199341 0.57866412401199341
0.62730294466018677 0.62730294466018677 0.62730294466018677
0.67783463001251221 0.67783463001251221 0.67783463001251221
0.25744616985321045 0.25744616985321045 0.25744616985321045
0.24148842692375183 0.24148842692375183 0.24148842692375183
0.24492813646793365 0.24492813646793365 0.24492813646793365
0.28241661190986633 0.28241661190986633 0.28241661190986633
0.34342777729034424 0.34342777729034424 0.34342777729034424
0.40833556652069092 0.40833556652069092 0.40833556652069092
0.4678371250629425 0.4678371250629425 0.4678371250629425
0.51643985509872437 0.51643985509872437 0.51643985509872437
0.55374020338058472 0.55374020338058472 0.55374020338058472
0.5886237621307373 0.5886237621307373 0.5886237621307373
0.62636113166809082 0.62636113166809082 0.62636113166809082
0.66797447204589844 0.66797447204589844 0.66797447204589844
0.71167683601379395 0.71167683601379395 0.71167683601379395
0.30940699577331543 0.30940699577331543 0.30940699577331543
0.29323676228523254 0.29323676228523254 0.29323676228523254
0.28881743550300598 0.28881743550300598 0.28881743550300598
0.31034719944000244 0.31034719944000244 0.31034719944000244
0.35931983590126038 0.35931983590126038 0.35931983590126038
0.42369413375854492 0.42369413375854492 0.42369413375854492
0.49138212203979492 0.49138212203979492 0.49138212203979492
0.55024158954620361 0.55024158954620361 0.55024158954620361
0.5960879921913147 0.5960879921913147 0.5960879921913147
0.63579738140106201 0.63579738140106201 0.63579738140106201
0.67317503690719604 0.67317503690719604 0.67317503690719604
0.7103043794631958 0.7103043794631958 0.7103043794631958
0.74759280681610107 0.74759280681610107 0.74759280681610107
0.35782849788665771 0.35782849788665771 0.35782849788665771
0.34160688519477844 0.34160688519477844 0.34160688519477844
0.33362084627151489 0.33362084627151489 0.33362084627151489
0.34430631995201111 0.34430631995201111 0.34430631995201111
0.37876889109611511 0.37876889109611511 0.37876889109611511
0.43513399362564087 0.43513399362564087 0.43513399362564087
0.50193142890930176 0.50193142890930176 0.50193142890930176
0.56720799207687378 0.56720799207687378 0.56720799207687378
0.62391811609268188 0.62391811609268188 0.62391811609268188
0.67273080348968506 0.67273080348968506 0.67273080348968506
0.71414721012115479 0.71414721012115479 0.71414721012115479
0.74893146753311157 0.74893146753311157 0.74893146753311157
0.78208297491073608 0.78208297491073608 0.78208297491073608
0.41099172830581665 0.41099172830581665 0.41099172830581665
0.39533719420433044 0.39533719420433044 0.39533719420433044
0.3846973180770874 0.3846973180770874 0.3846973180770874
0.38584932684898376 0.38584932684898376 0.38584932684898376
0.4064604640007019 0.4064604640007019 0.4064604640007019
0.45122432708740234 0.45122432708740234 0.45122432708740234
0.51281464099884033 0.51281464099884033 0.51281464099884033
0.57984089851379395 0.57984089851379395 0.57984089851379395
0.64411765336990356 0.64411765336990356 0.64411765336990356
0.70093220472335815 0.70093220472335815 0.70093220472335815
0.746673583984375 0.746673583984375 0.746673583984375
0.78179758787155151 0.78179758787155151 0.78179758787155151
0.812896728515625 0.812896728515625 0.812896728515625
0.47492203116416931 0.47492203116416931 0.47492203116416931
0.46067601442337036 0.46067601442337036 0.46067601442337036
0.44909194111824036 0.44909194111824036 0.44909194111824036
0.44323468208312988 0.44323468208312988 0.44323468208312988
0.45130980014801025 0.45130980014801025 0.45130980014801025
0.48169627785682678 0.48169627785682678 0.48169627785682678
0.53351676464080811 0.53351676464080811 0.53351676464080811
0.59834200143814087 0.59834200143814087 0.59834200143814087
0.66472482681274414 0.66472482681274414 0.66472482681274414
0.72437006235122681 0.72437006235122681 0.72437006235122681
0.77205896377563477 0.77205896377563477 0.77205896377563477
0.80862009525299072 0.80862009525299072 0.80862009525299072
0.83943682909011841 0.83943682909011841 0.83943682909011841
0.55299174785614014 0.55299174785614014 0.55299174785614014
0.54119181632995605 0.54119181632995605 0.54119181632995605
0.53023570775985718 0.53023570775985718 0.53023570775985718
0.52067464590072632 0.52067464590072632 0.52067464590072632
0.51742905378341675 0.51742905378341675 0.51742905378341675
0.53050297498703003 0.53050297498703003 0.53050297498703003
0.57041627168655396 0.57041627168655396 0.57041627168655396
0.63025176525115967 0.63025176525115967 0.63025176525115967
0.69437354803085327 0.69437354803085327 0.69437354803085327
0.75171756744384766 0.75171756744384766 0.75171756744384766
0.79763168096542358 0.79763168096542358 0.79763168096542358
0.83354449272155762 0.83354449272155762 0.83354449272155762
0.86405068635940552 0.86405068635940552 0.86405068635940552
0.64277547597885132 0.64277547597885132 0.64277547597885132
0.63444966077804565 0.63444966077804565 0.63444966077804565
0.62601578235626221 0.62601578235626221 0.62601578235626221
0.61607205867767334 0.61607205867767334 0.61607205867767334
0.60419207811355591 0.60419207811355591 0.60419207811355591
0.60165137052536011 0.60165137052536011 0.60165137052536011
0.62934625148773193 0.62934625148773193 0.62934625148773193
0.68167370557785034 0.68167370557785034 0.68167370557785034
0.73904144763946533 0.73904144763946533 0.73904144763946533
0.78981006145477295 0.78981006145477295 0.78981006145477295
0.82990294694900513 0.82990294694900513 0.82990294694900513
0.86184638738632202 0.86184638738632202 0.86184638738632202
0.88996505737304688 0.88996505737304688 0.88996505737304688
0.73670977354049683 0.73670977354049683 0.73670977354049683
0.73188877105712891 0.73188877105712891 0.73188877105712891
0.72775405645370483 0.72775405645370483 0.72775405645370483
0.72200298309326172 0.72200298309326172 0.72200298309326172
0.70845019817352295 0.70845019817352295 0.70845019817352295
0.69846260547637939 0.69846260547637939 0.69846260547637939
0.71347367763519287 0.71347367763519287 0.71347367763519287
0.75211656093597412 0.75211656093597412 0.75211656093597412
0.79859280586242676 0.79859280586242676 0.79859280586242676
0.83892887830734253 0.83892887830734253 0.83892887830734253
0.87025409936904907 0.87025409936904907 0.87025409936904907
0.89604896306991577 0.89604896306991577 0.89604896306991577
0.92028599977493286 0.92028599977493286 0.92028599977493286
0.047662489116191864 0.047662489116191864 0.047662489116191864
0.064558275043964386 0.064558275043964386 0.064558275043964386
0.093546561896800995 0.093546561896800995 0.093546561896800995
0.13164462149143219 0.13164462149143219 0.13164462149143219
0.17552110552787781 0.17552110552787781 0.17552110552787781
0.22278439998626709 0.22278439998626709 0.22278439998626709
0.27331352233886719 0.27331352233886719 0.27331352233886719
0.32504284381866455 0.32504284381866455 0.32504284381866455
0.37528327107429504 0.37528327107429504 0.37528327107429504
0.42614483833312988 0.42614483833312988 0.42614483833312988
0.48182359337806702 0.48182359337806702 0.48182359337806702
0.54330259561538696 0.54330259561538696 0.54330259561538696
0.60727924108505249 0.60727924108505249 0.60727924108505249
0.07556624710559845 0.07556624710559845 0.07556624710559845
0.090875871479511261 0.090875871479511261 0.090875871479511261
0.12371085584163666 0.12371085584163666 0.12371085584163666
0.16558213531970978 0.16558213531970978 0.16558213531970978
0.20824922621250153 0.20824922621250153 0.20824922621250153
0.25076800584793091 0.25076800584793091 0.25076800584793091
0.29651287198066711 0.29651287198066711 0.29651287198066711
0.3447449803352356 0.3447449803352356 0.3447449803352356
0.39241045713424683 0.39241045713424683 0.39241045713424683
0.44105494022369385 0.44105494022369385 0.44105494022369385
0.49470719695091248 0.49470719695091248 0.49470719695091248
0.55399948358535767 0.55399948358535767 0.55399948358535767
0.61568927764892578 0.61568927764892578 0.61568927764892578
0.12840314209461212 0.12840314209461212 0.12840314209461212
0.13051703572273254 0.13051703572273254 0.13051703572273254
0.1573135107755661 0.1573135107755661 0.1573135107755661
0.20472727715969086 0.20472727715969086 0.20472727715969086
0.25280475616455078 0.25280475616455078 0.25280475616455078
0.29321104288101196 0.29321104288101196 0.29321104288101196
0.33303055167198181 0.33303055167198181 0.33303055167198181
0.37590482831001282 0.37590482831001282 0.37590482831001282
0.418739914894104 0.418739914894104 0.418739914894104
0.46351829171180725 0.46351829171180725 0.46351829171180725
0.51405841112136841 0.51405841112136841 0.51405841112136841
0.5701032280921936 0.5701032280921936 0.5701032280921936
0.62871122360229492 0.62871122360229492 0.62871122360229492
0.18206152319908142 0.18206152319908142 0.18206152319908142
0.17313835024833679 0.17313835024833679 0.17313835024833679
0.18451373279094696 0.18451373279094696 0.18451373279094696
0.23722325265407562 0.23722325265407562 0.23722325265407562
0.29983621835708618 0.29983621835708618 0.29983621835708618
0.34525421261787415 0.34525421261787415 0.34525421261787415
0.38184773921966553 0.38184773921966553 0.38184773921966553
0.41913387179374695 0.41913387179374695 0.41913387179374695
0.45627117156982422 0.45627117156982422 0.45627117156982422
0.49598172307014465 0.49598172307014465 0.49598172307014465
0.54216933250427246 0.54216933250427246 0.54216933250427246
0.59423160552978516 0.59423160552978516 0.59423160552978516
0.6488073468208313 0.6488073468208313 0.6488073468208313
0.23869186639785767 0.23869186639785767 0.23869186639785767
0.22453857958316803 0.22453857958316803 0.22453857958316803
0.2236754298210144 0.2236754298210144 0.2236754298210144
0.26644724607467651 0.26644724607467651 0.26644724607467651
0.33299759030342102 0.33299759030342102 0.33299759030342102
0.38817232847213745 0.38817232847213745 0.38817232847213745
0.43082970380783081 0.43082970380783081 0.43082970380783081
0.46899119019508362 0.46899119019508362 0.46899119019508362
0.50411725044250488 0.50411725044250488 0.50411725044250488
0.53979897499084473 0.53979897499084473 0.53979897499084473
0.5807870626449585 0.5807870626449585 0.5807870626449585
0.62722313404083252 0.62722313404083252 0.62722313404083252
0.67605048418045044 0.67605048418045044 0.67605048418045044
0.29251456260681152 0.29251456260681152 0.29251456260681152
0.27459201216697693 0.27459201216697693 0.27459201216697693
0.26476314663887024 0.26476314663887024 0.26476314663887024
0.28912675380706787 0.28912675380706787 0.28912675380706787
0.34815496206283569 0.34815496206283569 0.34815496206283569
0.41165107488632202 0.41165107488632202 0.41165107488632202
0.46795547008514404 0.46795547008514404 0.46795547008514404
0.51543599367141724 0.51543599367141724 0.51543599367141724
0.55379998683929443 0.55379998683929443 0.55379998683929443
0.58930641412734985 0.58930641412734985 0.58930641412734985
0.6261436939239502 0.6261436939239502 0.6261436939239502
0.66676205396652222 0.66676205396652222 0.66676205396652222
0.70889019966125488 0.70889019966125488 0.70889019966125488
0.33928391337394714 0.33928391337394714 0.33928391337394714
0.3194122314453125 0.3194122314453125 0.3194122314453125
0.3050016462802887 0.3050016462802887 0.3050016462802887
0.31667831540107727 0.31667831540107727 0.31667831540107727
0.36202943325042725 0.36202943325042725 0.36202943325042725
0.42453998327255249 0.42453998327255249 0.42453998327255249
0.48959267139434814 0.48959267139434814 0.48959267139434814
0.54819685220718384 0.54819685220718384 0.54819685220718384
0.59471273422241211 0.59471273422241211 0.59471273422241211
0.63439476490020752 0.63439476490020752 0.63439476490020752
0.67127901315689087 0.67127901315689087 0.67127901315689087
0.70747900009155273 0.70747900009155273 0.70747900009155273
0.7445184588432312 0.7445184588432312 0.7445184588432312
0.38295269012451172 0.38295269012451172 0.38295269012451172
0.36382162570953369 0.36382162570953369 0.36382162570953369
0.34931135177612305 0.34931135177612305 0.34931135177612305
0.35253438353538513 0.35253438353538513 0.35253438353538513
0.38194200396537781 0.38194200396537781 0.38194200396537781
0.43543857336044312 0.43543857336044312 0.43543857336044312
0.50109583139419556 0.50109583139419556 0.50109583139419556
0.56617140769958496 0.56617140769958496 0.56617140769958496
0.62336432933807373 0.62336432933807373 0.62336432933807373
0.67054402828216553 0.67054402828216553 0.67054402828216553
0.71059638261795044 0.71059638261795044 0.71059638261795044
0.74561154842376709 0.74561154842376709 0.74561154842376709
0.77874100208282471 0.77874100208282471 0.77874100208282471
0.43067967891693115 0.43067967891693115 0.43067967891693115
0.4135914146900177 0.4135914146900177 0.4135914146900177
0.39943400025367737 0.39943400025367737 0.39943400025367737
0.3952673077583313 0.3952673077583313 0.3952673077583313
0.41071027517318726 0.41071027517318726 0.41071027517318726
0.45259058475494385 0.45259058475494385 0.45259058475494385
0.51273727416992188 0.51273727416992188 0.51273727416992188
0.57921308279037476 0.57921308279037476 0.57921308279037476
0.6430545449256897 0.6430545449256897 0.6430545449256897
0.69756025075912476 0.69756025075912476 0.69756025075912476
0.74210882186889648 0.74210882186889648 0.74210882186889648
0.77783018350601196 0.77783018350601196 0.77783018350601196
0.80951017141342163 0.80951017141342163 0.80951017141342163
0.48911982774734497 0.48911982774734497 0.48911982774734497
0.47507175803184509 0.47507175803184509 0.47507175803184509
0.46204373240470886 0.46204373240470886 0.46204373240470886
0.45328560471534729 0.45328560471534729 0.45328560471534729
0.45804974436759949 0.45804974436759949 0.45804974436759949
0.48606565594673157 0.48606565594673157 0.48606565594673157
0.53574842214584351 0.53574842214584351 0.53574842214584351
0.59830528497695923 0.59830528497695923 0.59830528497695923
0.66283780336380005 0.66283780336380005 0.66283780336380005
0.72061049938201904 0.72061049938201904 0.72061049938201904
0.7677004337310791 0.7677004337310791 0.7677004337310791
0.80484545230865479 0.80484545230865479 0.80484545230865479
0.83626753091812134 0.83626753091812134 0.83626753091812134
0.56396216154098511 0.56396216154098511 0.56396216154098511
0.55271273851394653 0.55271273851394653 0.55271273851394653
0.54138380289077759 0.54138380289077759 0.54138380289077759
0.53071993589401245 0.53071993589401245 0.53071993589401245
0.52694261074066162 0.52694261074066162 0.52694261074066162
0.5403066873550415 0.5403066873550415 0.5403066873550415
0.57694262266159058 0.57694262266159058 0.57694262266159058
0.63185709714889526 0.63185709714889526 0.63185709714889526
0.69232630729675293 0.69232630729675293 0.69232630729675293
0.74787324666976929 0.74787324666976929 0.74787324666976929
0.79374223947525024 0.79374223947525024 0.79374223947525024
0.83020108938217163 0.83020108938217163 0.83020108938217163
0.86133414506912231 0.86133414506912231 0.86133414506912231
0.652396559715271 0.652396559715271 0.652396559715271
0.64394736289978027 0.64394736289978027 0.64394736289978027
0.63506108522415161 0.63506108522415161 0.63506108522415161
0.62449175119400024 0.62449175119400024 0.62449175119400024
0.61456263065338135 0.61456263065338135 0.61456263065338135
0.61518549919128418 0.61518549919128418 0.61518549919128418
0.63949543237686157 0.63949543237686157 0.63949543237686157
0.68411755561828613 0.68411755561828613 0.68411755561828613
0.73647022247314453 0.73647022247314453 0.73647022247314453
0.78521519899368286 0.78521519899368286 0.78521519899368286
0.82556283473968506 0.82556283473968506 0.82556283473968506
0.85853701829910278 0.85853701829910278 0.85853701829910278
0.88777357339859009 0.88777357339859009 0.88777357339859009
0.74437212944030762 0.74437212944030762 0.74437212944030762
0.739501953125 0.739501953125 0.739501953125
0.73417520523071289 0.73417520523071289 0.73417520523071289
0.72637337446212769 0.72637337446212769 0.72637337446212769
0.7146790623664856 0.7146790623664856 0.7146790623664856
0.70851379632949829 0.70851379632949829 0.70851379632949829
0.7213139533996582 0.7213139533996582 0.7213139533996582
0.75353211164474487 0.75353211164474487 0.75353211164474487
0.79428392648696899 0.79428392648696899 0.79428392648696899
0.83313429355621338 0.83313429355621338 0.83313429355621338
0.86528974771499634 0.86528974771499634 0.86528974771499634
0.89277821779251099 0.89277821779251099 0.89277821779251099
0.9186103343963623 0.9186103343963623 0.9186103343963623
0.08127160370349884 0.08127160370349884 0.08127160370349884
0.098673999309539795 0.098673999309539795 0.098673999309539795
0.12698604166507721 0.12698604166507721 0.12698604166507721
0.16320469975471497 0.16320469975471497 0.16320469975471497
0.20598225295543671 0.20598225295543671 0.20598225295543671
0.25390157103538513 0.25390157103538513 0.25390157103538513
0.30633082985877991 0.30633082985877991 0.30633082985877991
0.35756969451904297 0.35756969451904297 0.35756969451904297
0.40256869792938232 0.40256869792938232 0.40256869792938232
0.4448523223400116 0.4448523223400116 0.4448523223400116
0.49329996109008789 0.49329996109008789 0.49329996109008789
0.54915356636047363 0.54915356636047363 0.54915356636047363
0.60842013359069824 0.60842013359069824 0.60842013359069824
0.11020074039697647 0.11020074039697647 0.11020074039697647
0.1240723729133606 0.1240723729133606 0.1240723729133606
0.15041069686412811 0.15041069686412811 0.15041069686412811
0.18699619174003601 0.18699619174003601 0.18699619174003601
0.22884054481983185 0.22884054481983185 0.22884054481983185
0.27376952767372131 0.27376952767372131 0.27376952767372131
0.3232293426990509 0.3232293426990509 0.3232293426990509
0.37264972925186157 0.37264972925186157 0.37264972925186157
0.41679587960243225 0.41679587960243225 0.41679587960243225
0.45925277471542358 0.45925277471542358 0.45925277471542358
0.50680369138717651 0.50680369138717651 0.50680369138717651
0.56034469604492188 0.56034469604492188 0.56034469604492188
0.61792439222335815 0.61792439222335815 0.61792439222335815
0.16253860294818878 0.16253860294818878 0.16253860294818878
0.16722056269645691 0.16722056269645691 0.16722056269645691
0.18264693021774292 0.18264693021774292 0.18264693021774292
0.21908752620220184 0.21908752620220184 0.21908752620220184
0.26325103640556335 0.26325103640556335 0.26325103640556335
0.30434858798980713 0.30434858798980713 0.30434858798980713
0.34886902570724487 0.34886902570724487 0.34886902570724487
0.39476582407951355 0.39476582407951355 0.39476582407951355
0.43681824207305908 0.43681824207305908 0.43681824207305908
0.47890388965606689 0.47890388965606689 0.47890388965606689
0.52539509534835815 0.52539509534835815 0.52539509534835815
0.57705247402191162 0.57705247402191162 0.57705247402191162
0.63232111930847168 0.63232111930847168 0.63232111930847168
0.22461061179637909 0.22461061179637909 0.22461061179637909
0.22229190170764923 0.22229190170764923 0.22229190170764923
0.22028997540473938 0.22028997540473938 0.22028997540473938
0.25618526339530945 0.25618526339530945 0.25618526339530945
0.31031876802444458 0.31031876802444458 0.31031876802444458
0.35036692023277283 0.35036692023277283 0.35036692023277283
0.38789117336273193 0.38789117336273193 0.38789117336273193
0.42789483070373535 0.42789483070373535 0.42789483070373535
0.4662901759147644 0.4662901759147644 0.4662901759147644
0.50597208738327026 0.50597208738327026 0.50597208738327026
0.55037444829940796 0.55037444829940796 0.55037444829940796
0.59933573007583618 0.59933573007583618 0.59933573007583618
0.65162307024002075 0.65162307024002075 0.65162307024002075
0.28531673550605774 0.28531673550605774 0.28531673550605774
0.27929067611694336 0.27929067611694336 0.27929067611694336
0.26712751388549805 0.26712751388549805 0.26712751388549805
0.29323005676269531 0.29323005676269531 0.29323005676269531
0.34967631101608276 0.34967631101608276 0.34967631101608276
0.39543971419334412 0.39543971419334412 0.39543971419334412
0.43311774730682373 0.43311774730682373 0.43311774730682373
0.47096192836761475 0.47096192836761475 0.47096192836761475
0.50690644979476929 0.50690644979476929 0.50690644979476929
