luts/instant_pro/fuji_fp-100c_negative_+.cube
# Created by: G'MIC (https://gmic.eu)
TITLE "fuji_fp-100c_negative_+"
# LUT size
LUT_3D_SIZE 5
# Data domain
DOMAIN_MIN 0.0 0.0 0.0
DOMAIN_MAX 1.0 1.0 1.0
# LUT data points
0.0017798180924728513 0.098895862698554993 0.20394957065582275
0.094284564256668091 0.093726411461830139 0.2006785124540329
0.45873057842254639 0.033512819558382034 0.19701461493968964
0.79069614410400391 0.064197048544883728 0.19405087828636169
0.98708170652389526 0.38543164730072021 0.20978979766368866
0.0027101703453809023 0.16026559472084045 0.2136891633272171
0.14792591333389282 0.18741190433502197 0.20284473896026611
0.51843899488449097 0.22567754983901978 0.18828490376472473
0.8011620044708252 0.31380248069763184 0.18542015552520752
0.99264043569564819 0.47813212871551514 0.21431857347488403
0.0099083846434950829 0.41133326292037964 0.25355607271194458
0.22608010470867157 0.44135874509811401 0.25545325875282288
0.54172384738922119 0.54369783401489258 0.19484873116016388
0.81335294246673584 0.5968393087387085 0.17599940299987793
0.98033112287521362 0.64589011669158936 0.2877352237701416
0.32147851586341858 0.67571085691452026 0.42066892981529236
0.42143699526786804 0.68118125200271606 0.43937939405441284
0.59242928028106689 0.72304987907409668 0.44548451900482178
0.80417269468307495 0.7895466685295105 0.41282463073730469
0.99078559875488281 0.82268041372299194 0.45587480068206787
0.7065855860710144 0.88748633861541748 0.66813486814498901
0.74030554294586182 0.88366955518722534 0.6718209981918335
0.81700003147125244 0.89724874496459961 0.69623899459838867
0.89660501480102539 0.91459846496582031 0.69493508338928223
0.98314696550369263 0.9318205714225769 0.69249582290649414
0.014632789418101311 0.09266769140958786 0.23612679541110992
0.15294398367404938 0.088539063930511475 0.24478882551193237
0.51769411563873291 0.0089776432141661644 0.26817035675048828
0.81924492120742798 0.089321181178092957 0.29330629110336304
0.98704773187637329 0.40906825661659241 0.377473384141922
0.0076904147863388062 0.17479585111141205 0.26091805100440979
0.21517670154571533 0.20382080972194672 0.27390632033348083
0.5504336953163147 0.23984359204769135 0.28661668300628662
0.82063949108123779 0.33590954542160034 0.31937238574028015
0.98808282613754272 0.51026344299316406 0.38521692156791687
0.19731412827968597 0.44680187106132507 0.35295459628105164
0.31256091594696045 0.47088438272476196 0.35580465197563171
0.57483989000320435 0.54990541934967041 0.33660134673118591
0.81761252880096436 0.59973710775375366 0.34742525219917297
0.97918421030044556 0.66004633903503418 0.43959787487983704
0.37656161189079285 0.6853070855140686 0.48841109871864319
0.45576190948486328 0.69668155908584595 0.49845138192176819
0.62371742725372314 0.73168754577636719 0.51971763372421265
0.81955927610397339 0.78851163387298584 0.52197390794754028
0.99078083038330078 0.82141143083572388 0.53676241636276245
0.70921486616134644 0.88574814796447754 0.67648351192474365
0.74998623132705688 0.89081257581710815 0.68826109170913696
0.82213336229324341 0.8969118595123291 0.70369476079940796
0.90555262565612793 0.91328912973403931 0.71315979957580566
0.99133437871932983 0.9314156174659729 0.71201932430267334
0.19052945077419281 0.035598352551460266 0.43386021256446838
0.39325019717216492 0.011253880336880684 0.45806998014450073
0.62918436527252197 0.16828063130378723 0.49310764670372009
0.87468689680099487 0.29488560557365417 0.56020182371139526
0.99457299709320068 0.47845080494880676 0.59397488832473755
0.031682062894105911 0.16401922702789307 0.46422165632247925
0.34532883763313293 0.19766625761985779 0.49522382020950317
0.63669371604919434 0.36988329887390137 0.53521263599395752
0.85525006055831909 0.45665588974952698 0.57451856136322021
0.99250882863998413 0.56930232048034668 0.61407119035720825
0.086429566144943237 0.43722504377365112 0.49095073342323303
0.30425086617469788 0.47166639566421509 0.51861536502838135
0.61884564161300659 0.57165580987930298 0.57508319616317749
0.81964731216430664 0.631755530834198 0.59781205654144287
0.98125392198562622 0.68864333629608154 0.62534564733505249
0.42102599143981934 0.68855506181716919 0.6015617847442627
0.51791512966156006 0.70740199089050293 0.61350446939468384
0.66129601001739502 0.74193519353866577 0.63072055578231812
0.82216525077819824 0.79436212778091431 0.64240485429763794
0.99254101514816284 0.81969940662384033 0.65011107921600342
0.73206478357315063 0.88927626609802246 0.71275299787521362
0.75399249792098999 0.89543610811233521 0.71404349803924561
0.82624763250350952 0.90080457925796509 0.72802054882049561
0.92327111959457397 0.91331213712692261 0.74835395812988281
0.9916185736656189 0.93002033233642578 0.74934500455856323
0.4887281060218811 0.01859639398753643 0.672435462474823
0.62441718578338623 0.011729715391993523 0.69152390956878662
0.81314700841903687 0.2339935302734375 0.72304821014404297
0.91877275705337524 0.53892189264297485 0.71810364723205566
0.99391424655914307 0.64399176836013794 0.73452550172805786
0.41088610887527466 0.11127961426973343 0.69664347171783447
0.57313376665115356 0.15919989347457886 0.70736360549926758
0.7885175347328186 0.42150580883026123 0.72546535730361938
0.90916448831558228 0.62897378206253052 0.7304808497428894
0.98987817764282227 0.70503753423690796 0.75017845630645752
0.0077492059208452702 0.37568950653076172 0.67967325448989868
0.10138075798749924 0.40601691603660583 0.68738579750061035
0.67252254486083984 0.56119734048843384 0.71826261281967163
0.90841192007064819 0.73162966966629028 0.74197185039520264
0.99827438592910767 0.7870439887046814 0.76447814702987671
0.23934999108314514 0.67011022567749023 0.67800658941268921
0.37187522649765015 0.68246668577194214 0.68635368347167969
0.60603886842727661 0.72021102905273438 0.70860284566879272
0.87766396999359131 0.80787855386734009 0.7472832202911377
0.99542331695556641 0.84611797332763672 0.76827728748321533
0.63047361373901367 0.8863379955291748 0.74860483407974243
0.68681049346923828 0.8901103138923645 0.75231575965881348
0.80754131078720093 0.89875048398971558 0.76580667495727539
0.9360770583152771 0.91488707065582275 0.7925071120262146
0.99005770683288574 0.92858761548995972 0.81467092037200928
0.81136500835418701 0.088861502707004547 0.85504657030105591
0.85516810417175293 0.20128515362739563 0.85505527257919312
0.94053095579147339 0.47794011235237122 0.85464566946029663
0.99830847978591919 0.69071966409683228 0.84540003538131714
1 0.79115599393844604 0.84631621837615967
0.76114851236343384 0.27136069536209106 0.85404950380325317
0.81240618228912354 0.36121910810470581 0.85451799631118774
0.90974116325378418 0.54475831985473633 0.85124117136001587
0.98951178789138794 0.72982937097549438 0.85194021463394165
0.99855715036392212 0.81615692377090454 0.84962397813796997
0.46101081371307373 0.3848232626914978 0.84816527366638184
0.6249045729637146 0.45802843570709229 0.84832286834716797
0.83249056339263916 0.61240237951278687 0.85206788778305054
0.9750780463218689 0.76897323131561279 0.85536497831344604
1 0.85456359386444092 0.86192852258682251
0.0056536956690251827 0.68165034055709839 0.83193081617355347
0.0057788924314081669 0.66790324449539185 0.83513259887695312
0.25652077794075012 0.65963834524154663 0.84145015478134155
0.9083247184753418 0.79871284961700439 0.8606189489364624
0.99851948022842407 0.90056991577148438 0.87669473886489868
0.50496792793273926 0.88627117872238159 0.85308241844177246
0.5526311993598938 0.88567370176315308 0.84995394945144653
0.68522870540618896 0.88999480009078979 0.85469156503677368
0.86560356616973877 0.90468579530715942 0.87591969966888428
0.99490207433700562 0.93175190687179565 0.89920854568481445
