luts/instant_pro/fuji_fp-3000b_negative.cube
# Created by: G'MIC (https://gmic.eu)
TITLE "fuji_fp-3000b_negative"
# LUT size
LUT_3D_SIZE 13
# Data domain
DOMAIN_MIN 0.0 0.0 0.0
DOMAIN_MAX 1.0 1.0 1.0
# LUT data points
0.045192237943410873 0.045192237943410873 0.045192237943410873
0.046544168144464493 0.046544168144464493 0.046544168144464493
0.058963760733604431 0.058963760733604431 0.058963760733604431
0.085720926523208618 0.085720926523208618 0.085720926523208618
0.12825949490070343 0.12825949490070343 0.12825949490070343
0.18340495228767395 0.18340495228767395 0.18340495228767395
0.24599820375442505 0.24599820375442505 0.24599820375442505
0.31334450840950012 0.31334450840950012 0.31334450840950012
0.38326588273048401 0.38326588273048401 0.38326588273048401
0.45326828956604004 0.45326828956604004 0.45326828956604004
0.52235937118530273 0.52235937118530273 0.52235937118530273
0.59042054414749146 0.59042054414749146 0.59042054414749146
0.65574723482131958 0.65574723482131958 0.65574723482131958
0.063115045428276062 0.063115045428276062 0.063115045428276062
0.064628973603248596 0.064628973603248596 0.064628973603248596
0.077561110258102417 0.077561110258102417 0.077561110258102417
0.10478838533163071 0.10478838533163071 0.10478838533163071
0.14742083847522736 0.14742083847522736 0.14742083847522736
0.20243526995182037 0.20243526995182037 0.20243526995182037
0.26470887660980225 0.26470887660980225 0.26470887660980225
0.33155804872512817 0.33155804872512817 0.33155804872512817
0.40083444118499756 0.40083444118499756 0.40083444118499756
0.46974804997444153 0.46974804997444153 0.46974804997444153
0.53746235370635986 0.53746235370635986 0.53746235370635986
0.60370320081710815 0.60370320081710815 0.60370320081710815
0.66689658164978027 0.66689658164978027 0.66689658164978027
0.097166784107685089 0.097166784107685089 0.097166784107685089
0.098311297595500946 0.098311297595500946 0.098311297595500946
0.11101356893777847 0.11101356893777847 0.11101356893777847
0.13762840628623962 0.13762840628623962 0.13762840628623962
0.17936371266841888 0.17936371266841888 0.17936371266841888
0.23278655111789703 0.23278655111789703 0.23278655111789703
0.29404038190841675 0.29404038190841675 0.29404038190841675
0.35910314321517944 0.35910314321517944 0.35910314321517944
0.42614224553108215 0.42614224553108215 0.42614224553108215
0.49228948354721069 0.49228948354721069 0.49228948354721069
0.55709969997406006 0.55709969997406006 0.55709969997406006
0.61995118856430054 0.61995118856430054 0.61995118856430054
0.67996025085449219 0.67996025085449219 0.67996025085449219
0.14830699563026428 0.14830699563026428 0.14830699563026428
0.14855796098709106 0.14855796098709106 0.14855796098709106
0.15930435061454773 0.15930435061454773 0.15930435061454773
0.18355351686477661 0.18355351686477661 0.18355351686477661
0.22216494381427765 0.22216494381427765 0.22216494381427765
0.27289727330207825 0.27289727330207825 0.27289727330207825
0.33132436871528625 0.33132436871528625 0.33132436871528625
0.39352115988731384 0.39352115988731384 0.39352115988731384
0.45705404877662659 0.45705404877662659 0.45705404877662659
0.51987576484680176 0.51987576484680176 0.51987576484680176
0.58087217807769775 0.58087217807769775 0.58087217807769775
0.63942062854766846 0.63942062854766846 0.63942062854766846
0.69569253921508789 0.69569253921508789 0.69569253921508789
0.21394354104995728 0.21394354104995728 0.21394354104995728
0.2127615213394165 0.2127615213394165 0.2127615213394165
0.22019167244434357 0.22019167244434357 0.22019167244434357
0.23966938257217407 0.23966938257217407 0.23966938257217407
0.27310839295387268 0.27310839295387268 0.27310839295387268
0.31890019774436951 0.31890019774436951 0.31890019774436951
0.37264558672904968 0.37264558672904968 0.37264558672904968
0.43087881803512573 0.43087881803512573 0.43087881803512573
0.49109777808189392 0.49109777808189392 0.49109777808189392
0.55060774087905884 0.55060774087905884 0.55060774087905884
0.60696244239807129 0.60696244239807129 0.60696244239807129
0.66115295886993408 0.66115295886993408 0.66115295886993408
0.71346563100814819 0.71346563100814819 0.71346563100814819
0.28781825304031372 0.28781825304031372 0.28781825304031372
0.28456953167915344 0.28456953167915344 0.28456953167915344
0.28828862309455872 0.28828862309455872 0.28828862309455872
0.30186551809310913 0.30186551809310913 0.30186551809310913
0.32847511768341064 0.32847511768341064 0.32847511768341064
0.36706733703613281 0.36706733703613281 0.36706733703613281
0.4150940477848053 0.4150940477848053 0.4150940477848053
0.46868550777435303 0.46868550777435303 0.46868550777435303
0.52522271871566772 0.52522271871566772 0.52522271871566772
0.5809217095375061 0.5809217095375061 0.5809217095375061
0.6332891583442688 0.6332891583442688 0.6332891583442688
0.68363374471664429 0.68363374471664429 0.68363374471664429
0.7324148416519165 0.7324148416519165 0.7324148416519165
0.36359375715255737 0.36359375715255737 0.36359375715255737
0.35939294099807739 0.35939294099807739 0.35939294099807739
0.35880082845687866 0.35880082845687866 0.35880082845687866
0.36619925498962402 0.36619925498962402 0.36619925498962402
0.3852728009223938 0.3852728009223938 0.3852728009223938
0.41681092977523804 0.41681092977523804 0.41681092977523804
0.4584868848323822 0.4584868848323822 0.4584868848323822
0.50672358274459839 0.50672358274459839 0.50672358274459839
0.558269202709198 0.558269202709198 0.558269202709198
0.60981935262680054 0.60981935262680054 0.60981935262680054
0.65906190872192383 0.65906190872192383 0.65906190872192383
0.70637351274490356 0.70637351274490356 0.70637351274490356
0.75229769945144653 0.75229769945144653 0.75229769945144653
0.43889188766479492 0.43889188766479492 0.43889188766479492
0.43337661027908325 0.43337661027908325 0.43337661027908325
0.42983809113502502 0.42983809113502502 0.42983809113502502
0.43187326192855835 0.43187326192855835 0.43187326192855835
0.44407925009727478 0.44407925009727478 0.44407925009727478
0.46929004788398743 0.46929004788398743 0.46929004788398743
0.50500988960266113 0.50500988960266113 0.50500988960266113
0.54781073331832886 0.54781073331832886 0.54781073331832886
0.59379667043685913 0.59379667043685913 0.59379667043685913
0.64068794250488281 0.64068794250488281 0.64068794250488281
0.68634843826293945 0.68634843826293945 0.68634843826293945
0.73060715198516846 0.73060715198516846 0.73060715198516846
0.77352523803710938 0.77352523803710938 0.77352523803710938
0.5142219066619873 0.5142219066619873 0.5142219066619873
0.50879502296447754 0.50879502296447754 0.50879502296447754
0.50343269109725952 0.50343269109725952 0.50343269109725952
0.50148767232894897 0.50148767232894897 0.50148767232894897
0.50782185792922974 0.50782185792922974 0.50782185792922974
0.52802908420562744 0.52802908420562744 0.52802908420562744
0.5582427978515625 0.5582427978515625 0.5582427978515625
0.59465831518173218 0.59465831518173218 0.59465831518173218
0.63471734523773193 0.63471734523773193 0.63471734523773193
0.67575860023498535 0.67575860023498535 0.67575860023498535
0.71704584360122681 0.71704584360122681 0.71704584360122681
0.75740909576416016 0.75740909576416016 0.75740909576416016
0.79716044664382935 0.79716044664382935 0.79716044664382935
0.59331876039505005 0.59331876039505005 0.59331876039505005
0.58817750215530396 0.58817750215530396 0.58817750215530396
0.58277809619903564 0.58277809619903564 0.58277809619903564
0.57939553260803223 0.57939553260803223 0.57939553260803223
0.58247679471969604 0.58247679471969604 0.58247679471969604
0.59691125154495239 0.59691125154495239 0.59691125154495239
0.62045234441757202 0.62045234441757202 0.62045234441757202
0.64955592155456543 0.64955592155456543 0.64955592155456543
0.68227213621139526 0.68227213621139526 0.68227213621139526
0.71690070629119873 0.71690070629119873 0.71690070629119873
0.75246191024780273 0.75246191024780273 0.75246191024780273
0.78833651542663574 0.78833651542663574 0.78833651542663574
0.82410389184951782 0.82410389184951782 0.82410389184951782
0.67651402950286865 0.67651402950286865 0.67651402950286865
0.67257386445999146 0.67257386445999146 0.67257386445999146
0.66775614023208618 0.66775614023208618 0.66775614023208618
0.66460937261581421 0.66460937261581421 0.66460937261581421
0.66648536920547485 0.66648536920547485 0.66648536920547485
0.67529404163360596 0.67529404163360596 0.67529404163360596
0.69095462560653687 0.69095462560653687 0.69095462560653687
0.71173244714736938 0.71173244714736938 0.71173244714736938
0.73626160621643066 0.73626160621643066 0.73626160621643066
0.76358640193939209 0.76358640193939209 0.76358640193939209
0.79275369644165039 0.79275369644165039 0.79275369644165039
0.8230704665184021 0.8230704665184021 0.8230704665184021
0.8544999361038208 0.8544999361038208 0.8544999361038208
0.76177811622619629 0.76177811622619629 0.76177811622619629
0.75849241018295288 0.75849241018295288 0.75849241018295288
0.75474005937576294 0.75474005937576294 0.75474005937576294
0.75244855880737305 0.75244855880737305 0.75244855880737305
0.75349187850952148 0.75349187850952148 0.75349187850952148
0.75789439678192139 0.75789439678192139 0.75789439678192139
0.76629388332366943 0.76629388332366943 0.76629388332366943
0.77856367826461792 0.77856367826461792 0.77856367826461792
0.79505795240402222 0.79505795240402222 0.79505795240402222
0.81497716903686523 0.81497716903686523 0.81497716903686523
0.83733820915222168 0.83733820915222168 0.83733820915222168
0.86191821098327637 0.86191821098327637 0.86191821098327637
0.88863158226013184 0.88863158226013184 0.88863158226013184
0.84466230869293213 0.84466230869293213 0.84466230869293213
0.84190970659255981 0.84190970659255981 0.84190970659255981
0.8388906717300415 0.8388906717300415 0.8388906717300415
0.83737653493881226 0.83737653493881226 0.83737653493881226
0.83823567628860474 0.83823567628860474 0.83823567628860474
0.83942580223083496 0.83942580223083496 0.83942580223083496
0.84085649251937866 0.84085649251937866 0.84085649251937866
0.84643661975860596 0.84643661975860596 0.84643661975860596
0.85585153102874756 0.85585153102874756 0.85585153102874756
0.86917436122894287 0.86917436122894287 0.86917436122894287
0.88537496328353882 0.88537496328353882 0.88537496328353882
0.90455466508865356 0.90455466508865356 0.90455466508865356
0.92658752202987671 0.92658752202987671 0.92658752202987671
0.057200741022825241 0.057200741022825241 0.057200741022825241
0.059177909046411514 0.059177909046411514 0.059177909046411514
0.071686089038848877 0.071686089038848877 0.071686089038848877
0.098358720541000366 0.098358720541000366 0.098358720541000366
0.14308436214923859 0.14308436214923859 0.14308436214923859
0.20243766903877258 0.20243766903877258 0.20243766903877258
0.26821306347846985 0.26821306347846985 0.26821306347846985
0.33477970957756042 0.33477970957756042 0.33477970957756042
0.40146103501319885 0.40146103501319885 0.40146103501319885
0.4666689932346344 0.4666689932346344 0.4666689932346344
0.53108412027359009 0.53108412027359009 0.53108412027359009
0.59550094604492188 0.59550094604492188 0.59550094604492188
0.65874660015106201 0.65874660015106201 0.65874660015106201
0.071730218827724457 0.071730218827724457 0.071730218827724457
0.073880545794963837 0.073880545794963837 0.073880545794963837
0.087327994406223297 0.087327994406223297 0.087327994406223297
0.11574189364910126 0.11574189364910126 0.11574189364910126
0.16054420173168182 0.16054420173168182 0.16054420173168182
0.21886591613292694 0.21886591613292694 0.21886591613292694
0.28341227769851685 0.28341227769851685 0.28341227769851685
0.34989115595817566 0.34989115595817566 0.34989115595817566
0.4160115122795105 0.4160115122795105 0.4160115122795105
0.48074105381965637 0.48074105381965637 0.48074105381965637
0.54442799091339111 0.54442799091339111 0.54442799091339111
0.6078636646270752 0.6078636646270752 0.6078636646270752
0.66989845037460327 0.66989845037460327 0.66989845037460327
0.10448925197124481 0.10448925197124481 0.10448925197124481
0.10608547180891037 0.10608547180891037 0.10608547180891037
0.11953968554735184 0.11953968554735184 0.11953968554735184
0.14693380892276764 0.14693380892276764 0.14693380892276764
0.19139640033245087 0.19139640033245087 0.19139640033245087
0.2479192316532135 0.2479192316532135 0.2479192316532135
0.3100864589214325 0.3100864589214325 0.3100864589214325
0.37444373965263367 0.37444373965263367 0.37444373965263367
0.43845149874687195 0.43845149874687195 0.43845149874687195
0.50143140554428101 0.50143140554428101 0.50143140554428101
0.56331384181976318 0.56331384181976318 0.56331384181976318
0.62425726652145386 0.62425726652145386 0.62425726652145386
0.6836509108543396 0.6836509108543396 0.6836509108543396
0.15880550444126129 0.15880550444126129 0.15880550444126129
0.15857337415218353 0.15857337415218353 0.15857337415218353
0.16876651346683502 0.16876651346683502 0.16876651346683502
0.19331875443458557 0.19331875443458557 0.19331875443458557
0.23423582315444946 0.23423582315444946 0.23423582315444946
0.28778648376464844 0.28778648376464844 0.28778648376464844
0.34731873869895935 0.34731873869895935 0.34731873869895935
0.40732470154762268 0.40732470154762268 0.40732470154762268
0.46784651279449463 0.46784651279449463 0.46784651279449463
0.52799522876739502 0.52799522876739502 0.52799522876739502
0.5866931676864624 0.5866931676864624 0.5866931676864624
0.64438009262084961 0.64438009262084961 0.64438009262084961
0.69988417625427246 0.69988417625427246 0.69988417625427246
0.23084963858127594 0.23084963858127594 0.23084963858127594
0.22821421921253204 0.22821421921253204 0.22821421921253204
0.23352527618408203 0.23352527618408203 0.23352527618408203
0.25236475467681885 0.25236475467681885 0.25236475467681885
0.28690910339355469 0.28690910339355469 0.28690910339355469
0.33363127708435059 0.33363127708435059 0.33363127708435059
0.38762310147285461 0.38762310147285461 0.38762310147285461
0.44342449307441711 0.44342449307441711 0.44342449307441711
0.50022196769714355 0.50022196769714355 0.50022196769714355
0.55720531940460205 0.55720531940460205 0.55720531940460205
0.61240291595458984 0.61240291595458984 0.61240291595458984
0.66602563858032227 0.66602563858032227 0.66602563858032227
0.71789729595184326 0.71789729595184326 0.71789729595184326
0.31103324890136719 0.31103324890136719 0.31103324890136719
0.30632415413856506 0.30632415413856506 0.30632415413856506
0.30690187215805054 0.30690187215805054 0.30690187215805054
0.31804078817367554 0.31804078817367554 0.31804078817367554
0.34321391582489014 0.34321391582489014 0.34321391582489014
0.38142240047454834 0.38142240047454834 0.38142240047454834
0.42800131440162659 0.42800131440162659 0.42800131440162659
0.4789908230304718 0.4789908230304718 0.4789908230304718
0.53245896100997925 0.53245896100997925 0.53245896100997925
0.58608740568161011 0.58608740568161011 0.58608740568161011
0.63797569274902344 0.63797569274902344 0.63797569274902344
0.68806439638137817 0.68806439638137817 0.68806439638137817
0.73645889759063721 0.73645889759063721 0.73645889759063721
0.3904360830783844 0.3904360830783844 0.3904360830783844
0.38441365957260132 0.38441365957260132 0.38441365957260132
0.38071084022521973 0.38071084022521973 0.38071084022521973
0.38495993614196777 0.38495993614196777 0.38495993614196777
0.40097531676292419 0.40097531676292419 0.40097531676292419
0.42997598648071289 0.42997598648071289 0.42997598648071289
0.46909889578819275 0.46909889578819275 0.46909889578819275
0.51490259170532227 0.51490259170532227 0.51490259170532227
0.56403076648712158 0.56403076648712158 0.56403076648712158
0.61421561241149902 0.61421561241149902 0.61421561241149902
0.66301554441452026 0.66301554441452026 0.66301554441452026
0.71012288331985474 0.71012288331985474 0.71012288331985474
0.75572305917739868 0.75572305917739868 0.75572305917739868
0.46344703435897827 0.46344703435897827 0.46344703435897827
0.4577411413192749 0.4577411413192749 0.4577411413192749
0.45213526487350464 0.45213526487350464 0.45213526487350464
0.45115423202514648 0.45115423202514648 0.45115423202514648
0.45970728993415833 0.45970728993415833 0.45970728993415833
0.48120042681694031 0.48120042681694031 0.48120042681694031
0.5133979320526123 0.5133979320526123 0.5133979320526123
0.55358433723449707 0.55358433723449707 0.55358433723449707
0.59810847043991089 0.59810847043991089 0.59810847043991089
0.64397317171096802 0.64397317171096802 0.64397317171096802
0.68948876857757568 0.68948876857757568 0.68948876857757568
0.73355770111083984 0.73355770111083984 0.73355770111083984
0.77633094787597656 0.77633094787597656 0.77633094787597656
0.53375470638275146 0.53375470638275146 0.53375470638275146
0.52908843755722046 0.52908843755722046 0.52908843755722046
0.52331787347793579 0.52331787347793579 0.52331787347793579
0.5197521448135376 0.5197521448135376 0.5197521448135376
0.52327042818069458 0.52327042818069458 0.52327042818069458
0.53827464580535889 0.53827464580535889 0.53827464580535889
0.56452810764312744 0.56452810764312744 0.56452810764312744
0.59865361452102661 0.59865361452102661 0.59865361452102661
0.63744795322418213 0.63744795322418213 0.63744795322418213
0.67831528186798096 0.67831528186798096 0.67831528186798096
0.71929943561553955 0.71929943561553955 0.71929943561553955
0.7596275806427002 0.7596275806427002 0.7596275806427002
0.79919308423995972 0.79919308423995972 0.79919308423995972
0.60806494951248169 0.60806494951248169 0.60806494951248169
0.60398036241531372 0.60398036241531372 0.60398036241531372
0.59868615865707397 0.59868615865707397 0.59868615865707397
0.59416228532791138 0.59416228532791138 0.59416228532791138
0.59494262933731079 0.59494262933731079 0.59494262933731079
0.6049543023109436 0.6049543023109436 0.6049543023109436
0.62469452619552612 0.62469452619552612 0.62469452619552612
0.65185773372650146 0.65185773372650146 0.65185773372650146
0.68374288082122803 0.68374288082122803 0.68374288082122803
0.71836274862289429 0.71836274862289429 0.71836274862289429
0.75365519523620605 0.75365519523620605 0.75365519523620605
0.78940623998641968 0.78940623998641968 0.78940623998641968
0.82515668869018555 0.82515668869018555 0.82515668869018555
0.68766170740127563 0.68766170740127563 0.68766170740127563
0.68411362171173096 0.68411362171173096 0.68411362171173096
0.67956525087356567 0.67956525087356567 0.67956525087356567
0.67535692453384399 0.67535692453384399 0.67535692453384399
0.67474615573883057 0.67474615573883057 0.67474615573883057
0.68048340082168579 0.68048340082168579 0.68048340082168579
0.69348716735839844 0.69348716735839844 0.69348716735839844
0.71266871690750122 0.71266871690750122 0.71266871690750122
0.73677599430084229 0.73677599430084229 0.73677599430084229
0.76399922370910645 0.76399922370910645 0.76399922370910645
0.79318130016326904 0.79318130016326904 0.79318130016326904
0.82334929704666138 0.82334929704666138 0.82334929704666138
0.85468512773513794 0.85468512773513794 0.85468512773513794
0.76940834522247314 0.76940834522247314 0.76940834522247314
0.76681005954742432 0.76681005954742432 0.76681005954742432
0.76289039850234985 0.76289039850234985 0.76289039850234985
0.75928187370300293 0.75928187370300293 0.75928187370300293
0.758076012134552 0.758076012134552 0.758076012134552
0.76036727428436279 0.76036727428436279 0.76036727428436279
0.76697182655334473 0.76697182655334473 0.76697182655334473
0.77858901023864746 0.77858901023864746 0.77858901023864746
0.79495620727539062 0.79495620727539062 0.79495620727539062
0.81483364105224609 0.81483364105224609 0.81483364105224609
0.83704733848571777 0.83704733848571777 0.83704733848571777
0.86165434122085571 0.86165434122085571 0.86165434122085571
0.88816678524017334 0.88816678524017334 0.88816678524017334
0.84873193502426147 0.84873193502426147 0.84873193502426147
0.84698343276977539 0.84698343276977539 0.84698343276977539
0.84384310245513916 0.84384310245513916 0.84384310245513916
0.84104663133621216 0.84104663133621216 0.84104663133621216
0.83956217765808105 0.83956217765808105 0.83956217765808105
0.83969098329544067 0.83969098329544067 0.83969098329544067
0.84074074029922485 0.84074074029922485 0.84074074029922485
0.84559249877929688 0.84559249877929688 0.84559249877929688
0.85507440567016602 0.85507440567016602 0.85507440567016602
0.86801916360855103 0.86801916360855103 0.86801916360855103
0.88445991277694702 0.88445991277694702 0.88445991277694702
0.90335762500762939 0.90335762500762939 0.90335762500762939
0.92545157670974731 0.92545157670974731 0.92545157670974731
0.086164064705371857 0.086164064705371857 0.086164064705371857
0.091565750539302826 0.091565750539302826 0.091565750539302826
0.10574305057525635 0.10574305057525635 0.10574305057525635
0.13034136593341827 0.13034136593341827 0.13034136593341827
0.17416180670261383 0.17416180670261383 0.17416180670261383
0.23408666253089905 0.23408666253089905 0.23408666253089905
0.29924675822257996 0.29924675822257996 0.29924675822257996
0.36335882544517517 0.36335882544517517 0.36335882544517517
0.42506062984466553 0.42506062984466553 0.42506062984466553
0.48391237854957581 0.48391237854957581 0.48391237854957581
0.54134923219680786 0.54134923219680786 0.54134923219680786
0.60128307342529297 0.60128307342529297 0.60128307342529297
0.66260725259780884 0.66260725259780884 0.66260725259780884
0.095139011740684509 0.095139011740684509 0.095139011740684509
0.10122924298048019 0.10122924298048019 0.10122924298048019
0.11756071448326111 0.11756071448326111 0.11756071448326111
0.14600478112697601 0.14600478112697601 0.14600478112697601
0.18975788354873657 0.18975788354873657 0.18975788354873657
0.24637317657470703 0.24637317657470703 0.24637317657470703
0.30949658155441284 0.30949658155441284 0.30949658155441284
0.37324684858322144 0.37324684858322144 0.37324684858322144
0.43532207608222961 0.43532207608222961 0.43532207608222961
0.49454471468925476 0.49454471468925476 0.49454471468925476
0.55254948139190674 0.55254948139190674 0.55254948139190674
0.61228817701339722 0.61228817701339722 0.61228817701339722
0.67352586984634399 0.67352586984634399 0.67352586984634399
0.12470021098852158 0.12470021098852158 0.12470021098852158
0.12962022423744202 0.12962022423744202 0.12962022423744202
0.14467351138591766 0.14467351138591766 0.14467351138591766
0.17301802337169647 0.17301802337169647 0.17301802337169647
0.21723915636539459 0.21723915636539459 0.21723915636539459
0.27242809534072876 0.27242809534072876 0.27242809534072876
0.33236965537071228 0.33236965537071228 0.33236965537071228
0.39323338866233826 0.39323338866233826 0.39323338866233826
0.45401415228843689 0.45401415228843689 0.45401415228843689
0.51297801733016968 0.51297801733016968 0.51297801733016968
0.57109421491622925 0.57109421491622925 0.57109421491622925
0.6295168399810791 0.6295168399810791 0.6295168399810791
0.68809300661087036 0.68809300661087036 0.68809300661087036
0.18061986565589905 0.18061986565589905 0.18061986565589905
0.18149577081203461 0.18149577081203461 0.18149577081203461
0.19151131808757782 0.19151131808757782 0.19151131808757782
0.21538315713405609 0.21538315713405609 0.21538315713405609
0.25766417384147644 0.25766417384147644 0.25766417384147644
0.31114718317985535 0.31114718317985535 0.31114718317985535
0.36818569898605347 0.36818569898605347 0.36818569898605347
0.42409080266952515 0.42409080266952515 0.42409080266952515
0.48065429925918579 0.48065429925918579 0.48065429925918579
0.5378270149230957 0.5378270149230957 0.5378270149230957
0.59436333179473877 0.59436333179473877 0.59436333179473877
0.65045440196990967 0.65045440196990967 0.65045440196990967
0.70543599128723145 0.70543599128723145 0.70543599128723145
0.25727322697639465 0.25727322697639465 0.25727322697639465
0.25452408194541931 0.25452408194541931 0.25452408194541931
0.25823813676834106 0.25823813676834106 0.25823813676834106
0.27534615993499756 0.27534615993499756 0.27534615993499756
0.30964899063110352 0.30964899063110352 0.30964899063110352
0.35641604661941528 0.35641604661941528 0.35641604661941528
0.40787413716316223 0.40787413716316223 0.40787413716316223
