luts/instant_pro/fuji_fp-100c_++.cube
# Created by: G'MIC (https://gmic.eu)
TITLE "fuji_fp-100c_++"
# LUT size
LUT_3D_SIZE 13
# Data domain
DOMAIN_MIN 0.0 0.0 0.0
DOMAIN_MAX 1.0 1.0 1.0
# LUT data points
0.22880548238754272 0.15987864136695862 0.13188567757606506
0.23685570061206818 0.15744327008724213 0.12835031747817993
0.24469760060310364 0.15416674315929413 0.12396010011434555
0.25707396864891052 0.15067461133003235 0.11880110204219818
0.30799025297164917 0.14666213095188141 0.11609345674514771
0.37646326422691345 0.1418689638376236 0.11366849392652512
0.47121977806091309 0.12838327884674072 0.1119014099240303
0.57053005695343018 0.11377068608999252 0.10894098877906799
0.66234278678894043 0.10871119797229767 0.095903687179088593
0.75163739919662476 0.10592330992221832 0.07938116043806076
0.84048342704772949 0.10441680252552032 0.060033760964870453
0.91642379760742188 0.12470824271440506 0.040761806070804596
0.9753652811050415 0.16352719068527222 0.022692915052175522
0.22652198374271393 0.16670212149620056 0.12664052844047546
0.23753471672534943 0.16664271056652069 0.12513412535190582
0.24897056818008423 0.16438208520412445 0.12193905562162399
0.26803594827651978 0.16095194220542908 0.1175055131316185
0.32555121183395386 0.15786328911781311 0.11471930146217346
0.39544269442558289 0.15713375806808472 0.11073288321495056
0.48166856169700623 0.14991801977157593 0.1071062758564949
0.57759654521942139 0.14513100683689117 0.098978511989116669
0.67354047298431396 0.14548394083976746 0.085717156529426575
0.76495891809463501 0.14809545874595642 0.069222345948219299
0.85039079189300537 0.15217752754688263 0.049511987715959549
0.92473816871643066 0.16967520117759705 0.030825013294816017
0.9798550009727478 0.20248128473758698 0.018086677417159081
0.22299498319625854 0.1777188777923584 0.12138813734054565
0.23604187369346619 0.18454365432262421 0.12028244882822037
0.25071349740028381 0.18382251262664795 0.11761823296546936
0.27929383516311646 0.18179041147232056 0.11389575898647308
0.34257051348686218 0.18849793076515198 0.10876888036727905
0.41431519389152527 0.19446538388729095 0.10302025079727173
0.50349181890487671 0.19781912863254547 0.095271013677120209
0.60401904582977295 0.20033657550811768 0.080720774829387665
0.70147073268890381 0.2061695009469986 0.06521625816822052
0.78242093324661255 0.21266572177410126 0.051666364073753357
0.86017149686813354 0.22022084891796112 0.034988701343536377
0.92966395616531372 0.23638316988945007 0.020024482160806656
0.98057836294174194 0.25911033153533936 0.012037195265293121
0.21395039558410645 0.21523842215538025 0.11486323922872543
0.22872820496559143 0.21661451458930969 0.11468345671892166
0.25101593136787415 0.21911501884460449 0.11053323000669479
0.29416891932487488 0.23387961089611053 0.10159952193498611
0.35531735420227051 0.24609199166297913 0.093281887471675873
0.43342050909996033 0.25910794734954834 0.079726576805114746
0.53596824407577515 0.27025485038757324 0.064542688429355621
0.64178353548049927 0.27421769499778748 0.050216149538755417
0.7264934778213501 0.28057974576950073 0.039839442819356918
0.79754006862640381 0.28836771845817566 0.032426271587610245
0.87113094329833984 0.29368853569030762 0.019395461305975914
0.93498522043228149 0.30493518710136414 0.0093593522906303406
0.97944509983062744 0.32389363646507263 0.0074225631542503834
0.19441722333431244 0.2907043993473053 0.097153998911380768
0.21196672320365906 0.28387308120727539 0.10176172852516174
0.24959929287433624 0.2847747802734375 0.097665555775165558
0.30310314893722534 0.29686325788497925 0.086040869355201721
0.36208716034889221 0.30961942672729492 0.070675596594810486
0.44574770331382751 0.32865631580352783 0.043340511620044708
0.55313122272491455 0.3437652587890625 0.026540284976363182
0.65809530019760132 0.35564792156219482 0.018836900591850281
0.74041646718978882 0.36835950613021851 0.015994487330317497
0.81454932689666748 0.3781495988368988 0.016074685379862785
0.88483089208602905 0.38278552889823914 0.011694425716996193
0.94226247072219849 0.38791507482528687 0.0091733597218990326
0.984233558177948 0.40250340104103088 0.0087400395423173904
0.17176713049411774 0.37172204256057739 0.073281243443489075
0.1945207417011261 0.36795157194137573 0.077483236789703369
0.24135397374629974 0.36708027124404907 0.073751695454120636
0.29699742794036865 0.37051349878311157 0.061621811240911484
0.3606208860874176 0.37945583462715149 0.04198741540312767
0.44158917665481567 0.39685380458831787 0.013280232436954975
0.54187178611755371 0.41752919554710388 0.008012150414288044
0.64245694875717163 0.43450373411178589 0.0068892384879291058
0.73681092262268066 0.4518589973449707 0.0065234615467488766
0.81825309991836548 0.46382960677146912 0.010528714396059513
0.89065748453140259 0.47145408391952515 0.011646226048469543
0.95053422451019287 0.47704243659973145 0.011276124976575375
0.98969918489456177 0.48498919606208801 0.01354192104190588
0.14785362780094147 0.45217260718345642 0.043842840939760208
0.18005925416946411 0.45049917697906494 0.047012567520141602
0.2320106029510498 0.44851037859916687 0.044372648000717163
0.28688868880271912 0.44669410586357117 0.035096365958452225
0.35186594724655151 0.45097246766090393 0.018129162490367889
0.43259260058403015 0.46920099854469299 0.0074879666790366173
0.52434861660003662 0.48910266160964966 0.005770574789494276
0.62448769807815552 0.50646722316741943 0.0049780001863837242
0.72010886669158936 0.52340656518936157 0.0078011308796703815
0.80527973175048828 0.53890740871429443 0.014156745746731758
0.88233363628387451 0.54800599813461304 0.012016535736620426
0.94876259565353394 0.55753785371780396 0.010929257608950138
0.99186915159225464 0.56534630060195923 0.022892357781529427
0.11211097240447998 0.53067231178283691 0.016228141263127327
0.16272987425327301 0.52982890605926514 0.020418249070644379
0.21753288805484772 0.52734440565109253 0.02065550908446312
0.27910110354423523 0.52299708127975464 0.016144875437021255
0.35255160927772522 0.52596813440322876 0.0088872723281383514
0.42868447303771973 0.54096591472625732 0.0057549569755792618
0.51396638154983521 0.55650663375854492 0.0050830617547035217
0.60792738199234009 0.57268303632736206 0.0054975771345198154
0.70000565052032471 0.58968907594680786 0.0089981826022267342
0.78442281484603882 0.60472577810287476 0.012325765565037727
0.86381745338439941 0.61413633823394775 0.012458457611501217
0.93375957012176514 0.62446963787078857 0.013652831315994263
0.98691892623901367 0.63544166088104248 0.024454737082123756
0.065850153565406799 0.60762220621109009 0.0047490289434790611
0.13873085379600525 0.60668450593948364 0.0081421947106719017
0.2056821882724762 0.60234099626541138 0.010394018143415451
0.28189674019813538 0.59966933727264404 0.01130492240190506
0.35891711711883545 0.60195404291152954 0.0083693563938140869
0.42741993069648743 0.61156582832336426 0.0051075504161417484
0.5051000714302063 0.62275850772857666 0.0040001962333917618
0.58993589878082275 0.63708007335662842 0.0037235184572637081
0.67841088771820068 0.65209132432937622 0.0071601420640945435
0.76415574550628662 0.66585671901702881 0.011370460502803326
0.84567075967788696 0.67691689729690552 0.015066647902131081
0.91526079177856445 0.68541735410690308 0.015600197017192841
0.97227764129638672 0.69309711456298828 0.010406089946627617
0.059247035533189774 0.68360286951065063 0.0031110874842852354
0.13273285329341888 0.6811978816986084 0.0042103487066924572
0.20533612370491028 0.67861545085906982 0.0071967481635510921
0.28973370790481567 0.67696624994277954 0.0097727011889219284
0.36706691980361938 0.67707920074462891 0.0090308841317892075
0.43562108278274536 0.6829034686088562 0.0047197379171848297
0.50987154245376587 0.69136834144592285 0.0057197273708879948
0.58550608158111572 0.70027786493301392 0.0054883770644664764
0.66921615600585938 0.71352642774581909 0.006119417492300272
0.7555127739906311 0.72757869958877563 0.010040103457868099
0.83553493022918701 0.7381625771522522 0.012356642633676529
0.90444165468215942 0.74533176422119141 0.011980976909399033
0.96410298347473145 0.75109601020812988 0.0085901897400617599
0.13833069801330566 0.75997847318649292 0.028610633686184883
0.18540756404399872 0.75774687528610229 0.027495110407471657
0.24280251562595367 0.75529372692108154 0.029687544330954552
0.31290608644485474 0.75345408916473389 0.030738096684217453
0.38531953096389771 0.75095844268798828 0.032775610685348511
0.45594093203544617 0.75220531225204468 0.029827700927853584
0.52571719884872437 0.75876027345657349 0.022405438125133514
0.59730494022369385 0.76541763544082642 0.012650717981159687
0.67435616254806519 0.77669107913970947 0.0067114736884832382
0.75451231002807617 0.78920936584472656 0.007863183505833149
0.83016473054885864 0.79870080947875977 0.0091346139088273048
0.90008866786956787 0.80516523122787476 0.0075443941168487072
0.96178984642028809 0.81135654449462891 0.004404015839099884
0.27125173807144165 0.83340561389923096 0.16184644401073456
0.29286274313926697 0.8313744068145752 0.15923598408699036
0.33084174990653992 0.82937788963317871 0.15586760640144348
0.38419052958488464 0.82883071899414062 0.15930257737636566
0.44254738092422485 0.82588499784469604 0.16589781641960144
0.51128774881362915 0.82561963796615601 0.16728197038173676
0.57263487577438354 0.82937520742416382 0.14829592406749725
0.6324615478515625 0.83453172445297241 0.11628866940736771
0.69676434993743896 0.84359914064407349 0.078420765697956085
0.76320338249206543 0.85165303945541382 0.046438567340373993
0.83433973789215088 0.85986495018005371 0.025167353451251984
0.90319424867630005 0.86651164293289185 0.010169309563934803
0.96381515264511108 0.87278169393539429 0.002518567955121398
0.44543975591659546 0.90863102674484253 0.3665529191493988
0.45269852876663208 0.90641534328460693 0.36015278100967407
0.47530221939086914 0.90492725372314453 0.35884961485862732
0.5094146728515625 0.90451729297637939 0.36294332146644592
0.55341005325317383 0.9030722975730896 0.36961397528648376
0.606972336769104 0.90142130851745605 0.37857025861740112
0.65904158353805542 0.9016115665435791 0.38055965304374695
0.7073790431022644 0.90638089179992676 0.36936351656913757
0.75751841068267822 0.91231751441955566 0.34792855381965637
0.81042939424514771 0.9184720516204834 0.32287323474884033
0.86736035346984863 0.92516988515853882 0.2969609797000885
0.92414581775665283 0.93072378635406494 0.25171232223510742
0.97911751270294189 0.93706482648849487 0.19538320600986481
0.22639071941375732 0.15587233006954193 0.13479728996753693
0.23694215714931488 0.15401870012283325 0.13716548681259155
0.24467344582080841 0.15307049453258514 0.13356596231460571
0.2567269504070282 0.15089710056781769 0.12660956382751465
0.30918353796005249 0.14329043030738831 0.12523737549781799
0.38606974482536316 0.1327434629201889 0.12510177493095398
0.47688883543014526 0.11598522961139679 0.12140782922506332
0.57190632820129395 0.10282260924577713 0.11621567606925964
0.66479325294494629 0.087575070559978485 0.11084271967411041
0.75463032722473145 0.075238093733787537 0.10384223610162735
0.84059780836105347 0.071183748543262482 0.089111685752868652
0.91330474615097046 0.10036734491586685 0.073428750038146973
0.97272634506225586 0.14849643409252167 0.065342456102371216
0.22450058162212372 0.16295453906059265 0.13215337693691254
0.23560768365859985 0.16477543115615845 0.13551397621631622
0.24843066930770874 0.16521893441677094 0.13452206552028656
0.27150943875312805 0.16319221258163452 0.13057324290275574
0.32742488384246826 0.15290538966655731 0.12713690102100372
0.39882621169090271 0.14784914255142212 0.1234610304236412
0.49000710248947144 0.13992030918598175 0.12238825112581253
0.58557534217834473 0.131487637758255 0.11675639450550079
0.68020141124725342 0.12571439146995544 0.10887657850980759
0.76889407634735107 0.12176787108182907 0.099120102822780609
0.85055595636367798 0.12840290367603302 0.083223260939121246
0.92234688997268677 0.1546119898557663 0.066008806228637695
0.98205399513244629 0.18834145367145538 0.055139116942882538
0.22072438895702362 0.18458473682403564 0.13250724971294403
0.23499830067157745 0.18699760735034943 0.13368317484855652
0.25197741389274597 0.18911775946617126 0.13052450120449066
0.28661581873893738 0.18825668096542358 0.13063982129096985
0.3470672070980072 0.19212138652801514 0.12485771626234055
0.4252045750617981 0.19690017402172089 0.12163699418306351
0.51675331592559814 0.19224557280540466 0.12200424820184708
0.61275380849838257 0.18801882863044739 0.10725480318069458
0.70359152555465698 0.18902787566184998 0.096393048763275146
0.78266555070877075 0.19349740445613861 0.087146401405334473
0.85926514863967896 0.2005884200334549 0.069522321224212646
0.92965435981750488 0.22439797222614288 0.055748868733644485
0.98323893547058105 0.24799400568008423 0.049650378525257111
0.21324513852596283 0.22485259175300598 0.13204239308834076
0.22942957282066345 0.22632765769958496 0.12962682545185089
0.25129720568656921 0.22534182667732239 0.12273938208818436
0.29976555705070496 0.23588430881500244 0.1181400790810585
0.36341845989227295 0.25030237436294556 0.11246433854103088
0.45136067271232605 0.26277339458465576 0.10808391124010086
0.54850190877914429 0.26981720328330994 0.10114113241434097
0.64315307140350342 0.26857036352157593 0.086838744580745697
0.72448205947875977 0.27256780862808228 0.075058445334434509
0.79875892400741577 0.28014096617698669 0.066396482288837433
0.87262517213821411 0.28318995237350464 0.049622718244791031
0.93587028980255127 0.29855209589004517 0.042811643332242966
0.9803430438041687 0.31872338056564331 0.041889265179634094
0.19188818335533142 0.29656597971916199 0.12255250662565231
0.20963068306446075 0.29907310009002686 0.12499652802944183
0.24510639905929565 0.30160617828369141 0.11766044795513153
0.30321583151817322 0.30767461657524109 0.10898290574550629
0.37277513742446899 0.31661239266395569 0.095104053616523743
0.464133620262146 0.3347356915473938 0.066729359328746796
0.56161999702453613 0.34835445880889893 0.053220547735691071
0.65712100267410278 0.35854828357696533 0.047873105853796005
0.74050438404083252 0.36642983555793762 0.039806053042411804
0.81826472282409668 0.37454786896705627 0.038875862956047058
0.88765442371368408 0.37783229351043701 0.033108789473772049
0.94340544939041138 0.38423490524291992 0.034587904810905457
0.98515123128890991 0.39881265163421631 0.036949232220649719
0.16337521374225616 0.38143512606620789 0.10783027112483978
0.18668882548809052 0.38130304217338562 0.11236506700515747
0.23552988469600677 0.38427340984344482 0.10656898468732834
0.29703757166862488 0.38791671395301819 0.096009165048599243
0.37019816040992737 0.39312487840652466 0.073484458029270172
0.45950555801391602 0.40935876965522766 0.032515760511159897
0.55122780799865723 0.42572706937789917 0.013598034158349037
0.65086883306503296 0.43957671523094177 0.012494360096752644
0.74559122323989868 0.45221090316772461 0.011398988775908947
0.82644516229629517 0.46284520626068115 0.016540750861167908
0.8952564001083374 0.46813657879829407 0.022634858265519142
0.95202422142028809 0.47275146842002869 0.027944587171077728
0.99093037843704224 0.48156163096427917 0.040323518216609955
0.13910508155822754 0.46394914388656616 0.085836224257946014
0.16983188688755035 0.46250569820404053 0.087861083447933197
0.22490279376506805 0.46246606111526489 0.08492337167263031
0.28902480006217957 0.46520936489105225 0.073799476027488708
0.35890671610832214 0.46741548180580139 0.047913495451211929
0.43987941741943359 0.4792710542678833 0.017409918829798698
0.53387987613677979 0.49768766760826111 0.0091749001294374466
0.63465070724487305 0.5122038722038269 0.010384667664766312
0.72669470310211182 0.52588707208633423 0.0079452814534306526
0.81300061941146851 0.54029279947280884 0.011794205754995346
0.88908922672271729 0.54922586679458618 0.015737017616629601
0.95488506555557251 0.55839991569519043 0.03979124128818512
0.99140459299087524 0.56678885221481323 0.085634671151638031
0.08977711945772171 0.54221606254577637 0.056512542068958282
0.14747786521911621 0.54009062051773071 0.06159026175737381
0.2108243852853775 0.54001379013061523 0.060764312744140625
0.27949264645576477 0.54223859310150146 0.051629189401865005
0.35116618871688843 0.54199361801147461 0.031379114836454391
0.42793470621109009 0.54653018712997437 0.013712191022932529
0.5179864764213562 0.56314599514007568 0.0086645688861608505
0.61181634664535522 0.57983237504959106 0.007967301644384861
0.70390886068344116 0.59477490186691284 0.0091173956170678139
0.79117131233215332 0.607185959815979 0.012851625680923462
0.87100780010223389 0.61575603485107422 0.012787329033017159
0.94132423400878906 0.62466120719909668 0.020699355751276016
0.99063408374786377 0.63801831007003784 0.07362307608127594
0.046888001263141632 0.61685949563980103 0.029889021068811417
0.12183743715286255 0.61522972583770752 0.033104587346315384
0.19916969537734985 0.61600840091705322 0.040004998445510864
0.27742365002632141 0.61578369140625 0.039622962474822998
0.35295483469963074 0.61416441202163696 0.028546052053570747
0.42564362287521362 0.61530232429504395 0.012964076362550259
0.50798916816711426 0.62793487310409546 0.0072322622872889042
0.59589564800262451 0.64409387111663818 0.0075166737660765648
0.68387472629547119 0.65859556198120117 0.0086291292682290077
0.77109783887863159 0.66873842477798462 0.011702877469360828
0.85297554731369019 0.67764574289321899 0.012689941562712193
0.92379277944564819 0.68542706966400146 0.012708775699138641
0.9815019965171814 0.6956520676612854 0.019535349681973457
0.050792858004570007 0.69238203763961792 0.027225164696574211
0.12394887953996658 0.68934714794158936 0.02544950507581234
0.20245936512947083 0.68809717893600464 0.030079321935772896
0.28467106819152832 0.68808090686798096 0.037560869008302689
0.36092901229858398 0.68684583902359009 0.03245900571346283
0.43113386631011963 0.68558347225189209 0.016198895871639252
0.50780576467514038 0.69317722320556641 0.0088023766875267029
0.59034579992294312 0.70615923404693604 0.0089235492050647736
0.67461919784545898 0.71943104267120361 0.0096979178488254547
0.75660157203674316 0.72983676195144653 0.0095837758854031563
0.83850622177124023 0.73834234476089478 0.0098951151594519615
0.90977400541305542 0.74588042497634888 0.0099424021318554878
0.96955758333206177 0.75319057703018188 0.0067651635035872459
0.14084653556346893 0.76383507251739502 0.079659543931484222
0.18945883214473724 0.76123982667922974 0.081054076552391052
0.24997037649154663 0.75876659154891968 0.082974813878536224
0.31546565890312195 0.75859606266021729 0.079077884554862976
0.38791251182556152 0.75617915391921997 0.080314025282859802
0.45819768309593201 0.75612157583236694 0.071395993232727051
0.52565401792526245 0.76140159368515015 0.045197863131761551
0.59702342748641968 0.76975244283676147 0.023592690005898476
0.67327171564102173 0.78059738874435425 0.0096465917304158211
0.75162583589553833 0.78976637125015259 0.0090787550434470177
0.83145612478256226 0.7989615797996521 0.009295998141169548
0.90207368135452271 0.80621165037155151 0.0091437399387359619
0.96266442537307739 0.81179690361022949 0.004801522009074688
0.27067923545837402 0.83486533164978027 0.20300272107124329
0.29739373922348022 0.83304375410079956 0.20040619373321533
0.33717340230941772 0.83146911859512329 0.20217488706111908
0.38819238543510437 0.83080673217773438 0.20264837145805359
0.44651675224304199 0.8273540735244751 0.20574690401554108
0.5124172568321228 0.82897388935089111 0.20944437384605408
0.57040202617645264 0.83241510391235352 0.19394272565841675
0.63542693853378296 0.83763480186462402 0.15960511565208435
0.69886153936386108 0.84416359663009644 0.11881468445062637
0.76595395803451538 0.85245984792709351 0.077317178249359131
0.83444333076477051 0.86139559745788574 0.044913198798894882
0.90302032232284546 0.86771827936172485 0.019088072702288628
0.96444368362426758 0.87312763929367065 0.0060556149110198021
0.4413730800151825 0.90886378288269043 0.38098019361495972
0.45291844010353088 0.90728884935379028 0.37890198826789856
0.47747209668159485 0.9059486985206604 0.37901076674461365
0.51159989833831787 0.90500682592391968 0.38219740986824036
0.55860692262649536 0.90249335765838623 0.3916473388671875
0.60803407430648804 0.90321367979049683 0.39909836649894714
0.65670192241668701 0.90393936634063721 0.40063485503196716
0.70712131261825562 0.90741235017776489 0.38843971490859985
0.75797063112258911 0.91251122951507568 0.37321341037750244
0.81170356273651123 0.91866528987884521 0.34799158573150635
0.86779898405075073 0.92572063207626343 0.32014721632003784
0.92468655109405518 0.93177908658981323 0.28173503279685974
0.97904795408248901 0.93714004755020142 0.22164668142795563
0.22500307857990265 0.15178759396076202 0.14595042169094086
0.23883156478404999 0.14937363564968109 0.15225076675415039
0.24989239871501923 0.14880697429180145 0.15203998982906342
0.26225331425666809 0.14850977063179016 0.14548814296722412
0.30595523118972778 0.14348512887954712 0.1444583386182785
0.38515380024909973 0.1277393251657486 0.1456046849489212
0.47967317700386047 0.101850725710392 0.14452585577964783
0.57866567373275757 0.059330929070711136 0.13956117630004883
0.67347413301467896 0.043668709695339203 0.13976946473121643
0.76178658008575439 0.036705136299133301 0.13725294172763824
0.84478932619094849 0.033186729997396469 0.12614652514457703
0.91198492050170898 0.065644271671772003 0.1202055960893631
0.97254389524459839 0.11528671532869339 0.12063691020011902
0.22184635698795319 0.15862792730331421 0.14331053197383881
0.23375777900218964 0.16069875657558441 0.15244726836681366
0.25008669495582581 0.16241870820522308 0.15379270911216736
0.27804997563362122 0.1637246161699295 0.15332666039466858
0.32935819029808044 0.15491104125976562 0.15072251856327057
0.40393748879432678 0.13986358046531677 0.14744976162910461
0.50001657009124756 0.12401151657104492 0.14863884449005127
0.5959276556968689 0.10622081160545349 0.14477111399173737
0.68739396333694458 0.09541340172290802 0.14156623184680939
0.77403181791305542 0.086640916764736176 0.13891102373600006
0.85168874263763428 0.094855181872844696 0.12683595716953278
0.9191470742225647 0.12886743247509003 0.12032049149274826
0.97698730230331421 0.16816136240959167 0.1183711364865303
0.2179885059595108 0.18732273578643799 0.15059873461723328
0.23059411346912384 0.18372192978858948 0.1536630243062973
0.25378328561782837 0.18660412728786469 0.15384414792060852
0.2907402515411377 0.19038046896457672 0.15583012998104095
0.35329285264015198 0.19202493131160736 0.15386778116226196
0.43778854608535767 0.18561828136444092 0.15273332595825195
0.52868938446044922 0.1794632226228714 0.15163461863994598
0.62093830108642578 0.17489184439182281 0.14523254334926605
0.70843261480331421 0.17012353241443634 0.14100860059261322
0.78762257099151611 0.16974848508834839 0.13475462794303894
0.86043375730514526 0.17289464175701141 0.12421261519193649
0.9263799786567688 0.20229646563529968 0.11991225928068161
0.9791070818901062 0.23592342436313629 0.11790388822555542
0.21085046231746674 0.23091374337673187 0.15927016735076904
0.22776752710342407 0.2308373749256134 0.15857866406440735
0.25513869524002075 0.23318076133728027 0.15724700689315796
0.30816689133644104 0.24438661336898804 0.15974621474742889
0.37925723195075989 0.25502511858940125 0.15871086716651917
0.46941283345222473 0.26207077503204346 0.15225695073604584
0.56107574701309204 0.26413622498512268 0.14746688306331635
0.64604645967483521 0.26419997215270996 0.14058774709701538
0.72967469692230225 0.26458469033241272 0.13182438910007477
0.80534249544143677 0.26446616649627686 0.1224302276968956
0.87325125932693481 0.26717111468315125 0.11729021370410919
0.93300879001617432 0.28582057356834412 0.11795403063297272
0.97799688577651978 0.30980950593948364 0.11780895292758942
0.18601433932781219 0.31124505400657654 0.16362123191356659
0.20861245691776276 0.31722253561019897 0.1664658784866333
0.2501596212387085 0.3205220103263855 0.16521233320236206
0.31347867846488953 0.32272908091545105 0.16104717552661896
