luts/instant_pro/fuji_fp-3000b_negative_++.cube
# Created by: G'MIC (https://gmic.eu)
TITLE "fuji_fp-3000b_negative_++"
# LUT size
LUT_3D_SIZE 5
# Data domain
DOMAIN_MIN 0.0 0.0 0.0
DOMAIN_MAX 1.0 1.0 1.0
# LUT data points
0.11371516436338425 0.11371516436338425 0.11371516436338425
0.13897533714771271 0.13897533714771271 0.13897533714771271
0.24449253082275391 0.24449253082275391 0.24449253082275391
0.43213871121406555 0.43213871121406555 0.43213871121406555
0.64817774295806885 0.64817774295806885 0.64817774295806885
0.17094117403030396 0.17094117403030396 0.17094117403030396
0.1815616637468338 0.1815616637468338 0.1815616637468338
0.29794850945472717 0.29794850945472717 0.29794850945472717
0.49554833769798279 0.49554833769798279 0.49554833769798279
0.68956071138381958 0.68956071138381958 0.68956071138381958
0.33969935774803162 0.33969935774803162 0.33969935774803162
0.31691205501556396 0.31691205501556396 0.31691205501556396
0.41560667753219604 0.41560667753219604 0.41560667753219604
0.59940361976623535 0.59940361976623535 0.59940361976623535
0.75126868486404419 0.75126868486404419 0.75126868486404419
0.60124117136001587 0.60124117136001587 0.60124117136001587
0.57057744264602661 0.57057744264602661 0.57057744264602661
0.60573494434356689 0.60573494434356689 0.60573494434356689
0.70273011922836304 0.70273011922836304 0.70273011922836304
0.79629671573638916 0.79629671573638916 0.79629671573638916
0.81548035144805908 0.81548035144805908 0.81548035144805908
0.81585073471069336 0.81585073471069336 0.81585073471069336
0.8112371563911438 0.8112371563911438 0.8112371563911438
0.81899541616439819 0.81899541616439819 0.81899541616439819
0.84835159778594971 0.84835159778594971 0.84835159778594971
0.17339387536048889 0.17339387536048889 0.17339387536048889
0.21069018542766571 0.21069018542766571 0.21069018542766571
0.29020032286643982 0.29020032286643982 0.29020032286643982
0.46825763583183289 0.46825763583183289 0.46825763583183289
0.66438883543014526 0.66438883543014526 0.66438883543014526
0.21141836047172546 0.21141836047172546 0.21141836047172546
0.24034149944782257 0.24034149944782257 0.24034149944782257
0.3488156795501709 0.3488156795501709 0.3488156795501709
0.53078949451446533 0.53078949451446533 0.53078949451446533
0.70180857181549072 0.70180857181549072 0.70180857181549072
0.43432053923606873 0.43432053923606873 0.43432053923606873
0.40687015652656555 0.40687015652656555 0.40687015652656555
0.46354788541793823 0.46354788541793823 0.46354788541793823
0.62185275554656982 0.62185275554656982 0.62185275554656982
0.75425273180007935 0.75425273180007935 0.75425273180007935
0.65111899375915527 0.65111899375915527 0.65111899375915527
0.63257652521133423 0.63257652521133423 0.63257652521133423
0.63606351613998413 0.63606351613998413 0.63606351613998413
0.71535569429397583 0.71535569429397583 0.71535569429397583
0.79790025949478149 0.79790025949478149 0.79790025949478149
0.82165956497192383 0.82165956497192383 0.82165956497192383
0.82650703191757202 0.82650703191757202 0.82650703191757202
0.81695330142974854 0.81695330142974854 0.81695330142974854
0.82380878925323486 0.82380878925323486 0.82380878925323486
0.85110914707183838 0.85110914707183838 0.85110914707183838
0.35794126987457275 0.35794126987457275 0.35794126987457275
0.40752395987510681 0.40752395987510681 0.40752395987510681
0.48915642499923706 0.48915642499923706 0.48915642499923706
0.58624064922332764 0.58624064922332764 0.58624064922332764
0.71988093852996826 0.71988093852996826 0.71988093852996826
0.37171059846878052 0.37171059846878052 0.37171059846878052
0.42680194973945618 0.42680194973945618 0.42680194973945618
0.51565641164779663 0.51565641164779663 0.51565641164779663
0.62577766180038452 0.62577766180038452 0.62577766180038452
0.73973184823989868 0.73973184823989868 0.73973184823989868
0.51876908540725708 0.51876908540725708 0.51876908540725708
0.52437514066696167 0.52437514066696167 0.52437514066696167
0.57143735885620117 0.57143735885620117 0.57143735885620117
0.67810094356536865 0.67810094356536865 0.67810094356536865
0.77401363849639893 0.77401363849639893 0.77401363849639893
0.73819053173065186 0.73819053173065186 0.73819053173065186
0.73098063468933105 0.73098063468933105 0.73098063468933105
0.71928673982620239 0.71928673982620239 0.71928673982620239
0.75456255674362183 0.75456255674362183 0.75456255674362183
0.80997961759567261 0.80997961759567261 0.80997961759567261
0.84229099750518799 0.84229099750518799 0.84229099750518799
0.85298871994018555 0.85298871994018555 0.85298871994018555
0.84375417232513428 0.84375417232513428 0.84375417232513428
0.83947157859802246 0.83947157859802246 0.83947157859802246
0.85656118392944336 0.85656118392944336 0.85656118392944336
0.62798100709915161 0.62798100709915161 0.62798100709915161
0.65503072738647461 0.65503072738647461 0.65503072738647461
0.72716027498245239 0.72716027498245239 0.72716027498245239
0.74211364984512329 0.74211364984512329 0.74211364984512329
0.78125464916229248 0.78125464916229248 0.78125464916229248
0.66154742240905762 0.66154742240905762 0.66154742240905762
0.68153905868530273 0.68153905868530273 0.68153905868530273
0.73409390449523926 0.73409390449523926 0.73409390449523926
0.74913495779037476 0.74913495779037476 0.74913495779037476
0.79052895307540894 0.79052895307540894 0.79052895307540894
0.66832631826400757 0.66832631826400757 0.66832631826400757
0.68720978498458862 0.68720978498458862 0.68720978498458862
0.73492014408111572 0.73492014408111572 0.73492014408111572
0.77938675880432129 0.77938675880432129 0.77938675880432129
0.81297457218170166 0.81297457218170166 0.81297457218170166
0.78166967630386353 0.78166967630386353 0.78166967630386353
0.77775758504867554 0.77775758504867554 0.77775758504867554
0.78851735591888428 0.78851735591888428 0.78851735591888428
0.80849379301071167 0.80849379301071167 0.80849379301071167
0.83194530010223389 0.83194530010223389 0.83194530010223389
0.85947489738464355 0.85947489738464355 0.85947489738464355
0.86291837692260742 0.86291837692260742 0.86291837692260742
0.85967999696731567 0.85967999696731567 0.85967999696731567
0.85376441478729248 0.85376441478729248 0.85376441478729248
0.86103308200836182 0.86103308200836182 0.86103308200836182
0.82875669002532959 0.82875669002532959 0.82875669002532959
0.84007763862609863 0.84007763862609863 0.84007763862609863
0.86003214120864868 0.86003214120864868 0.86003214120864868
0.85714715719223022 0.85714715719223022 0.85714715719223022
0.85094404220581055 0.85094404220581055 0.85094404220581055
0.82874506711959839 0.82874506711959839 0.82874506711959839
0.84016203880310059 0.84016203880310059 0.84016203880310059
0.85495084524154663 0.85495084524154663 0.85495084524154663
0.85337692499160767 0.85337692499160767 0.85337692499160767
0.85307770967483521 0.85307770967483521 0.85307770967483521
0.81689465045928955 0.81689465045928955 0.81689465045928955
0.82465332746505737 0.82465332746505737 0.82465332746505737
0.84005862474441528 0.84005862474441528 0.84005862474441528
0.85134828090667725 0.85134828090667725 0.85134828090667725
0.85835409164428711 0.85835409164428711 0.85835409164428711
0.83114230632781982 0.83114230632781982 0.83114230632781982
0.83112388849258423 0.83112388849258423 0.83112388849258423
0.84052413702011108 0.84052413702011108 0.84052413702011108
0.85089409351348877 0.85089409351348877 0.85089409351348877
0.85934805870056152 0.85934805870056152 0.85934805870056152
0.86375129222869873 0.86375129222869873 0.86375129222869873
0.86982554197311401 0.86982554197311401 0.86982554197311401
0.87117749452590942 0.87117749452590942 0.87117749452590942
0.86828190088272095 0.86828190088272095 0.86828190088272095
0.87020248174667358 0.87020248174667358 0.87020248174667358
