luts/instant_pro/fuji_fp-100c_--.cube
# Created by: G'MIC (https://gmic.eu)
TITLE "fuji_fp-100c_--"
# LUT size
LUT_3D_SIZE 5
# Data domain
DOMAIN_MIN 0.0 0.0 0.0
DOMAIN_MAX 1.0 1.0 1.0
# LUT data points
0.015145394951105118 0.016318242996931076 0.015908485278487206
0.21431456506252289 0.017128124833106995 0.021928630769252777
0.5253722071647644 0.0015657910844311118 0.024975242093205452
0.83078736066818237 0.0093767652288079262 0.02353985421359539
0.99324208498001099 0.058151349425315857 0.034556802362203598
0.0046806037425994873 0.22649158537387848 0.039443761110305786
0.2250906378030777 0.24675494432449341 0.011744375340640545
0.60579544305801392 0.25448954105377197 0.012820973061025143
0.84695029258728027 0.24385949969291687 0.021704550832509995
0.99557375907897949 0.31404459476470947 0.068347588181495667
0.0023727717343717813 0.48798033595085144 0.048464275896549225
0.16383437812328339 0.49650058150291443 0.039727799594402313
0.54370903968811035 0.51644212007522583 0.0076996595598757267
0.83984225988388062 0.53249490261077881 0.011855854652822018
0.99451041221618652 0.57405877113342285 0.15373080968856812
0.005125890951603651 0.70690619945526123 0.12464503943920135
0.2460843026638031 0.70379436016082764 0.1184844970703125
0.52077651023864746 0.70374661684036255 0.03735719621181488
0.78379243612289429 0.72898972034454346 0.011674454435706139
0.97979468107223511 0.7581247091293335 0.0111833605915308
0.48710787296295166 0.92426568269729614 0.41279873251914978
0.55635285377502441 0.92175775766372681 0.41561603546142578
0.69132930040359497 0.92019432783126831 0.42411565780639648
0.83429139852523804 0.93253213167190552 0.36895567178726196
0.98739820718765259 0.95238173007965088 0.22287151217460632
0.014601150527596474 0.019544294103980064 0.23805321753025055
0.28020164370536804 0.0053498810157179832 0.27241072058677673
0.50102365016937256 0.031547829508781433 0.24698053300380707
0.80797535181045532 0.0048746895045042038 0.22956082224845886
0.9876941442489624 0.079482764005661011 0.23414967954158783
0.0033278223127126694 0.25022351741790771 0.27578455209732056
0.27714788913726807 0.28381040692329407 0.30105298757553101
0.60550308227539062 0.27566137909889221 0.27838531136512756
0.83610433340072632 0.26232969760894775 0.26173600554466248
0.98708415031433105 0.31291282176971436 0.26000109314918518
0.0044754026457667351 0.54683446884155273 0.31171256303787231
0.24519923329353333 0.55224597454071045 0.29720625281333923
0.59613549709320068 0.54858946800231934 0.23380415141582489
0.84895408153533936 0.55637699365615845 0.26805466413497925
0.98265963792800903 0.57358282804489136 0.32656034827232361
0.013578138314187527 0.72898417711257935 0.29905208945274353
0.28283223509788513 0.7240789532661438 0.3026764988899231
0.54678565263748169 0.71757632493972778 0.26715990900993347
0.78894811868667603 0.73679423332214355 0.15535737574100494
0.98136663436889648 0.76364779472351074 0.19961455464363098
0.48064479231834412 0.92877274751663208 0.48122149705886841
0.55201631784439087 0.92472052574157715 0.48535400629043579
0.68811887502670288 0.92204713821411133 0.49184772372245789
0.83080124855041504 0.93139231204986572 0.45438337326049805
0.98533576726913452 0.95044094324111938 0.35939300060272217
0.013905872590839863 0.0062507628463208675 0.51292926073074341
0.33103957772254944 0.00094474345678463578 0.56416195631027222
0.73223084211349487 0.00097207463113591075 0.61638826131820679
0.77344465255737305 0.1549374908208847 0.51751565933227539
0.96912264823913574 0.18302741646766663 0.50277101993560791
0.0050515267066657543 0.23782980442047119 0.50591248273849487
0.32795879244804382 0.24446800351142883 0.56172114610671997
0.71883916854858398 0.24051150679588318 0.62269765138626099
0.79095327854156494 0.35093200206756592 0.53691297769546509
0.97590106725692749 0.32039836049079895 0.49745383858680725
0.080271795392036438 0.54250907897949219 0.56621271371841431
0.3579363226890564 0.57249397039413452 0.5871042013168335
0.65848243236541748 0.60951155424118042 0.61365759372711182
0.8304823637008667 0.58630967140197754 0.57338559627532959
0.97580039501190186 0.56401979923248291 0.53732359409332275
0.30052801966667175 0.76806545257568359 0.59714221954345703
0.42432993650436401 0.76811897754669189 0.5872185230255127
0.59946560859680176 0.75552070140838623 0.55800843238830566
0.80665385723114014 0.75708127021789551 0.51222759485244751
0.97295504808425903 0.78953158855438232 0.55503207445144653
0.47156804800033569 0.9391663670539856 0.62382286787033081
0.52749347686767578 0.93760305643081665 0.61791312694549561
0.66507172584533691 0.92892825603485107 0.61347430944442749
0.82265579700469971 0.93200480937957764 0.60590940713882446
0.97770625352859497 0.95185065269470215 0.5474172830581665
0.21915271878242493 0.0039775772020220757 0.74523240327835083
0.43002966046333313 0.001750452327542007 0.76325702667236328
0.77232009172439575 0.00068495509913191199 0.81499356031417847
0.96842736005783081 0.0019184336997568607 0.82417470216751099
0.97719490528106689 0.32699853181838989 0.74743330478668213
0.19075773656368256 0.21883302927017212 0.73316633701324463
0.40688219666481018 0.20538908243179321 0.75641131401062012
0.72525966167449951 0.16207480430603027 0.80578094720840454
0.95087379217147827 0.2489159107208252 0.82375931739807129
0.96170151233673096 0.46309542655944824 0.7607836127281189
0.0078497491776943207 0.44755098223686218 0.68167591094970703
0.2626766562461853 0.46507167816162109 0.70048242807388306
0.63850647211074829 0.5303269624710083 0.76598137617111206
0.88935375213623047 0.60002648830413818 0.81179642677307129
0.94326889514923096 0.63640183210372925 0.76607996225357056
0.35850340127944946 0.72971540689468384 0.75435417890548706
0.46429288387298584 0.74145424365997314 0.76255196332931519
0.63921892642974854 0.76726192235946655 0.77750593423843384
0.83801758289337158 0.81078588962554932 0.80201423168182373
0.95976358652114868 0.79312974214553833 0.77563095092773438
0.5465434193611145 0.94580858945846558 0.83480596542358398
0.59371966123580933 0.94773489236831665 0.82817620038986206
0.67774635553359985 0.94546425342559814 0.80806714296340942
0.80428695678710938 0.9442257285118103 0.77928251028060913
0.96740037202835083 0.95606905221939087 0.75696617364883423
0.55900794267654419 0.072916425764560699 0.95063984394073486
0.64306604862213135 0.037645764648914337 0.95523369312286377
0.81422585248947144 0.0049831913784146309 0.96390509605407715
0.98874968290328979 0.0021977443248033524 0.98242044448852539
1 0.16887682676315308 0.97968977689743042
0.54297775030136108 0.30742740631103516 0.94278532266616821
0.62587839365005493 0.28403839468955994 0.94773554801940918
0.79214906692504883 0.23929427564144135 0.95928370952606201
0.98059427738189697 0.21849976480007172 0.97852605581283569
1 0.39346396923065186 0.97256052494049072
0.38419252634048462 0.50847357511520386 0.92315214872360229
0.51101052761077881 0.5168423056602478 0.92956757545471191
0.72328424453735352 0.52792954444885254 0.94217664003372192
0.93021154403686523 0.56482970714569092 0.96316957473754883
0.9954369068145752 0.6356702446937561 0.96409249305725098
0.33283498883247375 0.72186774015426636 0.90689724683761597
0.40431225299835205 0.71836906671524048 0.90516555309295654
0.55915659666061401 0.71259558200836182 0.90802127122879028
0.82402300834655762 0.76202315092086792 0.94164955615997314
0.98255264759063721 0.81647300720214844 0.96413826942443848
0.59552085399627686 0.93607926368713379 0.95386916399002075
0.62586373090744019 0.93575263023376465 0.95518785715103149
0.70306432247161865 0.93968641757965088 0.95615094900131226
0.81424760818481445 0.94332206249237061 0.95329403877258301
0.97417140007019043 0.97006058692932129 0.96626269817352295
