luts/instant_pro/fuji_fp-100c_++_alt.cube
# Created by: G'MIC (https://gmic.eu)
TITLE "fuji_fp-100c_++_alt"
# LUT size
LUT_3D_SIZE 5
# Data domain
DOMAIN_MIN 0.0 0.0 0.0
DOMAIN_MAX 1.0 1.0 1.0
# LUT data points
0.27843138575553894 0.21875 0.15217514336109161
0.31436875462532043 0.22201541066169739 0.14651510119438171
0.45707598328590393 0.23327586054801941 0.14989258348941803
0.66596496105194092 0.25516542792320251 0.14397589862346649
0.87570023536682129 0.28885069489479065 0.14010332524776459
0.28080031275749207 0.28049710392951965 0.15360091626644135
0.32973167300224304 0.28630131483078003 0.14393064379692078
0.49924138188362122 0.31750190258026123 0.14155246317386627
0.70156198740005493 0.34037536382675171 0.13612256944179535
0.89468050003051758 0.37511581182479858 0.1420673280954361
0.25863701105117798 0.4465995728969574 0.15449044108390808
0.33034834265708923 0.44678950309753418 0.14612984657287598
0.49146422743797302 0.48087355494499207 0.10389820486307144
0.718414306640625 0.5193449854850769 0.07144271582365036
0.91040825843811035 0.55247801542282104 0.17793959379196167
0.24466350674629211 0.63897597789764404 0.15789167582988739
0.32846900820732117 0.63528287410736084 0.16082563996315002
0.47914594411849976 0.64935517311096191 0.14354264736175537
0.68259227275848389 0.68380385637283325 0.026612106710672379
0.89843815565109253 0.71111369132995605 0.073626093566417694
0.45212796330451965 0.85035216808319092 0.39004918932914734
0.50101810693740845 0.84569674730300903 0.39296832680702209
0.61465173959732056 0.84839785099029541 0.41007450222969055
0.75192183256149292 0.86247342824935913 0.40422141551971436
0.91171354055404663 0.87860530614852905 0.37501281499862671
0.27836883068084717 0.21839916706085205 0.19716432690620422
0.33470228314399719 0.21487008035182953 0.20927086472511292
0.44627147912979126 0.23148316144943237 0.21397580206394196
0.67252755165100098 0.21539270877838135 0.21182234585285187
0.87458902597427368 0.2627374529838562 0.21648082137107849
0.28024619817733765 0.28351163864135742 0.21425540745258331
0.34373882412910461 0.31132921576499939 0.23229961097240448
0.51324689388275146 0.31649467349052429 0.23054169118404388
0.70509570837020874 0.3304269015789032 0.23211990296840668
0.89148855209350586 0.36632981896400452 0.23602622747421265
0.24886780977249146 0.49321445822715759 0.2500903308391571
0.33898574113845825 0.49040970206260681 0.24513635039329529
0.51671075820922852 0.5050966739654541 0.21857763826847076
0.7371399998664856 0.53919780254364014 0.23758351802825928
0.9086461067199707 0.56035757064819336 0.2925352156162262
0.24296538531780243 0.67113977670669556 0.26370334625244141
0.33537575602531433 0.66429007053375244 0.26538625359535217
0.49401244521141052 0.66472983360290527 0.25237375497817993
0.69523495435714722 0.69396430253982544 0.20019879937171936
0.90093863010406494 0.72169137001037598 0.25455483794212341
0.45315277576446533 0.85398757457733154 0.44975915551185608
0.50295037031173706 0.8512192964553833 0.44868677854537964
0.61804914474487305 0.84874814748764038 0.46571075916290283
0.75157761573791504 0.86237287521362305 0.46038252115249634
0.91251206398010254 0.88010960817337036 0.4438263475894928
0.30919930338859558 0.21909868717193604 0.37339818477630615
0.38963416218757629 0.20396195352077484 0.4086967408657074
0.60064113140106201 0.1539849191904068 0.47320404648780823
0.6591486930847168 0.2695867121219635 0.4139363169670105
0.85975420475006104 0.28742209076881409 0.41395029425621033
0.28195548057556152 0.29828867316246033 0.37337833642959595
0.36906108260154724 0.29697147011756897 0.42756170034408569
0.6011616587638855 0.30197450518608093 0.49274972081184387
0.68792349100112915 0.36840367317199707 0.43801650404930115
0.87842750549316406 0.36257117986679077 0.41718417406082153
0.26877638697624207 0.50160342454910278 0.45230990648269653
0.36054632067680359 0.52368277311325073 0.47024825215339661
0.56661373376846313 0.56446987390518188 0.50842523574829102
0.73638367652893066 0.56066083908081055 0.48536908626556396
0.89739394187927246 0.55418211221694946 0.46431928873062134
0.31220656633377075 0.71791982650756836 0.51926475763320923
0.39365944266319275 0.71404045820236206 0.50929254293441772
0.53609800338745117 0.71076953411102295 0.48848897218704224
0.71994340419769287 0.72042018175125122 0.46788579225540161
0.89863049983978271 0.74531692266464233 0.51944565773010254
0.45954477787017822 0.86724424362182617 0.57977885007858276
0.49994975328445435 0.86585694551467896 0.57435816526412964
0.61207258701324463 0.861347496509552 0.57944673299789429
0.75487434864044189 0.86553418636322021 0.58478391170501709
0.91002351045608521 0.88142687082290649 0.57295793294906616
0.34195765852928162 0.21739348769187927 0.62763869762420654
0.4315914511680603 0.19808508455753326 0.66219353675842285
0.63911432027816772 0.1158093735575676 0.71345114707946777
0.86359208822250366 0.071165554225444794 0.74638479948043823
0.88198137283325195 0.3666481077671051 0.66552245616912842
0.28273111581802368 0.2929893434047699 0.62088805437088013
0.38606896996498108 0.28759112954139709 0.64859157800674438
0.61974495649337769 0.27891713380813599 0.70657587051391602
0.85072749853134155 0.31297919154167175 0.74740129709243774
0.87157595157623291 0.46569192409515381 0.67613595724105835
0.22492691874504089 0.45578464865684509 0.58013451099395752
0.30743888020515442 0.46435272693634033 0.60279202461242676
0.55208402872085571 0.51009285449981689 0.67855221033096313
0.80177086591720581 0.5813601016998291 0.74335986375808716
0.8547288179397583 0.61507594585418701 0.69558751583099365
0.33861503005027771 0.69396203756332397 0.6818239688873291
0.41288140416145325 0.70126843452453613 0.68761759996414185
0.56999999284744263 0.72564697265625 0.70975470542907715
0.76323586702346802 0.76974248886108398 0.75056666135787964
0.88716757297515869 0.75396108627319336 0.72648847103118896
0.52677273750305176 0.88017863035202026 0.78531002998352051
0.56075853109359741 0.87794589996337891 0.77838426828384399
0.64663964509963989 0.87803894281387329 0.76460641622543335
0.75547140836715698 0.8758276104927063 0.7476726770401001
0.90432626008987427 0.88643980026245117 0.74656945466995239
0.42101183533668518 0.24757130444049835 0.88075119256973267
0.49701583385467529 0.23467564582824707 0.88542276620864868
0.6606374979019165 0.19726468622684479 0.9024544358253479
0.88552272319793701 0.12374959886074066 0.92448484897613525
0.99533671140670776 0.3174336850643158 0.91733676195144653
0.3893839418888092 0.33989495038986206 0.87672889232635498
0.47127780318260193 0.33535689115524292 0.87957274913787842
0.64528447389602661 0.32496097683906555 0.89698439836502075
0.86634522676467896 0.33345139026641846 0.91816204786300659
0.99573332071304321 0.44500619173049927 0.91919130086898804
0.25183451175689697 0.4960792064666748 0.85767590999603271
0.36648672819137573 0.50008863210678101 0.86281543970108032
0.58181822299957275 0.51987040042877197 0.88261348009109497
0.822651207447052 0.56199657917022705 0.90816241502761841
0.96889567375183105 0.62899434566497803 0.91070306301116943
0.24514469504356384 0.6936526894569397 0.84397274255752563
0.31032782793045044 0.69197756052017212 0.84182685613632202
0.45953202247619629 0.68947964906692505 0.84673678874969482
0.73759245872497559 0.7336457371711731 0.88970655202865601
0.92603343725204468 0.78220838308334351 0.90798205137252808
0.56280314922332764 0.87030065059661865 0.89585691690444946
0.59560108184814453 0.87134170532226562 0.89791351556777954
0.66690266132354736 0.87544709444046021 0.89933496713638306
0.77373117208480835 0.88372021913528442 0.91114610433578491
0.91431325674057007 0.90024638175964355 0.91966980695724487
