luts/instant_pro/fuji_fp-100c_negative_++.cube
# Created by: G'MIC (https://gmic.eu)
TITLE "fuji_fp-100c_negative_++"
# LUT size
LUT_3D_SIZE 13
# Data domain
DOMAIN_MIN 0.0 0.0 0.0
DOMAIN_MAX 1.0 1.0 1.0
# LUT data points
0.27212008833885193 0.15134045481681824 0.17167292535305023
0.27892276644706726 0.15548565983772278 0.16857902705669403
0.29329833388328552 0.15469478070735931 0.16727021336555481
0.31151497364044189 0.1487613320350647 0.16499583423137665
0.33903378248214722 0.14582359790802002 0.16267827153205872
0.39863201975822449 0.14613747596740723 0.16448874771595001
0.47474253177642822 0.14643958210945129 0.16560986638069153
0.57060343027114868 0.15289404988288879 0.16900379955768585
0.67969924211502075 0.17619580030441284 0.1711851954460144
0.77781057357788086 0.21166735887527466 0.1718946099281311
0.86387038230895996 0.27499306201934814 0.17742486298084259
0.94597023725509644 0.34393483400344849 0.18217469751834869
0.99409580230712891 0.40916138887405396 0.19595181941986084
0.27149778604507446 0.15681563317775726 0.16965097188949585
0.27715778350830078 0.15822210907936096 0.16658118367195129
0.29001942276954651 0.15911206603050232 0.16519789397716522
0.31613010168075562 0.15945547819137573 0.16515393555164337
0.34961727261543274 0.16109810769557953 0.16392739117145538
0.40192312002182007 0.16168174147605896 0.16438664495944977
0.47835889458656311 0.16584700345993042 0.16699002683162689
0.58355402946472168 0.18000034987926483 0.16933578252792358
0.68520092964172363 0.20079399645328522 0.17075443267822266
0.78154593706130981 0.24678686261177063 0.17128172516822815
0.86810243129730225 0.30524405837059021 0.1755690723657608
0.94638580083847046 0.36699283123016357 0.18208605051040649
0.99360710382461548 0.42882624268531799 0.19774308800697327
0.27020373940467834 0.16795825958251953 0.1693648099899292
0.27573263645172119 0.16883222758769989 0.16724911332130432
0.2876402735710144 0.17097322642803192 0.16466629505157471
0.3194732666015625 0.17934447526931763 0.16735140979290009
0.35533702373504639 0.18358272314071655 0.16614627838134766
0.41091829538345337 0.18949741125106812 0.1646324098110199
0.49547210335731506 0.20264478027820587 0.1692233681678772
0.59421038627624512 0.22566619515419006 0.17267931997776031
0.69077348709106445 0.25944721698760986 0.17239364981651306
0.7847830057144165 0.29569661617279053 0.16981464624404907
0.86960422992706299 0.34207835793495178 0.173359215259552
0.94612598419189453 0.4036661684513092 0.18346373736858368
0.9927142858505249 0.46286338567733765 0.20345264673233032
0.27072939276695251 0.19930410385131836 0.18260902166366577
0.27713310718536377 0.20111614465713501 0.18297630548477173
0.28907033801078796 0.20482657849788666 0.17893446981906891
0.31368303298950195 0.21441324055194855 0.17338742315769196
0.36132523417472839 0.22751496732234955 0.1717313826084137
0.42711752653121948 0.24359983205795288 0.16771233081817627
0.51204085350036621 0.26187071204185486 0.16787728667259216
0.60236430168151855 0.28752413392066956 0.17138363420963287
0.69634956121444702 0.32365486025810242 0.17195874452590942
0.78794997930526733 0.36039438843727112 0.16916367411613464
0.86963057518005371 0.40222963690757751 0.17402859032154083
0.94557255506515503 0.45220571756362915 0.1844312846660614
0.99263674020767212 0.50261878967285156 0.20889149606227875
0.27133792638778687 0.25192302465438843 0.2033926248550415
0.27845686674118042 0.24818997085094452 0.20328301191329956
0.29282531142234802 0.25203680992126465 0.20024056732654572
0.31615737080574036 0.27118894457817078 0.19195710122585297
0.36256024241447449 0.29301345348358154 0.18370138108730316
0.44689211249351501 0.32853204011917114 0.1670900285243988
0.53553217649459839 0.3584325909614563 0.16000860929489136
0.62043410539627075 0.37897181510925293 0.16159786283969879
0.70577478408813477 0.39881089329719543 0.16574233770370483
0.79216772317886353 0.42838624119758606 0.16427947580814362
0.87192904949188232 0.4673306941986084 0.17164884507656097
0.94326335191726685 0.50773161649703979 0.19143648445606232
0.99178034067153931 0.54942053556442261 0.21953257918357849
0.26955601572990417 0.31230589747428894 0.22384801506996155
0.27885788679122925 0.32154485583305359 0.22804032266139984
0.29605939984321594 0.33013659715652466 0.22886165976524353
0.32232725620269775 0.34653463959693909 0.22075708210468292
0.35854032635688782 0.36668610572814941 0.20896337926387787
0.44439521431922913 0.40834417939186096 0.18731933832168579
0.55002766847610474 0.45404648780822754 0.15561209619045258
0.64289706945419312 0.48172667622566223 0.14238452911376953
0.7235647439956665 0.49581077694892883 0.14976727962493896
0.80253124237060547 0.51177167892456055 0.15639309585094452
0.87511718273162842 0.53430908918380737 0.17214865982532501
0.94323664903640747 0.56485289335250854 0.19685477018356323
0.99102050065994263 0.59780943393707275 0.22891433537006378
0.25763148069381714 0.40208125114440918 0.2528403103351593
0.27394798398017883 0.41210752725601196 0.25832661986351013
0.29561036825180054 0.41793331503868103 0.2596585750579834
0.32319480180740356 0.42790880799293518 0.25596031546592712
0.35995817184448242 0.44728773832321167 0.24450290203094482
0.42931029200553894 0.4835791289806366 0.22318254411220551
0.53634941577911377 0.52792227268218994 0.18647004663944244
0.64934331178665161 0.57401013374328613 0.14614388346672058
0.74024003744125366 0.59783059358596802 0.13715668022632599
0.8145107626914978 0.6059228777885437 0.15832370519638062
0.88315236568450928 0.6154211163520813 0.18411573767662048
0.94837594032287598 0.62978804111480713 0.21199648082256317
0.98648494482040405 0.64756584167480469 0.24345327913761139
0.23949737846851349 0.49641671776771545 0.28371688723564148
0.26239427924156189 0.50410372018814087 0.2892419695854187
0.29173630475997925 0.50733345746994019 0.29045775532722473
0.32578352093696594 0.51233989000320435 0.29129520058631897
0.37032827734947205 0.5308036208152771 0.28795430064201355
0.43289375305175781 0.55916512012481689 0.27357721328735352
0.52463972568511963 0.59268826246261597 0.24781382083892822
0.62663227319717407 0.63297683000564575 0.21473237872123718
0.73885077238082886 0.67298722267150879 0.17281180620193481
0.8273613452911377 0.69107812643051147 0.17520257830619812
0.89400124549865723 0.69667577743530273 0.2053990364074707
0.95579886436462402 0.70087003707885742 0.24261347949504852
0.9918208122253418 0.70770174264907837 0.28605061769485474
0.2493550032377243 0.59129118919372559 0.32198828458786011
0.27008596062660217 0.59529250860214233 0.32558172941207886
0.31078320741653442 0.597709059715271 0.33137673139572144
0.36174792051315308 0.60462981462478638 0.33960127830505371
0.40544781088829041 0.61992323398590088 0.34205999970436096
0.46157804131507874 0.63896405696868896 0.33547961711883545
0.54127967357635498 0.66281461715698242 0.3186761736869812
0.62467736005783081 0.68959403038024902 0.29654103517532349
0.71855247020721436 0.72091799974441528 0.27031254768371582
0.82221901416778564 0.74610984325408936 0.24772942066192627
0.90486025810241699 0.75985902547836304 0.25469806790351868
0.96339285373687744 0.7604796290397644 0.29563269019126892
0.99354857206344604 0.76280611753463745 0.34082773327827454
0.31124052405357361 0.68311911821365356 0.37811028957366943
0.33807528018951416 0.68400198221206665 0.38362473249435425
0.36581754684448242 0.68610620498657227 0.38679990172386169
0.41696298122406006 0.692138671875 0.39804881811141968
0.46454897522926331 0.70055603981018066 0.40510439872741699
0.51288145780563354 0.71082240343093872 0.40657678246498108
0.57198977470397949 0.72877216339111328 0.40173318982124329
0.64030569791793823 0.74898284673690796 0.38825297355651855
0.71895450353622437 0.76707088947296143 0.37301856279373169
0.80891209840774536 0.78566527366638184 0.35765242576599121
0.89963823556900024 0.80179721117019653 0.34816783666610718
0.9733349084854126 0.81140440702438354 0.36109697818756104
0.99553781747817993 0.81196296215057373 0.40342968702316284
0.42315703630447388 0.76096814870834351 0.44945713877677917
0.44109025597572327 0.76117235422134399 0.4532482922077179
0.47145411372184753 0.76038795709609985 0.46021747589111328
0.50283384323120117 0.76372474431991577 0.46802043914794922
0.54218465089797974 0.7682192325592041 0.47541052103042603
0.58851903676986694 0.77358770370483398 0.48032969236373901
0.63617211580276489 0.78503859043121338 0.48256167769432068
0.6850745677947998 0.80026429891586304 0.47938662767410278
0.74676269292831421 0.81263303756713867 0.47432741522789001
0.81368929147720337 0.82400226593017578 0.46604698896408081
0.8914487361907959 0.8355487585067749 0.45989763736724854
0.9659191370010376 0.84826046228408813 0.45623654127120972
0.99753230810165405 0.85324323177337646 0.46857669949531555
0.57991772890090942 0.82028722763061523 0.52386069297790527
0.59313666820526123 0.82131326198577881 0.52873295545578003
0.6106908917427063 0.82267504930496216 0.5352550745010376
0.63286024332046509 0.82285338640213013 0.53828215599060059
0.66026026010513306 0.82354879379272461 0.54286181926727295
0.69459241628646851 0.82799041271209717 0.55075359344482422
0.72717612981796265 0.83534961938858032 0.55900108814239502
0.75994038581848145 0.84410440921783447 0.56333041191101074
0.80457156896591187 0.85216784477233887 0.56178742647171021
0.85535508394241333 0.86076861619949341 0.55825746059417725
0.91156131029129028 0.86937272548675537 0.55478012561798096
0.96541005373001099 0.87888157367706299 0.54393297433853149
0.99345165491104126 0.88457769155502319 0.53948885202407837
0.73924398422241211 0.87297815084457397 0.59681600332260132
0.7479521632194519 0.87456446886062622 0.60036742687225342
0.75914442539215088 0.87525135278701782 0.60261166095733643
0.77443844079971313 0.8741118311882019 0.60315501689910889
0.79635173082351685 0.87424033880233765 0.60746312141418457
0.8242725133895874 0.8771289587020874 0.61441189050674438
0.84739893674850464 0.88047283887863159 0.61876207590103149
0.86613380908966064 0.88503646850585938 0.62026304006576538
0.89356005191802979 0.89145964384078979 0.61997377872467041
0.9192509651184082 0.89593201875686646 0.6176648736000061
0.95864129066467285 0.90284806489944458 0.61502021551132202
0.97763276100158691 0.90720874071121216 0.61007982492446899
0.99193227291107178 0.91251921653747559 0.61105537414550781
0.27212008833885193 0.14954198896884918 0.1743931770324707
0.27931967377662659 0.15156292915344238 0.17541663348674774
0.29020032286643982 0.15185733139514923 0.17554618418216705
0.30996063351631165 0.14908066391944885 0.17441259324550629
0.34817415475845337 0.14813297986984253 0.17635801434516907
0.40207117795944214 0.1476462185382843 0.17924806475639343
0.48247614502906799 0.14742890000343323 0.1836806982755661
0.58629655838012695 0.14650018513202667 0.19330878555774689
0.68840324878692627 0.16348934173583984 0.20161435008049011
0.78296589851379395 0.20690707862377167 0.20591127872467041
0.86744582653045654 0.27304276823997498 0.21116796135902405
0.94638174772262573 0.34128567576408386 0.21525436639785767
0.99349409341812134 0.40678524971008301 0.22952310740947723
0.27111953496932983 0.1524847149848938 0.17288847267627716
0.27847346663475037 0.1573282927274704 0.17574174702167511
0.29008939862251282 0.16089403629302979 0.17813694477081299
0.31682929396629333 0.16246764361858368 0.17805086076259613
0.35452353954315186 0.16354356706142426 0.17936258018016815
0.41149312257766724 0.16233527660369873 0.18279902637004852
0.49244856834411621 0.16656070947647095 0.18815082311630249
0.59432470798492432 0.17777362465858459 0.19449426233768463
0.69281291961669922 0.19821090996265411 0.20321691036224365
0.78389984369277954 0.24242651462554932 0.20569279789924622
0.86855721473693848 0.30337470769882202 0.2102363258600235
0.94597983360290527 0.36566862463951111 0.21789276599884033
0.99240380525588989 0.42780047655105591 0.2351994663476944
0.27076560258865356 0.17044749855995178 0.17978528141975403
0.27693051099777222 0.17189052700996399 0.18087016046047211
0.29011803865432739 0.17489847540855408 0.18125420808792114
0.32250604033470154 0.18298426270484924 0.18497836589813232
0.36011180281639099 0.18951758742332458 0.18704451620578766
0.42025399208068848 0.19478775560855865 0.18664348125457764
0.50572150945663452 0.20644964277744293 0.19139346480369568
0.60303598642349243 0.22616234421730042 0.19876797497272491
0.69644260406494141 0.25701010227203369 0.20267607271671295
0.78572893142700195 0.29356151819229126 0.20267704129219055
0.86978566646575928 0.34212842583656311 0.20638264715671539
0.94436681270599365 0.40116691589355469 0.21843560039997101
0.99143004417419434 0.460784912109375 0.23978805541992188
0.27198553085327148 0.20949842035770416 0.20076359808444977
0.2786954939365387 0.20816655457019806 0.19811999797821045
0.29222002625465393 0.20949600636959076 0.19542910158634186
0.32112768292427063 0.2228793203830719 0.19490709900856018
0.3632434606552124 0.23525579273700714 0.19405043125152588
0.43334883451461792 0.24534064531326294 0.190882608294487
0.51736295223236084 0.26135668158531189 0.19100980460643768
0.60984110832214355 0.28822031617164612 0.19590876996517181
0.70283299684524536 0.32248225808143616 0.19805900752544403
0.79009217023849487 0.35645034909248352 0.19936391711235046
0.86998355388641357 0.39583393931388855 0.20667466521263123
0.94010370969772339 0.44755986332893372 0.22314797341823578
0.98966330289840698 0.50256574153900146 0.24742516875267029
0.27168369293212891 0.26291784644126892 0.22082483768463135
0.28233712911605835 0.26088348031044006 0.22066673636436462
0.2970409095287323 0.25814962387084961 0.21704067289829254
0.32063376903533936 0.27338299155235291 0.20967313647270203
0.36560651659965515 0.29435908794403076 0.20144182443618774
0.44797903299331665 0.32325834035873413 0.19513179361820221
0.53697460889816284 0.35237565636634827 0.18582932651042938
0.62505733966827393 0.37274044752120972 0.18772296607494354
0.71273249387741089 0.39457985758781433 0.19030481576919556
0.79650282859802246 0.42600300908088684 0.19492468237876892
0.87118136882781982 0.46403408050537109 0.21000026166439056
0.94095814228057861 0.50489276647567749 0.2275630384683609
0.99126249551773071 0.54839491844177246 0.25374200940132141
0.26823011040687561 0.32511386275291443 0.23728397488594055
0.28092429041862488 0.33000022172927856 0.24202969670295715
0.29932078719139099 0.33569756150245667 0.24407973885536194
0.32751816511154175 0.35092520713806152 0.23835361003875732
0.36666586995124817 0.37222599983215332 0.22859138250350952
0.4507938027381897 0.41111671924591064 0.2113509476184845
0.55642080307006836 0.45582813024520874 0.18245308101177216
0.64767378568649292 0.47840037941932678 0.17561937868595123
0.72831267118453979 0.48994943499565125 0.18140359222888947
0.80435192584991455 0.50800544023513794 0.19419634342193604
0.876129150390625 0.53633350133895874 0.21282397210597992
0.94340735673904419 0.56641417741775513 0.23052865266799927
0.98649680614471436 0.59611088037490845 0.26166811585426331
0.26001808047294617 0.40541565418243408 0.26208454370498657
0.27502244710922241 0.41622930765151978 0.27005505561828613
0.29928088188171387 0.42512631416320801 0.27346688508987427
0.33218854665756226 0.43651887774467468 0.27188998460769653
0.36929851770401001 0.45369523763656616 0.26475763320922852
0.43586316704750061 0.48749849200248718 0.24548248946666718
0.5398552417755127 0.53162544965744019 0.21554769575595856
0.65439999103546143 0.5747683048248291 0.18186864256858826
0.74325048923492432 0.59560137987136841 0.17599360644817352
0.81472218036651611 0.60435843467712402 0.19459857046604156
0.88314342498779297 0.6191028356552124 0.21620146930217743
0.94727760553359985 0.63086676597595215 0.24393488466739655
0.98163938522338867 0.64633166790008545 0.27972871065139771
0.24738343060016632 0.50099068880081177 0.29670035839080811
0.26666045188903809 0.50657206773757935 0.3006252646446228
0.29568749666213989 0.51193904876708984 0.30219432711601257
0.33557680249214172 0.52107316255569458 0.30498087406158447
0.37703737616539001 0.53703242540359497 0.30584776401519775
0.44296267628669739 0.56269669532775879 0.29642385244369507
0.5314214825630188 0.59628891944885254 0.27622368931770325
0.63804900646209717 0.63927853107452393 0.24201259016990662
0.74300962686538696 0.67581009864807129 0.20882359147071838
0.82680433988571167 0.69233405590057373 0.20899540185928345
0.89175355434417725 0.69606107473373413 0.24044415354728699
0.9552619457244873 0.69964146614074707 0.27545413374900818
0.99265545606613159 0.70706754922866821 0.31321722269058228
0.25918775796890259 0.5961194634437561 0.33482450246810913
0.28124845027923584 0.59742593765258789 0.33735105395317078
0.3126826286315918 0.60115009546279907 0.34175863862037659
0.36278757452964783 0.60858184099197388 0.35117480158805847
0.41319796442985535 0.62293404340744019 0.3572813868522644
0.47106921672821045 0.63970327377319336 0.35540944337844849
0.54307234287261963 0.66374748945236206 0.34050947427749634
0.62688082456588745 0.69365006685256958 0.32125675678253174
0.72724729776382446 0.72486245632171631 0.29768851399421692
0.82666224241256714 0.74989962577819824 0.27612000703811646
0.90335375070571899 0.75962352752685547 0.28893619775772095
0.96483927965164185 0.75937402248382568 0.3231099545955658
0.99472337961196899 0.75946718454360962 0.36158266663551331
0.317818284034729 0.6867561936378479 0.38834682106971741
0.34158951044082642 0.68722844123840332 0.3920634388923645
0.3715507984161377 0.68927615880966187 0.39748218655586243
0.41762936115264893 0.69431626796722412 0.40935227274894714
0.46757245063781738 0.70194524526596069 0.41665935516357422
0.51940059661865234 0.71403509378433228 0.41700693964958191
0.57103365659713745 0.7305719256401062 0.41146060824394226
0.64089137315750122 0.74924653768539429 0.40412500500679016
0.72357982397079468 0.76962143182754517 0.39362633228302002
0.814281165599823 0.78875195980072021 0.38060876727104187
0.90316259860992432 0.80220073461532593 0.37506747245788574
0.97049957513809204 0.80906593799591064 0.38864544034004211
0.99490523338317871 0.8077232837677002 0.42220351099967957
0.43135973811149597 0.76390564441680908 0.459238201379776
0.45134273171424866 0.76283442974090576 0.46414130926132202
0.47251856327056885 0.76338678598403931 0.46981865167617798
0.50559550523757935 0.76584196090698242 0.47625896334648132
0.54830878973007202 0.7677958607673645 0.48549482226371765
0.59454739093780518 0.77508735656738281 0.48997005820274353
0.64135384559631348 0.78342270851135254 0.48797672986984253
0.68901675939559937 0.79707551002502441 0.48776701092720032
0.75197792053222656 0.81371253728866577 0.48646947741508484
0.81857156753540039 0.82481658458709717 0.48165148496627808
0.89830762147903442 0.83605468273162842 0.4761296808719635
0.9630502462387085 0.84712082147598267 0.47110602259635925
0.9967271089553833 0.85143065452575684 0.47577777504920959
0.58376979827880859 0.82137513160705566 0.53080064058303833
0.59446793794631958 0.82342934608459473 0.53688979148864746
0.60458904504776001 0.82551532983779907 0.54329240322113037
0.63292747735977173 0.8244900107383728 0.54534554481506348
0.66835659742355347 0.82467520236968994 0.55107378959655762
0.70233726501464844 0.82774233818054199 0.55775302648544312
0.73872256278991699 0.8332098126411438 0.5597955584526062
0.76508718729019165 0.84185922145843506 0.56543415784835815
0.80989700555801392 0.85165864229202271 0.56532472372055054
0.86284834146499634 0.86082929372787476 0.56337589025497437
0.90763664245605469 0.86840862035751343 0.56118893623352051
0.95677047967910767 0.87637770175933838 0.54924219846725464
0.99332517385482788 0.88179749250411987 0.54085606336593628
0.74127721786499023 0.87409716844558716 0.60020524263381958
0.74774271249771118 0.87472325563430786 0.60169881582260132
0.75794929265975952 0.87542545795440674 0.60463494062423706
0.77440840005874634 0.87535637617111206 0.60673385858535767
0.79926055669784546 0.87496674060821533 0.61068499088287354
0.82360196113586426 0.87551659345626831 0.61489748954772949
0.85184013843536377 0.87948083877563477 0.61881262063980103
0.86871325969696045 0.88387316465377808 0.62043392658233643
0.89392423629760742 0.88952314853668213 0.61976838111877441
0.92563533782958984 0.89574199914932251 0.61783403158187866
0.95426046848297119 0.90160143375396729 0.61732679605484009
0.97550809383392334 0.90499973297119141 0.61134892702102661
0.99271261692047119 0.90866357088088989 0.6084665060043335
0.2727721631526947 0.14555133879184723 0.19048742949962616
0.28045523166656494 0.14742468297481537 0.19068080186843872
0.28844356536865234 0.14837996661663055 0.18770277500152588
0.30773401260375977 0.14892120659351349 0.18618685007095337
0.35357639193534851 0.14900791645050049 0.19365374743938446
0.41022980213165283 0.14530457556247711 0.20113521814346313
0.49420580267906189 0.13304254412651062 0.20486205816268921
0.59941375255584717 0.1274092048406601 0.21773701906204224
0.69794255495071411 0.14762686192989349 0.23312944173812866
0.78956979513168335 0.19678214192390442 0.24268977344036102
0.87293821573257446 0.2645907998085022 0.25320550799369812
0.94775098562240601 0.33468759059906006 0.26420855522155762
0.98964357376098633 0.40594151616096497 0.2830258309841156
0.27154427766799927 0.15144844353199005 0.19080109894275665
0.2793218195438385 0.15695665776729584 0.19609323143959045
0.29015186429023743 0.1617000550031662 0.1982828676700592
0.31530234217643738 0.1643601655960083 0.19909724593162537
0.35663017630577087 0.16477808356285095 0.20371389389038086
0.41986510157585144 0.15921947360038757 0.20666980743408203
0.50167375802993774 0.15878391265869141 0.21106553077697754
0.60623818635940552 0.16206666827201843 0.22447308897972107
0.70123142004013062 0.18728002905845642 0.23811574280261993
0.78843671083450317 0.2343037873506546 0.24363325536251068
0.87124550342559814 0.29739111661911011 0.25246623158454895
0.94743788242340088 0.36075934767723083 0.26319196820259094
0.9910692572593689 0.42691779136657715 0.28222697973251343
0.27120879292488098 0.17212285101413727 0.2008727639913559
0.27767211198806763 0.17451456189155579 0.20736747980117798
0.2912919819355011 0.17881748080253601 0.21025151014328003
0.32310375571250916 0.18785372376441956 0.21278476715087891
0.36440163850784302 0.19700416922569275 0.21573980152606964
0.42927074432373047 0.20034438371658325 0.21579122543334961
0.51447165012359619 0.20597852766513824 0.21916557848453522
0.61451679468154907 0.21860221028327942 0.23096786439418793
0.70563137531280518 0.24873115122318268 0.23937229812145233
0.79209661483764648 0.28693291544914246 0.24147683382034302
0.87377101182937622 0.34046462178230286 0.24893248081207275
0.9442676305770874 0.4009740948677063 0.2642248272895813
0.99045276641845703 0.4621090292930603 0.28528502583503723
0.27267923951148987 0.20952571928501129 0.21814194321632385
0.28035417199134827 0.21101687848567963 0.22135651111602783
0.29531887173652649 0.21584145724773407 0.22694048285484314
0.32755479216575623 0.22917917370796204 0.22722418606281281
0.3746025562286377 0.24183893203735352 0.2255404144525528
0.44186767935752869 0.24935877323150635 0.2225252091884613
0.52686840295791626 0.260213702917099 0.22514612972736359
0.62178879976272583 0.2856040894985199 0.23221316933631897
0.71408581733703613 0.31659042835235596 0.23629608750343323
0.79881292581558228 0.35217523574829102 0.24047823250293732
0.87373059988021851 0.39508911967277527 0.25212258100509644
0.93827450275421143 0.44756022095680237 0.27155283093452454
0.98845720291137695 0.50545257329940796 0.29406869411468506
0.27291971445083618 0.26450872421264648 0.23860600590705872
0.28500264883041382 0.26632773876190186 0.24323557317256927
0.30103456974029541 0.26796364784240723 0.2470613420009613
0.32947912812232971 0.2830079197883606 0.24428766965866089
0.37953338027000427 0.30359280109405518 0.23576168715953827
0.45696911215782166 0.32896143198013306 0.22641977667808533
0.54271167516708374 0.35036444664001465 0.22616985440254211
0.6323777437210083 0.36897474527359009 0.2290220707654953
0.72185873985290527 0.39128595590591431 0.23115512728691101
