luts/instant_pro/fuji_fp-100c_alt.cube
# Created by: G'MIC (https://gmic.eu)
TITLE "fuji_fp-100c_alt"
# LUT size
LUT_3D_SIZE 7
# Data domain
DOMAIN_MIN 0.0 0.0 0.0
DOMAIN_MAX 1.0 1.0 1.0
# LUT data points
0.030877744778990746 0.0095699978992342949 0.019319571554660797
0.079546891152858734 0.0078406240791082382 0.0081558674573898315
0.16841980814933777 0.0048588919453322887 0.0036293030716478825
0.28548848628997803 0.007298189215362072 0.0014298532623797655
0.46916055679321289 0.001973574748262763 0
0.66086667776107788 7.0399866672232747e-05 4.6673944780195598e-06
0.80529636144638062 0.0014441695529967546 0.00071838975418359041
0.09276263415813446 0.11767054349184036 0.049855682998895645
0.12462218105792999 0.1117890477180481 0.037931866943836212
0.21386967599391937 0.095595613121986389 0.024085698649287224
0.34596714377403259 0.074266992509365082 0.0063307816162705421
0.52521699666976929 0.034887410700321198 0.00046959670726209879
0.69552791118621826 0.0029468759894371033 7.7789906072212034e-07
0.82210797071456909 0 0.0026026556733995676
0.13555908203125 0.2781185507774353 0.098384484648704529
0.1752011626958847 0.27032914757728577 0.0915650874376297
0.27564951777458191 0.25104823708534241 0.072322234511375427
0.42228230834007263 0.22701053321361542 0.03924247995018959
0.59204161167144775 0.18058986961841583 0.0093293730169534683
0.74335116147994995 0.11931734532117844 0.0001092648963094689
0.85760289430618286 0.059912931174039841 0
0.18204078078269958 0.49145108461380005 0.1392858624458313
0.24684695899486542 0.48724785447120667 0.13070970773696899
0.36683258414268494 0.46433228254318237 0.10981336236000061
0.51603788137435913 0.44791609048843384 0.081271931529045105
0.66916882991790771 0.41660246253013611 0.050574388355016708
0.80393308401107788 0.36920759081840515 0.029965240508317947
0.90790212154388428 0.31170699000358582 0.014093211852014065
0.34203791618347168 0.66835975646972656 0.12686373293399811
0.39883038401603699 0.67383724451065063 0.11838452517986298
0.50343179702758789 0.65725558996200562 0.10233177989721298
0.62985920906066895 0.64869004487991333 0.088938675820827484
0.75469541549682617 0.63378643989562988 0.075217470526695251
0.86564350128173828 0.6116148829460144 0.063558600842952728
0.95420056581497192 0.575420081615448 0.052074987441301346
0.57682567834854126 0.78094428777694702 0.066438563168048859
0.61123943328857422 0.78467810153961182 0.067142874002456665
0.67377960681915283 0.77769899368286133 0.062120623886585236
0.75711101293563843 0.77146732807159424 0.054428581148386002
0.84542250633239746 0.76418972015380859 0.049641028046607971
0.92776435613632202 0.75093626976013184 0.04737376794219017
0.98757219314575195 0.73106861114501953 0.044459085911512375
0.81162232160568237 0.85943984985351562 0.011457988992333412
0.82393848896026611 0.85956770181655884 0.019455300644040108
0.85072231292724609 0.85575312376022339 0.016850624233484268
0.89200848340988159 0.85125243663787842 0.0089425630867481232
0.94252830743789673 0.84920758008956909 0.0076838922686874866
0.98914319276809692 0.84445130825042725 0.0062670391052961349
1 0.83375388383865356 0.0074084713123738766
0.031223505735397339 0.017402319237589836 0.10123180598020554
0.079194255173206329 0.013668149709701538 0.084942713379859924
0.17145626246929169 0.0072009516879916191 0.06699911504983902
0.29911375045776367 0.0045908610336482525 0.038633428514003754
0.47468194365501404 0.0018639956833794713 0.008690299466252327
0.65889328718185425 0.000452542764833197 3.7398993299575523e-05
0.79873991012573242 0.0072809257544577122 0
0.098618842661380768 0.13067324459552765 0.13307228684425354
0.12913265824317932 0.12100192904472351 0.11757282912731171
0.21933712065219879 0.10166696459054947 0.099188484251499176
0.35560879111289978 0.075451873242855072 0.070963241159915924
0.52726751565933228 0.042190343141555786 0.037134822458028793
0.69190478324890137 0.0093516632914543152 0.0074234609492123127
0.81457400321960449 0 0.00012102314212825149
0.12293503433465958 0.28442633152008057 0.17296980321407318
0.17362362146377563 0.27994561195373535 0.16495610773563385
0.27819967269897461 0.2633126974105835 0.14793428778648376
0.42577391862869263 0.23496103286743164 0.1146106943488121
0.59239715337753296 0.19047755002975464 0.073608279228210449
0.74213957786560059 0.1310083270072937 0.039761785417795181
0.85659420490264893 0.077388301491737366 0.018218411132693291
0.1797986626625061 0.48845687508583069 0.21399872004985809
0.24723304808139801 0.49001497030258179 0.20469951629638672
0.36600905656814575 0.47588250041007996 0.18745514750480652
0.51400607824325562 0.45548778772354126 0.15811257064342499
0.66719585657119751 0.42499837279319763 0.1251152902841568
0.80280870199203491 0.38454946875572205 0.10036461055278778
0.90830475091934204 0.33178707957267761 0.076403781771659851
0.34554016590118408 0.67373454570770264 0.21319174766540527
0.40171507000923157 0.67851096391677856 0.1997053474187851
0.50164520740509033 0.66618812084197998 0.18504510819911957
0.62467694282531738 0.65356713533401489 0.16469255089759827
0.74693113565444946 0.63876867294311523 0.1480242908000946
0.85867822170257568 0.62015402317047119 0.1396392285823822
0.95286345481872559 0.58891969919204712 0.1295723170042038
0.57979869842529297 0.79080188274383545 0.13533869385719299
0.61255306005477905 0.79311323165893555 0.13310259580612183
0.67004615068435669 0.7859613299369812 0.13230593502521515
0.74989038705825806 0.77886062860488892 0.12097763270139694
0.83217895030975342 0.77031737565994263 0.10914818197488785
0.91255801916122437 0.75927436351776123 0.107332743704319
0.98744899034500122 0.74706518650054932 0.11691717803478241
0.8109130859375 0.86414915323257446 0.0073824115097522736
0.81968158483505249 0.86329764127731323 0.016581038013100624
0.84560811519622803 0.86036533117294312 0.011748070828616619
0.88545697927474976 0.85676145553588867 0.0089570889249444008
0.93199312686920166 0.85308408737182617 0.019527973607182503
0.9805607795715332 0.84980553388595581 0.021759318187832832
1 0.84313905239105225 0.019156122580170631
0.019703390076756477 0.035734709352254868 0.21395787596702576
0.070466555655002594 0.030152009800076485 0.20330023765563965
0.16933545470237732 0.014599863439798355 0.18514369428157806
0.30925163626670837 0.0026782017666846514 0.1521001011133194
0.4823092520236969 0 0.10627246648073196
0.65928483009338379 0 0.059053249657154083
0.79608112573623657 0.00034402584424242377 0.037310700863599777
0.09029698371887207 0.14888276159763336 0.24693284928798676
0.125539630651474 0.14016824960708618 0.24042721092700958
0.2212684154510498 0.11669791489839554 0.22785358130931854
0.36261031031608582 0.08390190452337265 0.19987320899963379
0.52967619895935059 0.052007474005222321 0.1534123569726944
0.68815439939498901 0.02089221403002739 0.099913790822029114
0.81030690670013428 0.0019669774919748306 0.066197700798511505
0.12119098752737045 0.29961475729942322 0.29671308398246765
0.1737775057554245 0.29537612199783325 0.29209575057029724
0.28015902638435364 0.2826477587223053 0.28398743271827698
0.42776027321815491 0.25241774320602417 0.25776898860931396
0.58992910385131836 0.21143479645252228 0.2169463187456131
0.73595523834228516 0.1577397882938385 0.17279247939586639
0.84928381443023682 0.1071229949593544 0.14154015481472015
0.17875920236110687 0.50305527448654175 0.35456439852714539
0.24344606697559357 0.50643646717071533 0.34792587161064148
0.3615567684173584 0.4986080527305603 0.33882308006286621
0.50930333137512207 0.4753570556640625 0.31477493047714233
0.66043776273727417 0.44533500075340271 0.28510928153991699
0.79360854625701904 0.40754398703575134 0.25869935750961304
0.89692819118499756 0.3581581711769104 0.23571214079856873
0.33728450536727905 0.69236695766448975 0.38270977139472961
0.39360430836677551 0.69766569137573242 0.37225803732872009
0.49210917949676514 0.68811303377151489 0.36423921585083008
0.61356359720230103 0.67320621013641357 0.34571743011474609
0.73449289798736572 0.65663683414459229 0.3267589807510376
0.84341049194335938 0.63831633329391479 0.31648284196853638
0.93561732769012451 0.60721200704574585 0.3104337751865387
0.56951040029525757 0.80935609340667725 0.35063499212265015
0.60079944133758545 0.81058335304260254 0.34573227167129517
0.65776151418685913 0.80626744031906128 0.34702613949775696
0.73397946357727051 0.80023229122161865 0.33695414662361145
0.81359320878982544 0.78991639614105225 0.32682517170906067
0.89007413387298584 0.78048437833786011 0.33233124017715454
0.96534496545791626 0.76652097702026367 0.34072354435920715
0.79217702150344849 0.88280278444290161 0.17572441697120667
0.80351394414901733 0.88206207752227783 0.18020229041576385
0.82743501663208008 0.87968438863754272 0.18623238801956177
0.86502182483673096 0.87713980674743652 0.1851869523525238
0.91179472208023071 0.87318027019500732 0.19670742750167847
0.96304798126220703 0.86963158845901489 0.20001386106014252
0.99770337343215942 0.86262780427932739 0.23523718118667603
0.011731570586562157 0.053477149456739426 0.36047819256782532
0.069884836673736572 0.046406764537096024 0.35729816555976868
0.16796322166919708 0.026232730597257614 0.34252822399139404
0.31024894118309021 0.007162430789321661 0.30998894572257996
0.48132261633872986 0.00059527228586375713 0.26320666074752808
0.64936470985412598 0 0.21928508579730988
0.78629553318023682 0 0.19835929572582245
0.088882267475128174 0.1699356883764267 0.40603208541870117
0.13045687973499298 0.15688562393188477 0.40261724591255188
0.22014002501964569 0.13368575274944305 0.39356550574302673
0.36235135793685913 0.10077689588069916 0.36606287956237793
0.52720564603805542 0.067834027111530304 0.3211270272731781
0.68049585819244385 0.031896404922008514 0.27469685673713684
0.80265575647354126 0.0025349934585392475 0.24765221774578094
0.090903401374816895 0.32069131731987 0.47341135144233704
0.15730325877666473 0.31422102451324463 0.46849563717842102
0.27230343222618103 0.30351686477661133 0.45961269736289978
0.42509269714355469 0.27187293767929077 0.43573775887489319
0.58595937490463257 0.23423227667808533 0.39883476495742798
0.72681891918182373 0.18315152823925018 0.36022323369979858
0.83649587631225586 0.12589187920093536 0.3304099440574646
0.1300235241651535 0.53807365894317627 0.54713594913482666
0.21257548034191132 0.53697127103805542 0.5395057201385498
0.34631821513175964 0.5289158821105957 0.52997928857803345
0.50197672843933105 0.50110304355621338 0.50596457719802856
0.65379470586776733 0.47248551249504089 0.47975680232048035
0.78305381536483765 0.43632394075393677 0.45595449209213257
0.88159549236297607 0.38132089376449585 0.42878708243370056
0.30520349740982056 0.72521466016769409 0.59103739261627197
0.36842894554138184 0.72732508182525635 0.58469396829605103
0.47422945499420166 0.7187238335609436 0.57459992170333862
0.60028469562530518 0.70208549499511719 0.55620968341827393
0.72172421216964722 0.68533468246459961 0.53936731815338135
0.82745057344436646 0.66634386777877808 0.52585989236831665
0.91651612520217896 0.63670289516448975 0.517658531665802
0.5485844612121582 0.83830362558364868 0.5895920991897583
0.57906264066696167 0.8379131555557251 0.58747076988220215
0.63677871227264404 0.83099514245986938 0.57749670743942261
0.71202683448791504 0.82694512605667114 0.57098639011383057
0.79134738445281982 0.81835854053497314 0.5702826976776123
0.86960750818252563 0.80912625789642334 0.56339001655578613
0.94548588991165161 0.79592180252075195 0.56834715604782104
0.7628326416015625 0.91289037466049194 0.49665734171867371
0.77585142850875854 0.91307914257049561 0.4825839102268219
0.79703646898269653 0.9113878607749939 0.48645013570785522
0.83247214555740356 0.90806376934051514 0.48630523681640625
0.87784916162490845 0.90419191122055054 0.50793910026550293
0.93507176637649536 0.89990973472595215 0.50653403997421265
0.98977410793304443 0.89336222410202026 0.52362930774688721
0.016809292137622833 0.068276681005954742 0.5318189263343811
0.06835608184337616 0.066906720399856567 0.5289989709854126
0.16465349495410919 0.041693892329931259 0.51005864143371582
0.30761316418647766 0.016586273908615112 0.47549962997436523
0.48027786612510681 0.0043638939969241619 0.42920789122581482
0.6438104510307312 0.00012619915651157498 0.39299622178077698
0.77960652112960815 0 0.37581726908683777
0.073416523635387421 0.18831270933151245 0.58863204717636108
0.11368100345134735 0.17745499312877655 0.58168166875839233
0.21381333470344543 0.15312223136425018 0.56263631582260132
0.36136487126350403 0.11929748952388763 0.53008842468261719
0.5264664888381958 0.083841122686862946 0.48698034882545471
0.67520201206207275 0.043223600834608078 0.4493865966796875
0.79510557651519775 0.0039792829193174839 0.42557176947593689
0.07194788008928299 0.34087064862251282 0.65499913692474365
0.13732454180717468 0.33430144190788269 0.64657706022262573
0.26651060581207275 0.32196763157844543 0.625873863697052
0.42546692490577698 0.29069933295249939 0.5972018837928772
0.58451640605926514 0.25282087922096252 0.56145584583282471
0.71980184316635132 0.1983473002910614 0.52687942981719971
0.82614505290985107 0.1302553117275238 0.49627840518951416
0.12664557993412018 0.56152188777923584 0.7214999794960022
0.21130380034446716 0.55667316913604736 0.71175932884216309
0.34572815895080566 0.54333412647247314 0.69322556257247925
0.50165098905563354 0.51846420764923096 0.66790372133255005
0.64910900592803955 0.49136590957641602 0.64191544055938721
0.77245461940765381 0.45245620608329773 0.61634474992752075
0.86966729164123535 0.39299973845481873 0.58699661493301392
0.31082722544670105 0.75289338827133179 0.7656446099281311
0.36837255954742432 0.74885576963424683 0.76008039712905884
0.47071754932403564 0.7351188063621521 0.74445438385009766
0.5943717360496521 0.72051233053207397 0.72564470767974854
0.71220856904983521 0.7058369517326355 0.70895266532897949
0.81449806690216064 0.68763726949691772 0.69159632921218872
0.90246719121932983 0.65575623512268066 0.67483139038085938
0.53601938486099243 0.86574810743331909 0.78040945529937744
0.56628161668777466 0.86360430717468262 0.78112775087356567
0.62218236923217773 0.85439777374267578 0.76835286617279053
0.69644522666931152 0.84703266620635986 0.75635641813278198
0.77368628978729248 0.83939886093139648 0.75227564573287964
0.84995043277740479 0.82866078615188599 0.73558765649795532
0.92570865154266357 0.81578469276428223 0.72540003061294556
0.73799854516983032 0.94532930850982666 0.73893100023269653
0.74897867441177368 0.94473439455032349 0.73696523904800415
0.77024996280670166 0.94197744131088257 0.73190420866012573
0.80692207813262939 0.93574059009552002 0.71845567226409912
0.8517342209815979 0.9308546781539917 0.72694885730743408
0.90812712907791138 0.92497777938842773 0.72118920087814331
0.97076696157455444 0.91915029287338257 0.73221409320831299
0.020597673952579498 0.088043540716171265 0.67822861671447754
0.076479874551296234 0.083536632359027863 0.67179131507873535
0.17548070847988129 0.060964368283748627 0.64982515573501587
0.32181763648986816 0.033433981239795685 0.61195069551467896
0.49400964379310608 0.012176782824099064 0.56314945220947266
0.64925837516784668 0.0012560227187350392 0.52540415525436401
0.77656650543212891 0 0.50265181064605713
0.088619917631149292 0.19945670664310455 0.72543716430664062
0.12801608443260193 0.19250409305095673 0.71774137020111084
0.22798554599285126 0.17113696038722992 0.69521760940551758
0.37671342492103577 0.1360311359167099 0.65781861543655396
0.53851819038391113 0.095444634556770325 0.61261248588562012
0.67920815944671631 0.053489357233047485 0.57392436265945435
0.79316729307174683 0.014387153089046478 0.54407286643981934
0.090543337166309357 0.35305008292198181 0.77926647663116455
0.16663774847984314 0.34872999787330627 0.76929658651351929
0.28917434811592102 0.3326403796672821 0.74601989984512329
0.44279491901397705 0.30296191573143005 0.71300095319747925
0.59430253505706787 0.26568716764450073 0.67650008201599121
0.72103774547576904 0.21352021396160126 0.64120590686798096
0.82262223958969116 0.14274978637695312 0.60474556684494019
0.15738777816295624 0.57193303108215332 0.83858197927474976
0.23959676921367645 0.56845760345458984 0.82747513055801392
0.37160402536392212 0.54953527450561523 0.80432659387588501
0.51799505949020386 0.52745705842971802 0.77724814414978027
0.65538114309310913 0.50442731380462646 0.75120300054550171
0.77045100927352905 0.46630126237869263 0.72369027137756348
0.86401450634002686 0.40055862069129944 0.69091081619262695
0.34449881315231323 0.76285058259963989 0.87765622138977051
0.39639103412628174 0.76121807098388672 0.87063443660736084
0.4909520149230957 0.74424362182617188 0.85154664516448975
0.60414236783981323 0.72918510437011719 0.83266204595565796
0.71276652812957764 0.7184033989906311 0.81689012050628662
0.80966466665267944 0.70371836423873901 0.79840713739395142
0.89542025327682495 0.66871565580368042 0.7775382399559021
0.54652732610702515 0.87868988513946533 0.89589673280715942
0.57588571310043335 0.87468945980072021 0.8891911506652832
0.62806183099746704 0.86809098720550537 0.87815767526626587
0.69645428657531738 0.86009079217910767 0.86728024482727051
0.76764863729476929 0.85198652744293213 0.85899311304092407
0.84128069877624512 0.84382480382919312 0.84333014488220215
0.9162447452545166 0.82732760906219482 0.8301393985748291
0.72949302196502686 0.96310102939605713 0.88103365898132324
0.74173820018768311 0.96064460277557373 0.87828463315963745
0.76341968774795532 0.95989429950714111 0.87278920412063599
0.79674142599105835 0.95529341697692871 0.86387097835540771
0.83896666765213013 0.94833683967590332 0.8594897985458374
0.89283698797225952 0.94424688816070557 0.85472935438156128
0.95657360553741455 0.93999886512756348 0.8538166880607605
0.028109770268201828 0.091262295842170715 0.78102129697799683
0.098592884838581085 0.086800716817378998 0.77136552333831787
0.2086644172668457 0.073424383997917175 0.74888068437576294
0.35730507969856262 0.048037942498922348 0.71001625061035156
0.52181696891784668 0.020187662914395332 0.66220581531524658
0.66277062892913818 0.00050359987653791904 0.62153416872024536
0.77746498584747314 0 0.5952649712562561
0.09399116039276123 0.20258635282516479 0.8181195855140686
0.15436321496963501 0.194846510887146 0.80774486064910889
0.26419156789779663 0.17828597128391266 0.78587645292282104
0.41095981001853943 0.14428116381168365 0.7472953200340271
0.5628732442855835 0.099774330854415894 0.70203155279159546
0.68905746936798096 0.051765561103820801 0.66061782836914062
0.79209786653518677 0.011119453236460686 0.62741148471832275
0.14877346158027649 0.3520796000957489 0.85804516077041626
0.21539865434169769 0.3464457094669342 0.8480987548828125
0.33387932181358337 0.33077853918075562 0.82670003175735474
0.47775557637214661 0.30271276831626892 0.79333668947219849
0.6161988377571106 0.26824271678924561 0.75758820772171021
0.72909975051879883 0.22109192609786987 0.72245937585830688
0.8213348388671875 0.14618682861328125 0.68314772844314575
0.2485310286283493 0.56706112623214722 0.91079896688461304
0.30912277102470398 0.56912392377853394 0.90399843454360962
0.42049556970596313 0.5478283166885376 0.88025659322738647
0.55053389072418213 0.5294191837310791 0.85423415899276733
0.67427194118499756 0.51295334100723267 0.82996344566345215
0.776458740234375 0.47359645366668701 0.80081921815872192
0.86283218860626221 0.40176224708557129 0.76542723178863525
0.41112825274467468 0.76549077033996582 0.94745999574661255
0.45101910829544067 0.76727557182312012 0.94473159313201904
0.53187769651412964 0.75005263090133667 0.92619484663009644
0.63013797998428345 0.73644018173217773 0.9100722074508667
0.72709274291992188 0.7290722131729126 0.89622408151626587
0.81413066387176514 0.71244597434997559 0.8765375018119812
0.89390164613723755 0.6748083233833313 0.85293269157409668
0.58237582445144653 0.88588327169418335 0.972362220287323
0.60728996992111206 0.88372242450714111 0.96391826868057251
0.65291798114776611 0.88132530450820923 0.95930647850036621
0.71210777759552002 0.87450462579727173 0.95390862226486206
0.77630722522735596 0.86483091115951538 0.94340503215789795
0.84522229433059692 0.85556137561798096 0.92706024646759033
0.9173353910446167 0.83262830972671509 0.90755409002304077
0.74068909883499146 0.97559982538223267 0.97991526126861572
0.75363099575042725 0.97499018907546997 0.97216290235519409
0.773723304271698 0.97769629955291748 0.97193342447280884
0.80218702554702759 0.97525703907012939 0.9729691743850708
0.84192365407943726 0.96773636341094971 0.96663600206375122
0.89475351572036743 0.96391308307647705 0.95946049690246582
0.95739847421646118 0.95762395858764648 0.9568665623664856
