luts/instant_pro/fuji_fp-100c.cube
# Created by: G'MIC (https://gmic.eu)
TITLE "fuji_fp-100c"
# LUT size
LUT_3D_SIZE 5
# Data domain
DOMAIN_MIN 0.0 0.0 0.0
DOMAIN_MAX 1.0 1.0 1.0
# LUT data points
0.046761039644479752 0.063500210642814636 0.078773021697998047
0.21521563827991486 0.054179202765226364 0.081458896398544312
0.51446032524108887 0.0044309729710221291 0.084074355661869049
0.79433673620223999 0.0058449092321097851 0.087680116295814514
0.98051244020462036 0.091076284646987915 0.095848232507705688
0.02640685997903347 0.21684092283248901 0.090106770396232605
0.25722888112068176 0.23346537351608276 0.059241455048322678
0.57654052972793579 0.25094279646873474 0.0570346899330616
0.81723147630691528 0.25575351715087891 0.089065253734588623
0.99001616239547729 0.30991947650909424 0.10819540917873383
0.0033505908213555813 0.48108950257301331 0.10022756457328796
0.22575266659259796 0.48575612902641296 0.084516532719135284
0.53033703565597534 0.51175743341445923 0.0089827897027134895
0.81242632865905762 0.53474301099777222 0.011110044084489346
0.98723286390304565 0.57041305303573608 0.17339393496513367
0.0059502245858311653 0.69571781158447266 0.15470373630523682
0.2391296774148941 0.68554157018661499 0.150364950299263
0.48903834819793701 0.69469070434570312 0.071617782115936279
0.75140255689620972 0.72265392541885376 0.01562030240893364
0.97315233945846558 0.75035333633422852 0.010798884555697441
0.41364535689353943 0.9102054238319397 0.38456714153289795
0.49198299646377563 0.90699374675750732 0.38672611117362976
0.64307928085327148 0.90450567007064819 0.39582663774490356
0.81538528203964233 0.91829192638397217 0.34594303369522095
0.98324465751647949 0.93759435415267944 0.20025396347045898
0.061752378940582275 0.059613127261400223 0.23679980635643005
0.29221674799919128 0.015159382484853268 0.26770120859146118
0.50469714403152466 0.03748653456568718 0.25538620352745056
0.783977210521698 0.0041839000768959522 0.24948465824127197
0.97390967607498169 0.12759393453598022 0.25652673840522766
0.050768997520208359 0.24380935728549957 0.27709010243415833
0.30010974407196045 0.27767705917358398 0.29877063632011414
0.5873902440071106 0.27642229199409485 0.28831079602241516
0.80939656496047974 0.28386008739471436 0.27427783608436584
0.97855162620544434 0.33417990803718567 0.2782498300075531
0.019367517903447151 0.5480692982673645 0.31661611795425415
0.27934929728507996 0.53915953636169434 0.30094411969184875
0.57063406705856323 0.54925882816314697 0.25300890207290649
0.82415884733200073 0.56321579217910767 0.28309357166290283
0.98134523630142212 0.58304071426391602 0.33199018239974976
0.015857696533203125 0.72246694564819336 0.30792111158370972
0.27036586403846741 0.71473032236099243 0.30444833636283875
0.5178486704826355 0.71304118633270264 0.27839630842208862
0.75930285453796387 0.73498594760894775 0.18141256272792816
0.97506749629974365 0.75692641735076904 0.213184654712677
0.40837609767913818 0.91519486904144287 0.4591769278049469
0.48537009954452515 0.9121779203414917 0.45709246397018433
0.64157563447952271 0.90733444690704346 0.46571075916290283
0.80729621648788452 0.92035514116287231 0.43765911459922791
0.98019993305206299 0.9378197193145752 0.33983677625656128
0.10860215872526169 0.028099104762077332 0.50221377611160278
0.36207324266433716 0.0039270138368010521 0.55533421039581299
0.70907104015350342 0.00023797727772034705 0.61132383346557617
0.75449842214584351 0.19567427039146423 0.51850730180740356
0.95526915788650513 0.22306157648563385 0.50544583797454834
0.085322558879852295 0.23154297471046448 0.50600296258926392
0.35717695951461792 0.24061915278434753 0.55635172128677368
0.69461345672607422 0.25852340459823608 0.61783713102340698
0.77098733186721802 0.36798340082168579 0.5424761176109314
0.96420180797576904 0.34101948142051697 0.49955341219902039
0.16420502960681915 0.5430901050567627 0.56524717807769775
0.35335269570350647 0.56827688217163086 0.58113908767700195
0.62842798233032227 0.60809898376464844 0.60533183813095093
0.81337118148803711 0.59100812673568726 0.57303941249847412
0.97446417808532715 0.57649081945419312 0.53708505630493164
0.26410830020904541 0.76585429906845093 0.59413886070251465
0.38716772198677063 0.76552015542984009 0.58133041858673096
0.56789201498031616 0.75454235076904297 0.55152362585067749
0.78503656387329102 0.76320481300354004 0.51715290546417236
0.96828144788742065 0.78285181522369385 0.54772084951400757
0.39958456158638 0.92959773540496826 0.60938876867294312
0.46384301781654358 0.92804014682769775 0.60209554433822632
0.62389445304870605 0.91791212558746338 0.59845495223999023
0.80378937721252441 0.92293715476989746 0.59283626079559326
0.97416096925735474 0.93973326683044434 0.53408265113830566
0.27602863311767578 0.0072280135937035084 0.74917346239089966
0.43612378835678101 0.0077200345695018768 0.76794737577438354
0.73675918579101562 0.00062116736080497503 0.82120144367218018
0.95883274078369141 0.0036838606465607882 0.83222788572311401
0.96925914287567139 0.35826727747917175 0.75372248888015747
0.26286345720291138 0.22810466587543488 0.74118506908416748
0.41947886347770691 0.21595011651515961 0.75761896371841431
0.70879888534545898 0.20080000162124634 0.81199425458908081
0.9406425952911377 0.28933489322662354 0.83355927467346191
0.95227408409118652 0.48020383715629578 0.76268714666366577
0.10680396854877472 0.45617452263832092 0.68779194355010986
0.30229306221008301 0.47537600994110107 0.7046055793762207
0.62111181020736694 0.53646719455718994 0.769936203956604
0.87693339586257935 0.61033445596694946 0.81832289695739746
0.93261438608169556 0.64436078071594238 0.77158021926879883
0.32872655987739563 0.73723942041397095 0.76055657863616943
0.42680913209915161 0.74513030052185059 0.76474142074584961
0.60213363170623779 0.76735073328018188 0.78465735912322998
0.8247411847114563 0.81214034557342529 0.811168372631073
0.95496672391891479 0.79270559549331665 0.7835310697555542
0.50490772724151611 0.94046115875244141 0.83626782894134521
0.55500710010528564 0.93871396780014038 0.82762235403060913
0.65791994333267212 0.93962317705154419 0.81186854839324951
0.8005908727645874 0.93199622631072998 0.78576505184173584
0.96549826860427856 0.94481074810028076 0.75879067182540894
0.55681347846984863 0.15378670394420624 0.95950108766555786
0.6286739706993103 0.10618272423744202 0.96407967805862427
0.79839873313903809 0.037474941462278366 0.97552680969238281
0.98725003004074097 0.0030403884593397379 0.9824104905128479
1 0.24550224840641022 0.98160767555236816
0.53819173574447632 0.34176331758499146 0.95423775911331177
0.61210620403289795 0.32919549942016602 0.95642614364624023
0.78412699699401855 0.30365380644798279 0.96770739555358887
0.97402262687683105 0.29061990976333618 0.9839058518409729
1 0.42891150712966919 0.97414153814315796
0.39135795831680298 0.53124308586120605 0.93110120296478271
0.50560009479522705 0.5409131646156311 0.93700778484344482
0.70455682277679443 0.54736828804016113 0.95004415512084961
0.92366272211074829 0.57841461896896362 0.96849352121353149
0.99891728162765503 0.64666175842285156 0.96930289268493652
0.3082391619682312 0.72986054420471191 0.91373568773269653
0.37384361028671265 0.72437316179275513 0.91053247451782227
0.53257083892822266 0.72253984212875366 0.91678845882415771
0.82495701313018799 0.77184510231018066 0.94849687814712524
0.98976469039916992 0.82756274938583374 0.96368956565856934
0.57436209917068481 0.92973428964614868 0.95113164186477661
0.6085665225982666 0.93062645196914673 0.95294648408889771
0.69869005680084229 0.93489378690719604 0.95460587739944458
0.82341116666793823 0.94211173057556152 0.95894384384155273
0.96305584907531738 0.96363812685012817 0.96222424507141113
