luts/instant_pro/fuji_fp-100c_negative_++_alt.cube
# Created by: G'MIC (https://gmic.eu)
TITLE "fuji_fp-100c_negative_++_alt"
# LUT size
LUT_3D_SIZE 5
# Data domain
DOMAIN_MIN 0.0 0.0 0.0
DOMAIN_MAX 1.0 1.0 1.0
# LUT data points
0.10367526113986969 0.17027579247951508 0.2263883501291275
0.17767953872680664 0.17864413559436798 0.22590002417564392
0.42689472436904907 0.17809246480464935 0.22757202386856079
0.79603570699691772 0.20786100625991821 0.23159460723400116
0.9822039008140564 0.41378089785575867 0.2351013571023941
0.082106947898864746 0.23571960628032684 0.23882584273815155
0.17453445494174957 0.25385671854019165 0.23701921105384827
0.49615427851676941 0.28500252962112427 0.2271532416343689
0.81643325090408325 0.35670584440231323 0.22349876165390015
0.98232758045196533 0.50154846906661987 0.23246611654758453
0.025195252150297165 0.4145514965057373 0.27873200178146362
0.21313084661960602 0.44280222058296204 0.28210535645484924
0.55490487813949585 0.51561975479125977 0.23853164911270142
0.84272068738937378 0.58205127716064453 0.21028582751750946
0.98834532499313354 0.64554494619369507 0.23786602914333344
0.34469884634017944 0.65781861543655396 0.37950757145881653
0.45606103539466858 0.6707112193107605 0.39193353056907654
0.64821934700012207 0.70511353015899658 0.39354619383811951
0.84936368465423584 0.76690250635147095 0.35822361707687378
0.99215054512023926 0.7984691858291626 0.3748176097869873
0.73606395721435547 0.86779510974884033 0.6060413122177124
0.77278238534927368 0.86891663074493408 0.62046664953231812
0.83826428651809692 0.8751988410949707 0.63631129264831543
0.91143298149108887 0.89449787139892578 0.63661974668502808
0.99198383092880249 0.91120231151580811 0.63088089227676392
0.11830219626426697 0.17064723372459412 0.27338233590126038
0.19470229744911194 0.18537914752960205 0.27113622426986694
0.4893740713596344 0.17655512690544128 0.28998413681983948
0.83036017417907715 0.18796165287494659 0.30767390131950378
0.98491835594177246 0.41894626617431641 0.35495427250862122
0.075077280402183533 0.24805301427841187 0.29372283816337585
0.21004609763622284 0.27207893133163452 0.2951253354549408
0.53821194171905518 0.29297426342964172 0.30625706911087036
0.84475523233413696 0.35341325402259827 0.31614872813224792
0.98604798316955566 0.50994932651519775 0.35823237895965576
0.19041122496128082 0.44824030995368958 0.3435157835483551
0.29725736379623413 0.4707399308681488 0.34191817045211792
0.58719503879547119 0.52860933542251587 0.33142009377479553
0.84128934144973755 0.57801014184951782 0.31674036383628845
0.98499888181686401 0.65104728937149048 0.36169469356536865
0.40562641620635986 0.67796188592910767 0.42588520050048828
0.50549089908599854 0.68508613109588623 0.44649022817611694
0.65706503391265869 0.71208041906356812 0.44745743274688721
0.84802854061126709 0.76871001720428467 0.4345499575138092
0.99267596006393433 0.79726648330688477 0.44964292645454407
0.74338728189468384 0.87026989459991455 0.618813157081604
0.77798080444335938 0.87420761585235596 0.63118290901184082
0.84026271104812622 0.87633121013641357 0.65297496318817139
0.91401028633117676 0.89253944158554077 0.65392589569091797
0.99148285388946533 0.91207575798034668 0.65824979543685913
0.20551271736621857 0.16562902927398682 0.40523269772529602
0.39326414465904236 0.17656412720680237 0.43068966269493103
0.63753604888916016 0.24192799627780914 0.45316585898399353
0.89584994316101074 0.30858182907104492 0.5051647424697876
0.99748444557189941 0.44484856724739075 0.51828598976135254
0.059016972780227661 0.23629727959632874 0.42522677779197693
0.33969712257385254 0.27550452947616577 0.45047959685325623
0.65721702575683594 0.36774393916130066 0.47711864113807678
0.88631200790405273 0.44971463084220886 0.51402449607849121
0.99540472030639648 0.55019313097000122 0.53947633504867554
0.097191199660301208 0.4432106614112854 0.44198402762413025
0.31800678372383118 0.47370317578315735 0.46701973676681519
0.6552128791809082 0.55856209993362427 0.50359100103378296
0.85543382167816162 0.6194998025894165 0.52088618278503418
0.97967088222503662 0.68070584535598755 0.54783099889755249
0.48076987266540527 0.68079262971878052 0.52635294198989868
0.57480746507644653 0.6959415078163147 0.53420698642730713
0.71229058504104614 0.72954028844833374 0.55065685510635376
0.85823613405227661 0.77316069602966309 0.56345564126968384
0.99354094266891479 0.79625457525253296 0.57186299562454224
0.75751572847366333 0.86913776397705078 0.6594548225402832
0.78304493427276611 0.87157285213470459 0.66182863712310791
0.84212338924407959 0.87569832801818848 0.67792850732803345
0.93416786193847656 0.89296633005142212 0.70147585868835449
0.99140256643295288 0.90997874736785889 0.70652908086776733
0.54588228464126587 0.057775892317295074 0.61639213562011719
0.67427879571914673 0.032965477555990219 0.62956351041793823
0.8608933687210083 0.26761549711227417 0.65556764602661133
0.93566083908081055 0.53199821710586548 0.66015756130218506
0.99528020620346069 0.63182491064071655 0.67681044340133667
0.44514760375022888 0.21675865352153778 0.61745494604110718
0.61962646245956421 0.23484882712364197 0.63284778594970703
0.82987958192825317 0.40533316135406494 0.65897458791732788
0.926735520362854 0.60911101102828979 0.66663974523544312
0.99018180370330811 0.6976393461227417 0.69734001159667969
0.013532915152609348 0.40192118287086487 0.59981459379196167
0.12496704608201981 0.42174538969993591 0.60698151588439941
0.73085397481918335 0.54042446613311768 0.64917147159576416
0.91249543428421021 0.71226567029953003 0.68274545669555664
0.99332278966903687 0.76833510398864746 0.71549338102340698
0.3058931827545166 0.65845036506652832 0.59508407115936279
0.43360602855682373 0.67084342241287231 0.60553723573684692
0.6625857949256897 0.70720654726028442 0.63570600748062134
0.89237767457962036 0.79538387060165405 0.69402682781219482
0.99243634939193726 0.83881455659866333 0.71883988380432129
0.67087042331695557 0.86686277389526367 0.70433992147445679
0.7187390923500061 0.8708488941192627 0.70901727676391602
0.81826400756835938 0.8792533278465271 0.72032725811004639
0.93693029880523682 0.89322406053543091 0.75366276502609253
0.99567866325378418 0.9100954532623291 0.77348506450653076
0.85680276155471802 0.10448319464921951 0.8152814507484436
0.88604217767715454 0.21259824931621552 0.81049448251724243
0.95190942287445068 0.46328741312026978 0.81541967391967773
0.99680256843566895 0.69034940004348755 0.80703473091125488
1 0.78225398063659668 0.79671519994735718
0.80752003192901611 0.27370890974998474 0.81243211030960083
0.85491365194320679 0.34893026947975159 0.81219148635864258
0.92916387319564819 0.53249442577362061 0.81122714281082153
0.99488848447799683 0.71831881999969482 0.80756956338882446
0.99823164939880371 0.80293065309524536 0.80422359704971313
0.50250256061553955 0.3802928626537323 0.8102107048034668
0.68685966730117798 0.43710044026374817 0.81059050559997559
0.85584104061126709 0.59711015224456787 0.80899292230606079
0.98554074764251709 0.75796818733215332 0.8094327449798584
0.99753099679946899 0.83813148736953735 0.80856060981750488
0.0072969174943864346 0.67470163106918335 0.78770190477371216
0.0041698678396642208 0.66506630182266235 0.78985816240310669
0.31401821970939636 0.64858812093734741 0.80120396614074707
0.91359341144561768 0.78261131048202515 0.81453210115432739
0.99754476547241211 0.88009798526763916 0.8227773904800415
0.58741509914398193 0.86652249097824097 0.80519950389862061
0.62227743864059448 0.86984062194824219 0.81142508983612061
0.72027713060379028 0.87277513742446899 0.81198287010192871
0.87113410234451294 0.88359808921813965 0.82771748304367065
0.99582761526107788 0.91285818815231323 0.83254587650299072
