luts/instant_pro/fuji_fp-3000b_negative.cube
# Created by: G'MIC (https://gmic.eu)
TITLE "fuji_fp-3000b_negative"
# LUT size
LUT_3D_SIZE 5
# Data domain
DOMAIN_MIN 0.0 0.0 0.0
DOMAIN_MAX 1.0 1.0 1.0
# LUT data points
0.045192237943410873 0.045192237943410873 0.045192237943410873
0.085720926523208618 0.085720926523208618 0.085720926523208618
0.24599820375442505 0.24599820375442505 0.24599820375442505
0.45326828956604004 0.45326828956604004 0.45326828956604004
0.65574723482131958 0.65574723482131958 0.65574723482131958
0.14830699563026428 0.14830699563026428 0.14830699563026428
0.18355351686477661 0.18355351686477661 0.18355351686477661
0.33132436871528625 0.33132436871528625 0.33132436871528625
0.51987576484680176 0.51987576484680176 0.51987576484680176
0.69569253921508789 0.69569253921508789 0.69569253921508789
0.36359375715255737 0.36359375715255737 0.36359375715255737
0.36619925498962402 0.36619925498962402 0.36619925498962402
0.4584868848323822 0.4584868848323822 0.4584868848323822
0.60981935262680054 0.60981935262680054 0.60981935262680054
0.75229769945144653 0.75229769945144653 0.75229769945144653
0.59331876039505005 0.59331876039505005 0.59331876039505005
0.57939553260803223 0.57939553260803223 0.57939553260803223
0.62045234441757202 0.62045234441757202 0.62045234441757202
0.71690070629119873 0.71690070629119873 0.71690070629119873
0.82410389184951782 0.82410389184951782 0.82410389184951782
0.84466230869293213 0.84466230869293213 0.84466230869293213
0.83737653493881226 0.83737653493881226 0.83737653493881226
0.84085649251937866 0.84085649251937866 0.84085649251937866
0.86917436122894287 0.86917436122894287 0.86917436122894287
0.92658752202987671 0.92658752202987671 0.92658752202987671
0.13827364146709442 0.13827364146709442 0.13827364146709442
0.19750283658504486 0.19750283658504486 0.19750283658504486
0.33364304900169373 0.33364304900169373 0.33364304900169373
0.50548249483108521 0.50548249483108521 0.50548249483108521
0.67103582620620728 0.67103582620620728 0.67103582620620728
0.21742765605449677 0.21742765605449677 0.21742765605449677
0.25719627737998962 0.25719627737998962 0.25719627737998962
0.39127182960510254 0.39127182960510254 0.39127182960510254
0.55167728662490845 0.55167728662490845 0.55167728662490845
0.71452575922012329 0.71452575922012329 0.71452575922012329
0.4666784405708313 0.4666784405708313 0.4666784405708313
0.44685125350952148 0.44685125350952148 0.44685125350952148
0.50380951166152954 0.50380951166152954 0.50380951166152954
0.62976324558258057 0.62976324558258057 0.62976324558258057
0.76719057559967041 0.76719057559967041 0.76719057559967041
0.65263223648071289 0.65263223648071289 0.65263223648071289
0.64166355133056641 0.64166355133056641 0.64166355133056641
0.64459681510925293 0.64459681510925293 0.64459681510925293
0.72899097204208374 0.72899097204208374 0.72899097204208374
0.8327709436416626 0.8327709436416626 0.8327709436416626
0.86011528968811035 0.86011528968811035 0.86011528968811035
0.85391825437545776 0.85391825437545776 0.85391825437545776
0.84604495763778687 0.84604495763778687 0.84604495763778687
0.87213397026062012 0.87213397026062012 0.87213397026062012
0.92836844921112061 0.92836844921112061 0.92836844921112061
0.39005506038665771 0.39005506038665771 0.39005506038665771
0.45127770304679871 0.45127770304679871 0.45127770304679871
0.50305920839309692 0.50305920839309692 0.50305920839309692
0.59554898738861084 0.59554898738861084 0.59554898738861084
0.73194402456283569 0.73194402456283569 0.73194402456283569
0.41105908155441284 0.41105908155441284 0.41105908155441284
0.46576958894729614 0.46576958894729614 0.46576958894729614
0.53983128070831299 0.53983128070831299 0.53983128070831299
0.6318780779838562 0.6318780779838562 0.6318780779838562
0.7627679705619812 0.7627679705619812 0.7627679705619812
0.53656899929046631 0.53656899929046631 0.53656899929046631
0.55153638124465942 0.55153638124465942 0.55153638124465942
0.59857213497161865 0.59857213497161865 0.59857213497161865
0.68165487051010132 0.68165487051010132 0.68165487051010132
0.79709452390670776 0.79709452390670776 0.79709452390670776
0.72551792860031128 0.72551792860031128 0.72551792860031128
0.72930121421813965 0.72930121421813965 0.72930121421813965
0.72033190727233887 0.72033190727233887 0.72033190727233887
0.77114212512969971 0.77114212512969971 0.77114212512969971
0.85860860347747803 0.85860860347747803 0.85860860347747803
0.88656055927276611 0.88656055927276611 0.88656055927276611
0.89046740531921387 0.89046740531921387 0.89046740531921387
0.87923258543014526 0.87923258543014526 0.87923258543014526
0.89559829235076904 0.89559829235076904 0.89559829235076904
0.94019871950149536 0.94019871950149536 0.94019871950149536
0.64947837591171265 0.64947837591171265 0.64947837591171265
0.67373061180114746 0.67373061180114746 0.67373061180114746
0.73691302537918091 0.73691302537918091 0.73691302537918091
0.75804942846298218 0.75804942846298218 0.75804942846298218
0.79714494943618774 0.79714494943618774 0.79714494943618774
0.666728675365448 0.666728675365448 0.666728675365448
0.6819339394569397 0.6819339394569397 0.6819339394569397
0.74326038360595703 0.74326038360595703 0.74326038360595703
0.75557518005371094 0.75557518005371094 0.75557518005371094
0.81234538555145264 0.81234538555145264 0.81234538555145264
0.68463915586471558 0.68463915586471558 0.68463915586471558
0.6783948540687561 0.6783948540687561 0.6783948540687561
0.72748315334320068 0.72748315334320068 0.72748315334320068
0.78036177158355713 0.78036177158355713 0.78036177158355713
0.84353941679000854 0.84353941679000854 0.84353941679000854
0.78911358118057251 0.78911358118057251 0.78911358118057251
0.78913062810897827 0.78913062810897827 0.78913062810897827
0.79108840227127075 0.79108840227127075 0.79108840227127075
0.83391112089157104 0.83391112089157104 0.83391112089157104
0.89495784044265747 0.89495784044265747 0.89495784044265747
0.90900403261184692 0.90900403261184692 0.90900403261184692
0.91935235261917114 0.91935235261917114 0.91935235261917114
0.92245638370513916 0.92245638370513916 0.92245638370513916
0.93285834789276123 0.93285834789276123 0.93285834789276123
0.95346009731292725 0.95346009731292725 0.95346009731292725
0.88214588165283203 0.88214588165283203 0.88214588165283203
0.88450175523757935 0.88450175523757935 0.88450175523757935
0.90038514137268066 0.90038514137268066 0.90038514137268066
0.91784685850143433 0.91784685850143433 0.91784685850143433
0.92804157733917236 0.92804157733917236 0.92804157733917236
0.88211524486541748 0.88211524486541748 0.88211524486541748
0.89007192850112915 0.89007192850112915 0.89007192850112915
0.9091760516166687 0.9091760516166687 0.9091760516166687
0.93682509660720825 0.93682509660720825 0.93682509660720825
0.9369887113571167 0.9369887113571167 0.9369887113571167
0.87538868188858032 0.87538868188858032 0.87538868188858032
0.88686394691467285 0.88686394691467285 0.88686394691467285
0.89496880769729614 0.89496880769729614 0.89496880769729614
0.92572897672653198 0.92572897672653198 0.92572897672653198
0.94652658700942993 0.94652658700942993 0.94652658700942993
0.89717501401901245 0.89717501401901245 0.89717501401901245
0.90380620956420898 0.90380620956420898 0.90380620956420898
0.90718412399291992 0.90718412399291992 0.90718412399291992
0.9338918924331665 0.9338918924331665 0.9338918924331665
0.96578633785247803 0.96578633785247803 0.96578633785247803
0.95283275842666626 0.95283275842666626 0.95283275842666626
0.96785169839859009 0.96785169839859009 0.96785169839859009
0.97938787937164307 0.97938787937164307 0.97938787937164307
0.98190033435821533 0.98190033435821533 0.98190033435821533
0.98050910234451294 0.98050910234451294 0.98050910234451294
