luts/instant_pro/fuji_fp-3000b_--.cube
# Created by: G'MIC (https://gmic.eu)
TITLE "fuji_fp-3000b_--"
# LUT size
LUT_3D_SIZE 5
# Data domain
DOMAIN_MIN 0.0 0.0 0.0
DOMAIN_MAX 1.0 1.0 1.0
# LUT data points
0.030639259144663811 0.030639259144663811 0.030639259144663811
0.17088304460048676 0.17088304460048676 0.17088304460048676
0.30768147110939026 0.30768147110939026 0.30768147110939026
0.47002023458480835 0.47002023458480835 0.47002023458480835
0.63887655735015869 0.63887655735015869 0.63887655735015869
0.16539517045021057 0.16539517045021057 0.16539517045021057
0.28208959102630615 0.28208959102630615 0.28208959102630615
0.41450509428977966 0.41450509428977966 0.41450509428977966
0.53009909391403198 0.53009909391403198 0.53009909391403198
0.67343634366989136 0.67343634366989136 0.67343634366989136
0.3404790461063385 0.3404790461063385 0.3404790461063385
0.34688308835029602 0.34688308835029602 0.34688308835029602
0.52088010311126709 0.52088010311126709 0.52088010311126709
0.65053051710128784 0.65053051710128784 0.65053051710128784
0.7425234317779541 0.7425234317779541 0.7425234317779541
0.49553957581520081 0.49553957581520081 0.49553957581520081
0.48439320921897888 0.48439320921897888 0.48439320921897888
0.55969405174255371 0.55969405174255371 0.55969405174255371
0.73742562532424927 0.73742562532424927 0.73742562532424927
0.84275281429290771 0.84275281429290771 0.84275281429290771
0.75337594747543335 0.75337594747543335 0.75337594747543335
0.74349957704544067 0.74349957704544067 0.74349957704544067
0.7287747859954834 0.7287747859954834 0.7287747859954834
0.85264188051223755 0.85264188051223755 0.85264188051223755
0.93964076042175293 0.93964076042175293 0.93964076042175293
0.1729176789522171 0.1729176789522171 0.1729176789522171
0.26557615399360657 0.26557615399360657 0.26557615399360657
0.3893265426158905 0.3893265426158905 0.3893265426158905
0.51320743560791016 0.51320743560791016 0.51320743560791016
0.63533550500869751 0.63533550500869751 0.63533550500869751
0.28765684366226196 0.28765684366226196 0.28765684366226196
0.33897420763969421 0.33897420763969421 0.33897420763969421
0.44109749794006348 0.44109749794006348 0.44109749794006348
0.54182940721511841 0.54182940721511841 0.54182940721511841
0.68376177549362183 0.68376177549362183 0.68376177549362183
0.4374268651008606 0.4374268651008606 0.4374268651008606
0.43454426527023315 0.43454426527023315 0.43454426527023315
0.54083603620529175 0.54083603620529175 0.54083603620529175
0.65833783149719238 0.65833783149719238 0.65833783149719238
0.76101720333099365 0.76101720333099365 0.76101720333099365
0.57063734531402588 0.57063734531402588 0.57063734531402588
0.55477702617645264 0.55477702617645264 0.55477702617645264
0.57326269149780273 0.57326269149780273 0.57326269149780273
0.74018567800521851 0.74018567800521851 0.74018567800521851
0.85894513130187988 0.85894513130187988 0.85894513130187988
0.77539128065109253 0.77539128065109253 0.77539128065109253
0.77808248996734619 0.77808248996734619 0.77808248996734619
0.7573697566986084 0.7573697566986084 0.7573697566986084
0.84009414911270142 0.84009414911270142 0.84009414911270142
0.94988113641738892 0.94988113641738892 0.94988113641738892
0.37541523575782776 0.37541523575782776 0.37541523575782776
0.41945433616638184 0.41945433616638184 0.41945433616638184
0.46726757287979126 0.46726757287979126 0.46726757287979126
0.57034885883331299 0.57034885883331299 0.57034885883331299
0.71989673376083374 0.71989673376083374 0.71989673376083374
0.41846087574958801 0.41846087574958801 0.41846087574958801
0.46531516313552856 0.46531516313552856 0.46531516313552856
0.52600741386413574 0.52600741386413574 0.52600741386413574
0.61239743232727051 0.61239743232727051 0.61239743232727051
0.73791110515594482 0.73791110515594482 0.73791110515594482
0.52553820610046387 0.52553820610046387 0.52553820610046387
0.54202938079833984 0.54202938079833984 0.54202938079833984
0.57727140188217163 0.57727140188217163 0.57727140188217163
0.67620742321014404 0.67620742321014404 0.67620742321014404
0.76813054084777832 0.76813054084777832 0.76813054084777832
0.68885546922683716 0.68885546922683716 0.68885546922683716
0.69211059808731079 0.69211059808731079 0.69211059808731079
0.66301029920578003 0.66301029920578003 0.66301029920578003
0.74630022048950195 0.74630022048950195 0.74630022048950195
0.86585861444473267 0.86585861444473267 0.86585861444473267
0.8459312915802002 0.8459312915802002 0.8459312915802002
0.85053706169128418 0.85053706169128418 0.85053706169128418
0.81440502405166626 0.81440502405166626 0.81440502405166626
0.85078448057174683 0.85078448057174683 0.85078448057174683
0.96370720863342285 0.96370720863342285 0.96370720863342285
0.58012145757675171 0.58012145757675171 0.58012145757675171
0.59929609298706055 0.59929609298706055 0.59929609298706055
0.64836913347244263 0.64836913347244263 0.64836913347244263
0.68821066617965698 0.68821066617965698 0.68821066617965698
0.77921003103256226 0.77921003103256226 0.77921003103256226
0.61965358257293701 0.61965358257293701 0.61965358257293701
0.62953323125839233 0.62953323125839233 0.62953323125839233
0.68306320905685425 0.68306320905685425 0.68306320905685425
0.71649044752120972 0.71649044752120972 0.71649044752120972
0.80439507961273193 0.80439507961273193 0.80439507961273193
0.61824184656143188 0.61824184656143188 0.61824184656143188
0.64116114377975464 0.64116114377975464 0.64116114377975464
0.69302582740783691 0.69302582740783691 0.69302582740783691
0.75015711784362793 0.75015711784362793 0.75015711784362793
0.83478271961212158 0.83478271961212158 0.83478271961212158
0.74902993440628052 0.74902993440628052 0.74902993440628052
0.73708945512771606 0.73708945512771606 0.73708945512771606
0.76865893602371216 0.76865893602371216 0.76865893602371216
0.80259037017822266 0.80259037017822266 0.80259037017822266
0.87635546922683716 0.87635546922683716 0.87635546922683716
0.90747618675231934 0.90747618675231934 0.90747618675231934
0.90645104646682739 0.90645104646682739 0.90645104646682739
0.89825606346130371 0.89825606346130371 0.89825606346130371
0.90133136510848999 0.90133136510848999 0.90133136510848999
0.96512794494628906 0.96512794494628906 0.96512794494628906
0.82228446006774902 0.82228446006774902 0.82228446006774902
0.82463014125823975 0.82463014125823975 0.82463014125823975
0.85231971740722656 0.85231971740722656 0.85231971740722656
0.8819614052772522 0.8819614052772522 0.8819614052772522
0.90619379281997681 0.90619379281997681 0.90619379281997681
0.83838164806365967 0.83838164806365967 0.83838164806365967
0.84254276752471924 0.84254276752471924 0.84254276752471924
0.8621630072593689 0.8621630072593689 0.8621630072593689
0.89282369613647461 0.89282369613647461 0.89282369613647461
0.90301227569580078 0.90301227569580078 0.90301227569580078
0.83467203378677368 0.83467203378677368 0.83467203378677368
0.8456757664680481 0.8456757664680481 0.8456757664680481
0.86130738258361816 0.86130738258361816 0.86130738258361816
0.89708369970321655 0.89708369970321655 0.89708369970321655
0.89909201860427856 0.89909201860427856 0.89909201860427856
0.85922908782958984 0.85922908782958984 0.85922908782958984
0.85996991395950317 0.85996991395950317 0.85996991395950317
0.87888145446777344 0.87888145446777344 0.87888145446777344
0.91080999374389648 0.91080999374389648 0.91080999374389648
0.92753893136978149 0.92753893136978149 0.92753893136978149
0.93847239017486572 0.93847239017486572 0.93847239017486572
0.95038330554962158 0.95038330554962158 0.95038330554962158
0.95625138282775879 0.95625138282775879 0.95625138282775879
0.95808643102645874 0.95808643102645874 0.95808643102645874
0.97424376010894775 0.97424376010894775 0.97424376010894775
