luts/instant_pro/fuji_fp-3000b_+.cube
# Created by: G'MIC (https://gmic.eu)
TITLE "fuji_fp-3000b_+"
# LUT size
LUT_3D_SIZE 13
# Data domain
DOMAIN_MIN 0.0 0.0 0.0
DOMAIN_MAX 1.0 1.0 1.0
# LUT data points
0.096412628889083862 0.096412628889083862 0.096412628889083862
0.092829234898090363 0.092829234898090363 0.092829234898090363
0.097111672163009644 0.097111672163009644 0.097111672163009644
0.1112106591463089 0.1112106591463089 0.1112106591463089
0.13647831976413727 0.13647831976413727 0.13647831976413727
0.17479592561721802 0.17479592561721802 0.17479592561721802
0.22524327039718628 0.22524327039718628 0.22524327039718628
0.28366750478744507 0.28366750478744507 0.28366750478744507
0.34736457467079163 0.34736457467079163 0.34736457467079163
0.41545009613037109 0.41545009613037109 0.41545009613037109
0.48813027143478394 0.48813027143478394 0.48813027143478394
0.56457561254501343 0.56457561254501343 0.56457561254501343
0.6410067081451416 0.6410067081451416 0.6410067081451416
0.096611350774765015 0.096611350774765015 0.096611350774765015
0.095269806683063507 0.095269806683063507 0.095269806683063507
0.10344237089157104 0.10344237089157104 0.10344237089157104
0.1224643662571907 0.1224643662571907 0.1224643662571907
0.15171776711940765 0.15171776711940765 0.15171776711940765
0.19258572161197662 0.19258572161197662 0.19258572161197662
0.24520318210124969 0.24520318210124969 0.24520318210124969
0.30290403962135315 0.30290403962135315 0.30290403962135315
0.36380693316459656 0.36380693316459656 0.36380693316459656
0.42981290817260742 0.42981290817260742 0.42981290817260742
0.50155144929885864 0.50155144929885864 0.50155144929885864
0.57755571603775024 0.57755571603775024 0.57755571603775024
0.65310704708099365 0.65310704708099365 0.65310704708099365
0.10553524643182755 0.10553524643182755 0.10553524643182755
0.10577830672264099 0.10577830672264099 0.10577830672264099
0.1197742223739624 0.1197742223739624 0.1197742223739624
0.14870539307594299 0.14870539307594299 0.14870539307594299
0.18849265575408936 0.18849265575408936 0.18849265575408936
0.23472912609577179 0.23472912609577179 0.23472912609577179
0.28613013029098511 0.28613013029098511 0.28613013029098511
0.3370509147644043 0.3370509147644043 0.3370509147644043
0.39025136828422546 0.39025136828422546 0.39025136828422546
0.45104262232780457 0.45104262232780457 0.45104262232780457
0.52054232358932495 0.52054232358932495 0.52054232358932495
0.59480738639831543 0.59480738639831543 0.59480738639831543
0.6692693829536438 0.6692693829536438 0.6692693829536438
0.12499453872442245 0.12499453872442245 0.12499453872442245
0.12439358234405518 0.12439358234405518 0.12439358234405518
0.14230428636074066 0.14230428636074066 0.14230428636074066
0.18394427001476288 0.18394427001476288 0.18394427001476288
0.24263434112071991 0.24263434112071991 0.24263434112071991
0.29932478070259094 0.29932478070259094 0.29932478070259094
0.34531286358833313 0.34531286358833313 0.34531286358833313
0.38566026091575623 0.38566026091575623 0.38566026091575623
0.42754331231117249 0.42754331231117249 0.42754331231117249
0.48057836294174194 0.48057836294174194 0.48057836294174194
0.5464242696762085 0.5464242696762085 0.5464242696762085
0.61911213397979736 0.61911213397979736 0.61911213397979736
0.69141131639480591 0.69141131639480591 0.69141131639480591
0.15646941959857941 0.15646941959857941 0.15646941959857941
0.15111714601516724 0.15111714601516724 0.15111714601516724
0.16707843542098999 0.16707843542098999 0.16707843542098999
0.21404483914375305 0.21404483914375305 0.21404483914375305
0.28439539670944214 0.28439539670944214 0.28439539670944214
0.35268998146057129 0.35268998146057129 0.35268998146057129
0.40426075458526611 0.40426075458526611 0.40426075458526611
0.44450107216835022 0.44450107216835022 0.44450107216835022
0.47810006141662598 0.47810006141662598 0.47810006141662598
0.52200984954833984 0.52200984954833984 0.52200984954833984
0.58252018690109253 0.58252018690109253 0.58252018690109253
0.65146547555923462 0.65146547555923462 0.65146547555923462
0.71935969591140747 0.71935969591140747 0.71935969591140747
0.19967713952064514 0.19967713952064514 0.19967713952064514
0.18975135684013367 0.18975135684013367 0.18975135684013367
0.19771872460842133 0.19771872460842133 0.19771872460842133
0.23504096269607544 0.23504096269607544 0.23504096269607544
0.29942336678504944 0.29942336678504944 0.29942336678504944
0.37410545349121094 0.37410545349121094 0.37410545349121094
0.44566118717193604 0.44566118717193604 0.44566118717193604
0.5078122615814209 0.5078122615814209 0.5078122615814209
0.54536974430084229 0.54536974430084229 0.54536974430084229
0.57880550622940063 0.57880550622940063 0.57880550622940063
0.6320420503616333 0.6320420503616333 0.6320420503616333
0.6930692195892334 0.6930692195892334 0.6930692195892334
0.75316506624221802 0.75316506624221802 0.75316506624221802
0.25403973460197449 0.25403973460197449 0.25403973460197449
0.24021577835083008 0.24021577835083008 0.24021577835083008
0.23814545571804047 0.23814545571804047 0.23814545571804047
0.25791022181510925 0.25791022181510925 0.25791022181510925
0.30730798840522766 0.30730798840522766 0.30730798840522766
0.37804889678955078 0.37804889678955078 0.37804889678955078
0.45996513962745667 0.45996513962745667 0.45996513962745667
0.55007463693618774 0.55007463693618774 0.55007463693618774
0.60761791467666626 0.60761791467666626 0.60761791467666626
0.64486420154571533 0.64486420154571533 0.64486420154571533
0.69100713729858398 0.69100713729858398 0.69100713729858398
0.74153196811676025 0.74153196811676025 0.74153196811676025
0.79090112447738647 0.79090112447738647 0.79090112447738647
0.31837236881256104 0.31837236881256104 0.31837236881256104
0.30298468470573425 0.30298468470573425 0.30298468470573425
0.29415270686149597 0.29415270686149597 0.29415270686149597
0.29909044504165649 0.29909044504165649 0.29909044504165649
0.32932338118553162 0.32932338118553162 0.32932338118553162
0.38636365532875061 0.38636365532875061 0.38636365532875061
0.46477359533309937 0.46477359533309937 0.46477359533309937
0.55890119075775146 0.55890119075775146 0.55890119075775146
0.63942199945449829 0.63942199945449829 0.63942199945449829
0.69778579473495483 0.69778579473495483 0.69778579473495483
0.74676245450973511 0.74676245450973511 0.74676245450973511
0.78943902254104614 0.78943902254104614 0.78943902254104614
0.82867807149887085 0.82867807149887085 0.82867807149887085
0.39230138063430786 0.39230138063430786 0.39230138063430786
0.37959679961204529 0.37959679961204529 0.37959679961204529
0.36938878893852234 0.36938878893852234 0.36938878893852234
0.36350011825561523 0.36350011825561523 0.36350011825561523
0.3729710578918457 0.3729710578918457 0.3729710578918457
0.41278848052024841 0.41278848052024841 0.41278848052024841
0.48396244645118713 0.48396244645118713 0.48396244645118713
0.57368719577789307 0.57368719577789307 0.57368719577789307
0.66130602359771729 0.66130602359771729 0.66130602359771729
0.73437827825546265 0.73437827825546265 0.73437827825546265
0.78925460577011108 0.78925460577011108 0.78925460577011108
0.82805711030960083 0.82805711030960083 0.82805711030960083
0.86049747467041016 0.86049747467041016 0.86049747467041016
0.47621923685073853 0.47621923685073853 0.47621923685073853
0.46695581078529358 0.46695581078529358 0.46695581078529358
0.45833310484886169 0.45833310484886169 0.45833310484886169
0.44439199566841125 0.44439199566841125 0.44439199566841125
0.43444070219993591 0.43444070219993591 0.43444070219993591
0.4585319459438324 0.4585319459438324 0.4585319459438324
0.5212891697883606 0.5212891697883606 0.5212891697883606
0.60344588756561279 0.60344588756561279 0.60344588756561279
0.68720787763595581 0.68720787763595581 0.68720787763595581
0.76022672653198242 0.76022672653198242 0.76022672653198242
0.81562316417694092 0.81562316417694092 0.81562316417694092
0.85416102409362793 0.85416102409362793 0.85416102409362793
0.88397860527038574 0.88397860527038574 0.88397860527038574
0.56978023052215576 0.56978023052215576 0.56978023052215576
0.56197702884674072 0.56197702884674072 0.56197702884674072
0.55201238393783569 0.55201238393783569 0.55201238393783569
0.53491729497909546 0.53491729497909546 0.53491729497909546
0.51874667406082153 0.51874667406082153 0.51874667406082153
0.53236168622970581 0.53236168622970581 0.53236168622970581
0.58284419775009155 0.58284419775009155 0.58284419775009155
0.65113002061843872 0.65113002061843872 0.65113002061843872
0.72257822751998901 0.72257822751998901 0.72257822751998901
0.78651958703994751 0.78651958703994751 0.78651958703994751
0.83643877506256104 0.83643877506256104 0.83643877506256104
0.87288045883178711 0.87288045883178711 0.87288045883178711
0.90136593580245972 0.90136593580245972 0.90136593580245972
0.66992133855819702 0.66992133855819702 0.66992133855819702
0.66244733333587646 0.66244733333587646 0.66244733333587646
0.65260511636734009 0.65260511636734009 0.65260511636734009
0.63939589262008667 0.63939589262008667 0.63939589262008667
0.62856012582778931 0.62856012582778931 0.62856012582778931
0.63513195514678955 0.63513195514678955 0.63513195514678955
0.66677939891815186 0.66677939891815186 0.66677939891815186
0.71532762050628662 0.71532762050628662 0.71532762050628662
0.76949608325958252 0.76949608325958252 0.76949608325958252
0.81971865892410278 0.81971865892410278 0.81971865892410278
0.8605799674987793 0.8605799674987793 0.8605799674987793
0.8916020393371582 0.8916020393371582 0.8916020393371582
0.91705596446990967 0.91705596446990967 0.91705596446990967
0.76987981796264648 0.76987981796264648 0.76987981796264648
0.76344466209411621 0.76344466209411621 0.76344466209411621
0.755939781665802 0.755939781665802 0.755939781665802
0.74895435571670532 0.74895435571670532 0.74895435571670532
0.74402552843093872 0.74402552843093872 0.74402552843093872
0.74418509006500244 0.74418509006500244 0.74418509006500244
0.7591211199760437 0.7591211199760437 0.7591211199760437
0.78835970163345337 0.78835970163345337 0.78835970163345337
0.8246341347694397 0.8246341347694397 0.8246341347694397
0.8603096604347229 0.8603096604347229 0.8603096604347229
0.8905903697013855 0.8905903697013855 0.8905903697013855
0.914794921875 0.914794921875 0.914794921875
0.93615871667861938 0.93615871667861938 0.93615871667861938
0.10477689653635025 0.10477689653635025 0.10477689653635025
0.10297314822673798 0.10297314822673798 0.10297314822673798
0.10843459516763687 0.10843459516763687 0.10843459516763687
0.12306716293096542 0.12306716293096542 0.12306716293096542
0.14928194880485535 0.14928194880485535 0.14928194880485535
0.18808582425117493 0.18808582425117493 0.18808582425117493
0.23842231929302216 0.23842231929302216 0.23842231929302216
0.29656708240509033 0.29656708240509033 0.29656708240509033
0.3590913712978363 0.3590913712978363 0.3590913712978363
0.4246152937412262 0.4246152937412262 0.4246152937412262
0.49337708950042725 0.49337708950042725 0.49337708950042725
0.56586271524429321 0.56586271524429321 0.56586271524429321
0.64003884792327881 0.64003884792327881 0.64003884792327881
0.10671572387218475 0.10671572387218475 0.10671572387218475
0.10690274834632874 0.10690274834632874 0.10690274834632874
0.11548865586519241 0.11548865586519241 0.11548865586519241
0.13455855846405029 0.13455855846405029 0.13455855846405029
0.1644369512796402 0.1644369512796402 0.1644369512796402
0.20602031052112579 0.20602031052112579 0.20602031052112579
0.25732585787773132 0.25732585787773132 0.25732585787773132
0.31378692388534546 0.31378692388534546 0.31378692388534546
0.37358975410461426 0.37358975410461426 0.37358975410461426
0.43754369020462036 0.43754369020462036 0.43754369020462036
0.50660610198974609 0.50660610198974609 0.50660610198974609
0.57987397909164429 0.57987397909164429 0.57987397909164429
0.65391635894775391 0.65391635894775391 0.65391635894775391
0.11947965621948242 0.11947965621948242 0.11947965621948242
0.12148544937372208 0.12148544937372208 0.12148544937372208
0.13474427163600922 0.13474427163600922 0.13474427163600922
0.16105641424655914 0.16105641424655914 0.16105641424655914
0.19965943694114685 0.19965943694114685 0.19965943694114685
0.24633485078811646 0.24633485078811646 0.24633485078811646
0.29567554593086243 0.29567554593086243 0.29567554593086243
0.34450793266296387 0.34450793266296387 0.34450793266296387
0.39641281962394714 0.39641281962394714 0.39641281962394714
0.45630761981010437 0.45630761981010437 0.45630761981010437
0.52461212873458862 0.52461212873458862 0.52461212873458862
0.59820371866226196 0.59820371866226196 0.59820371866226196
0.67173820734024048 0.67173820734024048 0.67173820734024048
0.14578688144683838 0.14578688144683838 0.14578688144683838
0.14671950042247772 0.14671950042247772 0.14671950042247772
0.16240371763706207 0.16240371763706207 0.16240371763706207
0.19696421921253204 0.19696421921253204 0.19696421921253204
0.24870865046977997 0.24870865046977997 0.24870865046977997
0.30446749925613403 0.30446749925613403 0.30446749925613403
0.35176074504852295 0.35176074504852295 0.35176074504852295
0.38957685232162476 0.38957685232162476 0.38957685232162476
0.4295562207698822 0.4295562207698822 0.4295562207698822
0.48307952284812927 0.48307952284812927 0.48307952284812927
0.5494074821472168 0.5494074821472168 0.5494074821472168
0.62225472927093506 0.62225472927093506 0.62225472927093506
0.69470781087875366 0.69470781087875366 0.69470781087875366
0.18466052412986755 0.18466052412986755 0.18466052412986755
0.18133170902729034 0.18133170902729034 0.18133170902729034
0.19291020929813385 0.19291020929813385 0.19291020929813385
0.22845825552940369 0.22845825552940369 0.22845825552940369
0.28902098536491394 0.28902098536491394 0.28902098536491394
0.35846832394599915 0.35846832394599915 0.35846832394599915
0.41289001703262329 0.41289001703262329 0.41289001703262329
0.44653412699699402 0.44653412699699402 0.44653412699699402
0.4763123095035553 0.4763123095035553 0.4763123095035553
0.52378541231155396 0.52378541231155396 0.52378541231155396
0.58557039499282837 0.58557039499282837 0.58557039499282837
0.6543116569519043 0.6543116569519043 0.6543116569519043
0.72261929512023926 0.72261929512023926 0.72261929512023926
0.23331478238105774 0.23331478238105774 0.23331478238105774
0.22299604117870331 0.22299604117870331 0.22299604117870331
0.22432124614715576 0.22432124614715576 0.22432124614715576
0.2494547963142395 0.2494547963142395 0.2494547963142395
0.30704289674758911 0.30704289674758911 0.30704289674758911
0.38613790273666382 0.38613790273666382 0.38613790273666382
0.45835834741592407 0.45835834741592407 0.45835834741592407
0.50868618488311768 0.50868618488311768 0.50868618488311768
0.54324305057525635 0.54324305057525635 0.54324305057525635
0.5826798677444458 0.5826798677444458 0.5826798677444458
0.63550305366516113 0.63550305366516113 0.63550305366516113
0.69557219743728638 0.69557219743728638 0.69557219743728638
0.75464069843292236 0.75464069843292236 0.75464069843292236
0.28846046328544617 0.28846046328544617 0.28846046328544617
0.27222296595573425 0.27222296595573425 0.27222296595573425
0.26227986812591553 0.26227986812591553 0.26227986812591553
0.27097371220588684 0.27097371220588684 0.27097371220588684
0.31633353233337402 0.31633353233337402 0.31633353233337402
0.39162188768386841 0.39162188768386841 0.39162188768386841
0.47520279884338379 0.47520279884338379 0.47520279884338379
0.55107986927032471 0.55107986927032471 0.55107986927032471
0.60498887300491333 0.60498887300491333 0.60498887300491333
0.64728522300720215 0.64728522300720215 0.64728522300720215
0.69349944591522217 0.69349944591522217 0.69349944591522217
0.74362218379974365 0.74362218379974365 0.74362218379974365
0.7918931245803833 0.7918931245803833 0.7918931245803833
0.34914597868919373 0.34914597868919373 0.34914597868919373
0.33186817169189453 0.33186817169189453 0.33186817169189453
0.31626057624816895 0.31626057624816895 0.31626057624816895
0.31297361850738525 0.31297361850738525 0.31297361850738525
0.3404698371887207 0.3404698371887207 0.3404698371887207
0.39945775270462036 0.39945775270462036 0.39945775270462036
0.47969365119934082 0.47969365119934082 0.47969365119934082
0.56680530309677124 0.56680530309677124 0.56680530309677124
0.64130324125289917 0.64130324125289917 0.64130324125289917
0.69862538576126099 0.69862538576126099 0.69862538576126099
0.74719566106796265 0.74719566106796265 0.74719566106796265
0.79043102264404297 0.79043102264404297 0.79043102264404297
0.82971948385238647 0.82971948385238647 0.82971948385238647
0.41716563701629639 0.41716563701629639 0.41716563701629639
0.40306529402732849 0.40306529402732849 0.40306529402732849
0.38901129364967346 0.38901129364967346 0.38901129364967346
0.3790070116519928 0.3790070116519928 0.3790070116519928
0.38707238435745239 0.38707238435745239 0.38707238435745239
0.42624223232269287 0.42624223232269287 0.42624223232269287
0.49557757377624512 0.49557757377624512 0.49557757377624512
0.58158969879150391 0.58158969879150391 0.58158969879150391
0.66498100757598877 0.66498100757598877 0.66498100757598877
0.73447811603546143 0.73447811603546143 0.73447811603546143
0.78816080093383789 0.78816080093383789 0.78816080093383789
0.82853275537490845 0.82853275537490845 0.82853275537490845
0.86120766401290894 0.86120766401290894 0.86120766401290894
0.49375388026237488 0.49375388026237488 0.49375388026237488
0.48456278443336487 0.48456278443336487 0.48456278443336487
0.47338405251502991 0.47338405251502991 0.47338405251502991
0.45870077610015869 0.45870077610015869 0.45870077610015869
0.45271342992782593 0.45271342992782593 0.45271342992782593
0.47532588243484497 0.47532588243484497 0.47532588243484497
0.53241264820098877 0.53241264820098877 0.53241264820098877
0.61029356718063354 0.61029356718063354 0.61029356718063354
0.69142323732376099 0.69142323732376099 0.69142323732376099
0.76218694448471069 0.76218694448471069 0.76218694448471069
0.81642478704452515 0.81642478704452515 0.81642478704452515
0.85544866323471069 0.85544866323471069 0.85544866323471069
0.88536399602890015 0.88536399602890015 0.88536399602890015
0.58239132165908813 0.58239132165908813 0.58239132165908813
0.57538408041000366 0.57538408041000366 0.57538408041000366
0.56499409675598145 0.56499409675598145 0.56499409675598145
0.54949659109115601 0.54949659109115601 0.54949659109115601
0.53740650415420532 0.53740650415420532 0.53740650415420532
0.5499151349067688 0.5499151349067688 0.5499151349067688
0.59349918365478516 0.59349918365478516 0.59349918365478516
0.65776342153549194 0.65776342153549194 0.65776342153549194
0.72762632369995117 0.72762632369995117 0.72762632369995117
0.7905614972114563 0.7905614972114563 0.7905614972114563
0.83995646238327026 0.83995646238327026 0.83995646238327026
0.87585842609405518 0.87585842609405518 0.87585842609405518
0.90392446517944336 0.90392446517944336 0.90392446517944336
0.67979627847671509 0.67979627847671509 0.67979627847671509
0.67281132936477661 0.67281132936477661 0.67281132936477661
0.66310089826583862 0.66310089826583862 0.66310089826583862
0.64984500408172607 0.64984500408172607 0.64984500408172607
0.64008074998855591 0.64008074998855591 0.64008074998855591
0.64590638875961304 0.64590638875961304 0.64590638875961304
0.67460411787033081 0.67460411787033081 0.67460411787033081
0.72123426198959351 0.72123426198959351 0.72123426198959351
0.77504515647888184 0.77504515647888184 0.77504515647888184
0.82501935958862305 0.82501935958862305 0.82501935958862305
0.86505657434463501 0.86505657434463501 0.86505657434463501
0.89556622505187988 0.89556622505187988 0.89556622505187988
0.92040383815765381 0.92040383815765381 0.92040383815765381
0.77660161256790161 0.77660161256790161 0.77660161256790161
0.77068769931793213 0.77068769931793213 0.77068769931793213
0.76282477378845215 0.76282477378845215 0.76282477378845215
0.75420284271240234 0.75420284271240234 0.75420284271240234
0.74749767780303955 0.74749767780303955 0.74749767780303955
0.748512864112854 0.748512864112854 0.748512864112854
0.76367449760437012 0.76367449760437012 0.76367449760437012
0.79287028312683105 0.79287028312683105 0.79287028312683105
0.82961910963058472 0.82961910963058472 0.82961910963058472
0.86537259817123413 0.86537259817123413 0.86537259817123413
0.89506328105926514 0.89506328105926514 0.89506328105926514
0.91896086931228638 0.91896086931228638 0.91896086931228638
0.9400932788848877 0.9400932788848877 0.9400932788848877
0.12131991237401962 0.12131991237401962 0.12131991237401962
0.12197491526603699 0.12197491526603699 0.12197491526603699
0.12891334295272827 0.12891334295272827 0.12891334295272827
0.14432576298713684 0.14432576298713684 0.14432576298713684
0.17075403034687042 0.17075403034687042 0.17075403034687042
0.21004687249660492 0.21004687249660492 0.21004687249660492
0.26115375757217407 0.26115375757217407 0.26115375757217407
0.32006818056106567 0.32006818056106567 0.32006818056106567
0.38256657123565674 0.38256657123565674 0.38256657123565674
0.44455212354660034 0.44455212354660034 0.44455212354660034
0.50670069456100464 0.50670069456100464 0.50670069456100464
0.57268214225769043 0.57268214225769043 0.57268214225769043
0.64341574907302856 0.64341574907302856 0.64341574907302856
0.12405874580144882 0.12405874580144882 0.12405874580144882
0.12695401906967163 0.12695401906967163 0.12695401906967163
0.13694107532501221 0.13694107532501221 0.13694107532501221
0.15481585264205933 0.15481585264205933 0.15481585264205933
0.18347539007663727 0.18347539007663727 0.18347539007663727
0.22502095997333527 0.22502095997333527 0.22502095997333527
0.27672815322875977 0.27672815322875977 0.27672815322875977
0.33419370651245117 0.33419370651245117 0.33419370651245117
0.3945382833480835 0.3945382833480835 0.3945382833480835
0.45675510168075562 0.45675510168075562 0.45675510168075562
0.52063101530075073 0.52063101530075073 0.52063101530075073
0.58836811780929565 0.58836811780929565 0.58836811780929565
0.65861380100250244 0.65861380100250244 0.65861380100250244
0.14037664234638214 0.14037664234638214 0.14037664234638214
0.14540399610996246 0.14540399610996246 0.14540399610996246
0.15870837867259979 0.15870837867259979 0.15870837867259979
0.18058517575263977 0.18058517575263977 0.18058517575263977
0.21415123343467712 0.21415123343467712 0.21415123343467712
0.25867238640785217 0.25867238640785217 0.25867238640785217
0.3082631528377533 0.3082631528377533 0.3082631528377533
0.35904812812805176 0.35904812812805176 0.35904812812805176
0.41275098919868469 0.41275098919868469 0.41275098919868469
0.47210276126861572 0.47210276126861572 0.47210276126861572
0.537433922290802 0.537433922290802 0.537433922290802
0.60685652494430542 0.60685652494430542 0.60685652494430542
0.67699742317199707 0.67699742317199707 0.67699742317199707
0.17429803311824799 0.17429803311824799 0.17429803311824799
0.17919258773326874 0.17919258773326874 0.17919258773326874
0.19268643856048584 0.19268643856048584 0.19268643856048584
0.21717855334281921 0.21717855334281921 0.21717855334281921
0.25668981671333313 0.25668981671333313 0.25668981671333313
0.30780467391014099 0.30780467391014099 0.30780467391014099
0.35686972737312317 0.35686972737312317 0.35686972737312317
0.39782810211181641 0.39782810211181641 0.39782810211181641
0.44060301780700684 0.44060301780700684 0.44060301780700684
0.49454048275947571 0.49454048275947571 0.49454048275947571
0.5591200590133667 0.5591200590133667 0.5591200590133667
0.62910109758377075 0.62910109758377075 0.62910109758377075
0.6986013650894165 0.6986013650894165 0.6986013650894165
0.22504231333732605 0.22504231333732605 0.22504231333732605
0.22477950155735016 0.22477950155735016 0.22477950155735016
0.23208193480968475 0.23208193480968475 0.23208193480968475
0.25179609656333923 0.25179609656333923 0.25179609656333923
0.29427716135978699 0.29427716135978699 0.29427716135978699
0.35990110039710999 0.35990110039710999 0.35990110039710999
0.41681912541389465 0.41681912541389465 0.41681912541389465
0.45147886872291565 0.45147886872291565 0.45147886872291565
0.48461639881134033 0.48461639881134033 0.48461639881134033
