luts/instant_pro/fuji_fp-100c_cool_++.cube
# Created by: G'MIC (https://gmic.eu)
TITLE "fuji_fp-100c_cool_++"
# LUT size
LUT_3D_SIZE 13
# Data domain
DOMAIN_MIN 0.0 0.0 0.0
DOMAIN_MAX 1.0 1.0 1.0
# LUT data points
0.16954982280731201 0.13088801503181458 0.16680851578712463
0.179364874958992 0.13138975203037262 0.16627490520477295
0.1909174770116806 0.13145932555198669 0.16585598886013031
0.22380499541759491 0.13217969238758087 0.16530421376228333
0.29331856966018677 0.12769874930381775 0.16477593779563904
0.36812138557434082 0.11925742775201797 0.16339705884456635
0.46168625354766846 0.10118064284324646 0.1629515141248703
0.55909609794616699 0.082895956933498383 0.16035838425159454
0.6499904990196228 0.067475385963916779 0.15722222626209259
0.73617005348205566 0.060697279870510101 0.15412777662277222
0.81555122137069702 0.067392356693744659 0.15019808709621429
0.88952124118804932 0.094036489725112915 0.15021675825119019
0.95793771743774414 0.14003024995326996 0.15465368330478668
0.17009085416793823 0.14397194981575012 0.16776961088180542
0.17896115779876709 0.14146892726421356 0.16689975559711456
0.19757787883281708 0.14375764131546021 0.16602809727191925
0.23962326347827911 0.15265263617038727 0.16512735188007355
0.31151959300041199 0.15211018919944763 0.16547344624996185
0.38897106051445007 0.1432134211063385 0.16358041763305664
0.47427937388420105 0.12753771245479584 0.16269184648990631
0.57049274444580078 0.11719569563865662 0.16135038435459137
0.6635553240776062 0.11410054564476013 0.15865741670131683
0.74617159366607666 0.12038583308458328 0.15542285144329071
0.82298874855041504 0.13147164881229401 0.15262342989444733
0.89496296644210815 0.14861458539962769 0.15165698528289795
0.96190905570983887 0.18254454433917999 0.15568964183330536
0.16856908798217773 0.16180771589279175 0.16717995703220367
0.17789825797080994 0.16132001578807831 0.16650302708148956
0.20540995895862579 0.16703687608242035 0.16418072581291199
0.25172677636146545 0.17867742478847504 0.1618286520242691
0.32835641503334045 0.18463210761547089 0.16143891215324402
0.41741979122161865 0.18613725900650024 0.16057804226875305
0.4987589418888092 0.18267159163951874 0.16311506927013397
0.5925300121307373 0.1852525919675827 0.16079239547252655
0.68178629875183105 0.18674781918525696 0.15787062048912048
0.76025170087814331 0.18746811151504517 0.15441897511482239
0.8327406644821167 0.20058777928352356 0.15229849517345428
0.90006142854690552 0.21882860362529755 0.1540914922952652
0.96366101503372192 0.24610759317874908 0.15939491987228394
0.15931272506713867 0.21107764542102814 0.16747847199440002
0.17553922533988953 0.21635569632053375 0.16767635941505432
0.2090754359960556 0.2187068909406662 0.16559538245201111
0.26092731952667236 0.22458583116531372 0.15869489312171936
0.34167149662971497 0.2383618950843811 0.15134055912494659
0.43719968199729919 0.25038248300552368 0.15013028681278229
0.53237700462341309 0.25820097327232361 0.15421240031719208
0.6235312819480896 0.2645837664604187 0.15390531718730927
0.7010272741317749 0.26629996299743652 0.15487848222255707
0.7752874493598938 0.26835685968399048 0.15443150699138641
0.84344691038131714 0.27904215455055237 0.15513066947460175
0.90866458415985107 0.2925601601600647 0.15678168833255768
0.96869069337844849 0.31440985202789307 0.16402016580104828
0.13227030634880066 0.28809040784835815 0.17006005346775055
0.16263863444328308 0.28828397393226624 0.17025841772556305
0.20504339039325714 0.28719028830528259 0.16891889274120331
0.26335465908050537 0.29235050082206726 0.16097290813922882
0.34545323252677917 0.30810731649398804 0.14362542331218719
0.43708398938179016 0.32657578587532043 0.1324838250875473
0.53646564483642578 0.33724120259284973 0.13333982229232788
0.63673949241638184 0.34545835852622986 0.13678012788295746
0.71571505069732666 0.35465261340141296 0.14971494674682617
0.79038393497467041 0.36275935173034668 0.15547680854797363
0.85479074716567993 0.37127411365509033 0.16166800260543823
0.91504716873168945 0.37820279598236084 0.16591505706310272
0.96858358383178711 0.39375826716423035 0.17739573121070862
0.099929198622703552 0.36361575126647949 0.16755266487598419
0.14419649541378021 0.36187577247619629 0.17058394849300385
0.19620595872402191 0.35940957069396973 0.17079299688339233
0.26192229986190796 0.36356613039970398 0.16188260912895203
0.34338974952697754 0.37751489877700806 0.14325444400310516
0.42911264300346375 0.39620006084442139 0.1230655312538147
0.5248604416847229 0.40996080636978149 0.10253189504146576
0.61825406551361084 0.41830664873123169 0.093277528882026672
0.70722472667694092 0.43163856863975525 0.11125263571739197
0.79607200622558594 0.44614934921264648 0.13929614424705505
0.86199831962585449 0.45620289444923401 0.16154816746711731
0.92187070846557617 0.46062251925468445 0.17401896417140961
0.97072285413742065 0.47355964779853821 0.19547435641288757
0.05001400038599968 0.44232890009880066 0.16996897757053375
0.10388648509979248 0.439787358045578 0.17441932857036591
0.17591843008995056 0.43401554226875305 0.17355997860431671
0.25411897897720337 0.43602141737937927 0.16381406784057617
0.33062386512756348 0.44661703705787659 0.14668193459510803
0.40676572918891907 0.4612884521484375 0.12604178488254547
0.50484561920166016 0.47481605410575867 0.091395296156406403
0.60081732273101807 0.48929575085639954 0.046177733689546585
0.6901925802230835 0.50188750028610229 0.046822447329759598
0.77880465984344482 0.51456862688064575 0.079022392630577087
0.85527783632278442 0.52805787324905396 0.12118308991193771
0.92370235919952393 0.54145890474319458 0.17748486995697021
0.97525519132614136 0.55347013473510742 0.22099554538726807
0.012075446546077728 0.52383512258529663 0.17926383018493652
0.056856431066989899 0.52022296190261841 0.18090170621871948
0.15023405849933624 0.51041775941848755 0.18171672523021698
0.24468894302845001 0.50839859247207642 0.17422263324260712
0.32271721959114075 0.51767534017562866 0.15905576944351196
0.39858680963516235 0.5271642804145813 0.14205233752727509
0.48995643854141235 0.53954547643661499 0.10485606640577316
0.58276093006134033 0.55471593141555786 0.053296122699975967
0.67150986194610596 0.5686689019203186 0.017032114788889885
0.76099085807800293 0.58015143871307373 0.018424928188323975
0.84299606084823608 0.59057599306106567 0.053609300404787064
0.91534632444381714 0.60481947660446167 0.13659259676933289
0.97215616703033447 0.62005770206451416 0.21291822195053101
0.0074924994260072708 0.59283530712127686 0.1911981999874115
0.035758942365646362 0.5911945104598999 0.18995875120162964
0.13555820286273956 0.58469992876052856 0.19110900163650513
0.2327057421207428 0.57944482564926147 0.186517134308815
0.31351161003112793 0.58500391244888306 0.17727184295654297
0.38830476999282837 0.59148752689361572 0.16515545547008514
0.47755917906761169 0.60470080375671387 0.13125984370708466
0.56618750095367432 0.61977165937423706 0.081589117646217346
0.65142363309860229 0.63255167007446289 0.031966280192136765
0.742919921875 0.64198994636535645 0.011863409541547298
0.82723164558410645 0.64900076389312744 0.011025985702872276
0.90195256471633911 0.65998083353042603 0.050669383257627487
0.96728783845901489 0.67410331964492798 0.15501454472541809
0.0078095081262290478 0.66444331407546997 0.20698718726634979
0.052387237548828125 0.66183292865753174 0.20622657239437103
0.15219789743423462 0.65761780738830566 0.20949998497962952
0.24380697309970856 0.65389400720596313 0.20802922546863556
0.32538682222366333 0.65667217969894409 0.20557747781276703
0.39844238758087158 0.65850913524627686 0.19886717200279236
0.47601538896560669 0.66714495420455933 0.17881123721599579
0.56194609403610229 0.68033701181411743 0.14032454788684845
0.64851725101470947 0.69215303659439087 0.095726802945137024
0.73251771926879883 0.70155256986618042 0.035520993173122406
0.81309801340103149 0.70866119861602783 0.0085634570568799973
0.88919597864151001 0.71639102697372437 0.0078065609559416771
0.95913708209991455 0.72629022598266602 0.063264377415180206
0.089130252599716187 0.73478418588638306 0.24432368576526642
0.13574451208114624 0.73119091987609863 0.24817569553852081
0.21413862705230713 0.73051345348358154 0.24913647770881653
0.28993245959281921 0.72876453399658203 0.24912461638450623
0.36222916841506958 0.72772067785263062 0.25137573480606079
0.42984914779663086 0.72744739055633545 0.2452210932970047
0.49703517556190491 0.73145532608032227 0.23301689326763153
0.57124233245849609 0.74043607711791992 0.20928794145584106
0.65208685398101807 0.75086027383804321 0.17161421477794647
0.73274564743041992 0.75966769456863403 0.11575493961572647
0.80818188190460205 0.76858580112457275 0.058313857764005661
0.88430756330490112 0.77545005083084106 0.016362342983484268
0.95236462354660034 0.78008818626403809 0.0090133817866444588
0.243583083152771 0.80524754524230957 0.31618177890777588
0.27255815267562866 0.80431890487670898 0.31810727715492249
0.31435635685920715 0.80320459604263306 0.31668120622634888
0.3676970899105072 0.80119180679321289 0.31777751445770264
0.42657741904258728 0.79873234033584595 0.32089334726333618
0.48576042056083679 0.79644596576690674 0.31727254390716553
0.54492825269699097 0.79917711019515991 0.31160593032836914
0.61195248365402222 0.80577993392944336 0.29964557290077209
0.6795508861541748 0.81421220302581787 0.28104391694068909
0.75057238340377808 0.82229077816009521 0.25000464916229248
0.82247239351272583 0.82925033569335938 0.21148064732551575
0.89431613683700562 0.83561170101165771 0.14903350174427032
0.95739060640335083 0.83889764547348022 0.077143922448158264
0.42840710282325745 0.87827438116073608 0.44401919841766357
0.44256117939949036 0.8779141902923584 0.44272226095199585
0.46700635552406311 0.8765748143196106 0.44300326704978943
0.49895262718200684 0.87363719940185547 0.44388654828071594
0.54193150997161865 0.87230253219604492 0.44839480519294739
0.59157389402389526 0.8704645037651062 0.45369207859039307
0.64121717214584351 0.87181395292282104 0.45670011639595032
0.6903495192527771 0.87519484758377075 0.44998067617416382
0.74456065893173218 0.88136988878250122 0.44008681178092957
0.79974019527435303 0.88686823844909668 0.42526543140411377
0.86110442876815796 0.89201653003692627 0.40840932726860046
0.92099064588546753 0.89818769693374634 0.38463157415390015
0.97495841979980469 0.90363401174545288 0.34736883640289307
0.17013131082057953 0.13094362616539001 0.17754478752613068
0.17966806888580322 0.13063615560531616 0.17723651230335236
0.18880285322666168 0.13027973473072052 0.17375357449054718
0.22197766602039337 0.13038511574268341 0.17451898753643036
0.29279443621635437 0.1197277158498764 0.1767074316740036
0.37559777498245239 0.10292048752307892 0.17615954577922821
0.46736258268356323 0.076254032552242279 0.18011452257633209
0.56032764911651611 0.055813748389482498 0.1816180944442749
0.65012961626052856 0.050244364887475967 0.18374912440776825
0.73608791828155518 0.044297147542238235 0.17776030302047729
0.8157159686088562 0.051403794437646866 0.17331603169441223
0.88607072830200195 0.089822210371494293 0.1782403439283371
0.95572108030319214 0.13813897967338562 0.18186298012733459
0.16889095306396484 0.14116925001144409 0.17855392396450043
0.17960505187511444 0.13954901695251465 0.1772553026676178
0.19633373618125916 0.14038999378681183 0.1749245822429657
0.23922696709632874 0.14622630178928375 0.17863959074020386
0.31168997287750244 0.14164213836193085 0.18112392723560333
0.39374136924743652 0.12947329878807068 0.18099536001682281
0.47906064987182617 0.11004061251878738 0.1865207701921463
0.57403856515884399 0.099055089056491852 0.18915842473506927
0.66617751121520996 0.10207977145910263 0.19003231823444366
0.74643898010253906 0.10624099522829056 0.18433704972267151
0.82179850339889526 0.12234363704919815 0.17926393449306488
0.89210748672485352 0.14765791594982147 0.18311484158039093
0.9590495228767395 0.18432320654392242 0.18527868390083313
0.16662190854549408 0.16556715965270996 0.17904448509216309
0.18086819350719452 0.16745002567768097 0.17835687100887299
0.20531237125396729 0.17212127149105072 0.17668639123439789
0.25845468044281006 0.18136927485466003 0.17842766642570496
0.33254185318946838 0.18506437540054321 0.17747281491756439
0.42071983218193054 0.18302777409553528 0.18260130286216736
0.50541591644287109 0.17854757606983185 0.19423840939998627
0.59647083282470703 0.17750129103660583 0.19254365563392639
0.68307530879974365 0.17883756756782532 0.19003881514072418
0.75878727436065674 0.18174634873867035 0.18727134168148041
0.83254212141036987 0.19752620160579681 0.18166442215442657
0.90023481845855713 0.21971507370471954 0.18445074558258057
0.96399682760238647 0.24457143247127533 0.18758182227611542
0.15234321355819702 0.22412058711051941 0.18242891132831573
0.1753159761428833 0.22153756022453308 0.18302054703235626
0.21128244698047638 0.22107137739658356 0.17980588972568512
0.27513286471366882 0.23674952983856201 0.17718721926212311
0.35226258635520935 0.24739426374435425 0.16752590239048004
0.44409677386283875 0.25518745183944702 0.17798434197902679
0.53770911693572998 0.26058655977249146 0.1922953724861145
0.62374556064605713 0.26073351502418518 0.18900708854198456
0.7007409930229187 0.26483520865440369 0.18991801142692566
0.77344202995300293 0.27012240886688232 0.18872629106044769
0.84572941064834595 0.27652567625045776 0.18226078152656555
0.90770113468170166 0.29547670483589172 0.18856321275234222
0.96671074628829956 0.31740275025367737 0.19734789431095123
0.12829801440238953 0.29671189188957214 0.18687731027603149
0.16022761166095734 0.29788535833358765 0.19170208275318146
0.20831169188022614 0.29748192429542542 0.18985664844512939
0.2757258415222168 0.30472454428672791 0.18320746719837189
0.35799163579940796 0.31616032123565674 0.16597349941730499
0.44816294312477112 0.33205792307853699 0.16251121461391449
0.54494559764862061 0.34144070744514465 0.1686902642250061
0.63768237829208374 0.35024231672286987 0.18141748011112213
0.71693772077560425 0.35724934935569763 0.19183577597141266
0.79063445329666138 0.36289602518081665 0.1928684413433075
0.85646802186965942 0.36897605657577515 0.19397474825382233
0.91381829977035522 0.37920400500297546 0.19958825409412384
0.96856939792633057 0.39461693167686462 0.21034203469753265
0.081236943602561951 0.37667632102966309 0.19570940732955933
0.1355968713760376 0.37530744075775146 0.19918985664844513
0.19531078636646271 0.37383022904396057 0.19643935561180115
0.2689964771270752 0.3766329288482666 0.18723894655704498
0.34963080286979675 0.3864363431930542 0.17220225930213928
0.43721655011177063 0.40290096402168274 0.15574045479297638
0.5340111255645752 0.41654777526855469 0.13437587022781372
0.62651944160461426 0.42707940936088562 0.14082509279251099
0.71444094181060791 0.4378962516784668 0.16258186101913452
0.798961341381073 0.44963067770004272 0.18293918669223785
0.86540907621383667 0.45945703983306885 0.20511317253112793
0.92341232299804688 0.46484380960464478 0.21197646856307983
0.97485142946243286 0.47349086403846741 0.22404587268829346
0.031756084412336349 0.45546552538871765 0.20088393986225128
0.097272761166095734 0.45190399885177612 0.20307829976081848
0.17481033504009247 0.44835466146469116 0.1994028240442276
0.2563118040561676 0.45003074407577515 0.18999288976192474
0.33484733104705811 0.45820841193199158 0.17624866962432861
0.41274726390838623 0.4701324999332428 0.15844883024692535
0.51442861557006836 0.48212411999702454 0.13045242428779602
0.61052113771438599 0.49537914991378784 0.099210940301418304
0.69996321201324463 0.50824218988418579 0.10031715780496597
0.78500628471374512 0.52038252353668213 0.13528196513652802
0.8593747615814209 0.53284996747970581 0.17962661385536194
0.92690497636795044 0.54580742120742798 0.2256639152765274
0.97285813093185425 0.55336964130401611 0.25493082404136658
0.012927350588142872 0.53020763397216797 0.20937298238277435
0.05235990509390831 0.52986723184585571 0.21077898144721985
0.15144909918308258 0.52263146638870239 0.20846936106681824
0.24589553475379944 0.51999872922897339 0.2003336101770401
0.32638046145439148 0.52697139978408813 0.18813276290893555
0.40475136041641235 0.53563106060028076 0.17585618793964386
0.49574819207191467 0.54629874229431152 0.14619842171669006
0.59012836217880249 0.55979490280151367 0.099427379667758942
0.67992311716079712 0.57350760698318481 0.049421466886997223
0.76586431264877319 0.58412700891494751 0.057949215173721313
0.84545779228210449 0.59427016973495483 0.11473412811756134
0.91278600692749023 0.60688799619674683 0.18344725668430328
0.97066086530685425 0.62191975116729736 0.25052565336227417
0.0103404326364398 0.60048371553421021 0.21868923306465149
0.034924659878015518 0.60012465715408325 0.21713350713253021
0.13508284091949463 0.59357577562332153 0.21781578660011292
0.2354157418012619 0.58936911821365356 0.2132980078458786
0.31906846165657043 0.59351623058319092 0.20557884871959686
0.39836934208869934 0.60067284107208252 0.1994733065366745
0.48380988836288452 0.61044043302536011 0.17349252104759216
0.57222145795822144 0.62246906757354736 0.1317179799079895
0.65958374738693237 0.63410818576812744 0.08219870924949646
0.74784016609191895 0.64481997489929199 0.027510609477758408
0.82923829555511475 0.65194201469421387 0.032386809587478638
0.90178912878036499 0.66190862655639648 0.10080741345882416
0.96725213527679443 0.67725878953933716 0.19986791908740997
0.011354678310453892 0.67122352123260498 0.23299199342727661
0.055377226322889328 0.6681523323059082 0.23200719058513641
0.15626390278339386 0.663521409034729 0.23631839454174042
0.24834176898002625 0.65994489192962646 0.23504872620105743
0.32817190885543823 0.66152751445770264 0.2317531406879425
0.40305256843566895 0.66614031791687012 0.22344385087490082
0.47871395945549011 0.67231124639511108 0.20509782433509827
0.5613480806350708 0.681388258934021 0.17678737640380859
0.64691740274429321 0.69304269552230835 0.1420818567276001
0.73391950130462646 0.7034267783164978 0.074144311249256134
0.81629317998886108 0.71192151308059692 0.019430527463555336
0.89137274026870728 0.7164265513420105 0.023015430197119713
0.9603690505027771 0.72895187139511108 0.11013302952051163
0.08854510635137558 0.73943257331848145 0.27187111973762512
0.14179374277591705 0.73645544052124023 0.27038359642028809
0.21906985342502594 0.73589515686035156 0.26946195960044861
0.29130184650421143 0.73250430822372437 0.27067101001739502
0.36182096600532532 0.73202455043792725 0.2691490650177002
0.43323323130607605 0.73254191875457764 0.2651764452457428
0.5009993314743042 0.73413574695587158 0.25696435570716858
0.57286298274993896 0.74061453342437744 0.23679560422897339
0.6520230770111084 0.75138968229293823 0.20797990262508392
0.73364001512527466 0.76071923971176147 0.15441170334815979
0.81111627817153931 0.76979917287826538 0.097849905490875244
0.88594847917556763 0.77575397491455078 0.03666260838508606
0.95645332336425781 0.78159981966018677 0.026877699419856071
0.24331478774547577 0.80724078416824341 0.34009194374084473
0.27218130230903625 0.80718672275543213 0.33707311749458313
0.3146263062953949 0.80725032091140747 0.33375325798988342
0.36730766296386719 0.80457335710525513 0.3350280225276947
0.42709890007972717 0.80015659332275391 0.33977791666984558
0.48861297965049744 0.79834210872650146 0.33757591247558594
0.54986917972564697 0.80055063962936401 0.334127277135849
0.6147264838218689 0.80749475955963135 0.32073530554771423
0.68221545219421387 0.81486612558364868 0.30268439650535583
0.75218290090560913 0.82258981466293335 0.27409595251083374
0.82506018877029419 0.83003145456314087 0.24011704325675964
0.89622348546981812 0.83589905500411987 0.17986249923706055
0.95933449268341064 0.83936542272567749 0.10925298929214478
0.42711308598518372 0.87825173139572144 0.45820659399032593
0.44151595234870911 0.87872976064682007 0.45549550652503967
0.46572703123092651 0.87821054458618164 0.45521920919418335
0.49833548069000244 0.87596702575683594 0.45682188868522644
0.54331600666046143 0.87246650457382202 0.46295872330665588
0.59189093112945557 0.87110251188278198 0.4663672149181366
0.64269465208053589 0.87256628274917603 0.47124221920967102
0.69169521331787109 0.87622439861297607 0.46491017937660217
0.74686288833618164 0.88188761472702026 0.45640379190444946
0.79977560043334961 0.88746267557144165 0.43888601660728455
0.86026382446289062 0.89352869987487793 0.42200011014938354
0.92205101251602173 0.89910781383514404 0.39908134937286377
0.97465431690216064 0.90405786037445068 0.36534664034843445
0.17000582814216614 0.12999127805233002 0.19214349985122681
0.18434038758277893 0.12801434099674225 0.20101253688335419
0.20074661076068878 0.12548969686031342 0.20325379073619843
0.22749881446361542 0.12474332004785538 0.20100434124469757
0.2836507260799408 0.11945286393165588 0.20156171917915344
0.37171727418899536 0.096052207052707672 0.20563162863254547
0.46999642252922058 0.054924760013818741 0.206804558634758
0.56476789712905884 0.028028450906276703 0.20849673449993134
0.65472120046615601 0.03014761209487915 0.21214061975479126
0.735889732837677 0.026289846748113632 0.21231864392757416
0.81471937894821167 0.033376388251781464 0.2131173312664032
0.88744950294494629 0.070945069193840027 0.21598300337791443
0.95638257265090942 0.12868987023830414 0.21935613453388214
0.16802236437797546 0.13932520151138306 0.19767029583454132
0.1802927702665329 0.138800248503685 0.20228782296180725
0.20289558172225952 0.13660785555839539 0.20577554404735565
0.2412906140089035 0.13886979222297668 0.20710848271846771
0.30810821056365967 0.13378915190696716 0.20678599178791046
0.39414826035499573 0.11821088939905167 0.20825529098510742
0.48692333698272705 0.095381930470466614 0.21607866883277893
0.58042269945144653 0.077831476926803589 0.2194998562335968
0.66844457387924194 0.087067745625972748 0.22287946939468384
0.74690574407577515 0.089701645076274872 0.22102801501750946
0.82113921642303467 0.10564848780632019 0.2218906581401825
0.89245307445526123 0.13749577105045319 0.22409908473491669
0.95899409055709839 0.1800929456949234 0.22485731542110443
0.16358421742916107 0.16767407953739166 0.2054746001958847
0.1788724809885025 0.17269952595233917 0.21281489729881287
0.20822238922119141 0.17727304995059967 0.21680101752281189
0.26435413956642151 0.18032406270503998 0.21646133065223694
0.33790120482444763 0.18160803616046906 0.21363206207752228
0.42247942090034485 0.18079172074794769 0.21721221506595612
0.51278841495513916 0.17078715562820435 0.22854328155517578
0.60177356004714966 0.16655410826206207 0.22988815605640411
0.68388164043426514 0.17012283205986023 0.22833332419395447
0.75846034288406372 0.17220987379550934 0.22824974358081818
0.83116441965103149 0.18606679141521454 0.22673933207988739
0.89914119243621826 0.21093666553497314 0.22937430441379547
0.96388739347457886 0.239742711186409 0.229911208152771
0.14637814462184906 0.22807572782039642 0.22569020092487335
0.16988943517208099 0.23314449191093445 0.23371194303035736
0.21508540213108063 0.23700650036334991 0.2295866459608078
0.27961704134941101 0.24678418040275574 0.22348129749298096
0.36067578196525574 0.25542697310447693 0.2161419689655304
0.45140761137008667 0.26090589165687561 0.22471508383750916
0.54447698593139648 0.26201131939888 0.23732355237007141
0.62426614761352539 0.25876662135124207 0.23877188563346863
0.69914406538009644 0.26407599449157715 0.23945514857769012
0.77242541313171387 0.26723447442054749 0.23643465340137482
0.84420496225357056 0.27178314328193665 0.23224693536758423
0.90641301870346069 0.29045495390892029 0.2384258359670639
0.96447294950485229 0.31384223699569702 0.24401694536209106
0.11079550534486771 0.31711173057556152 0.24871058762073517
0.14805074036121368 0.32218992710113525 0.2516934871673584
0.20696048438549042 0.31900528073310852 0.24058952927589417
0.28254002332687378 0.32105562090873718 0.23049424588680267
0.3702051043510437 0.33299779891967773 0.21920172870159149
0.46305826306343079 0.34329047799110413 0.21483969688415527
0.55763411521911621 0.35103577375411987 0.22666344046592712
0.64109146595001221 0.35715687274932861 0.24143387377262115
