luts/instant_pro/fuji_fp-100c_negative_+++.cube
# Created by: G'MIC (https://gmic.eu)
TITLE "fuji_fp-100c_negative_+++"
# LUT size
LUT_3D_SIZE 7
# Data domain
DOMAIN_MIN 0.0 0.0 0.0
DOMAIN_MAX 1.0 1.0 1.0
# LUT data points
0.21862399578094482 0.16857144236564636 0.22937218844890594
0.23944836854934692 0.16352425515651703 0.22648444771766663
0.31562420725822449 0.16041822731494904 0.22567696869373322
0.47791418433189392 0.16380493342876434 0.22649453580379486
0.68355327844619751 0.19746844470500946 0.22901174426078796
0.86385208368301392 0.28875049948692322 0.23115471005439758
0.98654305934906006 0.41488838195800781 0.23151779174804688
0.21208047866821289 0.18878538906574249 0.23087173700332642
0.24226821959018707 0.19988760352134705 0.23249714076519012
0.33874243497848511 0.21372577548027039 0.23086071014404297
0.4998614490032196 0.22581693530082703 0.22727945446968079
0.70016270875930786 0.26662686467170715 0.22747083008289337
0.86410015821456909 0.35461103916168213 0.22766678035259247
0.9855189323425293 0.46495187282562256 0.22993439435958862
0.22345016896724701 0.28291746973991394 0.25136679410934448
0.25293290615081787 0.29045131802558899 0.24797692894935608
0.34443473815917969 0.32461145520210266 0.2379847913980484
0.5468025803565979 0.37543535232543945 0.21836176514625549
0.71682053804397583 0.4057195782661438 0.21324002742767334
0.87267673015594482 0.48142519593238831 0.21142493188381195
0.98649531602859497 0.54435008764266968 0.22857794165611267
0.22974291443824768 0.42264094948768616 0.27924355864524841
0.28011760115623474 0.43682274222373962 0.28402853012084961
0.36260795593261719 0.46770983934402466 0.27299842238426208
0.54514867067337036 0.53781366348266602 0.23433041572570801
0.74386811256408691 0.59402978420257568 0.19590213894844055
0.87940245866775513 0.61439675092697144 0.20821830630302429
0.98501908779144287 0.65282350778579712 0.24156765639781952
0.2750152051448822 0.58989167213439941 0.33082693815231323
0.33500474691390991 0.59792721271514893 0.34045591950416565
0.42711976170539856 0.61638933420181274 0.34626632928848267
0.54838281869888306 0.65913718938827515 0.32740345597267151
0.72328823804855347 0.71291065216064453 0.29436963796615601
0.90085667371749878 0.75740343332290649 0.26786342263221741
0.99366241693496704 0.76117998361587524 0.31506359577178955
0.44830584526062012 0.74829560518264771 0.43657141923904419
0.49618238210678101 0.74882656335830688 0.45049580931663513
0.56536871194839478 0.75901687145233154 0.4658237099647522
0.65288025140762329 0.77710515260696411 0.47385558485984802
0.76002359390258789 0.80824321508407593 0.4625345766544342
0.88956797122955322 0.83104008436203003 0.44740939140319824
0.99503397941589355 0.84890353679656982 0.45450791716575623
0.73612600564956665 0.87063729763031006 0.58099609613418579
0.7536129355430603 0.86958771944046021 0.58466637134552002
0.79291075468063354 0.87224662303924561 0.59375911951065063
0.83812606334686279 0.87773942947387695 0.60471910238265991
0.88727504014968872 0.88938683271408081 0.60711193084716797
0.95181065797805786 0.90194636583328247 0.60241156816482544
0.99666851758956909 0.91223430633544922 0.60158705711364746
0.22595855593681335 0.16418179869651794 0.25201132893562317
0.23997408151626587 0.15853078663349152 0.24344372749328613
0.32969409227371216 0.16918450593948364 0.25157949328422546
0.49865490198135376 0.16302025318145752 0.25874298810958862
0.70248597860336304 0.19351072609424591 0.27438127994537354
0.86828058958053589 0.29170083999633789 0.28421506285667419
0.99190270900726318 0.41770032048225403 0.29380720853805542
0.21653401851654053 0.19084563851356506 0.25206854939460754
0.25333938002586365 0.20519812405109406 0.2632962167263031
0.34687688946723938 0.2205163836479187 0.26192861795425415
0.5198972225189209 0.23163722455501556 0.26664173603057861
0.71464443206787109 0.27255502343177795 0.2782282829284668
0.87072229385375977 0.35890132188796997 0.28047975897789001
0.99090063571929932 0.46791559457778931 0.29361546039581299
0.23724205791950226 0.29577326774597168 0.27784925699234009
0.27650123834609985 0.30946466326713562 0.28106889128684998
0.36015540361404419 0.33479666709899902 0.27613005042076111
0.5560421347618103 0.37110921740531921 0.26266181468963623
0.72472941875457764 0.40632891654968262 0.26633146405220032
0.8758777379989624 0.47597050666809082 0.27039724588394165
0.98626589775085449 0.5536685585975647 0.29824531078338623
0.25800091028213501 0.43712142109870911 0.30978140234947205
0.29704588651657104 0.44875350594520569 0.31193888187408447
0.38868975639343262 0.48125159740447998 0.31224247813224792
0.56209045648574829 0.5413329005241394 0.28394812345504761
0.74987488985061646 0.58907681703567505 0.26092225313186646
0.8817061185836792 0.61269915103912354 0.27587392926216125
0.98864459991455078 0.65459585189819336 0.31126642227172852
0.30089876055717468 0.60050177574157715 0.35940432548522949
0.36179238557815552 0.61226785182952881 0.37408155202865601
0.45381543040275574 0.62884509563446045 0.38522058725357056
0.57252711057662964 0.66538864374160767 0.37137690186500549
0.73326486349105835 0.71687537431716919 0.33926853537559509
0.90309476852416992 0.75277036428451538 0.33476859331130981
0.99474358558654785 0.75988423824310303 0.35802114009857178
0.46081596612930298 0.75088489055633545 0.4582335352897644
0.50157356262207031 0.75824522972106934 0.46968549489974976
0.5801398754119873 0.76491332054138184 0.48875194787979126
0.66231834888458252 0.78161126375198364 0.49560391902923584
0.75652724504470825 0.80810672044754028 0.49041220545768738
0.89208465814590454 0.83098328113555908 0.47283726930618286
0.99149072170257568 0.85073602199554443 0.46926873922348022
0.73498469591140747 0.87321043014526367 0.58744865655899048
0.75247645378112793 0.87362158298492432 0.59127819538116455
0.79293102025985718 0.87296020984649658 0.59900695085525513
0.84813189506530762 0.87775516510009766 0.61360007524490356
0.89836329221725464 0.88905447721481323 0.61296147108078003
0.956279456615448 0.90025711059570312 0.60797154903411865
0.99351906776428223 0.91246479749679565 0.60981225967407227
0.24514757096767426 0.15382412075996399 0.3012901246547699
0.29128628969192505 0.16055686771869659 0.30848467350006104
0.36527138948440552 0.18112874031066895 0.3093169629573822
0.5490182638168335 0.17588406801223755 0.32971161603927612
0.76642102003097534 0.16556645929813385 0.35296106338500977
0.91033029556274414 0.24660526216030121 0.36300206184387207
0.99249500036239624 0.42168769240379333 0.41076409816741943
0.21815647184848785 0.19348162412643433 0.31149736046791077
0.27708488702774048 0.20644299685955048 0.32290959358215332
0.37691092491149902 0.23734748363494873 0.32677015662193298
0.56559580564498901 0.24783901870250702 0.34325498342514038
0.76073092222213745 0.26079010963439941 0.35937830805778503
0.90433394908905029 0.3420872688293457 0.37558552622795105
0.99183875322341919 0.47838664054870605 0.41579285264015198
0.23373398184776306 0.29020214080810547 0.32922625541687012
0.27817735075950623 0.31251093745231628 0.34927931427955627
0.40766850113868713 0.3508307933807373 0.36135098338127136
0.58592337369918823 0.39248189330101013 0.36398595571517944
0.74870723485946655 0.41930508613586426 0.37305039167404175
0.89143723249435425 0.48695653676986694 0.38851982355117798
0.99265789985656738 0.56497174501419067 0.42138698697090149
0.29602104425430298 0.45549914240837097 0.38119485974311829
0.34627050161361694 0.47371569275856018 0.38742312788963318
0.44491583108901978 0.50548911094665527 0.39613756537437439
0.59068548679351807 0.55432295799255371 0.38643765449523926
0.75640112161636353 0.59441179037094116 0.38227877020835876
0.8871837854385376 0.62153655290603638 0.38987168669700623
0.9891323447227478 0.66439104080200195 0.42732125520706177
0.40315449237823486 0.62116140127182007 0.44243761897087097
0.42704179883003235 0.63096868991851807 0.44128650426864624
0.49481314420700073 0.64571762084960938 0.44630753993988037
0.60528689622879028 0.67461311817169189 0.45136943459510803
0.74100935459136963 0.72395813465118408 0.43858951330184937
0.90037691593170166 0.75523024797439575 0.43742042779922485
0.99207979440689087 0.75443363189697266 0.44829830527305603
0.51471614837646484 0.76052582263946533 0.50742584466934204
0.53561168909072876 0.76437091827392578 0.50906646251678467
0.59624576568603516 0.77100270986557007 0.51849299669265747
0.67785263061523438 0.78276324272155762 0.5304139256477356
0.76649242639541626 0.81161344051361084 0.53681385517120361
0.90231621265411377 0.83498853445053101 0.5271003246307373
0.98821687698364258 0.84971582889556885 0.52845162153244019
0.73419958353042603 0.87301474809646606 0.60054105520248413
0.74939644336700439 0.87490272521972656 0.60121124982833862
0.79577428102493286 0.87621611356735229 0.60947120189666748
0.85158753395080566 0.87778007984161377 0.62181603908538818
0.90668708086013794 0.8875921368598938 0.62699204683303833
0.96301651000976562 0.90093022584915161 0.62666457891464233
0.99503922462463379 0.90642625093460083 0.62498569488525391
0.31365174055099487 0.142319455742836 0.41365709900856018
0.38609856367111206 0.14716780185699463 0.42232826352119446
0.51059561967849731 0.18425524234771729 0.43993547558784485
0.63312608003616333 0.24928155541419983 0.45552480220794678
0.78191274404525757 0.27660354971885681 0.48523181676864624
0.94533848762512207 0.37812402844429016 0.52680808305740356
0.99830013513565063 0.47672522068023682 0.52559465169906616
0.28398710489273071 0.19469748437404633 0.42924255132675171
0.35972458124160767 0.2018178254365921 0.43701586127281189
0.51407057046890259 0.24970962107181549 0.459980309009552
0.64234530925750732 0.32284867763519287 0.47349509596824646
0.7885100245475769 0.36825653910636902 0.49915379285812378
0.93847000598907471 0.4455702006816864 0.5304267406463623
0.99776250123977661 0.51416057348251343 0.53772687911987305
0.18400701880455017 0.28491699695587158 0.42787754535675049
0.24796091020107269 0.29573595523834229 0.44502308964729309
0.45436587929725647 0.35475784540176392 0.47561171650886536
0.64423274993896484 0.44878244400024414 0.49791142344474792
0.7860337495803833 0.49997812509536743 0.52127891778945923
0.91493397951126099 0.54037380218505859 0.52964824438095093
0.99500191211700439 0.59157848358154297 0.5462874174118042
0.23486025631427765 0.44569334387779236 0.45576950907707214
0.29617631435394287 0.45932126045227051 0.47027003765106201
0.44333803653717041 0.50116568803787231 0.48908311128616333
0.62950253486633301 0.573028564453125 0.51657730340957642
0.77051109075546265 0.61139416694641113 0.52475041151046753
0.89193296432495117 0.64502328634262085 0.53168982267379761
0.98679530620574951 0.682273268699646 0.54525697231292725
0.36821237206459045 0.61660325527191162 0.50345265865325928
0.4360019862651825 0.62845325469970703 0.51067399978637695
0.53801041841506958 0.65173935890197754 0.52181166410446167
0.65003401041030884 0.68645870685577393 0.53131520748138428
0.76178348064422607 0.72684085369110107 0.54419797658920288
0.909443199634552 0.7554086446762085 0.54484409093856812
0.9961162805557251 0.75710803270339966 0.54842013120651245
0.54914659261703491 0.76307535171508789 0.56254285573959351
0.58160144090652466 0.76531481742858887 0.56339937448501587
0.63107043504714966 0.7772367000579834 0.56687140464782715
0.70246404409408569 0.79118996858596802 0.5706716775894165
0.79825425148010254 0.81294256448745728 0.57979553937911987
0.92207175493240356 0.83569437265396118 0.58075630664825439
0.99332106113433838 0.84558010101318359 0.57879793643951416
0.75392740964889526 0.87309408187866211 0.62051844596862793
0.77395617961883545 0.8752020001411438 0.62268102169036865
0.79268234968185425 0.87611371278762817 0.62236577272415161
0.84910982847213745 0.87780439853668213 0.63226175308227539
0.91917037963867188 0.8867800235748291 0.64472836256027222
0.96858507394790649 0.89842504262924194 0.64814752340316772
0.99661964178085327 0.90562456846237183 0.64768677949905396
0.44909182190895081 0.10075758397579193 0.5516931414604187
0.53129047155380249 0.090538129210472107 0.56251621246337891
0.65162092447280884 0.1229039803147316 0.58297979831695557
0.78171062469482422 0.28812170028686523 0.59987092018127441
0.85070347785949707 0.43732523918151855 0.60000729560852051
0.9329572319984436 0.49342265725135803 0.60805821418762207
0.99881881475448608 0.60596632957458496 0.63146620988845825
0.42245805263519287 0.1765446662902832 0.55913132429122925
0.50210714340209961 0.18279781937599182 0.56844556331634521
0.63795161247253418 0.22303663194179535 0.58699411153793335
0.77568250894546509 0.35990864038467407 0.60532903671264648
0.84680426120758057 0.49171286821365356 0.60244929790496826
0.93199253082275391 0.55092453956604004 0.61190342903137207
0.9977685809135437 0.63445872068405151 0.62837201356887817
0.26084613800048828 0.26801016926765442 0.55962169170379639
0.37312436103820801 0.28915154933929443 0.57086426019668579
0.56992077827453613 0.34439948201179504 0.58873403072357178
0.74223572015762329 0.47370597720146179 0.60554802417755127
0.83723819255828857 0.58985382318496704 0.61038804054260254
0.93510699272155762 0.63861614465713501 0.62090587615966797
0.99711889028549194 0.69107794761657715 0.63373374938964844
0.067636840045452118 0.42491120100021362 0.54705905914306641
0.17230236530303955 0.43448719382286072 0.55654662847518921
0.37478536367416382 0.46152541041374207 0.57555574178695679
0.66371321678161621 0.56255775690078735 0.60355746746063232
0.83338803052902222 0.68034744262695312 0.61765682697296143
0.93785834312438965 0.7180829644203186 0.62831336259841919
0.9949072003364563 0.73931097984313965 0.63356238603591919
0.2861839234828949 0.59891659021377563 0.55738556385040283
0.35054543614387512 0.61026948690414429 0.56616288423538208
0.47457513213157654 0.62932330369949341 0.58109331130981445
0.62622600793838501 0.67558246850967407 0.60074383020401001
0.80108875036239624 0.74070554971694946 0.61613947153091431
0.94057559967041016 0.77844035625457764 0.62604457139968872
0.99251484870910645 0.78337943553924561 0.62781965732574463
0.44652238488197327 0.74621796607971191 0.59372556209564209
0.49191039800643921 0.75251775979995728 0.59710848331451416
0.58233946561813354 0.76656830310821533 0.60256212949752808
0.71308910846710205 0.78772979974746704 0.61512517929077148
0.83528947830200195 0.81582045555114746 0.62816494703292847
0.93722474575042725 0.83470654487609863 0.63122016191482544
0.99764078855514526 0.84165459871292114 0.6341894268989563
0.71947932243347168 0.86989754438400269 0.64398056268692017
0.7418903112411499 0.87100458145141602 0.64573055505752563
0.79461503028869629 0.87607604265213013 0.64822423458099365
0.85668230056762695 0.88256257772445679 0.65376812219619751
0.92864447832107544 0.88713085651397705 0.67029523849487305
0.97922885417938232 0.89747899770736694 0.67700666189193726
0.99834835529327393 0.90667188167572021 0.68357354402542114
0.66038006544113159 0.008135208860039711 0.67054826021194458
0.70488005876541138 0.013000518083572388 0.67330634593963623
0.7904428243637085 0.11586754024028778 0.6809227466583252
0.88543134927749634 0.32451233267784119 0.68544763326644897
0.95363026857376099 0.54494929313659668 0.67928022146224976
0.97884142398834229 0.64812552928924561 0.67337930202484131
0.9989737868309021 0.68552207946777344 0.68139481544494629
0.63190054893493652 0.12566909193992615 0.66853052377700806
0.68304860591888428 0.15465298295021057 0.67267918586730957
0.77227497100830078 0.23116366565227509 0.67927932739257812
0.86981141567230225 0.39107602834701538 0.68394672870635986
0.94908183813095093 0.59197700023651123 0.68075913190841675
0.98608040809631348 0.67999017238616943 0.67244970798492432
0.99932998418807983 0.70343315601348877 0.67130404710769653
0.52188777923583984 0.2672005295753479 0.66684192419052124
0.58836418390274048 0.2870388925075531 0.66942822933197021
0.71027553081512451 0.35381898283958435 0.67620444297790527
0.83195894956588745 0.4862220287322998 0.68161529302597046
0.93412894010543823 0.64445561170578003 0.68116766214370728
0.98702645301818848 0.72017782926559448 0.67518419027328491
1 0.74952977895736694 0.68267738819122314
0.066053934395313263 0.3849509060382843 0.65108585357666016
0.19892197847366333 0.39129483699798584 0.6553310751914978
0.51018631458282471 0.43424856662750244 0.66578483581542969
0.74644118547439575 0.55718910694122314 0.67329078912734985
0.90661156177520752 0.69743382930755615 0.67686301469802856
0.98193037509918213 0.76920384168624878 0.68437713384628296
0.99822062253952026 0.79462122917175293 0.69878190755844116
0.0095874862745404243 0.57773560285568237 0.63618087768554688
0.041806373745203018 0.58317333459854126 0.63812708854675293
0.22539222240447998 0.59004592895507812 0.64316987991333008
0.51105332374572754 0.61198800802230835 0.65507441759109497
0.82265591621398926 0.72552436590194702 0.66955363750457764
0.98518979549407959 0.81074661016464233 0.69016474485397339
0.99604576826095581 0.82963007688522339 0.70492696762084961
0.31952306628227234 0.73242330551147461 0.63152033090591431
0.3708195686340332 0.73666048049926758 0.63384312391281128
0.47520712018013 0.74672383069992065 0.63825821876525879
0.62568813562393188 0.76207816600799561 0.64597970247268677
0.78157913684844971 0.79198604822158813 0.66136366128921509
0.96609175205230713 0.84273731708526611 0.68797457218170166
0.99748623371124268 0.86763209104537964 0.71028560400009155
0.59697681665420532 0.87141668796539307 0.67142236232757568
0.62613397836685181 0.87246930599212646 0.67228794097900391
0.68793588876724243 0.87497496604919434 0.67430287599563599
0.7856937050819397 0.88005936145782471 0.6801077127456665
0.89943212270736694 0.88759833574295044 0.69511193037033081
0.9788936972618103 0.89800053834915161 0.71357673406600952
0.99957507848739624 0.91001754999160767 0.73173123598098755
0.83489829301834106 0.15213821828365326 0.76102745532989502
0.85347169637680054 0.21130052208900452 0.76011425256729126
0.90131479501724243 0.32207652926445007 0.75795340538024902
0.96079474687576294 0.47041177749633789 0.75641131401062012
0.99815177917480469 0.62691432237625122 0.7504652738571167
1 0.74914908409118652 0.74854940176010132
1 0.78593456745147705 0.73998826742172241
0.81205004453659058 0.24677816033363342 0.75904428958892822
0.83772724866867065 0.28666752576828003 0.75916743278503418
0.8835633397102356 0.37657386064529419 0.75805377960205078
0.94690072536468506 0.51483970880508423 0.75652885437011719
0.99525809288024902 0.65557008981704712 0.75187236070632935
0.99998205900192261 0.75607270002365112 0.74838137626647949
1 0.7922208309173584 0.73989963531494141
0.74882811307907104 0.3407784104347229 0.75578814744949341
0.78146016597747803 0.37582200765609741 0.75607150793075562
0.8400111198425293 0.45399510860443115 0.75660794973373413
0.91807478666305542 0.56740587949752808 0.75618940591812134
0.99152117967605591 0.69565403461456299 0.7545783519744873
0.99954628944396973 0.77453887462615967 0.75030934810638428
1 0.8123813271522522 0.74689775705337524
0.52216225862503052 0.39316174387931824 0.75383597612380981
0.60365253686904907 0.42486947774887085 0.7535589337348938
0.72872805595397949 0.49511772394180298 0.75292831659317017
0.84925258159637451 0.60901463031768799 0.75281065702438354
0.97291833162307739 0.72295194864273071 0.75347840785980225
0.99775761365890503 0.79864007234573364 0.75443804264068604
1 0.83678072690963745 0.75671792030334473
0.0015372481429949403 0.58854407072067261 0.73587137460708618
0.010423233732581139 0.57285088300704956 0.74086183309555054
0.17244035005569458 0.55659240484237671 0.74450498819351196
0.62830090522766113 0.60385262966156006 0.74950343370437622
0.89876151084899902 0.73578596115112305 0.75266003608703613
0.99716460704803467 0.82253295183181763 0.75912785530090332
1 0.86569887399673462 0.76743268966674805
0.019658930599689484 0.7622908353805542 0.73097509145736694
0.044446699321269989 0.7619551420211792 0.73052740097045898
0.16745565831661224 0.75875627994537354 0.73441195487976074
0.40300530195236206 0.74770218133926392 0.74084222316741943
0.64386004209518433 0.75140559673309326 0.74499201774597168
0.96874582767486572 0.83527415990829468 0.76017928123474121
0.99990898370742798 0.89499169588088989 0.77437269687652588
0.56918585300445557 0.87054026126861572 0.7469906210899353
0.58659708499908447 0.87153500318527222 0.74691760540008545
0.64360791444778442 0.87092369794845581 0.74920111894607544
0.71492117643356323 0.87281537055969238 0.7492290735244751
0.82715046405792236 0.87691009044647217 0.75996977090835571
0.95172548294067383 0.89098918437957764 0.76828503608703613
0.99962157011032104 0.91175800561904907 0.78036302328109741
