luts/instant_pro/fuji_fp-3000b_negative_++.cube
# Created by: G'MIC (https://gmic.eu)
TITLE "fuji_fp-3000b_negative_++"
# LUT size
LUT_3D_SIZE 7
# Data domain
DOMAIN_MIN 0.0 0.0 0.0
DOMAIN_MAX 1.0 1.0 1.0
# LUT data points
0.11371516436338425 0.11371516436338425 0.11371516436338425
0.12398581206798553 0.12398581206798553 0.12398581206798553
0.16310565173625946 0.16310565173625946 0.16310565173625946
0.24449253082275391 0.24449253082275391 0.24449253082275391
0.3634849488735199 0.3634849488735199 0.3634849488735199
0.50489991903305054 0.50489991903305054 0.50489991903305054
0.64817774295806885 0.64817774295806885 0.64817774295806885
0.1401766836643219 0.1401766836643219 0.1401766836643219
0.14406296610832214 0.14406296610832214 0.14406296610832214
0.18353688716888428 0.18353688716888428 0.18353688716888428
0.27209022641181946 0.27209022641181946 0.27209022641181946
0.39726346731185913 0.39726346731185913 0.39726346731185913
0.53753471374511719 0.53753471374511719 0.53753471374511719
0.67138200998306274 0.67138200998306274 0.67138200998306274
0.21537929773330688 0.21537929773330688 0.21537929773330688
0.20715892314910889 0.20715892314910889 0.20715892314910889
0.23910421133041382 0.23910421133041382 0.23910421133041382
0.33083146810531616 0.33083146810531616 0.33083146810531616
0.46094006299972534 0.46094006299972534 0.46094006299972534
0.59555089473724365 0.59555089473724365 0.59555089473724365
0.71056461334228516 0.71056461334228516 0.71056461334228516
0.33969935774803162 0.33969935774803162 0.33969935774803162
0.31883186101913452 0.31883186101913452 0.31883186101913452
0.33212560415267944 0.33212560415267944 0.33212560415267944
0.41560667753219604 0.41560667753219604 0.41560667753219604
0.53680956363677979 0.53680956363677979 0.53680956363677979
0.65833574533462524 0.65833574533462524 0.65833574533462524
0.75126868486404419 0.75126868486404419 0.75126868486404419
0.50694698095321655 0.50694698095321655 0.50694698095321655
0.48385393619537354 0.48385393619537354 0.48385393619537354
0.47798332571983337 0.47798332571983337 0.47798332571983337
0.53400534391403198 0.53400534391403198 0.53400534391403198
0.62120181322097778 0.62120181322097778 0.62120181322097778
0.70959758758544922 0.70959758758544922 0.70959758758544922
0.78181737661361694 0.78181737661361694 0.78181737661361694
0.68913328647613525 0.68913328647613525 0.68913328647613525
0.67461806535720825 0.67461806535720825 0.67461806535720825
0.66231256723403931 0.66231256723403931 0.66231256723403931
0.67938989400863647 0.67938989400863647 0.67938989400863647
0.71805483102798462 0.71805483102798462 0.71805483102798462
0.76521021127700806 0.76521021127700806 0.76521021127700806
0.81114357709884644 0.81114357709884644 0.81114357709884644
0.81548035144805908 0.81548035144805908 0.81548035144805908
0.81853288412094116 0.81853288412094116 0.81853288412094116
0.8143276572227478 0.8143276572227478 0.8143276572227478
0.8112371563911438 0.8112371563911438 0.8112371563911438
0.81363165378570557 0.81363165378570557 0.81363165378570557
0.82670861482620239 0.82670861482620239 0.82670861482620239
0.84835159778594971 0.84835159778594971 0.84835159778594971
0.14208056032657623 0.14208056032657623 0.14208056032657623
0.15783241391181946 0.15783241391181946 0.15783241391181946
0.18830719590187073 0.18830719590187073 0.18830719590187073
0.26281440258026123 0.26281440258026123 0.26281440258026123
0.38063889741897583 0.38063889741897583 0.38063889741897583
0.5131528377532959 0.5131528377532959 0.5131528377532959
0.65328240394592285 0.65328240394592285 0.65328240394592285
0.15961980819702148 0.15961980819702148 0.15961980819702148
0.17011642456054688 0.17011642456054688 0.17011642456054688
0.20774875581264496 0.20774875581264496 0.20774875581264496
0.29251450300216675 0.29251450300216675 0.29251450300216675
0.41253471374511719 0.41253471374511719 0.41253471374511719
0.54472434520721436 0.54472434520721436 0.54472434520721436
0.67619019746780396 0.67619019746780396 0.67619019746780396
0.2446037083864212 0.2446037083864212 0.2446037083864212
0.23782388865947723 0.23782388865947723 0.23782388865947723
0.26436156034469604 0.26436156034469604 0.26436156034469604
0.35598310828208923 0.35598310828208923 0.35598310828208923
0.48334112763404846 0.48334112763404846 0.48334112763404846
0.60689938068389893 0.60689938068389893 0.60689938068389893
0.71471148729324341 0.71471148729324341 0.71471148729324341
0.38795214891433716 0.38795214891433716 0.38795214891433716
0.36885485053062439 0.36885485053062439 0.36885485053062439
0.36895939707756042 0.36895939707756042 0.36895939707756042
0.43891695141792297 0.43891695141792297 0.43891695141792297
0.55429184436798096 0.55429184436798096 0.55429184436798096
0.66401195526123047 0.66401195526123047 0.66401195526123047
0.75210714340209961 0.75210714340209961 0.75210714340209961
0.54015082120895386 0.54015082120895386 0.54015082120895386
0.52872133255004883 0.52872133255004883 0.52872133255004883
0.51166766881942749 0.51166766881942749 0.51166766881942749
0.55018633604049683 0.55018633604049683 0.55018633604049683
0.63085663318634033 0.63085663318634033 0.63085663318634033
0.71367257833480835 0.71367257833480835 0.71367257833480835
0.78215128183364868 0.78215128183364868 0.78215128183364868
0.70202738046646118 0.70202738046646118 0.70202738046646118
0.69572871923446655 0.69572871923446655 0.69572871923446655
0.68028002977371216 0.68028002977371216 0.68028002977371216
0.68958151340484619 0.68958151340484619 0.68958151340484619
0.7242203950881958 0.7242203950881958 0.7242203950881958
0.76815891265869141 0.76815891265869141 0.76815891265869141
0.81243127584457397 0.81243127584457397 0.81243127584457397
0.81981611251831055 0.81981611251831055 0.81981611251831055
0.8244316577911377 0.8244316577911377 0.8244316577911377
0.81774413585662842 0.81774413585662842 0.81774413585662842
0.8125002384185791 0.8125002384185791 0.8125002384185791
0.81548571586608887 0.81548571586608887 0.81548571586608887
0.82810515165328979 0.82810515165328979 0.82810515165328979
0.84941691160202026 0.84941691160202026 0.84941691160202026
0.21896104514598846 0.21896104514598846 0.21896104514598846
0.24812802672386169 0.24812802672386169 0.24812802672386169
0.27490496635437012 0.27490496635437012 0.27490496635437012
0.33392563462257385 0.33392563462257385 0.33392563462257385
0.45165908336639404 0.45165908336639404 0.45165908336639404
0.57004851102828979 0.57004851102828979 0.57004851102828979
0.68168365955352783 0.68168365955352783 0.68168365955352783
0.21763581037521362 0.21763581037521362 0.21763581037521362
0.25365933775901794 0.25365933775901794 0.25365933775901794
0.29686504602432251 0.29686504602432251 0.29686504602432251
0.3652903139591217 0.3652903139591217 0.3652903139591217
0.47278076410293579 0.47278076410293579 0.47278076410293579
0.59145146608352661 0.59145146608352661 0.59145146608352661
0.69837683439254761 0.69837683439254761 0.69837683439254761
0.29649364948272705 0.29649364948272705 0.29649364948272705
0.31310215592384338 0.31310215592384338 0.31310215592384338
0.34910085797309875 0.34910085797309875 0.34910085797309875
0.42033985257148743 0.42033985257148743 0.42033985257148743
0.5290520191192627 0.5290520191192627 0.5290520191192627
0.63828986883163452 0.63828986883163452 0.63828986883163452
0.72847795486450195 0.72847795486450195 0.72847795486450195
0.47784149646759033 0.47784149646759033 0.47784149646759033
0.45993801951408386 0.45993801951408386 0.45993801951408386
0.46075823903083801 0.46075823903083801 0.46075823903083801
0.49532529711723328 0.49532529711723328 0.49532529711723328
0.58616292476654053 0.58616292476654053 0.58616292476654053
0.68078792095184326 0.68078792095184326 0.68078792095184326
0.75829648971557617 0.75829648971557617 0.75829648971557617
0.62264859676361084 0.62264859676361084 0.62264859676361084
0.61538243293762207 0.61538243293762207 0.61538243293762207
0.58636534214019775 0.58636534214019775 0.58636534214019775
0.59766495227813721 0.59766495227813721 0.59766495227813721
0.65640610456466675 0.65640610456466675 0.65640610456466675
0.72564923763275146 0.72564923763275146 0.72564923763275146
0.78595668077468872 0.78595668077468872 0.78595668077468872
0.73941135406494141 0.73941135406494141 0.73941135406494141
0.74030792713165283 0.74030792713165283 0.74030792713165283
0.72325420379638672 0.72325420379638672 0.72325420379638672
0.72135686874389648 0.72135686874389648 0.72135686874389648
0.74343091249465942 0.74343091249465942 0.74343091249465942
0.77843427658081055 0.77843427658081055 0.77843427658081055
0.81657081842422485 0.81657081842422485 0.81657081842422485
0.82550555467605591 0.82550555467605591 0.82550555467605591
0.8352665901184082 0.8352665901184082 0.8352665901184082
0.83100283145904541 0.83100283145904541 0.83100283145904541
0.82440382242202759 0.82440382242202759 0.82440382242202759
0.82454186677932739 0.82454186677932739 0.82454186677932739
0.83412712812423706 0.83412712812423706 0.83412712812423706
0.8531917929649353 0.8531917929649353 0.8531917929649353
0.35794126987457275 0.35794126987457275 0.35794126987457275
0.38260313868522644 0.38260313868522644 0.38260313868522644
0.44489437341690063 0.44489437341690063 0.44489437341690063
0.48915642499923706 0.48915642499923706 0.48915642499923706
0.52618718147277832 0.52618718147277832 0.52618718147277832
0.63854575157165527 0.63854575157165527 0.63854575157165527
0.71988093852996826 0.71988093852996826 0.71988093852996826
0.36613216996192932 0.36613216996192932 0.36613216996192932
0.40289562940597534 0.40289562940597534 0.40289562940597534
0.45379936695098877 0.45379936695098877 0.45379936695098877
0.50647819042205811 0.50647819042205811 0.50647819042205811
0.55080831050872803 0.55080831050872803 0.55080831050872803
0.64936321973800659 0.64936321973800659 0.64936321973800659
0.72958517074584961 0.72958517074584961 0.72958517074584961
0.39459487795829773 0.39459487795829773 0.39459487795829773
0.41476616263389587 0.41476616263389587 0.41476616263389587
0.46351835131645203 0.46351835131645203 0.46351835131645203
0.53725576400756836 0.53725576400756836 0.53725576400756836
0.59797734022140503 0.59797734022140503 0.59797734022140503
0.68318313360214233 0.68318313360214233 0.68318313360214233
0.75120621919631958 0.75120621919631958 0.75120621919631958
0.51876908540725708 0.51876908540725708 0.51876908540725708
0.510051429271698 0.510051429271698 0.510051429271698
0.53765040636062622 0.53765040636062622 0.53765040636062622
0.57143735885620117 0.57143735885620117 0.57143735885620117
0.63937979936599731 0.63937979936599731 0.63937979936599731
0.7136993408203125 0.7136993408203125 0.7136993408203125
0.77401363849639893 0.77401363849639893 0.77401363849639893
0.67712962627410889 0.67712962627410889 0.67712962627410889
0.68271893262863159 0.68271893262863159 0.68271893262863159
0.66271167993545532 0.66271167993545532 0.66271167993545532
0.66473650932312012 0.66473650932312012 0.66473650932312012
0.70034396648406982 0.70034396648406982 0.70034396648406982
0.75067323446273804 0.75067323446273804 0.75067323446273804
0.79717171192169189 0.79717171192169189 0.79717171192169189
0.78291648626327515 0.78291648626327515 0.78291648626327515
0.78651195764541626 0.78651195764541626 0.78651195764541626
0.77414149045944214 0.77414149045944214 0.77414149045944214
0.7682003378868103 0.7682003378868103 0.7682003378868103
0.77457356452941895 0.77457356452941895 0.77457356452941895
0.7959601879119873 0.7959601879119873 0.7959601879119873
0.82417947053909302 0.82417947053909302 0.82417947053909302
0.84229099750518799 0.84229099750518799 0.84229099750518799
0.85287505388259888 0.85287505388259888 0.85287505388259888
0.85085201263427734 0.85085201263427734 0.85085201263427734
0.84375417232513428 0.84375417232513428 0.84375417232513428
0.83883047103881836 0.83883047103881836 0.83883047103881836
0.84261637926101685 0.84261637926101685 0.84261637926101685
0.85656118392944336 0.85656118392944336 0.85656118392944336
0.53882145881652832 0.53882145881652832 0.53882145881652832
0.55548185110092163 0.55548185110092163 0.55548185110092163
0.60314112901687622 0.60314112901687622 0.60314112901687622
0.66315692663192749 0.66315692663192749 0.66315692663192749
0.6781345009803772 0.6781345009803772 0.6781345009803772
0.70506197214126587 0.70506197214126587 0.70506197214126587
0.75882387161254883 0.75882387161254883 0.75882387161254883
0.56580853462219238 0.56580853462219238 0.56580853462219238
0.58223336935043335 0.58223336935043335 0.58223336935043335
0.61829298734664917 0.61829298734664917 0.61829298734664917
0.67415928840637207 0.67415928840637207 0.67415928840637207
0.67611438035964966 0.67611438035964966 0.67611438035964966
0.70948320627212524 0.70948320627212524 0.70948320627212524
0.76331502199172974 0.76331502199172974 0.76331502199172974
0.56653290987014771 0.56653290987014771 0.56653290987014771
0.58059060573577881 0.58059060573577881 0.58059060573577881
0.61707448959350586 0.61707448959350586 0.61707448959350586
0.67967617511749268 0.67967617511749268 0.67967617511749268
0.70373588800430298 0.70373588800430298 0.70373588800430298
0.73821532726287842 0.73821532726287842 0.73821532726287842
0.78073209524154663 0.78073209524154663 0.78073209524154663
0.600533127784729 0.600533127784729 0.600533127784729
0.60970491170883179 0.60970491170883179 0.60970491170883179
0.63404202461242676 0.63404202461242676 0.63404202461242676
0.68259316682815552 0.68259316682815552 0.68259316682815552
0.72639596462249756 0.72639596462249756 0.72639596462249756
0.76278740167617798 0.76278740167617798 0.76278740167617798
0.79845339059829712 0.79845339059829712 0.79845339059829712
0.71014130115509033 0.71014130115509033 0.71014130115509033
0.71640503406524658 0.71640503406524658 0.71640503406524658
0.71563786268234253 0.71563786268234253 0.71563786268234253
0.73305040597915649 0.73305040597915649 0.73305040597915649
0.75927180051803589 0.75927180051803589 0.75927180051803589
0.78686141967773438 0.78686141967773438 0.78686141967773438
0.81504517793655396 0.81504517793655396 0.81504517793655396
0.80966824293136597 0.80966824293136597 0.80966824293136597
0.80894136428833008 0.80894136428833008 0.80894136428833008
0.80328065156936646 0.80328065156936646 0.80328065156936646
0.80378276109695435 0.80378276109695435 0.80378276109695435
0.80626988410949707 0.80626988410949707 0.80626988410949707
0.81658321619033813 0.81658321619033813 0.81658321619033813
0.8342970609664917 0.8342970609664917 0.8342970609664917
0.85736387968063354 0.85736387968063354 0.85736387968063354
0.86280876398086548 0.86280876398086548 0.86280876398086548
0.86175525188446045 0.86175525188446045 0.86175525188446045
0.85691440105438232 0.85691440105438232 0.85691440105438232
0.85090923309326172 0.85090923309326172 0.85090923309326172
0.85063761472702026 0.85063761472702026 0.85063761472702026
0.85957884788513184 0.85957884788513184 0.85957884788513184
0.70710045099258423 0.70710045099258423 0.70710045099258423
0.71950572729110718 0.71950572729110718 0.71950572729110718
0.74129021167755127 0.74129021167755127 0.74129021167755127
0.77930766344070435 0.77930766344070435 0.77930766344070435
0.79334336519241333 0.79334336519241333 0.79334336519241333
0.78808754682540894 0.78808754682540894 0.78808754682540894
0.80492782592773438 0.80492782592773438 0.80492782592773438
0.73311913013458252 0.73311913013458252 0.73311913013458252
0.7407107949256897 0.7407107949256897 0.7407107949256897
0.75357413291931152 0.75357413291931152 0.75357413291931152
0.78064858913421631 0.78064858913421631 0.78064858913421631
0.78798669576644897 0.78798669576644897 0.78798669576644897
0.78742057085037231 0.78742057085037231 0.78742057085037231
0.80642151832580566 0.80642151832580566 0.80642151832580566
0.73014891147613525 0.73014891147613525 0.73014891147613525
0.7495802640914917 0.7495802640914917 0.7495802640914917
0.75737613439559937 0.75737613439559937 0.75737613439559937
0.7814365029335022 0.7814365029335022 0.7814365029335022
0.79512327909469604 0.79512327909469604 0.79512327909469604
0.80068528652191162 0.80068528652191162 0.80068528652191162
0.8172721266746521 0.8172721266746521 0.8172721266746521
0.72976195812225342 0.72976195812225342 0.72976195812225342
0.74398154020309448 0.74398154020309448 0.74398154020309448
0.74802875518798828 0.74802875518798828 0.74802875518798828
0.77810120582580566 0.77810120582580566 0.77810120582580566
0.80356001853942871 0.80356001853942871 0.80356001853942871
0.81327784061431885 0.81327784061431885 0.81327784061431885
0.82801127433776855 0.82801127433776855 0.82801127433776855
0.76831471920013428 0.76831471920013428 0.76831471920013428
0.7696041464805603 0.7696041464805603 0.7696041464805603
0.76784521341323853 0.76784521341323853 0.76784521341323853
0.78974610567092896 0.78974610567092896 0.78974610567092896
0.81071668863296509 0.81071668863296509 0.81071668863296509
0.82243591547012329 0.82243591547012329 0.82243591547012329
0.83607393503189087 0.83607393503189087 0.83607393503189087
0.82136911153793335 0.82136911153793335 0.82136911153793335
0.82162356376647949 0.82162356376647949 0.82162356376647949
0.81993192434310913 0.81993192434310913 0.81993192434310913
0.82516491413116455 0.82516491413116455 0.82516491413116455
0.83095043897628784 0.83095043897628784 0.83095043897628784
0.83573192358016968 0.83573192358016968 0.83573192358016968
0.84550881385803223 0.84550881385803223 0.84550881385803223
0.85947638750076294 0.85947638750076294 0.85947638750076294
0.86287122964859009 0.86287122964859009 0.86287122964859009
0.86293888092041016 0.86293888092041016 0.86293888092041016
0.8626408576965332 0.8626408576965332 0.8626408576965332
0.85919559001922607 0.85919559001922607 0.85919559001922607
0.85714620351791382 0.85714620351791382 0.85714620351791382
0.86269181966781616 0.86269181966781616 0.86269181966781616
0.82875669002532959 0.82875669002532959 0.82875669002532959
0.83618462085723877 0.83618462085723877 0.83618462085723877
0.84609866142272949 0.84609866142272949 0.84609866142272949
0.86003214120864868 0.86003214120864868 0.86003214120864868
0.86186158657073975 0.86186158657073975 0.86186158657073975
0.85210305452346802 0.85210305452346802 0.85210305452346802
0.85094404220581055 0.85094404220581055 0.85094404220581055
0.83218222856521606 0.83218222856521606 0.83218222856521606
0.83816897869110107 0.83816897869110107 0.83816897869110107
0.84716188907623291 0.84716188907623291 0.84716188907623291
0.85778820514678955 0.85778820514678955 0.85778820514678955
0.85780966281890869 0.85780966281890869 0.85780966281890869
0.84983664751052856 0.84983664751052856 0.84983664751052856
0.85114169120788574 0.85114169120788574 0.85114169120788574
0.82444238662719727 0.82444238662719727 0.82444238662719727
0.83316314220428467 0.83316314220428467 0.83316314220428467
0.84090083837509155 0.84090083837509155 0.84090083837509155
0.85105472803115845 0.85105472803115845 0.85105472803115845
0.85478693246841431 0.85478693246841431 0.85478693246841431
0.85171854496002197 0.85171854496002197 0.85171854496002197
0.85551685094833374 0.85551685094833374 0.85551685094833374
0.81689465045928955 0.81689465045928955 0.81689465045928955
0.82365036010742188 0.82365036010742188 0.82365036010742188
0.82705092430114746 0.82705092430114746 0.82705092430114746
0.84005862474441528 0.84005862474441528 0.84005862474441528
0.8508496880531311 0.8508496880531311 0.8508496880531311
0.85313844680786133 0.85313844680786133 0.85313844680786133
0.85835409164428711 0.85835409164428711 0.85835409164428711
0.82263797521591187 0.82263797521591187 0.82263797521591187
0.82363969087600708 0.82363969087600708 0.82363969087600708
0.82446551322937012 0.82446551322937012 0.82446551322937012
0.83618557453155518 0.83618557453155518 0.83618557453155518
0.84750735759735107 0.84750735759735107 0.84750735759735107
0.85218387842178345 0.85218387842178345 0.85218387842178345
0.85894531011581421 0.85894531011581421 0.85894531011581421
0.84132254123687744 0.84132254123687744 0.84132254123687744
0.84263145923614502 0.84263145923614502 0.84263145923614502
0.84386223554611206 0.84386223554611206 0.84386223554611206
0.84869670867919922 0.84869670867919922 0.84869670867919922
0.85316967964172363 0.85316967964172363 0.85316967964172363
0.85479235649108887 0.85479235649108887 0.85479235649108887
0.86069321632385254 0.86069321632385254 0.86069321632385254
0.86375129222869873 0.86375129222869873 0.86375129222869873
0.86824291944503784 0.86824291944503784 0.86824291944503784
0.87070393562316895 0.87070393562316895 0.87070393562316895
0.87117749452590942 0.87117749452590942 0.87117749452590942
0.86958879232406616 0.86958879232406616 0.86958879232406616
0.86715424060821533 0.86715424060821533 0.86715424060821533
0.87020248174667358 0.87020248174667358 0.87020248174667358
