luts/instant_pro/fuji_fp-3000b_negative_+.cube
# Created by: G'MIC (https://gmic.eu)
TITLE "fuji_fp-3000b_negative_+"
# LUT size
LUT_3D_SIZE 13
# Data domain
DOMAIN_MIN 0.0 0.0 0.0
DOMAIN_MAX 1.0 1.0 1.0
# LUT data points
0.037950240075588226 0.037950240075588226 0.037950240075588226
0.040464378893375397 0.040464378893375397 0.040464378893375397
0.046940073370933533 0.046940073370933533 0.046940073370933533
0.057359881699085236 0.057359881699085236 0.057359881699085236
0.081004217267036438 0.081004217267036438 0.081004217267036438
0.12382382899522781 0.12382382899522781 0.12382382899522781
0.18741348385810852 0.18741348385810852 0.18741348385810852
0.2658112645149231 0.2658112645149231 0.2658112645149231
0.34890592098236084 0.34890592098236084 0.34890592098236084
0.4326876699924469 0.4326876699924469 0.4326876699924469
0.51464778184890747 0.51464778184890747 0.51464778184890747
0.59313720464706421 0.59313720464706421 0.59313720464706421
0.66572475433349609 0.66572475433349609 0.66572475433349609
0.040313273668289185 0.040313273668289185 0.040313273668289185
0.045078009366989136 0.045078009366989136 0.045078009366989136
0.055198878049850464 0.055198878049850464 0.055198878049850464
0.071625635027885437 0.071625635027885437 0.071625635027885437
0.10203878581523895 0.10203878581523895 0.10203878581523895
0.15153509378433228 0.15153509378433228 0.15153509378433228
0.21736329793930054 0.21736329793930054 0.21736329793930054
0.29281485080718994 0.29281485080718994 0.29281485080718994
0.37237405776977539 0.37237405776977539 0.37237405776977539
0.45273754000663757 0.45273754000663757 0.45273754000663757
0.53169733285903931 0.53169733285903931 0.53169733285903931
0.60694283246994019 0.60694283246994019 0.60694283246994019
0.67628657817840576 0.67628657817840576 0.67628657817840576
0.052493751049041748 0.052493751049041748 0.052493751049041748
0.057876169681549072 0.057876169681549072 0.057876169681549072
0.070779420435428619 0.070779420435428619 0.070779420435428619
0.094252131879329681 0.094252131879329681 0.094252131879329681
0.13420610129833221 0.13420610129833221 0.13420610129833221
0.19126807153224945 0.19126807153224945 0.19126807153224945
0.2593994140625 0.2593994140625 0.2593994140625
0.33190524578094482 0.33190524578094482 0.33190524578094482
0.40608197450637817 0.40608197450637817 0.40608197450637817
0.48083159327507019 0.48083159327507019 0.48083159327507019
0.55420190095901489 0.55420190095901489 0.55420190095901489
0.62418270111083984 0.62418270111083984 0.62418270111083984
0.68897557258605957 0.68897557258605957 0.68897557258605957
0.085014253854751587 0.085014253854751587 0.085014253854751587
0.091241277754306793 0.091241277754306793 0.091241277754306793
0.10550526529550552 0.10550526529550552 0.10550526529550552
0.1322711855173111 0.1322711855173111 0.1322711855173111
0.17738324403762817 0.17738324403762817 0.17738324403762817
0.23917132616043091 0.23917132616043091 0.23917132616043091
0.30914443731307983 0.30914443731307983 0.30914443731307983
0.37864235043525696 0.37864235043525696 0.37864235043525696
0.44738253951072693 0.44738253951072693 0.44738253951072693
0.51586616039276123 0.51586616039276123 0.51586616039276123
0.58247262239456177 0.58247262239456177 0.58247262239456177
0.64585620164871216 0.64585620164871216 0.64585620164871216
0.70522177219390869 0.70522177219390869 0.70522177219390869
0.14532393217086792 0.14532393217086792 0.14532393217086792
0.15109053254127502 0.15109053254127502 0.15109053254127502
0.16322843730449677 0.16322843730449677 0.16322843730449677
0.18712538480758667 0.18712538480758667 0.18712538480758667
0.22981265187263489 0.22981265187263489 0.22981265187263489
0.29085910320281982 0.29085910320281982 0.29085910320281982
0.35933920741081238 0.35933920741081238 0.35933920741081238
0.42610660195350647 0.42610660195350647 0.42610660195350647
0.49101042747497559 0.49101042747497559 0.49101042747497559
0.55475318431854248 0.55475318431854248 0.55475318431854248
0.614524245262146 0.614524245262146 0.614524245262146
0.67081207036972046 0.67081207036972046 0.67081207036972046
0.72424310445785522 0.72424310445785522 0.72424310445785522
0.23384843766689301 0.23384843766689301 0.23384843766689301
0.23518329858779907 0.23518329858779907 0.23518329858779907
0.240004763007164 0.240004763007164 0.240004763007164
0.25572472810745239 0.25572472810745239 0.25572472810745239
0.29047504067420959 0.29047504067420959 0.29047504067420959
0.34420400857925415 0.34420400857925415 0.34420400857925415
0.40724307298660278 0.40724307298660278 0.40724307298660278
0.47072184085845947 0.47072184085845947 0.47072184085845947
0.53248578310012817 0.53248578310012817 0.53248578310012817
0.59167110919952393 0.59167110919952393 0.59167110919952393
0.64612644910812378 0.64612644910812378 0.64612644910812378
0.69683986902236938 0.69683986902236938 0.69683986902236938
0.74540972709655762 0.74540972709655762 0.74540972709655762
0.33645731210708618 0.33645731210708618 0.33645731210708618
0.33261594176292419 0.33261594176292419 0.33261594176292419
0.32926243543624878 0.32926243543624878 0.32926243543624878
0.33523103594779968 0.33523103594779968 0.33523103594779968
0.35977587103843689 0.35977587103843689 0.35977587103843689
0.40304169058799744 0.40304169058799744 0.40304169058799744
0.45734709501266479 0.45734709501266479 0.45734709501266479
0.51462078094482422 0.51462078094482422 0.51462078094482422
0.57111972570419312 0.57111972570419312 0.57111972570419312
0.62517881393432617 0.62517881393432617 0.62517881393432617
0.67536455392837524 0.67536455392837524 0.67536455392837524
0.72241926193237305 0.72241926193237305 0.72241926193237305
0.76760226488113403 0.76760226488113403 0.76760226488113403
0.44091284275054932 0.44091284275054932 0.44091284275054932
0.43436440825462341 0.43436440825462341 0.43436440825462341
0.42508125305175781 0.42508125305175781 0.42508125305175781
0.4224402904510498 0.4224402904510498 0.4224402904510498
0.43648135662078857 0.43648135662078857 0.43648135662078857
0.46892362833023071 0.46892362833023071 0.46892362833023071
0.5127144455909729 0.5127144455909729 0.5127144455909729
0.56129485368728638 0.56129485368728638 0.56129485368728638
0.6106380820274353 0.6106380820274353 0.6106380820274353
0.65861678123474121 0.65861678123474121 0.65861678123474121
0.70437794923782349 0.70437794923782349 0.70437794923782349
0.74787873029708862 0.74787873029708862 0.74787873029708862
0.78989905118942261 0.78989905118942261 0.78989905118942261
0.5393105149269104 0.5393105149269104 0.5393105149269104
0.53245383501052856 0.53245383501052856 0.53245383501052856
0.51989203691482544 0.51989203691482544 0.51989203691482544
0.51285779476165771 0.51285779476165771 0.51285779476165771
0.51917952299118042 0.51917952299118042 0.51917952299118042
0.54085695743560791 0.54085695743560791 0.54085695743560791
0.57370662689208984 0.57370662689208984 0.57370662689208984
0.61228293180465698 0.61228293180465698 0.61228293180465698
0.65325075387954712 0.65325075387954712 0.65325075387954712
0.69488972425460815 0.69488972425460815 0.69488972425460815
0.73499792814254761 0.73499792814254761 0.73499792814254761
0.77461850643157959 0.77461850643157959 0.77461850643157959
0.81368762254714966 0.81368762254714966 0.81368762254714966
0.62558937072753906 0.62558937072753906 0.62558937072753906
0.61961948871612549 0.61961948871612549 0.61961948871612549
0.60878646373748779 0.60878646373748779 0.60878646373748779
0.60089868307113647 0.60089868307113647 0.60089868307113647
0.60245394706726074 0.60245394706726074 0.60245394706726074
0.6154056191444397 0.6154056191444397 0.6154056191444397
0.63809549808502197 0.63809549808502197 0.63809549808502197
0.66671419143676758 0.66671419143676758 0.66671419143676758
0.69895064830780029 0.69895064830780029 0.69895064830780029
0.73330879211425781 0.73330879211425781 0.73330879211425781
0.76764082908630371 0.76764082908630371 0.76764082908630371
0.8029782772064209 0.8029782772064209 0.8029782772064209
0.83869785070419312 0.83869785070419312 0.83869785070419312
0.70345646142959595 0.70345646142959595 0.70345646142959595
0.69878584146499634 0.69878584146499634 0.69878584146499634
0.69050049781799316 0.69050049781799316 0.69050049781799316
0.68331754207611084 0.68331754207611084 0.68331754207611084
0.68222278356552124 0.68222278356552124 0.68222278356552124
0.68871206045150757 0.68871206045150757 0.68871206045150757
0.70299255847930908 0.70299255847930908 0.70299255847930908
0.7227858304977417 0.7227858304977417 0.7227858304977417
0.74745827913284302 0.74745827913284302 0.74745827913284302
0.77451580762863159 0.77451580762863159 0.77451580762863159
0.80338257551193237 0.80338257551193237 0.80338257551193237
0.83370757102966309 0.83370757102966309 0.83370757102966309
0.86554640531539917 0.86554640531539917 0.86554640531539917
0.77759873867034912 0.77759873867034912 0.77759873867034912
0.7732853889465332 0.7732853889465332 0.7732853889465332
0.76611530780792236 0.76611530780792236 0.76611530780792236
0.75924158096313477 0.75924158096313477 0.75924158096313477
0.75607758760452271 0.75607758760452271 0.75607758760452271
0.75847083330154419 0.75847083330154419 0.75847083330154419
0.76662528514862061 0.76662528514862061 0.76662528514862061
0.77977210283279419 0.77977210283279419 0.77977210283279419
0.79740768671035767 0.79740768671035767 0.79740768671035767
0.81815963983535767 0.81815963983535767 0.81815963983535767
0.84144681692123413 0.84144681692123413 0.84144681692123413
0.86688739061355591 0.86688739061355591 0.86688739061355591
0.8948405385017395 0.8948405385017395 0.8948405385017395
0.84769231081008911 0.84769231081008911 0.84769231081008911
0.843147873878479 0.843147873878479 0.843147873878479
0.83613985776901245 0.83613985776901245 0.83613985776901245
0.82931715250015259 0.82931715250015259 0.82931715250015259
0.82501703500747681 0.82501703500747681 0.82501703500747681
0.82427924871444702 0.82427924871444702 0.82427924871444702
0.82813370227813721 0.82813370227813721 0.82813370227813721
0.83612096309661865 0.83612096309661865 0.83612096309661865
0.84835612773895264 0.84835612773895264 0.84835612773895264
0.86351668834686279 0.86351668834686279 0.86351668834686279
0.8819766640663147 0.8819766640663147 0.8819766640663147
0.90314745903015137 0.90314745903015137 0.90314745903015137
0.92730128765106201 0.92730128765106201 0.92730128765106201
0.035690054297447205 0.035690054297447205 0.035690054297447205
0.040333438664674759 0.040333438664674759 0.040333438664674759
0.048403467983007431 0.048403467983007431 0.048403467983007431
0.060304079204797745 0.060304079204797745 0.060304079204797745
0.086713247001171112 0.086713247001171112 0.086713247001171112
0.13682107627391815 0.13682107627391815 0.13682107627391815
0.20715171098709106 0.20715171098709106 0.20715171098709106
0.28700754046440125 0.28700754046440125 0.28700754046440125
0.36810088157653809 0.36810088157653809 0.36810088157653809
0.44898399710655212 0.44898399710655212 0.44898399710655212
0.52788490056991577 0.52788490056991577 0.52788490056991577
0.60311496257781982 0.60311496257781982 0.60311496257781982
0.67266899347305298 0.67266899347305298 0.67266899347305298
0.040608949959278107 0.040608949959278107 0.040608949959278107
0.045347999781370163 0.045347999781370163 0.045347999781370163
0.055440191179513931 0.055440191179513931 0.055440191179513931
0.072877518832683563 0.072877518832683563 0.072877518832683563
0.10692276060581207 0.10692276060581207 0.10692276060581207
0.16231130063533783 0.16231130063533783 0.16231130063533783
0.23314172029495239 0.23314172029495239 0.23314172029495239
0.30911433696746826 0.30911433696746826 0.30911433696746826
0.3856569230556488 0.3856569230556488 0.3856569230556488
0.46373164653778076 0.46373164653778076 0.46373164653778076
0.54084008932113647 0.54084008932113647 0.54084008932113647
0.6139407753944397 0.6139407753944397 0.6139407753944397
0.68116062879562378 0.68116062879562378 0.68116062879562378
0.058745380491018295 0.058745380491018295 0.058745380491018295
0.06172473356127739 0.06172473356127739 0.06172473356127739
0.071495816111564636 0.071495816111564636 0.071495816111564636
0.094565056264400482 0.094565056264400482 0.094565056264400482
0.13833443820476532 0.13833443820476532 0.13833443820476532
0.20142406225204468 0.20142406225204468 0.20142406225204468
0.2732546329498291 0.2732546329498291 0.2732546329498291
0.34428825974464417 0.34428825974464417 0.34428825974464417
0.41470271348953247 0.41470271348953247 0.41470271348953247
0.48739248514175415 0.48739248514175415 0.48739248514175415
0.55984926223754883 0.55984926223754883 0.55984926223754883
0.62843495607376099 0.62843495607376099 0.62843495607376099
0.69182884693145752 0.69182884693145752 0.69182884693145752
0.10192081332206726 0.10192081332206726 0.10192081332206726
0.10377594828605652 0.10377594828605652 0.10377594828605652
0.11162976920604706 0.11162976920604706 0.11162976920604706
0.1347748339176178 0.1347748339176178 0.1347748339176178
0.18220323324203491 0.18220323324203491 0.18220323324203491
0.25048252940177917 0.25048252940177917 0.25048252940177917
0.3240886926651001 0.3240886926651001 0.3240886926651001
0.39024737477302551 0.39024737477302551 0.39024737477302551
0.45427760481834412 0.45427760481834412 0.45427760481834412
0.5201306939125061 0.5201306939125061 0.5201306939125061
0.58548539876937866 0.58548539876937866 0.58548539876937866
0.64750009775161743 0.64750009775161743 0.64750009775161743
0.70588845014572144 0.70588845014572144 0.70588845014572144
0.17535768449306488 0.17535768449306488 0.17535768449306488
0.17491064965724945 0.17491064965724945 0.17491064965724945
0.17809604108333588 0.17809604108333588 0.17809604108333588
0.19389158487319946 0.19389158487319946 0.19389158487319946
0.23578284680843353 0.23578284680843353 0.23578284680843353
0.30168259143829346 0.30168259143829346 0.30168259143829346
0.37356063723564148 0.37356063723564148 0.37356063723564148
0.43677067756652832 0.43677067756652832 0.43677067756652832
0.49690771102905273 0.49690771102905273 0.49690771102905273
0.55723989009857178 0.55723989009857178 0.55723989009857178
0.61562764644622803 0.61562764644622803 0.61562764644622803
0.67148250341415405 0.67148250341415405 0.67148250341415405
0.72422134876251221 0.72422134876251221 0.72422134876251221
0.26883259415626526 0.26883259415626526 0.26883259415626526
0.26492404937744141 0.26492404937744141 0.26492404937744141
0.25993400812149048 0.25993400812149048 0.25993400812149048
0.26478374004364014 0.26478374004364014 0.26478374004364014
0.29586905241012573 0.29586905241012573 0.29586905241012573
0.35229611396789551 0.35229611396789551 0.35229611396789551
0.41698703169822693 0.41698703169822693 0.41698703169822693
0.47871509194374084 0.47871509194374084 0.47871509194374084
0.53665554523468018 0.53665554523468018 0.53665554523468018
0.59310293197631836 0.59310293197631836 0.59310293197631836
0.64630907773971558 0.64630907773971558 0.64630907773971558
0.69651049375534058 0.69651049375534058 0.69651049375534058
0.74489808082580566 0.74489808082580566 0.74489808082580566
0.36848878860473633 0.36848878860473633 0.36848878860473633
0.36106017231941223 0.36106017231941223 0.36106017231941223
0.34974071383476257 0.34974071383476257 0.34974071383476257
0.34590741991996765 0.34590741991996765 0.34590741991996765
0.3655572235584259 0.3655572235584259 0.3655572235584259
0.40936487913131714 0.40936487913131714 0.40936487913131714
0.46410581469535828 0.46410581469535828 0.46410581469535828
0.52027040719985962 0.52027040719985962 0.52027040719985962
0.57447409629821777 0.57447409629821777 0.57447409629821777
0.62645584344863892 0.62645584344863892 0.62645584344863892
0.67576289176940918 0.67576289176940918 0.67576289176940918
0.72203272581100464 0.72203272581100464 0.72203272581100464
0.76680296659469604 0.76680296659469604 0.76680296659469604
0.46584585309028625 0.46584585309028625 0.46584585309028625
0.45690625905990601 0.45690625905990601 0.45690625905990601
0.44280382990837097 0.44280382990837097 0.44280382990837097
0.43347257375717163 0.43347257375717163 0.43347257375717163
0.44332849979400635 0.44332849979400635 0.44332849979400635
0.47507134079933167 0.47507134079933167 0.47507134079933167
0.51869553327560425 0.51869553327560425 0.51869553327560425
0.56593441963195801 0.56593441963195801 0.56593441963195801
0.61342507600784302 0.61342507600784302 0.61342507600784302
0.65983253717422485 0.65983253717422485 0.65983253717422485
0.70464009046554565 0.70464009046554565 0.70464009046554565
0.74775236845016479 0.74775236845016479 0.74775236845016479
0.78944391012191772 0.78944391012191772 0.78944391012191772
0.55622327327728271 0.55622327327728271 0.55622327327728271
0.54805648326873779 0.54805648326873779 0.54805648326873779
0.53427326679229736 0.53427326679229736 0.53427326679229736
0.52371776103973389 0.52371776103973389 0.52371776103973389
0.52713453769683838 0.52713453769683838 0.52713453769683838
0.54774314165115356 0.54774314165115356 0.54774314165115356
0.5792611837387085 0.5792611837387085 0.5792611837387085
0.61629730463027954 0.61629730463027954 0.61629730463027954
0.65560489892959595 0.65560489892959595 0.65560489892959595
0.69531089067459106 0.69531089067459106 0.69531089067459106
0.73528963327407837 0.73528963327407837 0.73528963327407837
0.77436822652816772 0.77436822652816772 0.77436822652816772
0.81301164627075195 0.81301164627075195 0.81301164627075195
0.63685810565948486 0.63685810565948486 0.63685810565948486
0.63091731071472168 0.63091731071472168 0.63091731071472168
0.62008970975875854 0.62008970975875854 0.62008970975875854
0.61126387119293213 0.61126387119293213 0.61126387119293213
0.61104005575180054 0.61104005575180054 0.61104005575180054
0.6225312352180481 0.6225312352180481 0.6225312352180481
0.64324766397476196 0.64324766397476196 0.64324766397476196
0.67029839754104614 0.67029839754104614 0.67029839754104614
0.70098662376403809 0.70098662376403809 0.70098662376403809
0.73389387130737305 0.73389387130737305 0.73389387130737305
0.76775789260864258 0.76775789260864258 0.76775789260864258
0.80261284112930298 0.80261284112930298 0.80261284112930298
0.83789598941802979 0.83789598941802979 0.83789598941802979
0.71057981252670288 0.71057981252670288 0.71057981252670288
0.70659172534942627 0.70659172534942627 0.70659172534942627
0.69885647296905518 0.69885647296905518 0.69885647296905518
0.69202673435211182 0.69202673435211182 0.69202673435211182
0.68987655639648438 0.68987655639648438 0.68987655639648438
0.6950383186340332 0.6950383186340332 0.6950383186340332
0.7077031135559082 0.7077031135559082 0.7077031135559082
0.72629809379577637 0.72629809379577637 0.72629809379577637
0.74893122911453247 0.74893122911453247 0.74893122911453247
0.7748832106590271 0.7748832106590271 0.7748832106590271
0.80293625593185425 0.80293625593185425 0.80293625593185425
0.83280986547470093 0.83280986547470093 0.83280986547470093
0.86412930488586426 0.86412930488586426 0.86412930488586426
0.78094518184661865 0.78094518184661865 0.78094518184661865
0.77782583236694336 0.77782583236694336 0.77782583236694336
0.77194762229919434 0.77194762229919434 0.77194762229919434
0.76595664024353027 0.76595664024353027 0.76595664024353027
0.76262384653091431 0.76262384653091431 0.76262384653091431
0.76394772529602051 0.76394772529602051 0.76394772529602051
0.77065247297286987 0.77065247297286987 0.77065247297286987
0.78239941596984863 0.78239941596984863 0.78239941596984863
0.79842954874038696 0.79842954874038696 0.79842954874038696
0.81799757480621338 0.81799757480621338 0.81799757480621338
0.84059232473373413 0.84059232473373413 0.84059232473373413
0.86548113822937012 0.86548113822937012 0.86548113822937012
0.89299303293228149 0.89299303293228149 0.89299303293228149
0.84841501712799072 0.84841501712799072 0.84841501712799072
0.84549206495285034 0.84549206495285034 0.84549206495285034
0.84019368886947632 0.84019368886947632 0.84019368886947632
0.83422940969467163 0.83422940969467163 0.83422940969467163
0.8298688530921936 0.8298688530921936 0.8298688530921936
0.82861131429672241 0.82861131429672241 0.82861131429672241
0.83105671405792236 0.83105671405792236 0.83105671405792236
0.83796072006225586 0.83796072006225586 0.83796072006225586
0.8486253023147583 0.8486253023147583 0.8486253023147583
0.86285686492919922 0.86285686492919922 0.86285686492919922
0.88003814220428467 0.88003814220428467 0.88003814220428467
0.90094053745269775 0.90094053745269775 0.90094053745269775
0.92494595050811768 0.92494595050811768 0.92494595050811768
0.046237900853157043 0.046237900853157043 0.046237900853157043
0.054656565189361572 0.054656565189361572 0.054656565189361572
0.066306635737419128 0.066306635737419128 0.066306635737419128
0.081245183944702148 0.081245183944702148 0.081245183944702148
0.10851269960403442 0.10851269960403442 0.10851269960403442
0.16450351476669312 0.16450351476669312 0.16450351476669312
0.24352531135082245 0.24352531135082245 0.24352531135082245
0.32344144582748413 0.32344144582748413 0.32344144582748413
0.39860358834266663 0.39860358834266663 0.39860358834266663
0.47339588403701782 0.47339588403701782 0.47339588403701782
0.5468401312828064 0.5468401312828064 0.5468401312828064
0.61668425798416138 0.61668425798416138 0.61668425798416138
0.68141090869903564 0.68141090869903564 0.68141090869903564
0.054508823901414871 0.054508823901414871 0.054508823901414871
0.061375457793474197 0.061375457793474197 0.061375457793474197
0.07310149073600769 0.07310149073600769 0.07310149073600769
0.093852385878562927 0.093852385878562927 0.093852385878562927
0.13054540753364563 0.13054540753364563 0.13054540753364563
0.18911352753639221 0.18911352753639221 0.18911352753639221
0.26391434669494629 0.26391434669494629 0.26391434669494629
0.33734026551246643 0.33734026551246643 0.33734026551246643
0.40767490863800049 0.40767490863800049 0.40767490863800049
0.48177680373191833 0.48177680373191833 0.48177680373191833
0.55516034364700317 0.55516034364700317 0.55516034364700317
0.62414002418518066 0.62414002418518066 0.62414002418518066
0.68744802474975586 0.68744802474975586 0.68744802474975586
0.076993457973003387 0.076993457973003387 0.076993457973003387
0.081019803881645203 0.081019803881645203 0.081019803881645203
0.088832050561904907 0.088832050561904907 0.088832050561904907
0.11256241053342819 0.11256241053342819 0.11256241053342819
0.1602865606546402 0.1602865606546402 0.1602865606546402
0.2256266325712204 0.2256266325712204 0.2256266325712204
0.29793542623519897 0.29793542623519897 0.29793542623519897
0.364137202501297 0.364137202501297 0.364137202501297
0.42849665880203247 0.42849665880203247 0.42849665880203247
0.49902784824371338 0.49902784824371338 0.49902784824371338
0.56953638792037964 0.56953638792037964 0.56953638792037964
0.63505011796951294 0.63505011796951294 0.63505011796951294
0.69561827182769775 0.69561827182769775 0.69561827182769775
0.13092829287052155 0.13092829287052155 0.13092829287052155
0.13272593915462494 0.13272593915462494 0.13272593915462494
0.13543412089347839 0.13543412089347839 0.13543412089347839
0.15470258891582489 0.15470258891582489 0.15470258891582489
0.20302771031856537 0.20302771031856537 0.20302771031856537
0.27169787883758545 0.27169787883758545 0.27169787883758545
0.34346336126327515 0.34346336126327515 0.34346336126327515
0.40513178706169128 0.40513178706169128 0.40513178706169128
0.46434292197227478 0.46434292197227478 0.46434292197227478
0.52764570713043213 0.52764570713043213 0.52764570713043213
0.59138184785842896 0.59138184785842896 0.59138184785842896
0.65167593955993652 0.65167593955993652 0.65167593955993652
0.7079157829284668 0.7079157829284668 0.7079157829284668
0.21970577538013458 0.21970577538013458 0.21970577538013458
0.2184700071811676 0.2184700071811676 0.2184700071811676
0.21617157757282257 0.21617157757282257 0.21617157757282257
0.22211137413978577 0.22211137413978577 0.22211137413978577
0.25752109289169312 0.25752109289169312 0.25752109289169312
0.32065927982330322 0.32065927982330322 0.32065927982330322
0.38964512944221497 0.38964512944221497 0.38964512944221497
