luts/instant_pro/fuji_fp-100c_cool_-.cube
# Created by: G'MIC (https://gmic.eu)
TITLE "fuji_fp-100c_cool_-"
# LUT size
LUT_3D_SIZE 7
# Data domain
DOMAIN_MIN 0.0 0.0 0.0
DOMAIN_MAX 1.0 1.0 1.0
# LUT data points
0.031428169459104538 0.041905838996171951 0.043525397777557373
0.11340023577213287 0.037753533571958542 0.043627452105283737
0.27991145849227905 0.015805935487151146 0.047078091651201248
0.48133203387260437 0.0071654673665761948 0.054560970515012741
0.69394779205322266 0.0057846219278872013 0.055939201265573502
0.84995108842849731 0.0072756451554596424 0.056419596076011658
0.97131747007369995 0.12500700354576111 0.076762929558753967
0.0076422300189733505 0.14176353812217712 0.052452627569437027
0.12423668801784515 0.14719359576702118 0.038284271955490112
0.31439992785453796 0.15554746985435486 0.034090422093868256
0.52396517992019653 0.1426098644733429 0.04764944314956665
0.71646904945373535 0.12703831493854523 0.050311263650655746
0.85759633779525757 0.16012875735759735 0.064255960285663605
0.97365540266036987 0.25193744897842407 0.082173727452754974
0.0037665723357349634 0.30275169014930725 0.073327325284481049
0.062066949903964996 0.30901762843132019 0.06326562911272049
0.31448417901992798 0.33217516541481018 0.019062265753746033
0.55776399374008179 0.35017257928848267 0.019575934857130051
0.73729473352432251 0.36055171489715576 0.04017365351319313
0.87307894229888916 0.37570109963417053 0.06336481124162674
0.96942543983459473 0.4059298038482666 0.10755043476819992
2.8004365958622657e-05 0.47284519672393799 0.087203532457351685
0.014716473408043385 0.47086796164512634 0.089257620275020599
0.2625049352645874 0.4828794002532959 0.039319597184658051
0.50395619869232178 0.50197756290435791 0.012969477102160454
0.71514683961868286 0.52403151988983154 0.0093985758721828461
0.86788135766983032 0.54561889171600342 0.031049944460391998
0.97367274761199951 0.57189446687698364 0.15036812424659729
0.00050822237972170115 0.62369459867477417 0.10701411962509155
0.0060360627248883247 0.6205717921257019 0.10905202478170395
0.25676143169403076 0.61922729015350342 0.084658153355121613
0.46858623623847961 0.6365426778793335 0.017720181494951248
0.66731494665145874 0.65913128852844238 0.01104392297565937
0.82872277498245239 0.67575675249099731 0.013235129415988922
0.95891094207763672 0.69874078035354614 0.032224379479885101
0.013336196541786194 0.7726706862449646 0.17185941338539124
0.1053217276930809 0.7649264931678772 0.16166901588439941
0.33083012700080872 0.76428407430648804 0.16673903167247772
0.49725103378295898 0.76698291301727295 0.11211740970611572
0.64650970697402954 0.78158891201019287 0.022646481171250343
0.80322045087814331 0.80045217275619507 0.010622510686516762
0.93753689527511597 0.81693029403686523 0.0095270788297057152
0.37574857473373413 0.9179079532623291 0.38821178674697876
0.42196601629257202 0.91591441631317139 0.38599720597267151
0.50865316390991211 0.91191995143890381 0.38799425959587097
0.61278808116912842 0.91401845216751099 0.39318016171455383
0.7246665358543396 0.92149686813354492 0.36091896891593933
0.83465319871902466 0.93327111005783081 0.30085155367851257
0.95561319589614868 0.94556492567062378 0.1829535961151123
0.020771609619259834 0.032697100192308426 0.14862650632858276
0.14468491077423096 0.024932082742452621 0.16797813773155212
0.26980310678482056 0.043292384594678879 0.15858156979084015
0.48173189163208008 0.013638934120535851 0.17224529385566711
0.68789100646972656 0.0078807752579450607 0.17285236716270447
0.84641242027282715 0.014938399195671082 0.17073217034339905
0.96818059682846069 0.13682509958744049 0.17763508856296539
0.0059581534005701542 0.15074507892131805 0.17632247507572174
0.13235324621200562 0.16480934619903564 0.18550701439380646
0.31854790449142456 0.18233039975166321 0.18614043295383453
0.53342145681381226 0.15968716144561768 0.18413394689559937
0.71315920352935791 0.15080477297306061 0.18328765034675598
0.85161072015762329 0.17700451612472534 0.18712617456912994
0.96822488307952881 0.24989192187786102 0.19449076056480408
0.0039974884130060673 0.3404209315776825 0.21368597447872162
0.078664146363735199 0.34572741389274597 0.20310007035732269
0.34049811959266663 0.35948085784912109 0.18769261240959167
0.57646411657333374 0.37354001402854919 0.17893895506858826
0.74657386541366577 0.37097865343093872 0.19387418031692505
0.86797475814819336 0.38263607025146484 0.19779038429260254
0.96791225671768188 0.4083825945854187 0.21752147376537323
0.0013439852045848966 0.50667965412139893 0.2082785964012146
0.018462894484400749 0.50262671709060669 0.20216993987560272
0.29634943604469299 0.50816798210144043 0.17929384112358093
0.53104221820831299 0.52609050273895264 0.11064247041940689
0.72300320863723755 0.53907305002212524 0.096297003328800201
0.86608290672302246 0.55428147315979004 0.17677339911460876
0.97158634662628174 0.57348799705505371 0.25176671147346497
0.0012491412926465273 0.64428627490997314 0.20997920632362366
0.016317196190357208 0.63897371292114258 0.20560896396636963
0.27311483025550842 0.63298404216766357 0.20335601270198822
0.48714500665664673 0.64919620752334595 0.13878242671489716
0.67276531457901001 0.66700249910354614 0.043371822685003281
0.83342427015304565 0.67910134792327881 0.028440138325095177
0.95886516571044922 0.70511126518249512 0.17179511487483978
0.015582888387143612 0.77885758876800537 0.24680653214454651
0.11265682429075241 0.7751050591468811 0.2407643049955368
0.33793860673904419 0.77073788642883301 0.25845497846603394
0.51153016090393066 0.77502453327178955 0.23159649968147278
0.65208393335342407 0.78427135944366455 0.13415004312992096
0.79997223615646362 0.80102789402008057 0.032538335770368576
0.93940389156341553 0.81722354888916016 0.012743602506816387
0.37454557418823242 0.92024189233779907 0.42400133609771729
0.4200877845287323 0.91905039548873901 0.42627525329589844
0.5021786093711853 0.91198968887329102 0.41842749714851379
0.61300808191299438 0.91447430849075317 0.43732395768165588
0.71721118688583374 0.9227980375289917 0.41279351711273193
0.83365917205810547 0.93080443143844604 0.36177748441696167
0.95440590381622314 0.94491875171661377 0.25325345993041992
0.0086377458646893501 0.032299939543008804 0.32169193029403687
0.16504669189453125 0.012934770435094833 0.35387113690376282
0.40180620551109314 0.0077504925429821014 0.38201519846916199
0.47609210014343262 0.078080929815769196 0.33728194236755371
0.66327971220016479 0.049308404326438904 0.33151251077651978
0.83366954326629639 0.0065133338794112206 0.31686043739318848
0.96429276466369629 0.072731703519821167 0.29959574341773987
0.0035845439415425062 0.15540298819541931 0.32887431979179382
0.15263433754444122 0.15919500589370728 0.35719019174575806
0.40595674514770508 0.14250494539737701 0.39548033475875854
0.52085041999816895 0.20457024872303009 0.36370441317558289
0.69751930236816406 0.16167615354061127 0.33839166164398193
0.84961754083633423 0.1524103581905365 0.31823328137397766
0.9657667875289917 0.22710864245891571 0.31694459915161133
0.00040157543844543397 0.35022613406181335 0.37918165326118469
0.11543180048465729 0.36899006366729736 0.3888058066368103
0.3955436646938324 0.40170276165008545 0.41065385937690735
0.58562827110290527 0.39888215065002441 0.39245080947875977
0.73495775461196899 0.37363514304161072 0.36782652139663696
0.85753703117370605 0.37328043580055237 0.35067474842071533
0.96266686916351318 0.39848089218139648 0.3508857786655426
0.0045676138252019882 0.55669063329696655 0.41665574908256531
0.094833239912986755 0.56459635496139526 0.41097265481948853
0.37436652183532715 0.56347423791885376 0.39989012479782104
0.57009422779083252 0.56334656476974487 0.3744356632232666
0.73967993259429932 0.56921476125717163 0.36361455917358398
0.86295402050018311 0.57160985469818115 0.3871823251247406
0.96033644676208496 0.5675426721572876 0.39103201031684875
0.011680139228701591 0.68506538867950439 0.39829730987548828
0.059929326176643372 0.68317776918411255 0.37884500622749329
0.32680657505989075 0.67848539352416992 0.3766518235206604
0.51855909824371338 0.67563152313232422 0.34995469450950623
0.69179004430770874 0.68234699964523315 0.30142390727996826
0.83388960361480713 0.6983523964881897 0.29744237661361694
0.95261937379837036 0.71773117780685425 0.38391503691673279
0.011161370202898979 0.79796129465103149 0.38365712761878967
0.12848646938800812 0.79272842407226562 0.37964355945587158
0.34784775972366333 0.78787553310394287 0.37908941507339478
0.51395153999328613 0.78523188829421997 0.3689461350440979
0.65904146432876587 0.79083001613616943 0.32796642184257507
0.80521512031555176 0.80640733242034912 0.26155748963356018
0.94112944602966309 0.82136029005050659 0.21844552457332611
0.35875430703163147 0.9278254508972168 0.49931654334068298
0.41128697991371155 0.92259299755096436 0.50146085023880005
0.49781212210655212 0.9215509295463562 0.50296813249588013
0.60407441854476929 0.91470468044281006 0.50349122285842896
0.71142256259918213 0.92348259687423706 0.48956915736198425
0.82690441608428955 0.93386536836624146 0.46261617541313171
0.95202016830444336 0.94555050134658813 0.3956608772277832
0.0039227353408932686 0.020212436094880104 0.49959519505500793
0.17825311422348022 0.010219978168606758 0.52065414190292358
0.48435384035110474 0.0011704687494784594 0.58203732967376709
0.69392997026443481 0.0010646894806995988 0.60469323396682739
0.70744472742080688 0.059694685041904449 0.52258682250976562
0.7956615686416626 0.20206138491630554 0.50911974906921387
0.93562424182891846 0.19788080453872681 0.50006043910980225
0.0071680406108498573 0.15502850711345673 0.50554990768432617
0.16496476531028748 0.13952814042568207 0.52493929862976074
0.46233966946601868 0.089624188840389252 0.58418446779251099
0.69398587942123413 0.059616073966026306 0.61392021179199219
0.71608960628509521 0.22245389223098755 0.53927803039550781
0.80949538946151733 0.28041765093803406 0.51123273372650146
0.94415450096130371 0.2661687433719635 0.4943813681602478
0.0027449962217360735 0.3129119873046875 0.48930063843727112
0.10014086216688156 0.33579835295677185 0.5158994197845459
0.41572734713554382 0.35753151774406433 0.56816810369491577
0.65714842081069946 0.38738754391670227 0.6120297908782959
0.71583998203277588 0.42170298099517822 0.55562102794647217
0.83079838752746582 0.40780416131019592 0.51987850666046143
0.95469957590103149 0.3826756477355957 0.48930424451828003
0.015858085826039314 0.53312492370605469 0.55492508411407471
0.19020733237266541 0.54811543226242065 0.56568771600723267
0.41411611437797546 0.57154685258865356 0.58033609390258789
0.61320394277572632 0.60797286033630371 0.60437649488449097
0.73286116123199463 0.60152190923690796 0.58250671625137329
0.84413838386535645 0.57643502950668335 0.54861271381378174
0.94559311866760254 0.55723977088928223 0.52499866485595703
0.09398110955953598 0.7159000039100647 0.59646856784820557
0.24749238789081573 0.71358919143676758 0.59232956171035767
0.41670411825180054 0.71528404951095581 0.58412027359008789
0.5682138204574585 0.7168458104133606 0.56483924388885498
0.71481931209564209 0.71907645463943481 0.55607861280441284
0.83862924575805664 0.72717607021331787 0.54086315631866455
0.94399762153625488 0.73595750331878662 0.58159828186035156
0.23442623019218445 0.81887209415435791 0.57901996374130249
0.29324737191200256 0.81838148832321167 0.57171821594238281
0.39248037338256836 0.81475925445556641 0.55390596389770508
0.53007739782333374 0.80352699756622314 0.53283751010894775
0.67372786998748779 0.80776643753051758 0.51460844278335571
0.80936896800994873 0.81768989562988281 0.47919121384620667
0.93616718053817749 0.83159816265106201 0.46819251775741577
0.36437559127807617 0.9355396032333374 0.61368036270141602
0.38640636205673218 0.9343876838684082 0.60364407300949097
0.46962374448776245 0.92821735143661499 0.6016690731048584
0.582599937915802 0.91804808378219604 0.59842926263809204
0.70503860712051392 0.92444074153900146 0.59916728734970093
0.8193967342376709 0.93388992547988892 0.57900345325469971
0.94580727815628052 0.94678741693496704 0.53141790628433228
0.079126201570034027 0.011430897749960423 0.66290724277496338
0.26855102181434631 0.010797418653964996 0.68396234512329102
0.47778588533401489 0.0047208750620484352 0.70926088094711304
0.73815220594406128 0.00012099322339054197 0.76581275463104248
0.86949795484542847 0.0014593536034226418 0.76605397462844849
0.86848032474517822 0.14256659150123596 0.68680268526077271
0.91294604539871216 0.35471048951148987 0.68160539865493774
0.084608040750026703 0.14095006883144379 0.66427809000015259
0.24610789120197296 0.12312258780002594 0.68103712797164917
0.47270578145980835 0.070846393704414368 0.71545678377151489
0.7170831561088562 0.019897520542144775 0.76340258121490479
0.86461848020553589 0.058942817151546478 0.76899814605712891
0.86780476570129395 0.27253067493438721 0.69807076454162598
0.90908306837081909 0.41675451397895813 0.68007898330688477
0.015588289126753807 0.30187952518463135 0.64086544513702393
0.1672416627407074 0.31112539768218994 0.66165482997894287
0.42748779058456421 0.31730425357818604 0.69666212797164917
0.6767389178276062 0.33115664124488831 0.74980920553207397
0.83344006538391113 0.38686397671699524 0.76542156934738159
0.84465289115905762 0.45966061949729919 0.70463955402374268
0.90522569417953491 0.51387709379196167 0.68633651733398438
0.0096971550956368446 0.46756234765052795 0.6295238733291626
0.10184290260076523 0.48040646314620972 0.63779222965240479
0.35201907157897949 0.50600248575210571 0.66260421276092529
0.60267746448516846 0.55170798301696777 0.71547675132751465
0.77617162466049194 0.60195499658584595 0.75337016582489014
0.81992071866989136 0.61510205268859863 0.71455597877502441
0.9188307523727417 0.59502279758453369 0.67624926567077637
0.20715773105621338 0.66965138912200928 0.69068896770477295
0.29305002093315125 0.67554378509521484 0.69556945562362671
0.42847025394439697 0.69019871950149536 0.70732444524765015
0.59094613790512085 0.72289091348648071 0.72820371389389038
0.7366909384727478 0.75486314296722412 0.74552285671234131
0.83028185367584229 0.75217235088348389 0.7329171895980835
0.92963379621505737 0.72274684906005859 0.70301002264022827
0.30269744992256165 0.83666014671325684 0.7453542947769165
0.36357620358467102 0.83673888444900513 0.74278229475021362
0.46533983945846558 0.83582597970962524 0.7378997802734375
0.5788915753364563 0.83831244707107544 0.72684550285339355
0.69363003969192505 0.83635252714157104 0.70967274904251099
0.81143420934677124 0.83769333362579346 0.69160002470016479
0.92972874641418457 0.85234749317169189 0.6995810866355896
0.43160814046859741 0.93972992897033691 0.7628980278968811
0.46514192223548889 0.94159352779388428 0.76233208179473877
0.51615017652511597 0.93968969583511353 0.7469591498374939
0.58669877052307129 0.93716108798980713 0.72980505228042603
0.70351612567901611 0.9316483736038208 0.72476637363433838
0.81045079231262207 0.93400174379348755 0.70908159017562866
0.93900412321090698 0.94589340686798096 0.68386983871459961
0.31403025984764099 0.0047691045328974724 0.81956475973129272
0.40290218591690063 0.0078879259526729584 0.82580715417861938
0.54284775257110596 0.010125672444701195 0.83902812004089355
0.72239005565643311 0.0011296141892671585 0.86528980731964111
0.8988792896270752 0.0026100757531821728 0.89053785800933838
0.98421025276184082 0.0097804944962263107 0.88512235879898071
0.98120284080505371 0.29738333821296692 0.82733023166656494
0.29702630639076233 0.13642098009586334 0.81416863203048706
0.38218042254447937 0.10301066190004349 0.82206028699874878
0.53001910448074341 0.056190088391304016 0.8363877534866333
0.70894789695739746 0.0240961704403162 0.86171168088912964
0.8879997730255127 0.018670011311769485 0.89297866821289062
0.97917675971984863 0.14685748517513275 0.88480979204177856
0.96753233671188354 0.38047286868095398 0.82982099056243896
0.20417192578315735 0.3032785952091217 0.79648977518081665
0.30688583850860596 0.3023948073387146 0.80259901285171509
0.48361998796463013 0.30034333467483521 0.8207622766494751
0.66927826404571533 0.30295971035957336 0.84838342666625977
0.85505145788192749 0.34462884068489075 0.88301891088485718
0.95586681365966797 0.42011100053787231 0.87953084707260132
0.9543386697769165 0.51489865779876709 0.83139842748641968
0.0045069078914821148 0.43519914150238037 0.75303035974502563
0.059038557112216949 0.44138693809509277 0.76316076517105103
0.36476808786392212 0.46663215756416321 0.78725707530975342
0.58943468332290649 0.50274145603179932 0.81885123252868652
0.79272627830505371 0.56141984462738037 0.86316597461700439
0.91221910715103149 0.60455691814422607 0.86988836526870728
0.93309611082077026 0.63948637247085571 0.83403307199478149
0.023576444014906883 0.60887330770492554 0.76430869102478027
0.10243615508079529 0.60848063230514526 0.76360028982162476
0.31114727258682251 0.61707949638366699 0.77135366201400757
0.49671816825866699 0.63733726739883423 0.78233146667480469
0.70856213569641113 0.69965392351150513 0.82949894666671753
0.86699312925338745 0.75728172063827515 0.86370104551315308
0.90504813194274902 0.76001501083374023 0.83569037914276123
0.31000712513923645 0.7885710597038269 0.81226986646652222
0.35922235250473022 0.79268693923950195 0.81747978925704956
0.46560156345367432 0.80348765850067139 0.82525002956390381
0.58263659477233887 0.81514114141464233 0.83013057708740234
0.70266819000244141 0.83764195442199707 0.84495216608047485
0.83796340227127075 0.86601632833480835 0.85861659049987793
0.91859036684036255 0.86116576194763184 0.84312206506729126
0.46756261587142944 0.94908261299133301 0.88650381565093994
0.49577194452285767 0.9479021430015564 0.88398224115371704
0.5524907112121582 0.94492316246032715 0.87725722789764404
0.63436406850814819 0.94443100690841675 0.87228739261627197
0.72403287887573242 0.94556689262390137 0.86505293846130371
0.81527793407440186 0.94707322120666504 0.84504461288452148
0.93969982862472534 0.95643681287765503 0.836040198802948
0.52913224697113037 0.11192771792411804 0.95468705892562866
0.56850743293762207 0.080343060195446014 0.95559871196746826
0.65365564823150635 0.045134704560041428 0.9615752100944519
0.77113860845565796 0.013341417536139488 0.96876126527786255
0.90233105421066284 0.007683473639190197 0.97495603561401367
0.99776744842529297 0.0046796910464763641 0.98353785276412964
1 0.19831328094005585 0.98040992021560669
0.51850289106369019 0.23907029628753662 0.95170444250106812
0.55995345115661621 0.21849267184734344 0.95170289278030396
0.64422339200973511 0.19553080201148987 0.95746737718582153
0.75904315710067749 0.14484533667564392 0.96572542190551758
0.88995897769927979 0.097619690001010895 0.97797036170959473
0.99499481916427612 0.081481069326400757 0.98662996292114258
0.9993889331817627 0.32372608780860901 0.97326207160949707
0.47234207391738892 0.38485366106033325 0.9413418173789978
0.51604002714157104 0.38816750049591064 0.94344490766525269
0.60608369112014771 0.37482210993766785 0.94660961627960205
0.72415930032730103 0.37197694182395935 0.95270150899887085
0.85744279623031616 0.37549996376037598 0.96555405855178833
0.979755699634552 0.39557376503944397 0.97641634941101074
0.9942176342010498 0.48055562376976013 0.96043258905410767
0.31729748845100403 0.51044905185699463 0.92773061990737915
0.40328076481819153 0.52013766765594482 0.9285312294960022
0.52078497409820557 0.52365732192993164 0.93291854858398438
0.66475862264633179 0.53259265422821045 0.94186526536941528
0.81711030006408691 0.56406164169311523 0.95748984813690186
0.94604986906051636 0.59190130233764648 0.96650451421737671
0.99454706907272339 0.63683342933654785 0.96197360754013062
0.14750504493713379 0.64930528402328491 0.9062078595161438
0.20746457576751709 0.64546328783035278 0.90592867136001587
0.37066531181335449 0.64368987083435059 0.91003376245498657
0.54607433080673218 0.65356904268264771 0.92062461376190186
0.73627912998199463 0.70016020536422729 0.93625080585479736
0.88827282190322876 0.73799192905426025 0.95385867357254028
0.9810062050819397 0.76318049430847168 0.96042841672897339
0.33445432782173157 0.80122017860412598 0.91990107297897339
0.36315584182739258 0.79735380411148071 0.91810023784637451
0.43376505374908447 0.79821479320526123 0.91978764533996582
0.53051102161407471 0.7990032434463501 0.91980409622192383
0.64717215299606323 0.80207526683807373 0.92228990793228149
0.82640427350997925 0.84248191118240356 0.94252586364746094
0.96180415153503418 0.87791377305984497 0.96004319190979004
0.51735514402389526 0.9337964653968811 0.95009064674377441
0.53935950994491577 0.93049418926239014 0.94825643301010132
0.57715374231338501 0.92821007966995239 0.94800007343292236
0.64494353532791138 0.93616658449172974 0.95221024751663208
0.7291373610496521 0.93814706802368164 0.94589316844940186
0.82775866985321045 0.94564801454544067 0.95032167434692383
0.94795602560043335 0.9622572660446167 0.96042072772979736
