luts/instant_pro/fuji_fp-100c_negative_++.cube
# Created by: G'MIC (https://gmic.eu)
TITLE "fuji_fp-100c_negative_++"
# LUT size
LUT_3D_SIZE 7
# Data domain
DOMAIN_MIN 0.0 0.0 0.0
DOMAIN_MAX 1.0 1.0 1.0
# LUT data points
0.27212008833885193 0.15134045481681824 0.17167292535305023
0.29329833388328552 0.15469478070735931 0.16727021336555481
0.33903378248214722 0.14582359790802002 0.16267827153205872
0.47474253177642822 0.14643958210945129 0.16560986638069153
0.67969924211502075 0.17619580030441284 0.1711851954460144
0.86387038230895996 0.27499306201934814 0.17742486298084259
0.99409580230712891 0.40916138887405396 0.19595181941986084
0.27020373940467834 0.16795825958251953 0.1693648099899292
0.2876402735710144 0.17097322642803192 0.16466629505157471
0.35533702373504639 0.18358272314071655 0.16614627838134766
0.49547210335731506 0.20264478027820587 0.1692233681678772
0.69077348709106445 0.25944721698760986 0.17239364981651306
0.86960422992706299 0.34207835793495178 0.173359215259552
0.9927142858505249 0.46286338567733765 0.20345264673233032
0.27133792638778687 0.25192302465438843 0.2033926248550415
0.29282531142234802 0.25203680992126465 0.20024056732654572
0.36256024241447449 0.29301345348358154 0.18370138108730316
0.53553217649459839 0.3584325909614563 0.16000860929489136
0.70577478408813477 0.39881089329719543 0.16574233770370483
0.87192904949188232 0.4673306941986084 0.17164884507656097
0.99178034067153931 0.54942053556442261 0.21953257918357849
0.25763148069381714 0.40208125114440918 0.2528403103351593
0.29561036825180054 0.41793331503868103 0.2596585750579834
0.35995817184448242 0.44728773832321167 0.24450290203094482
0.53634941577911377 0.52792227268218994 0.18647004663944244
0.74024003744125366 0.59783059358596802 0.13715668022632599
0.88315236568450928 0.6154211163520813 0.18411573767662048
0.98648494482040405 0.64756584167480469 0.24345327913761139
0.2493550032377243 0.59129118919372559 0.32198828458786011
0.31078320741653442 0.597709059715271 0.33137673139572144
0.40544781088829041 0.61992323398590088 0.34205999970436096
0.54127967357635498 0.66281461715698242 0.3186761736869812
0.71855247020721436 0.72091799974441528 0.27031254768371582
0.90486025810241699 0.75985902547836304 0.25469806790351868
0.99354857206344604 0.76280611753463745 0.34082773327827454
0.42315703630447388 0.76096814870834351 0.44945713877677917
0.47145411372184753 0.76038795709609985 0.46021747589111328
0.54218465089797974 0.7682192325592041 0.47541052103042603
0.63617211580276489 0.78503859043121338 0.48256167769432068
0.74676269292831421 0.81263303756713867 0.47432741522789001
0.8914487361907959 0.8355487585067749 0.45989763736724854
0.99753230810165405 0.85324323177337646 0.46857669949531555
0.73924398422241211 0.87297815084457397 0.59681600332260132
0.75914442539215088 0.87525135278701782 0.60261166095733643
0.79635173082351685 0.87424033880233765 0.60746312141418457
0.84739893674850464 0.88047283887863159 0.61876207590103149
0.89356005191802979 0.89145964384078979 0.61997377872467041
0.95864129066467285 0.90284806489944458 0.61502021551132202
0.99193227291107178 0.91251921653747559 0.61105537414550781
0.2727721631526947 0.14555133879184723 0.19048742949962616
0.28844356536865234 0.14837996661663055 0.18770277500152588
0.35357639193534851 0.14900791645050049 0.19365374743938446
0.49420580267906189 0.13304254412651062 0.20486205816268921
0.69794255495071411 0.14762686192989349 0.23312944173812866
0.87293821573257446 0.2645907998085022 0.25320550799369812
0.98964357376098633 0.40594151616096497 0.2830258309841156
0.27120879292488098 0.17212285101413727 0.2008727639913559
0.2912919819355011 0.17881748080253601 0.21025151014328003
0.36440163850784302 0.19700416922569275 0.21573980152606964
0.51447165012359619 0.20597852766513824 0.21916557848453522
0.70563137531280518 0.24873115122318268 0.23937229812145233
0.87377101182937622 0.34046462178230286 0.24893248081207275
0.99045276641845703 0.4621090292930603 0.28528502583503723
0.27291971445083618 0.26450872421264648 0.23860600590705872
0.30103456974029541 0.26796364784240723 0.2470613420009613
0.37953338027000427 0.30359280109405518 0.23576168715953827
0.54271167516708374 0.35036444664001465 0.22616985440254211
0.72185873985290527 0.39128595590591431 0.23115512728691101
0.87547558546066284 0.46608063578605652 0.25789490342140198
0.99220830202102661 0.55136996507644653 0.2986568808555603
0.2690092921257019 0.41696369647979736 0.28922542929649353
0.30392524600028992 0.43696695566177368 0.29792588949203491
0.38017895817756653 0.46437060832977295 0.29415020346641541
0.54694098234176636 0.53882360458374023 0.26014870405197144
0.74590504169464111 0.59253793954849243 0.23781183362007141
0.88476318120956421 0.61424124240875244 0.26607444882392883
0.991138756275177 0.65306997299194336 0.33203855156898499
0.2650800347328186 0.60327190160751343 0.35239273309707642
0.32535624504089355 0.60931158065795898 0.36495041847229004
0.42882874608039856 0.63316774368286133 0.38119879364967346
0.54754889011383057 0.67023158073425293 0.37238535284996033
0.72571247816085815 0.72670876979827881 0.33985495567321777
0.90651863813400269 0.75883752107620239 0.33514887094497681
0.99382191896438599 0.75692218542098999 0.3950609564781189
0.43300175666809082 0.76474595069885254 0.46944677829742432
0.47621670365333557 0.76727008819580078 0.48041859269142151
0.55531048774719238 0.77138370275497437 0.4995674192905426
0.64551526308059692 0.78430461883544922 0.50390636920928955
0.75692379474639893 0.81404656171798706 0.50001227855682373
0.89991503953933716 0.8354722261428833 0.49330753087997437
0.99198967218399048 0.84695589542388916 0.50691485404968262
0.74069523811340332 0.87480407953262329 0.60308611392974854
0.75786310434341431 0.87492275238037109 0.60697311162948608
0.80022943019866943 0.87467712163925171 0.61388170719146729
0.85335057973861694 0.88015437126159668 0.62388402223587036
0.90082937479019165 0.8906206488609314 0.62444961071014404
0.95594364404678345 0.9005616307258606 0.61935520172119141
0.99518871307373047 0.90597110986709595 0.61289060115814209
0.28806415200233459 0.1410788893699646 0.27498504519462585
0.31431710720062256 0.14209757745265961 0.27841341495513916
0.37060737609863281 0.15383109450340271 0.27552944421768188
0.53442221879959106 0.14439009130001068 0.30985400080680847
0.76002323627471924 0.086986392736434937 0.33844855427742004
0.91620051860809326 0.19082711637020111 0.35642030835151672
0.99034637212753296 0.40556007623672485 0.41381242871284485
0.27237814664840698 0.17826227843761444 0.29334166646003723
0.30018660426139832 0.18167330324649811 0.29813656210899353
0.38558554649353027 0.20596447587013245 0.30269607901573181
0.55779427289962769 0.21293032169342041 0.3303733766078949
0.75586909055709839 0.2213577926158905 0.34818851947784424
0.90144443511962891 0.33248645067214966 0.37800517678260803
0.9863659143447876 0.47538924217224121 0.42550179362297058
0.2702038586139679 0.26594668626785278 0.30744689702987671
0.30052235722541809 0.28196913003921509 0.32496452331542969
0.40742048621177673 0.32314884662628174 0.3452509343624115
0.5705878734588623 0.36044538021087646 0.35156902670860291
0.74505680799484253 0.40071117877960205 0.37228429317474365
0.89626568555831909 0.4732208251953125 0.39205530285835266
0.98651063442230225 0.5663725733757019 0.4363211989402771
0.29034650325775146 0.44347271323204041 0.37346318364143372
0.33336374163627625 0.46207728981971741 0.38235366344451904
0.43126535415649414 0.49833500385284424 0.39090624451637268
0.57849705219268799 0.55374103784561157 0.38609373569488525
0.75015765428543091 0.59587264060974121 0.39091983437538147
0.88934600353240967 0.61926919221878052 0.41647207736968994
0.99003869295120239 0.66630369424819946 0.45242017507553101
0.36082684993743896 0.6140555739402771 0.44080260396003723
0.39522165060043335 0.63095778226852417 0.44551464915275574
0.46807914972305298 0.65437418222427368 0.4519217312335968
0.57970380783081055 0.67991352081298828 0.46086612343788147
0.7400394082069397 0.72673100233078003 0.44891571998596191
0.9109809398651123 0.7591666579246521 0.45220533013343811
0.9933275580406189 0.75557130575180054 0.47754034399986267
0.48108774423599243 0.76505070924758911 0.52071470022201538
0.51096713542938232 0.76905333995819092 0.52184802293777466
0.57467544078826904 0.77930086851119995 0.53418940305709839
0.67560046911239624 0.7891809344291687 0.55588257312774658
0.77202969789505005 0.81308555603027344 0.54909878969192505
0.91017550230026245 0.83561217784881592 0.5415160059928894
0.99379593133926392 0.85071992874145508 0.55689108371734619
0.74621278047561646 0.87506610155105591 0.61520850658416748
0.75823968648910522 0.87482178211212158 0.61712664365768433
0.8012315034866333 0.87858122587203979 0.62249702215194702
0.85757845640182495 0.88194161653518677 0.6353919506072998
0.91436117887496948 0.88955795764923096 0.63870096206665039
0.96580362319946289 0.90157562494277954 0.63489735126495361
0.99710214138031006 0.91175645589828491 0.63707953691482544
0.32921618223190308 0.12531329691410065 0.40251508355140686
0.38963562250137329 0.11704160273075104 0.41400066018104553
0.50387656688690186 0.1298844963312149 0.44164538383483887
0.62292718887329102 0.21111427247524261 0.46033063530921936
0.77996474504470825 0.23468664288520813 0.49190473556518555
0.95611298084259033 0.34670385718345642 0.53209817409515381
0.99851363897323608 0.46767580509185791 0.54018867015838623
0.2888636589050293 0.16850437223911285 0.42194011807441711
0.36353623867034912 0.18216957151889801 0.43387928605079651
0.50532275438308716 0.20884020626544952 0.46252503991127014
0.62491363286972046 0.28974100947380066 0.47553285956382751
0.78304374217987061 0.33791866898536682 0.50653338432312012
0.94352430105209351 0.42318284511566162 0.53280162811279297
0.99826538562774658 0.51041138172149658 0.54892259836196899
0.22106404602527618 0.26225736737251282 0.43016970157623291
0.27484259009361267 0.27231511473655701 0.44750034809112549
0.45389509201049805 0.32946911454200745 0.47804668545722961
0.63285380601882935 0.43417498469352722 0.50484645366668701
0.78299278020858765 0.48383378982543945 0.52826505899429321
0.92144036293029785 0.5392952561378479 0.54310363531112671
0.99354982376098633 0.60648971796035767 0.5676761269569397
0.2333185076713562 0.43637505173683167 0.45906165242195129
0.29166880249977112 0.44787856936454773 0.47801822423934937
0.4210452139377594 0.48817411065101624 0.49947765469551086
0.6195981502532959 0.57081276178359985 0.5258294939994812
0.76689010858535767 0.61453878879547119 0.54148858785629272
0.90718597173690796 0.65454375743865967 0.55634588003158569
0.98774832487106323 0.68886059522628784 0.56872725486755371
0.3284568190574646 0.61620038747787476 0.51208508014678955
0.39750728011131287 0.63161885738372803 0.5220034122467041
0.51219683885574341 0.6592821478843689 0.53805255889892578
0.63548225164413452 0.69508081674575806 0.55669349431991577
0.76236557960510254 0.73362821340560913 0.56132525205612183
0.91517519950866699 0.76053911447525024 0.56328606605529785
0.99179989099502563 0.76375514268875122 0.57471013069152832
0.52504599094390869 0.76460725069046021 0.57807642221450806
0.5534060001373291 0.76386541128158569 0.5780671238899231
0.61429637670516968 0.78368651866912842 0.58568841218948364
0.69684869050979614 0.79527181386947632 0.59435659646987915
0.79921388626098633 0.81527549028396606 0.60332947969436646
0.93179285526275635 0.83879351615905762 0.60305237770080566
0.99032425880432129 0.84789884090423584 0.60777002573013306
0.77008402347564697 0.87329930067062378 0.63451755046844482
0.7812800407409668 0.87408393621444702 0.63576877117156982
0.80318355560302734 0.87965816259384155 0.63750123977661133
0.85954278707504272 0.88139170408248901 0.64620965719223022
0.92776131629943848 0.89013195037841797 0.65956252813339233
0.97536587715148926 0.90037745237350464 0.65903186798095703
0.99803727865219116 0.90962231159210205 0.66203135251998901
0.45312103629112244 0.058026064187288284 0.5639919638633728
0.51831710338592529 0.033012628555297852 0.57693272829055786
0.63870793581008911 0.039438840001821518 0.59811490774154663
0.78009271621704102 0.2398095428943634 0.6227911114692688
0.85655170679092407 0.42624455690383911 0.62007802724838257
0.9421151876449585 0.48108178377151489 0.62752616405487061
0.99891829490661621 0.59757590293884277 0.64461129903793335
0.42501828074455261 0.12591905891895294 0.57027626037597656
0.49578768014907837 0.11825093626976013 0.58124160766601562
0.62708538770675659 0.16565142571926117 0.60109865665435791
0.7708008885383606 0.33146017789840698 0.6260688304901123
0.85535323619842529 0.49210116267204285 0.62626522779464722
0.93711495399475098 0.54343467950820923 0.63144379854202271
0.9974786639213562 0.63826197385787964 0.64743399620056152
0.26153931021690369 0.23526597023010254 0.57053959369659424
0.36644312739372253 0.25249245762825012 0.58557796478271484
0.55129003524780273 0.31193172931671143 0.60563260316848755
0.73735964298248291 0.46348461508750916 0.62453895807266235
0.84551209211349487 0.59289419651031494 0.63146185874938965
0.94103914499282837 0.63998061418533325 0.63830524682998657
0.99311643838882446 0.70045506954193115 0.64965373277664185
0.055118381977081299 0.41316768527030945 0.56236380338668823
0.15040880441665649 0.42178475856781006 0.57276839017868042
0.34697577357292175 0.44926393032073975 0.59323155879974365
0.65188944339752197 0.56242233514785767 0.62495851516723633
0.83298689126968384 0.68617367744445801 0.63512641191482544
0.94329684972763062 0.72146385908126831 0.64427292346954346
0.99605315923690796 0.74255901575088501 0.6481965184211731
0.23083701729774475 0.60406762361526489 0.57706201076507568
0.30250591039657593 0.61188340187072754 0.58269083499908447
0.43738624453544617 0.63509255647659302 0.59637588262557983
0.60716873407363892 0.67862558364868164 0.61836588382720947
0.80313307046890259 0.74703049659729004 0.63038665056228638
0.93714660406112671 0.7738807201385498 0.63923430442810059
0.99512970447540283 0.7867279052734375 0.64850980043411255
0.4100358784198761 0.75179493427276611 0.61258965730667114
0.45860758423805237 0.75865459442138672 0.61622887849807739
0.56646090745925903 0.77256178855895996 0.62185543775558472
0.71171855926513672 0.79261815547943115 0.631847083568573
0.84082984924316406 0.81791603565216064 0.64293819665908813
0.95768433809280396 0.84264767169952393 0.64435768127441406
0.99637937545776367 0.85281747579574585 0.6489713191986084
0.72395908832550049 0.87057900428771973 0.65412098169326782
0.74589365720748901 0.87226319313049316 0.65665280818939209
0.79780983924865723 0.87735015153884888 0.65905952453613281
0.86492407321929932 0.88312226533889771 0.66423577070236206
0.92763042449951172 0.88828098773956299 0.67800885438919067
0.98834288120269775 0.89964789152145386 0.68682962656021118
0.99621337652206421 0.90890514850616455 0.69229143857955933
0.64158529043197632 0.0082608694210648537 0.67695742845535278
0.69213676452636719 0.0088415108621120453 0.68215382099151611
0.7820402979850769 0.025896213948726654 0.6942441463470459
0.88702571392059326 0.28515219688415527 0.6999620795249939
0.95832359790802002 0.54107701778411865 0.68981468677520752
0.98999977111816406 0.64950168132781982 0.68166279792785645
0.99923712015151978 0.69475877285003662 0.68440079689025879
0.61738771200180054 0.061199788004159927 0.68637055158615112
0.6672016978263855 0.070404276251792908 0.69117313623428345
0.76278972625732422 0.17523115873336792 0.69292914867401123
0.87197774648666382 0.36992576718330383 0.69774609804153442
0.9539867639541626 0.58695691823959351 0.69147747755050659
0.98119676113128662 0.67542064189910889 0.68274396657943726
0.99828958511352539 0.69905352592468262 0.68445706367492676
0.50691646337509155 0.23326858878135681 0.6851467490196228
0.5745542049407959 0.25759351253509521 0.68742328882217407
0.69817638397216797 0.33042967319488525 0.68928289413452148
0.83050495386123657 0.49233675003051758 0.6943134069442749
0.93801987171173096 0.66179192066192627 0.69221508502960205
0.98626947402954102 0.73265081644058228 0.68746745586395264
0.99492031335830688 0.76295387744903564 0.69889837503433228
0.059577539563179016 0.36463662981987 0.67172050476074219
0.1778554767370224 0.37003904581069946 0.67505240440368652
0.48839572072029114 0.4220007061958313 0.68282085657119751
0.74063730239868164 0.55844831466674805 0.68632692098617554
0.9010276198387146 0.70196568965911865 0.68626493215560913
0.98305851221084595 0.77751767635345459 0.68906599283218384
0.99170267581939697 0.79498505592346191 0.70309567451477051
0.0068169087171554565 0.57580661773681641 0.6559213399887085
0.01519540511071682 0.57979834079742432 0.65822947025299072
0.16101329028606415 0.58960789442062378 0.66218531131744385
0.48539474606513977 0.61490720510482788 0.66998618841171265
0.82672393321990967 0.73424184322357178 0.67956686019897461
0.98670500516891479 0.81369149684906006 0.69556140899658203
0.99607843160629272 0.82714295387268066 0.70969438552856445
0.26343020796775818 0.73936396837234497 0.64919960498809814
0.32849723100662231 0.74319010972976685 0.65048563480377197
0.45139414072036743 0.75342565774917603 0.6530877947807312
0.61841464042663574 0.76919186115264893 0.6603400707244873
0.78872168064117432 0.79644322395324707 0.6734200119972229
0.97263026237487793 0.84791994094848633 0.69414663314819336
0.9989507794380188 0.87629330158233643 0.71789759397506714
0.60596024990081787 0.8711618185043335 0.67756301164627075
0.63639485836029053 0.87421733140945435 0.67892664670944214
0.69340842962265015 0.8774186372756958 0.6812472939491272
0.79279810190200806 0.88039159774780273 0.68671286106109619
0.9120628833770752 0.88814365863800049 0.69975942373275757
0.98855656385421753 0.90019410848617554 0.7155531644821167
0.99860924482345581 0.91569942235946655 0.73454862833023071
0.83170461654663086 0.087991394102573395 0.76506567001342773
0.85467028617858887 0.14374403655529022 0.7646210789680481
0.90155631303787231 0.28765448927879333 0.76596325635910034
0.96525156497955322 0.46841242909431458 0.76249629259109497
0.99736630916595459 0.63591599464416504 0.75434160232543945
1 0.74847656488418579 0.75140523910522461
1 0.78438735008239746 0.74233788251876831
0.80312222242355347 0.20679698884487152 0.76577639579772949
0.82945734262466431 0.25477698445320129 0.76512134075164795
0.88611209392547607 0.35885584354400635 0.76444339752197266
0.95272159576416016 0.51371151208877563 0.76166999340057373
0.99363458156585693 0.66229063272476196 0.75536257028579712
0.99938571453094482 0.76159238815307617 0.7510337233543396
1 0.79722863435745239 0.74582070112228394
0.73877370357513428 0.32569685578346252 0.76234954595565796
0.77111560106277466 0.36299571394920349 0.76283568143844604
0.84145760536193848 0.44651776552200317 0.76186674833297729
0.92365318536758423 0.57775962352752686 0.76001715660095215
0.98929762840270996 0.69820255041122437 0.75424724817276001
0.99639385938644409 0.77926099300384521 0.74821782112121582
1 0.81973570585250854 0.75099211931228638
0.50547546148300171 0.37968823313713074 0.75852459669113159
0.58726769685745239 0.41560998558998108 0.75950044393539429
0.71906012296676636 0.4972536563873291 0.75810515880584717
0.85796594619750977 0.61649847030639648 0.75523096323013306
0.97317796945571899 0.72756403684616089 0.75576490163803101
0.99783432483673096 0.80326706171035767 0.75721174478530884
0.99968475103378296 0.83995515108108521 0.75592219829559326
0.0016261979471892118 0.57824337482452393 0.74352043867111206
0.0078164646402001381 0.56633418798446655 0.7495347261428833
0.15210631489753723 0.55102825164794922 0.74934959411621094
0.62018698453903198 0.60835570096969604 0.75337332487106323
0.90533047914505005 0.74181747436523438 0.75435745716094971
0.99472254514694214 0.82089459896087646 0.75579309463500977
0.9997408390045166 0.8715280294418335 0.76739752292633057
0.011484901420772076 0.76248687505722046 0.73525655269622803
0.027239631861448288 0.76346391439437866 0.7362712025642395
0.13080523908138275 0.76158881187438965 0.73709338903427124
0.38707202672958374 0.74953353404998779 0.74298495054244995
0.64877486228942871 0.75788313150405884 0.74792063236236572
0.96680921316146851 0.83682167530059814 0.7613944411277771
0.99868309497833252 0.89357107877731323 0.77461320161819458
0.57793444395065308 0.87465673685073853 0.75418102741241455
0.60156363248825073 0.87335216999053955 0.75117111206054688
0.6549990177154541 0.87368035316467285 0.75207901000976562
0.7344890832901001 0.87555748224258423 0.74929130077362061
0.84600925445556641 0.88113397359848022 0.75999480485916138
0.95731407403945923 0.8916662335395813 0.76981186866760254
0.99908113479614258 0.91611719131469727 0.78563159704208374
