luts/instant_pro/fuji_fp-3000b_hc.cube
# Created by: G'MIC (https://gmic.eu)
TITLE "fuji_fp-3000b_hc"
# LUT size
LUT_3D_SIZE 7
# Data domain
DOMAIN_MIN 0.0 0.0 0.0
DOMAIN_MAX 1.0 1.0 1.0
# LUT data points
0.058442778885364532 0.058442778885364532 0.058442778885364532
0.051500104367733002 0.051500104367733002 0.051500104367733002
0.093522645533084869 0.093522645533084869 0.093522645533084869
0.18302519619464874 0.18302519619464874 0.18302519619464874
0.3074289858341217 0.3074289858341217 0.3074289858341217
0.46443626284599304 0.46443626284599304 0.46443626284599304
0.63054531812667847 0.63054531812667847 0.63054531812667847
0.069298341870307922 0.069298341870307922 0.069298341870307922
0.072096943855285645 0.072096943855285645 0.072096943855285645
0.14552405476570129 0.14552405476570129 0.14552405476570129
0.24069392681121826 0.24069392681121826 0.24069392681121826
0.36472025513648987 0.36472025513648987 0.36472025513648987
0.50837999582290649 0.50837999582290649 0.50837999582290649
0.66132050752639771 0.66132050752639771 0.66132050752639771
0.12497727572917938 0.12497727572917938 0.12497727572917938
0.11537014693021774 0.11537014693021774 0.11537014693021774
0.24589507281780243 0.24589507281780243 0.24589507281780243
0.38337543606758118 0.38337543606758118 0.38337543606758118
0.48298940062522888 0.48298940062522888 0.48298940062522888
0.58298176527023315 0.58298176527023315 0.58298176527023315
0.71159899234771729 0.71159899234771729 0.71159899234771729
0.23514300584793091 0.23514300584793091 0.23514300584793091
0.20142881572246552 0.20142881572246552 0.20142881572246552
0.28316542506217957 0.28316542506217957 0.28316542506217957
0.4568626880645752 0.4568626880645752 0.4568626880645752
0.5961604118347168 0.5961604118347168 0.5961604118347168
0.69017809629440308 0.69017809629440308 0.69017809629440308
0.78311318159103394 0.78311318159103394 0.78311318159103394
0.3895474374294281 0.3895474374294281 0.3895474374294281
0.36165931820869446 0.36165931820869446 0.36165931820869446
0.36946326494216919 0.36946326494216919 0.36946326494216919
0.50027155876159668 0.50027155876159668 0.50027155876159668
0.65319234132766724 0.65319234132766724 0.65319234132766724
0.77871519327163696 0.77871519327163696 0.77871519327163696
0.85062193870544434 0.85062193870544434 0.85062193870544434
0.56290477514266968 0.56290477514266968 0.56290477514266968
0.53477323055267334 0.53477323055267334 0.53477323055267334
0.50939780473709106 0.50939780473709106 0.50939780473709106
0.58647561073303223 0.58647561073303223 0.58647561073303223
0.71358346939086914 0.71358346939086914 0.71358346939086914
0.82114851474761963 0.82114851474761963 0.82114851474761963
0.89124113321304321 0.89124113321304321 0.89124113321304321
0.75796091556549072 0.75796091556549072 0.75796091556549072
0.74380582571029663 0.74380582571029663 0.74380582571029663
0.73414278030395508 0.73414278030395508 0.73414278030395508
0.74609065055847168 0.74609065055847168 0.74609065055847168
0.80508118867874146 0.80508118867874146 0.80508118867874146
0.87187719345092773 0.87187719345092773 0.87187719345092773
0.9280046820640564 0.9280046820640564 0.9280046820640564
0.05442911759018898 0.05442911759018898 0.05442911759018898
0.063759267330169678 0.063759267330169678 0.063759267330169678
0.1192038282752037 0.1192038282752037 0.1192038282752037
0.23559519648551941 0.23559519648551941 0.23559519648551941
0.3500933051109314 0.3500933051109314 0.3500933051109314
0.49468472599983215 0.49468472599983215 0.49468472599983215
0.64636689424514771 0.64636689424514771 0.64636689424514771
0.089882761240005493 0.089882761240005493 0.089882761240005493
0.1015775054693222 0.1015775054693222 0.1015775054693222
0.1632581353187561 0.1632581353187561 0.1632581353187561
0.27818194031715393 0.27818194031715393 0.27818194031715393
0.40323743224143982 0.40323743224143982 0.40323743224143982
0.53196471929550171 0.53196471929550171 0.53196471929550171
0.67162042856216431 0.67162042856216431 0.67162042856216431
0.19894132018089294 0.19894132018089294 0.19894132018089294
0.18417175114154816 0.18417175114154816 0.18417175114154816
0.27137953042984009 0.27137953042984009 0.27137953042984009
0.39445430040359497 0.39445430040359497 0.39445430040359497
0.49117591977119446 0.49117591977119446 0.49117591977119446
0.59507185220718384 0.59507185220718384 0.59507185220718384
0.71627789735794067 0.71627789735794067 0.71627789735794067
0.317585289478302 0.317585289478302 0.317585289478302
0.27529647946357727 0.27529647946357727 0.27529647946357727
0.30498656630516052 0.30498656630516052 0.30498656630516052
0.47685423493385315 0.47685423493385315 0.47685423493385315
0.59990310668945312 0.59990310668945312 0.59990310668945312
0.688812255859375 0.688812255859375 0.688812255859375
0.78207433223724365 0.78207433223724365 0.78207433223724365
0.44893884658813477 0.44893884658813477 0.44893884658813477
0.41338178515434265 0.41338178515434265 0.41338178515434265
0.4076157808303833 0.4076157808303833 0.4076157808303833
0.51587814092636108 0.51587814092636108 0.51587814092636108
0.66406714916229248 0.66406714916229248 0.66406714916229248
0.77673512697219849 0.77673512697219849 0.77673512697219849
0.84999102354049683 0.84999102354049683 0.84999102354049683
0.59823405742645264 0.59823405742645264 0.59823405742645264
0.57668459415435791 0.57668459415435791 0.57668459415435791
0.55554294586181641 0.55554294586181641 0.55554294586181641
0.60368806123733521 0.60368806123733521 0.60368806123733521
0.71731245517730713 0.71731245517730713 0.71731245517730713
0.82423204183578491 0.82423204183578491 0.82423204183578491
0.89381891489028931 0.89381891489028931 0.89381891489028931
0.7758861780166626 0.7758861780166626 0.7758861780166626
0.7619330883026123 0.7619330883026123 0.7619330883026123
0.74435567855834961 0.74435567855834961 0.74435567855834961
0.75193941593170166 0.75193941593170166 0.75193941593170166
0.80507886409759521 0.80507886409759521 0.80507886409759521
0.87301760911941528 0.87301760911941528 0.87301760911941528
0.93192267417907715 0.93192267417907715 0.93192267417907715
0.11032505333423615 0.11032505333423615 0.11032505333423615
0.14095450937747955 0.14095450937747955 0.14095450937747955
0.2007596343755722 0.2007596343755722 0.2007596343755722
0.31849691271781921 0.31849691271781921 0.31849691271781921
0.44782894849777222 0.44782894849777222 0.44782894849777222
0.56748741865158081 0.56748741865158081 0.56748741865158081
0.68725842237472534 0.68725842237472534 0.68725842237472534
0.14429183304309845 0.14429183304309845 0.14429183304309845
0.18133328855037689 0.18133328855037689 0.18133328855037689
0.23993432521820068 0.23993432521820068 0.23993432521820068
0.34776383638381958 0.34776383638381958 0.34776383638381958
0.48371589183807373 0.48371589183807373 0.48371589183807373
0.58044147491455078 0.58044147491455078 0.58044147491455078
0.69256550073623657 0.69256550073623657 0.69256550073623657
0.25932133197784424 0.25932133197784424 0.25932133197784424
0.29679989814758301 0.29679989814758301 0.29679989814758301
0.33676201105117798 0.33676201105117798 0.33676201105117798
0.41787120699882507 0.41787120699882507 0.41787120699882507
0.52758139371871948 0.52758139371871948 0.52758139371871948
0.61903029680252075 0.61903029680252075 0.61903029680252075
0.72514855861663818 0.72514855861663818 0.72514855861663818
0.43260443210601807 0.43260443210601807 0.43260443210601807
0.42771634459495544 0.42771634459495544 0.42771634459495544
0.4193432629108429 0.4193432629108429 0.4193432629108429
0.50629574060440063 0.50629574060440063 0.50629574060440063
0.61259967088699341 0.61259967088699341 0.61259967088699341
0.6921578049659729 0.6921578049659729 0.6921578049659729
0.77899843454360962 0.77899843454360962 0.77899843454360962
0.56318682432174683 0.56318682432174683 0.56318682432174683
0.54319214820861816 0.54319214820861816 0.54319214820861816
0.5165565013885498 0.5165565013885498 0.5165565013885498
0.54883533716201782 0.54883533716201782 0.54883533716201782
0.67810380458831787 0.67810380458831787 0.67810380458831787
0.78314590454101562 0.78314590454101562 0.78314590454101562
0.84637391567230225 0.84637391567230225 0.84637391567230225
0.68311208486557007 0.68311208486557007 0.68311208486557007
0.66862499713897705 0.66862499713897705 0.66862499713897705
0.63950037956237793 0.63950037956237793 0.63950037956237793
0.63897490501403809 0.63897490501403809 0.63897490501403809
0.7269865870475769 0.7269865870475769 0.7269865870475769
0.82796609401702881 0.82796609401702881 0.82796609401702881
0.89473986625671387 0.89473986625671387 0.89473986625671387
0.81809401512145996 0.81809401512145996 0.81809401512145996
0.80631929636001587 0.80631929636001587 0.80631929636001587
0.78441816568374634 0.78441816568374634 0.78441816568374634
0.77566784620285034 0.77566784620285034 0.77566784620285034
0.81235206127166748 0.81235206127166748 0.81235206127166748
0.87643694877624512 0.87643694877624512 0.87643694877624512
0.93580335378646851 0.93580335378646851 0.93580335378646851
0.27201738953590393 0.27201738953590393 0.27201738953590393
0.29777443408966064 0.29777443408966064 0.29777443408966064
0.36762174963951111 0.36762174963951111 0.36762174963951111
0.42479816079139709 0.42479816079139709 0.42479816079139709
0.51365047693252563 0.51365047693252563 0.51365047693252563
0.64912372827529907 0.64912372827529907 0.64912372827529907
0.75165659189224243 0.75165659189224243 0.75165659189224243
0.3198169469833374 0.3198169469833374 0.3198169469833374
0.32966652512550354 0.32966652512550354 0.32966652512550354
0.38476118445396423 0.38476118445396423 0.38476118445396423
0.45001471042633057 0.45001471042633057 0.45001471042633057
0.5410887598991394 0.5410887598991394 0.5410887598991394
0.66078585386276245 0.66078585386276245 0.66078585386276245
0.75456607341766357 0.75456607341766357 0.75456607341766357
0.35750365257263184 0.35750365257263184 0.35750365257263184
0.38284242153167725 0.38284242153167725 0.38284242153167725
0.44635650515556335 0.44635650515556335 0.44635650515556335
0.51332312822341919 0.51332312822341919 0.51332312822341919
0.59146749973297119 0.59146749973297119 0.59146749973297119
0.67303073406219482 0.67303073406219482 0.67303073406219482
0.76460224390029907 0.76460224390029907 0.76460224390029907
0.50175464153289795 0.50175464153289795 0.50175464153289795
0.50074601173400879 0.50074601173400879 0.50074601173400879
0.52570623159408569 0.52570623159408569 0.52570623159408569
0.56997501850128174 0.56997501850128174 0.56997501850128174
0.64626747369766235 0.64626747369766235 0.64626747369766235
0.71456384658813477 0.71456384658813477 0.71456384658813477
0.78786766529083252 0.78786766529083252 0.78786766529083252
0.64745569229125977 0.64745569229125977 0.64745569229125977
0.64506441354751587 0.64506441354751587 0.64506441354751587
0.65075743198394775 0.65075743198394775 0.65075743198394775
0.63858169317245483 0.63858169317245483 0.63858169317245483
0.71075558662414551 0.71075558662414551 0.71075558662414551
0.79674351215362549 0.79674351215362549 0.79674351215362549
0.84670639038085938 0.84670639038085938 0.84670639038085938
0.7609325647354126 0.7609325647354126 0.7609325647354126
0.75938910245895386 0.75938910245895386 0.75938910245895386
0.74736648797988892 0.74736648797988892 0.74736648797988892
0.72460180521011353 0.72460180521011353 0.72460180521011353
0.74939382076263428 0.74939382076263428 0.74939382076263428
0.83695137500762939 0.83695137500762939 0.83695137500762939
0.89803516864776611 0.89803516864776611 0.89803516864776611
0.86437892913818359 0.86437892913818359 0.86437892913818359
0.86031711101531982 0.86031711101531982 0.86031711101531982
0.84668004512786865 0.84668004512786865 0.84668004512786865
0.82592356204986572 0.82592356204986572 0.82592356204986572
0.83455222845077515 0.83455222845077515 0.83455222845077515
0.88600105047225952 0.88600105047225952 0.88600105047225952
0.94068074226379395 0.94068074226379395 0.94068074226379395
0.47499051690101624 0.47499051690101624 0.47499051690101624
0.48569735884666443 0.48569735884666443 0.48569735884666443
0.53093117475509644 0.53093117475509644 0.53093117475509644
0.60075211524963379 0.60075211524963379 0.60075211524963379
0.62851226329803467 0.62851226329803467 0.62851226329803467
0.6897311806678772 0.6897311806678772 0.6897311806678772
0.79579812288284302 0.79579812288284302 0.79579812288284302
0.51395845413208008 0.51395845413208008 0.51395845413208008
0.52010196447372437 0.52010196447372437 0.52010196447372437
0.55355513095855713 0.55355513095855713 0.55355513095855713
0.60137635469436646 0.60137635469436646 0.60137635469436646
0.6347314715385437 0.6347314715385437 0.6347314715385437
0.70644789934158325 0.70644789934158325 0.70644789934158325
0.79728704690933228 0.79728704690933228 0.79728704690933228
0.52091360092163086 0.52091360092163086 0.52091360092163086
0.54983144998550415 0.54983144998550415 0.54983144998550415
0.58619266748428345 0.58619266748428345 0.58619266748428345
0.63509559631347656 0.63509559631347656 0.63509559631347656
0.67222088575363159 0.67222088575363159 0.67222088575363159
0.73213231563568115 0.73213231563568115 0.73213231563568115
0.81767171621322632 0.81767171621322632 0.81767171621322632
0.57530146837234497 0.57530146837234497 0.57530146837234497
0.594260573387146 0.594260573387146 0.594260573387146
0.61887681484222412 0.61887681484222412 0.61887681484222412
0.66921776533126831 0.66921776533126831 0.66921776533126831
0.71643364429473877 0.71643364429473877 0.71643364429473877
0.76346504688262939 0.76346504688262939 0.76346504688262939
0.819053053855896 0.819053053855896 0.819053053855896
0.69847136735916138 0.69847136735916138 0.69847136735916138
0.6953967809677124 0.6953967809677124 0.6953967809677124
0.70428389310836792 0.70428389310836792 0.70428389310836792
0.73298752307891846 0.73298752307891846 0.73298752307891846
0.76509934663772583 0.76509934663772583 0.76509934663772583
0.81229329109191895 0.81229329109191895 0.81229329109191895
0.85747838020324707 0.85747838020324707 0.85747838020324707
0.80613988637924194 0.80613988637924194 0.80613988637924194
0.8028571605682373 0.8028571605682373 0.8028571605682373
0.80236977338790894 0.80236977338790894 0.80236977338790894
0.80775976181030273 0.80775976181030273 0.80775976181030273
0.80936324596405029 0.80936324596405029 0.80936324596405029
0.85764878988265991 0.85764878988265991 0.85764878988265991
0.90673059225082397 0.90673059225082397 0.90673059225082397
0.8916507363319397 0.8916507363319397 0.8916507363319397
0.89120543003082275 0.89120543003082275 0.89120543003082275
0.88918429613113403 0.88918429613113403 0.88918429613113403
0.87597304582595825 0.87597304582595825 0.87597304582595825
0.87307995557785034 0.87307995557785034 0.87307995557785034
0.90499639511108398 0.90499639511108398 0.90499639511108398
0.94670331478118896 0.94670331478118896 0.94670331478118896
0.67096340656280518 0.67096340656280518 0.67096340656280518
0.68030685186386108 0.68030685186386108 0.68030685186386108
0.70661270618438721 0.70661270618438721 0.70661270618438721
0.75137269496917725 0.75137269496917725 0.75137269496917725
0.78011405467987061 0.78011405467987061 0.78011405467987061
0.79013997316360474 0.79013997316360474 0.79013997316360474
0.83431339263916016 0.83431339263916016 0.83431339263916016
0.69846189022064209 0.69846189022064209 0.69846189022064209
0.70571571588516235 0.70571571588516235 0.70571571588516235
0.71757501363754272 0.71757501363754272 0.71757501363754272
0.74770373106002808 0.74770373106002808 0.74770373106002808
0.77301329374313354 0.77301329374313354 0.77301329374313354
0.7897411584854126 0.7897411584854126 0.7897411584854126
0.82683706283569336 0.82683706283569336 0.82683706283569336
0.70823311805725098 0.70823311805725098 0.70823311805725098
0.7228277325630188 0.7228277325630188 0.7228277325630188
0.7308160662651062 0.7308160662651062 0.7308160662651062
0.75446969270706177 0.75446969270706177 0.75446969270706177
0.78146821260452271 0.78146821260452271 0.78146821260452271
0.80629843473434448 0.80629843473434448 0.80629843473434448
0.84447699785232544 0.84447699785232544 0.84447699785232544
0.71479719877243042 0.71479719877243042 0.71479719877243042
0.72479820251464844 0.72479820251464844 0.72479820251464844
0.73574912548065186 0.73574912548065186 0.73574912548065186
0.77064621448516846 0.77064621448516846 0.77064621448516846
0.8015713095664978 0.8015713095664978 0.8015713095664978
0.8248409628868103 0.8248409628868103 0.8248409628868103
0.85551035404205322 0.85551035404205322 0.85551035404205322
0.76705700159072876 0.76705700159072876 0.76705700159072876
0.76274782419204712 0.76274782419204712 0.76274782419204712
0.76857262849807739 0.76857262849807739 0.76857262849807739
0.80037635564804077 0.80037635564804077 0.80037635564804077
0.82940340042114258 0.82940340042114258 0.82940340042114258
0.85265630483627319 0.85265630483627319 0.85265630483627319
0.88121622800827026 0.88121622800827026 0.88121622800827026
0.83632832765579224 0.83632832765579224 0.83632832765579224
0.83168900012969971 0.83168900012969971 0.83168900012969971
0.83065569400787354 0.83065569400787354 0.83065569400787354
0.8444715142250061 0.8444715142250061 0.8444715142250061
0.86282628774642944 0.86282628774642944 0.86282628774642944
0.8855968713760376 0.8855968713760376 0.8855968713760376
0.91464704275131226 0.91464704275131226 0.91464704275131226
0.90482908487319946 0.90482908487319946 0.90482908487319946
0.90365087985992432 0.90365087985992432 0.90365087985992432
0.90448665618896484 0.90448665618896484 0.90448665618896484
0.90417718887329102 0.90417718887329102 0.90417718887329102
0.90763348340988159 0.90763348340988159 0.90763348340988159
0.92301052808761597 0.92301052808761597 0.92301052808761597
0.94872856140136719 0.94872856140136719 0.94872856140136719
0.84441369771957397 0.84441369771957397 0.84441369771957397
0.85033541917800903 0.85033541917800903 0.85033541917800903
0.86194694042205811 0.86194694042205811 0.86194694042205811
0.88261622190475464 0.88261622190475464 0.88261622190475464
0.89771425724029541 0.89771425724029541 0.89771425724029541
0.90055638551712036 0.90055638551712036 0.90055638551712036
0.90778422355651855 0.90778422355651855 0.90778422355651855
0.85530567169189453 0.85530567169189453 0.85530567169189453
0.86120957136154175 0.86120957136154175 0.86120957136154175
0.86621785163879395 0.86621785163879395 0.86621785163879395
0.8814123272895813 0.8814123272895813 0.8814123272895813
0.89770877361297607 0.89770877361297607 0.89770877361297607
0.90840721130371094 0.90840721130371094 0.90840721130371094
0.90898388624191284 0.90898388624191284 0.90898388624191284
0.85256433486938477 0.85256433486938477 0.85256433486938477
0.85970914363861084 0.85970914363861084 0.85970914363861084
0.86466377973556519 0.86466377973556519 0.86466377973556519
0.87860369682312012 0.87860369682312012 0.87860369682312012
0.89312744140625 0.89312744140625 0.89312744140625
0.89961093664169312 0.89961093664169312 0.89961093664169312
0.90421020984649658 0.90421020984649658 0.90421020984649658
0.84390223026275635 0.84390223026275635 0.84390223026275635
0.84931039810180664 0.84931039810180664 0.84931039810180664
0.85975366830825806 0.85975366830825806 0.85975366830825806
0.881145179271698 0.881145179271698 0.881145179271698
0.89462006092071533 0.89462006092071533 0.89462006092071533
0.89789140224456787 0.89789140224456787 0.89789140224456787
0.90596616268157959 0.90596616268157959 0.90596616268157959
0.85449159145355225 0.85449159145355225 0.85449159145355225
0.85393905639648438 0.85393905639648438 0.85393905639648438
0.8642393946647644 0.8642393946647644 0.8642393946647644
0.88746249675750732 0.88746249675750732 0.88746249675750732
0.90120482444763184 0.90120482444763184 0.90120482444763184
0.90603423118591309 0.90603423118591309 0.90603423118591309
0.91872072219848633 0.91872072219848633 0.91872072219848633
0.88410663604736328 0.88410663604736328 0.88410663604736328
0.8823922872543335 0.8823922872543335 0.8823922872543335
0.88869667053222656 0.88869667053222656 0.88869667053222656
0.90215349197387695 0.90215349197387695 0.90215349197387695
0.91346979141235352 0.91346979141235352 0.91346979141235352
0.92045700550079346 0.92045700550079346 0.92045700550079346
0.93535900115966797 0.93535900115966797 0.93535900115966797
0.92861038446426392 0.92861038446426392 0.92861038446426392
0.92939865589141846 0.92939865589141846 0.92939865589141846
0.93422424793243408 0.93422424793243408 0.93422424793243408
0.93929862976074219 0.93929862976074219 0.93929862976074219
0.94229161739349365 0.94229161739349365 0.94229161739349365
0.94666659832000732 0.94666659832000732 0.94666659832000732
0.95936411619186401 0.95936411619186401 0.95936411619186401
