luts/instant_pro/fuji_fp-100c.cube
# Created by: G'MIC (https://gmic.eu)
TITLE "fuji_fp-100c"
# LUT size
LUT_3D_SIZE 7
# Data domain
DOMAIN_MIN 0.0 0.0 0.0
DOMAIN_MAX 1.0 1.0 1.0
# LUT data points
0.046761039644479752 0.063500210642814636 0.078773021697998047
0.13551093637943268 0.064487934112548828 0.079922318458557129
0.3057156503200531 0.032970055937767029 0.080416314303874969
0.51446032524108887 0.0044309729710221291 0.084074355661869049
0.7115929126739502 0.007822912186384201 0.089871376752853394
0.86572176218032837 0.006715049035847187 0.086800701916217804
0.98051244020462036 0.091076284646987915 0.095848232507705688
0.045779120177030563 0.1413724273443222 0.086900241672992706
0.16346034407615662 0.14986129105091095 0.07815571129322052
0.35047325491905212 0.15150345861911774 0.068367153406143188
0.55375635623931885 0.13496106863021851 0.078486904501914978
0.72884303331375122 0.11642710119485855 0.083240211009979248
0.87146610021591187 0.15235668420791626 0.09158884733915329
0.98567408323287964 0.23330032825469971 0.10497680306434631
0.0055921967141330242 0.30831080675125122 0.092251874506473541
0.15391691029071808 0.31075176596641541 0.081525258719921112
0.36459624767303467 0.34139737486839294 0.025663996115326881
0.58049511909484863 0.35447770357131958 0.025827176868915558
0.75908273458480835 0.36306878924369812 0.066029518842697144
0.88785260915756226 0.37592431902885437 0.099542208015918732
0.9898945689201355 0.39660897850990295 0.12276139855384827
0.0033505908213555813 0.48108950257301331 0.10022756457328796
0.10740602016448975 0.48147872090339661 0.097752034664154053
0.32240471243858337 0.49192216992378235 0.053935166448354721
0.53033703565597534 0.51175743341445923 0.0089827897027134895
0.72548919916152954 0.52606600522994995 0.0068968231789767742
0.88625317811965942 0.54485934972763062 0.050375889986753464
0.98723286390304565 0.57041305303573608 0.17339393496513367
0.0072919959202408791 0.62406772375106812 0.13212031126022339
0.086675532162189484 0.62188321352005005 0.12693063914775848
0.31341195106506348 0.62068891525268555 0.1050422340631485
0.48565930128097534 0.63563406467437744 0.027370452880859375
0.67420732975006104 0.65684646368026733 0.010023319162428379
0.84641945362091064 0.6709563136100769 0.013144459575414658
0.9809805154800415 0.69346457719802856 0.05654989555478096
0.064539350569248199 0.76576346158981323 0.18832626938819885
0.2015967071056366 0.7608674168586731 0.19089309871196747
0.36203745007514954 0.75218039751052856 0.18679443001747131
0.5137026309967041 0.75989437103271484 0.14707520604133606
0.66264402866363525 0.77596431970596313 0.051300603896379471
0.8251112699508667 0.79277479648590088 0.01319586019963026
0.96544629335403442 0.80946755409240723 0.0086826402693986893
0.41364535689353943 0.9102054238319397 0.38456714153289795
0.45681485533714294 0.90817278623580933 0.38643267750740051
0.53858649730682373 0.90599846839904785 0.39131870865821838
0.64307928085327148 0.90450567007064819 0.39582663774490356
0.7564048171043396 0.914406418800354 0.37190377712249756
0.87202244997024536 0.9251171350479126 0.31697195768356323
0.98324465751647949 0.93759435415267944 0.20025396347045898
0.060026608407497406 0.062550246715545654 0.15834517776966095
0.17040619254112244 0.042747601866722107 0.17390081286430359
0.29767972230911255 0.050122968852519989 0.16862697899341583
0.52303397655487061 0.0085493354126811028 0.17981649935245514
0.71319717168807983 0.0043531530536711216 0.18017064034938812
0.86228644847869873 0.012592555023729801 0.18297123908996582
0.97413331270217896 0.11975646764039993 0.19575618207454681
0.055041011422872543 0.1562381237745285 0.18580563366413116
0.1832868903875351 0.16374126076698303 0.19383960962295532
0.36064338684082031 0.17121662199497223 0.18548983335494995
0.56604146957397461 0.15629288554191589 0.19370567798614502
0.729714035987854 0.15421470999717712 0.19478195905685425
0.86547565460205078 0.18347837030887604 0.19793029129505157
0.98122239112854004 0.24801316857337952 0.20686803758144379
0.011896021664142609 0.35204952955245972 0.21403229236602783
0.17878256738185883 0.35872721672058105 0.21429246664047241
0.3960132896900177 0.36753034591674805 0.18466608226299286
0.59733885526657104 0.37697702646255493 0.1871219277381897
0.75712454319000244 0.3767378032207489 0.20770952105522156
0.88154506683349609 0.38439658284187317 0.21251961588859558
0.988983154296875 0.40186083316802979 0.21804091334342957
0.0035674301907420158 0.51727849245071411 0.21729561686515808
0.13292691111564636 0.51690018177032471 0.21907792985439301
0.35996437072753906 0.52058786153793335 0.19573858380317688
0.55424195528030396 0.53468376398086548 0.12774825096130371
0.73885810375213623 0.53999853134155273 0.11795230954885483
0.89014559984207153 0.56009030342102051 0.21120633184909821
0.98583328723907471 0.57682520151138306 0.26679956912994385
0.0079847145825624466 0.64692133665084839 0.23279502987861633
0.11210862547159195 0.64564663171768188 0.22631537914276123
0.3381466269493103 0.64487558603286743 0.22044393420219421
0.51239091157913208 0.65113550424575806 0.17440994083881378
0.68595296144485474 0.66749507188796997 0.071128204464912415
0.85466080904006958 0.67598158121109009 0.041822843253612518
0.97904473543167114 0.69907331466674805 0.20085927844047546
0.081684708595275879 0.77368134260177612 0.26508679986000061
0.20862288773059845 0.76969724893569946 0.26805400848388672
0.37254628539085388 0.76382827758789062 0.26594343781471252
0.52417594194412231 0.76571893692016602 0.24694828689098358
0.66870331764221191 0.78247272968292236 0.18302199244499207
0.82535380125045776 0.79699939489364624 0.056052591651678085
0.96917986869812012 0.809681236743927 0.014870378188788891
0.41324374079704285 0.91248679161071777 0.42407715320587158
0.45649969577789307 0.91199487447738647 0.42564690113067627
0.53391307592391968 0.90748852491378784 0.42354786396026611
0.64618068933486938 0.90747547149658203 0.43863433599472046
0.75400435924530029 0.91455650329589844 0.41678902506828308
0.87021565437316895 0.92674714326858521 0.37119090557098389
0.98210769891738892 0.93769490718841553 0.28058046102523804
0.059983525425195694 0.051777694374322891 0.3192773163318634
0.2232065349817276 0.01784496009349823 0.35234490036964417
0.43156442046165466 0.0070703243836760521 0.3816036581993103
0.51392471790313721 0.063234753906726837 0.34472882747650146
0.68615412712097168 0.044706068933010101 0.34100431203842163
0.84973615407943726 0.013118025846779346 0.3251444399356842
0.97873824834823608 0.089757896959781647 0.3149658739566803
0.055854137986898422 0.154185950756073 0.33138984441757202
0.22697246074676514 0.15002055466175079 0.36366024613380432
0.44826725125312805 0.13309389352798462 0.40317836403846741
0.55023419857025146 0.20839820802211761 0.37075260281562805
0.71798241138458252 0.17795583605766296 0.34871640801429749
0.86463218927383423 0.18377785384654999 0.33261111378669739
0.97683334350585938 0.24508798122406006 0.33529865741729736
0.062350314110517502 0.36083278059959412 0.38919329643249512
0.21853901445865631 0.37934735417366028 0.40365970134735107
0.43605676293373108 0.40245062112808228 0.41852518916130066
0.60228085517883301 0.40856179594993591 0.4021085798740387
0.74943143129348755 0.38563477993011475 0.3784845769405365
0.87589055299758911 0.39047834277153015 0.3662082850933075
0.97526007890701294 0.41328856348991394 0.36351558566093445
0.039788354188203812 0.57011306285858154 0.4282371997833252
0.22756806015968323 0.56858295202255249 0.42099642753601074
0.4061562716960907 0.56391340494155884 0.39742651581764221
0.59131532907485962 0.56678527593612671 0.37408632040023804
0.75505262613296509 0.57424622774124146 0.38411375880241394
0.88466507196426392 0.57965433597564697 0.40106964111328125
0.97773241996765137 0.58496373891830444 0.40194898843765259
0.084863759577274323 0.68890690803527832 0.40214148163795471
0.2062428742647171 0.68309837579727173 0.39200285077095032
0.38058701157569885 0.6752428412437439 0.3822101354598999
0.53877907991409302 0.67460513114929199 0.36574718356132507
0.70768004655838013 0.6844901442527771 0.32367062568664551
0.85889703035354614 0.69760972261428833 0.30939075350761414
0.97413915395736694 0.71672022342681885 0.39546763896942139
0.114205002784729 0.79208850860595703 0.39788249135017395
0.23844665288925171 0.78965133428573608 0.39002129435539246
0.38311952352523804 0.78122586011886597 0.38622808456420898
0.53054344654083252 0.77597451210021973 0.37326213717460632
0.67583131790161133 0.78579425811767578 0.34249383211135864
0.82758969068527222 0.80008882284164429 0.28655281662940979
0.97120422124862671 0.81367242336273193 0.24879935383796692
0.40079373121261597 0.91958868503570557 0.49913817644119263
0.44097733497619629 0.9171525239944458 0.49587371945381165
0.52870231866836548 0.91296505928039551 0.49914607405662537
0.63481366634368896 0.90793544054031372 0.49891048669815063
0.74718999862670898 0.91313743591308594 0.49297216534614563
0.86773836612701416 0.92695397138595581 0.46531271934509277
0.97869664430618286 0.93899768590927124 0.40476542711257935
0.10860215872526169 0.028099104762077332 0.50221377611160278
0.25102287530899048 0.0067384606227278709 0.53180396556854248
0.50085163116455078 0.0011722190538421273 0.58699941635131836
0.70907104015350342 0.00023797727772034705 0.61132383346557617
0.72363299131393433 0.089106000959873199 0.52806085348129272
0.81050616502761841 0.23247730731964111 0.51592981815338135
0.95526915788650513 0.22306157648563385 0.50544583797454834
0.11856717616319656 0.15410174429416656 0.5159267783164978
0.26162230968475342 0.13015881180763245 0.53867971897125244
0.49247753620147705 0.088408887386322021 0.59216165542602539
0.71070438623428345 0.068514972925186157 0.62052083015441895
0.73064577579498291 0.24518431723117828 0.54772794246673584
0.82319885492324829 0.30758997797966003 0.52105772495269775
0.95814621448516846 0.29457858204841614 0.50313735008239746
0.093301855027675629 0.32432311773300171 0.50036835670471191
0.23999816179275513 0.33909657597541809 0.52555972337722778
0.45377188920974731 0.36984312534332275 0.57082277536392212
0.6737138032913208 0.40354079008102417 0.61530560255050659
0.72494745254516602 0.44468140602111816 0.56603914499282837
0.84864872694015503 0.42371684312820435 0.53360593318939209
0.9704594612121582 0.40138131380081177 0.50323712825775146
0.16420502960681915 0.5430901050567627 0.56524717807769775
0.27815034985542297 0.55310696363449097 0.57141852378845215
0.44258195161819458 0.58071780204772949 0.58932352066040039
0.62842798233032227 0.60809898376464844 0.60533183813095093
0.75460708141326904 0.60520452260971069 0.59042650461196899
0.86813068389892578 0.58026033639907837 0.5564272403717041
0.97446417808532715 0.57649081945419312 0.53708505630493164
0.21525435149669647 0.71391874551773071 0.60377901792526245
0.31283274292945862 0.71556621789932251 0.5998571515083313
0.44500964879989624 0.71553093194961548 0.58771133422851562
0.58599710464477539 0.71371567249298096 0.57365632057189941
0.7345881462097168 0.71823430061340332 0.5634644627571106
0.86721891164779663 0.72389143705368042 0.55099737644195557
0.97306740283966064 0.73302638530731201 0.58726435899734497
0.30138742923736572 0.81721735000610352 0.58812648057937622
0.34313169121742249 0.81574553251266479 0.57665610313415527
0.4234587550163269 0.81169134378433228 0.55548363924026489
0.55315518379211426 0.79980117082595825 0.53754442930221558
0.69452309608459473 0.80335897207260132 0.5189521312713623
0.83954840898513794 0.81338930130004883 0.4996415376663208
0.96887683868408203 0.82476192712783813 0.48298698663711548
0.39958456158638 0.92959773540496826 0.60938876867294312
0.42647004127502441 0.92858326435089111 0.60353296995162964
0.50973892211914062 0.92482995986938477 0.60022354125976562
0.62389445304870605 0.91791212558746338 0.59845495223999023
0.74471241235733032 0.91839790344238281 0.60062110424041748
0.86279428005218506 0.92835801839828491 0.58076357841491699
0.97416096925735474 0.93973326683044434 0.53408265113830566
0.20509509742259979 0.0061513264663517475 0.67212551832199097
0.31139406561851501 0.0034252540208399296 0.68493747711181641
0.50150811672210693 0.0061337938532233238 0.71905839443206787
0.74919164180755615 0.00076106953201815486 0.77118188142776489
0.89210474491119385 0.0008484784048050642 0.77212589979171753
0.88864564895629883 0.17482945322990417 0.69269055128097534
0.93271148204803467 0.37781736254692078 0.68367183208465576
0.21256417036056519 0.14477415382862091 0.66947126388549805
0.32267534732818604 0.11742632836103439 0.68730896711349487
0.49627888202667236 0.08126358687877655 0.72109168767929077
0.73087501525878906 0.033005703240633011 0.76742410659790039
0.88747656345367432 0.080133296549320221 0.77594327926635742
0.88649964332580566 0.30733984708786011 0.70375251770019531
0.93351507186889648 0.43357303738594055 0.69147616624832153
0.14723025262355804 0.30735501646995544 0.65190243721008301
0.28111883997917175 0.32169368863105774 0.66688996553421021
0.46243226528167725 0.33735913038253784 0.69933748245239258
0.69088822603225708 0.35829359292984009 0.75033676624298096
0.85406923294067383 0.40921053290367126 0.76860928535461426
0.86459571123123169 0.47533166408538818 0.70725119113922119
0.9253200888633728 0.51991194486618042 0.69003152847290039
0.15598286688327789 0.47861877083778381 0.64267581701278687
0.25443655252456665 0.49057114124298096 0.64661598205566406
0.40824493765830994 0.51559633016586304 0.66631394624710083
0.62254983186721802 0.56308537721633911 0.71744620800018311
0.80561143159866333 0.61065739393234253 0.7597733736038208
0.84867745637893677 0.61794072389602661 0.71689331531524658
0.94483476877212524 0.59894073009490967 0.68394190073013306
0.28766396641731262 0.67616266012191772 0.69921994209289551
0.35402143001556396 0.68382072448730469 0.70261681079864502
0.47099065780639648 0.69772779941558838 0.71138441562652588
0.6029740571975708 0.7200046181678772 0.72842681407928467
0.76699554920196533 0.7555081844329834 0.75203233957290649
0.86241728067398071 0.74903666973114014 0.73556137084960938
0.96186023950576782 0.72109287977218628 0.70790910720825195
0.35499739646911621 0.83517378568649292 0.7508881688117981
0.4055820107460022 0.83404088020324707 0.74424022436141968
0.50126397609710693 0.83569949865341187 0.74127143621444702
0.60885483026504517 0.83365327119827271 0.72695887088775635
0.73083549737930298 0.83672237396240234 0.71388834714889526
0.85470235347747803 0.83551585674285889 0.69254016876220703
0.95900684595108032 0.84563428163528442 0.70845866203308105
0.48215731978416443 0.93599683046340942 0.77055734395980835
0.508636474609375 0.93559789657592773 0.76573067903518677
0.56429058313369751 0.93714803457260132 0.75645828247070312
0.62387210130691528 0.93317884206771851 0.72763407230377197
0.73780977725982666 0.92958050966262817 0.72216898202896118
0.85880225896835327 0.92999202013015747 0.71099096536636353
0.96917879581451416 0.94350957870483398 0.68651211261749268
0.35723841190338135 0.01284294854849577 0.82400321960449219
0.43047094345092773 0.0066091050393879414 0.83116984367370605
0.56542468070983887 0.0078446930274367332 0.84706181287765503
0.73362720012664795 0.0024626189842820168 0.87120598554611206
0.93242132663726807 0.0022909427061676979 0.90073269605636597
0.9972076416015625 0.013961732387542725 0.89014112949371338
0.99482333660125732 0.31960338354110718 0.83126258850097656
0.34916394948959351 0.14110146462917328 0.82019579410552979
0.41695693135261536 0.11826089769601822 0.82540988922119141
0.54743999242782593 0.086752258241176605 0.84114652872085571
0.7241700291633606 0.045802455395460129 0.86734139919281006
0.9160645604133606 0.031571660190820694 0.89868521690368652
0.99360620975494385 0.18898634612560272 0.89249581098556519
0.98313045501708984 0.40600305795669556 0.83247315883636475
0.29704564809799194 0.32138299942016602 0.80183285474777222
0.37501233816146851 0.32604846358299255 0.80716681480407715
0.51634639501571655 0.32846769690513611 0.82601571083068848
0.70097821950912476 0.32310095429420471 0.85661488771438599
0.88921642303466797 0.36053347587585449 0.88854801654815674
0.97823596000671387 0.43241792917251587 0.88267523050308228
0.97900032997131348 0.52818816900253296 0.83499264717102051
0.093111597001552582 0.44948422908782959 0.75476682186126709
0.22744117677211761 0.45566144585609436 0.76837992668151855
0.4087451696395874 0.4814302921295166 0.78962928056716919
0.63089632987976074 0.52025586366653442 0.82736879587173462
0.83341938257217407 0.57426279783248901 0.86854642629623413
0.94300121068954468 0.60969346761703491 0.87281149625778198
0.96062058210372925 0.64955013990402222 0.83975380659103394
0.15937019884586334 0.62717068195343018 0.77576476335525513
0.24643974006175995 0.62141901254653931 0.7691541314125061
0.37482592463493347 0.62785452604293823 0.77505159378051758
0.52769017219543457 0.64759910106658936 0.78744876384735107
0.74436372518539429 0.70552420616149902 0.83395862579345703
0.91036885976791382 0.75560265779495239 0.87363511323928833
0.94324254989624023 0.75967174768447876 0.84397953748703003
0.37390661239624023 0.79053080081939697 0.81811177730560303
0.41596850752830505 0.79311078786849976 0.81996560096740723
0.49878409504890442 0.80355560779571533 0.82620728015899658
0.61294537782669067 0.81408315896987915 0.83583825826644897
0.73790031671524048 0.83503884077072144 0.84756261110305786
0.88012993335723877 0.86566650867462158 0.86664021015167236
0.95283454656600952 0.85832506418228149 0.85208922624588013
0.52259999513626099 0.94250726699829102 0.88894557952880859
0.54468351602554321 0.94076228141784668 0.88567334413528442
0.60336112976074219 0.94142436981201172 0.88039034605026245
0.67607730627059937 0.94152122735977173 0.87439996004104614
0.77032852172851562 0.94003927707672119 0.86659753322601318
0.85831671953201294 0.932545006275177 0.84253150224685669
0.96019202470779419 0.9489816427230835 0.83439213037490845
0.55681347846984863 0.15378670394420624 0.95950108766555786
0.59393149614334106 0.12540681660175323 0.96212995052337646
0.6758461594581604 0.077570565044879913 0.96705812215805054
0.79839873313903809 0.037474941462278366 0.97552680969238281
0.93896925449371338 0.0095051182433962822 0.98342764377593994
0.99866354465484619 0.0045183668844401836 0.98419755697250366
1 0.24550224840641022 0.98160767555236816
0.54976838827133179 0.26799038052558899 0.95869731903076172
0.59072291851043701 0.2638431191444397 0.95892226696014404
0.66869771480560303 0.2342701256275177 0.96149122714996338
0.78928679227828979 0.18833474814891815 0.97106826305389404
0.92603731155395508 0.14907790720462799 0.98183047771453857
0.99937331676483154 0.14167766273021698 0.99025702476501465
1 0.35920983552932739 0.97961771488189697
0.51331084966659546 0.41006520390510559 0.94836568832397461
0.5548241138458252 0.41168847680091858 0.94967794418334961
0.64073050022125244 0.40181860327720642 0.95418494939804077
0.77191698551177979 0.39385116100311279 0.96441936492919922
0.90178507566452026 0.38985100388526917 0.97302752733230591
0.98951601982116699 0.40679916739463806 0.98120379447937012
0.99848043918609619 0.50286769866943359 0.9700736403465271
0.39135795831680298 0.53124308586120605 0.93110120296478271
0.45474427938461304 0.53702592849731445 0.93303924798965454
0.56131809949874878 0.54212123155593872 0.93985319137573242
0.70455682277679443 0.54736828804016113 0.95004415512084961
0.85208767652511597 0.56474673748016357 0.96077555418014526
0.98290550708770752 0.59600865840911865 0.97618663311004639
0.99891728162765503 0.64666175842285156 0.96930289268493652
0.25868552923202515 0.66022628545761108 0.90911513566970825
0.30856773257255554 0.6554749608039856 0.90919435024261475
0.4125063419342041 0.6511150598526001 0.91285645961761475
0.5812106728553772 0.66096121072769165 0.92876029014587402
0.77855688333511353 0.69899100065231323 0.94488382339477539
0.93266910314559937 0.73775273561477661 0.96462863683700562
0.99356174468994141 0.77262705564498901 0.96411275863647461
0.39032155275344849 0.8023107647895813 0.92300951480865479
0.41552972793579102 0.79985415935516357 0.92184960842132568
0.47661447525024414 0.79837656021118164 0.92142599821090698
0.56961345672607422 0.80032336711883545 0.9228629469871521
0.68631446361541748 0.801413893699646 0.92685526609420776
0.86589109897613525 0.84117811918258667 0.95029205083847046
0.97907215356826782 0.87877464294433594 0.96114331483840942
0.57436209917068481 0.92973428964614868 0.95113164186477661
0.58875548839569092 0.92875999212265015 0.95264333486557007
0.63729536533355713 0.93278467655181885 0.95381659269332886
0.69869005680084229 0.93489378690719604 0.95460587739944458
0.78177714347839355 0.93870729207992554 0.95921367406845093
0.87246996164321899 0.94910323619842529 0.95990538597106934
0.96305584907531738 0.96363812685012817 0.96222424507141113
