luts/instant_pro/fuji_fp-3000b_-.cube
# Created by: G'MIC (https://gmic.eu)
TITLE "fuji_fp-3000b_-"
# LUT size
LUT_3D_SIZE 5
# Data domain
DOMAIN_MIN 0.0 0.0 0.0
DOMAIN_MAX 1.0 1.0 1.0
# LUT data points
0.03450470045208931 0.03450470045208931 0.03450470045208931
0.11074447631835938 0.11074447631835938 0.11074447631835938
0.25053098797798157 0.25053098797798157 0.25053098797798157
0.41461989283561707 0.41461989283561707 0.41461989283561707
0.61040854454040527 0.61040854454040527 0.61040854454040527
0.13200104236602783 0.13200104236602783 0.13200104236602783
0.23639096319675446 0.23639096319675446 0.23639096319675446
0.37515893578529358 0.37515893578529358 0.37515893578529358
0.48838949203491211 0.48838949203491211 0.48838949203491211
0.65005213022232056 0.65005213022232056 0.65005213022232056
0.30940699577331543 0.30940699577331543 0.30940699577331543
0.31034719944000244 0.31034719944000244 0.31034719944000244
0.49138212203979492 0.49138212203979492 0.49138212203979492
0.63579738140106201 0.63579738140106201 0.63579738140106201
0.74759280681610107 0.74759280681610107 0.74759280681610107
0.47492203116416931 0.47492203116416931 0.47492203116416931
0.44323468208312988 0.44323468208312988 0.44323468208312988
0.53351676464080811 0.53351676464080811 0.53351676464080811
0.72437006235122681 0.72437006235122681 0.72437006235122681
0.83943682909011841 0.83943682909011841 0.83943682909011841
0.73670977354049683 0.73670977354049683 0.73670977354049683
0.72200298309326172 0.72200298309326172 0.72200298309326172
0.71347367763519287 0.71347367763519287 0.71347367763519287
0.83892887830734253 0.83892887830734253 0.83892887830734253
0.92028599977493286 0.92028599977493286 0.92028599977493286
0.13421523571014404 0.13421523571014404 0.13421523571014404
0.20732899010181427 0.20732899010181427 0.20732899010181427
0.3451237678527832 0.3451237678527832 0.3451237678527832
0.47232571244239807 0.47232571244239807 0.47232571244239807
0.61880415678024292 0.61880415678024292 0.61880415678024292
0.25327023863792419 0.25327023863792419 0.25327023863792419
0.28970229625701904 0.28970229625701904 0.28970229625701904
0.39844024181365967 0.39844024181365967 0.39844024181365967
0.51808387041091919 0.51808387041091919 0.51808387041091919
0.65983366966247559 0.65983366966247559 0.65983366966247559
0.42199793457984924 0.42199793457984924 0.42199793457984924
0.39499649405479431 0.39499649405479431 0.39499649405479431
0.50394296646118164 0.50394296646118164 0.50394296646118164
0.6354210376739502 0.6354210376739502 0.6354210376739502
0.74043077230453491 0.74043077230453491 0.74043077230453491
0.56024265289306641 0.56024265289306641 0.56024265289306641
0.52394437789916992 0.52394437789916992 0.52394437789916992
0.56034666299819946 0.56034666299819946 0.56034666299819946
0.71915221214294434 0.71915221214294434 0.71915221214294434
0.83301764726638794 0.83301764726638794 0.83301764726638794
0.77749776840209961 0.77749776840209961 0.77749776840209961
0.75566941499710083 0.75566941499710083 0.75566941499710083
0.74672466516494751 0.74672466516494751 0.74672466516494751
0.8233412504196167 0.8233412504196167 0.8233412504196167
0.91847443580627441 0.91847443580627441 0.91847443580627441
0.35124951601028442 0.35124951601028442 0.35124951601028442
0.38870260119438171 0.38870260119438171 0.38870260119438171
0.444408118724823 0.444408118724823 0.444408118724823
0.56544440984725952 0.56544440984725952 0.56544440984725952
0.72292548418045044 0.72292548418045044 0.72292548418045044
0.3963240385055542 0.3963240385055542 0.3963240385055542
0.41642671823501587 0.41642671823501587 0.41642671823501587
0.47701507806777954 0.47701507806777954 0.47701507806777954
0.5860447883605957 0.5860447883605957 0.5860447883605957
0.72765839099884033 0.72765839099884033 0.72765839099884033
0.50944352149963379 0.50944352149963379 0.50944352149963379
0.52142858505249023 0.52142858505249023 0.52142858505249023
0.56082367897033691 0.56082367897033691 0.56082367897033691
0.66140604019165039 0.66140604019165039 0.66140604019165039
0.7566407322883606 0.7566407322883606 0.7566407322883606
0.68818086385726929 0.68818086385726929 0.68818086385726929
0.66694885492324829 0.66694885492324829 0.66694885492324829
0.65137720108032227 0.65137720108032227 0.65137720108032227
0.75315654277801514 0.75315654277801514 0.75315654277801514
0.84425705671310425 0.84425705671310425 0.84425705671310425
0.84914827346801758 0.84914827346801758 0.84914827346801758
0.83527904748916626 0.83527904748916626 0.83527904748916626
0.80399328470230103 0.80399328470230103 0.80399328470230103
0.82963007688522339 0.82963007688522339 0.82963007688522339
0.9285997748374939 0.9285997748374939 0.9285997748374939
0.57338446378707886 0.57338446378707886 0.57338446378707886
0.57726818323135376 0.57726818323135376 0.57726818323135376
0.63527560234069824 0.63527560234069824 0.63527560234069824
0.674427330493927 0.674427330493927 0.674427330493927
0.76715356111526489 0.76715356111526489 0.76715356111526489
0.60136938095092773 0.60136938095092773 0.60136938095092773
0.60142236948013306 0.60142236948013306 0.60142236948013306
0.6438019871711731 0.6438019871711731 0.6438019871711731
0.70316612720489502 0.70316612720489502 0.70316612720489502
0.78965514898300171 0.78965514898300171 0.78965514898300171
0.60458433628082275 0.60458433628082275 0.60458433628082275
0.63212889432907104 0.63212889432907104 0.63212889432907104
0.6780625581741333 0.6780625581741333 0.6780625581741333
0.74803018569946289 0.74803018569946289 0.74803018569946289
0.81012046337127686 0.81012046337127686 0.81012046337127686
0.72401756048202515 0.72401756048202515 0.72401756048202515
0.74655771255493164 0.74655771255493164 0.74655771255493164
0.77248066663742065 0.77248066663742065 0.77248066663742065
0.80608111619949341 0.80608111619949341 0.80608111619949341
0.87199252843856812 0.87199252843856812 0.87199252843856812
0.87945270538330078 0.87945270538330078 0.87945270538330078
0.88456529378890991 0.88456529378890991 0.88456529378890991
0.88432109355926514 0.88432109355926514 0.88432109355926514
0.88471192121505737 0.88471192121505737 0.88471192121505737
0.94412034749984741 0.94412034749984741 0.94412034749984741
0.81425178050994873 0.81425178050994873 0.81425178050994873
0.81000113487243652 0.81000113487243652 0.81000113487243652
0.83529949188232422 0.83529949188232422 0.83529949188232422
0.87745100259780884 0.87745100259780884 0.87745100259780884
0.89403903484344482 0.89403903484344482 0.89403903484344482
0.83044183254241943 0.83044183254241943 0.83044183254241943
0.82944321632385254 0.82944321632385254 0.82944321632385254
0.85033440589904785 0.85033440589904785 0.85033440589904785
0.88094604015350342 0.88094604015350342 0.88094604015350342
0.89045768976211548 0.89045768976211548 0.89045768976211548
0.83100670576095581 0.83100670576095581 0.83100670576095581
0.83569401502609253 0.83569401502609253 0.83569401502609253
0.85758709907531738 0.85758709907531738 0.85758709907531738
0.88932704925537109 0.88932704925537109 0.88932704925537109
0.9106903076171875 0.9106903076171875 0.9106903076171875
0.84647715091705322 0.84647715091705322 0.84647715091705322
0.85319417715072632 0.85319417715072632 0.85319417715072632
0.87045121192932129 0.87045121192932129 0.87045121192932129
0.898651123046875 0.898651123046875 0.898651123046875
0.92853134870529175 0.92853134870529175 0.92853134870529175
0.91718763113021851 0.91718763113021851 0.91718763113021851
0.92021030187606812 0.92021030187606812 0.92021030187606812
0.92613345384597778 0.92613345384597778 0.92613345384597778
0.94311600923538208 0.94311600923538208 0.94311600923538208
0.95793688297271729 0.95793688297271729 0.95793688297271729
