luts/instant_pro/fuji_fp-3000b_+++.cube
# Created by: G'MIC (https://gmic.eu)
TITLE "fuji_fp-3000b_+++"
# LUT size
LUT_3D_SIZE 7
# Data domain
DOMAIN_MIN 0.0 0.0 0.0
DOMAIN_MAX 1.0 1.0 1.0
# LUT data points
0.3120574951171875 0.3120574951171875 0.3120574951171875
0.3141876757144928 0.3141876757144928 0.3141876757144928
0.33331459760665894 0.33331459760665894 0.33331459760665894
0.36861565709114075 0.36861565709114075 0.36861565709114075
0.42342421412467957 0.42342421412467957 0.42342421412467957
0.51305216550827026 0.51305216550827026 0.51305216550827026
0.63445895910263062 0.63445895910263062 0.63445895910263062
0.31967127323150635 0.31967127323150635 0.31967127323150635
0.3263041079044342 0.3263041079044342 0.3263041079044342
0.3549731969833374 0.3549731969833374 0.3549731969833374
0.39711260795593262 0.39711260795593262 0.39711260795593262
0.44470623135566711 0.44470623135566711 0.44470623135566711
0.53057605028152466 0.53057605028152466 0.53057605028152466
0.65720683336257935 0.65720683336257935 0.65720683336257935
0.34046229720115662 0.34046229720115662 0.34046229720115662
0.34709906578063965 0.34709906578063965 0.34709906578063965
0.38909804821014404 0.38909804821014404 0.38909804821014404
0.45863372087478638 0.45863372087478638 0.45863372087478638
0.51278078556060791 0.51278078556060791 0.51278078556060791
0.59135359525680542 0.59135359525680542 0.59135359525680542
0.71162712574005127 0.71162712574005127 0.71162712574005127
0.37699681520462036 0.37699681520462036 0.37699681520462036
0.37251162528991699 0.37251162528991699 0.37251162528991699
0.40740445256233215 0.40740445256233215 0.40740445256233215
0.4947466254234314 0.4947466254234314 0.4947466254234314
0.61821597814559937 0.61821597814559937 0.61821597814559937
0.7046545147895813 0.7046545147895813 0.7046545147895813
0.78043109178543091 0.78043109178543091 0.78043109178543091
0.44179674983024597 0.44179674983024597 0.44179674983024597
0.42405754327774048 0.42405754327774048 0.42405754327774048
0.43069678544998169 0.43069678544998169 0.43069678544998169
0.50429415702819824 0.50429415702819824 0.50429415702819824
0.65413177013397217 0.65413177013397217 0.65413177013397217
0.77321040630340576 0.77321040630340576 0.77321040630340576
0.83510804176330566 0.83510804176330566 0.83510804176330566
0.56957179307937622 0.56957179307937622 0.56957179307937622
0.54782778024673462 0.54782778024673462 0.54782778024673462
0.53153204917907715 0.53153204917907715 0.53153204917907715
0.58220523595809937 0.58220523595809937 0.58220523595809937
0.70009046792984009 0.70009046792984009 0.70009046792984009
0.80325907468795776 0.80325907468795776 0.80325907468795776
0.86558264493942261 0.86558264493942261 0.86558264493942261
0.75865030288696289 0.75865030288696289 0.75865030288696289
0.74046778678894043 0.74046778678894043 0.74046778678894043
0.73524826765060425 0.73524826765060425 0.73524826765060425
0.74641358852386475 0.74641358852386475 0.74641358852386475
0.79750514030456543 0.79750514030456543 0.79750514030456543
0.85519886016845703 0.85519886016845703 0.85519886016845703
0.89842629432678223 0.89842629432678223 0.89842629432678223
0.30877980589866638 0.30877980589866638 0.30877980589866638
0.31247708201408386 0.31247708201408386 0.31247708201408386
0.33386451005935669 0.33386451005935669 0.33386451005935669
0.37162443995475769 0.37162443995475769 0.37162443995475769
0.42837110161781311 0.42837110161781311 0.42837110161781311
0.5152965784072876 0.5152965784072876 0.5152965784072876
0.63488632440567017 0.63488632440567017 0.63488632440567017
0.32451638579368591 0.32451638579368591 0.32451638579368591
0.32788515090942383 0.32788515090942383 0.32788515090942383
0.3535904586315155 0.3535904586315155 0.3535904586315155
0.39659777283668518 0.39659777283668518 0.39659777283668518
0.45002672076225281 0.45002672076225281 0.45002672076225281
0.53715395927429199 0.53715395927429199 0.53715395927429199
0.65650022029876709 0.65650022029876709 0.65650022029876709
0.36100709438323975 0.36100709438323975 0.36100709438323975
0.35971274971961975 0.35971274971961975 0.35971274971961975
0.38956159353256226 0.38956159353256226 0.38956159353256226
0.45325168967247009 0.45325168967247009 0.45325168967247009
0.52446281909942627 0.52446281909942627 0.52446281909942627
0.60653716325759888 0.60653716325759888 0.60653716325759888
0.70766592025756836 0.70766592025756836 0.70766592025756836
0.4184868335723877 0.4184868335723877 0.4184868335723877
0.4036979079246521 0.4036979079246521 0.4036979079246521
0.41816607117652893 0.41816607117652893 0.41816607117652893
0.49675855040550232 0.49675855040550232 0.49675855040550232
0.61642324924468994 0.61642324924468994 0.61642324924468994
0.70656174421310425 0.70656174421310425 0.70656174421310425
0.77805835008621216 0.77805835008621216 0.77805835008621216
0.49989387392997742 0.49989387392997742 0.49989387392997742
0.47268339991569519 0.47268339991569519 0.47268339991569519
0.46145036816596985 0.46145036816596985 0.46145036816596985
0.5251384973526001 0.5251384973526001 0.5251384973526001
0.66725409030914307 0.66725409030914307 0.66725409030914307
0.77808982133865356 0.77808982133865356 0.77808982133865356
0.83797109127044678 0.83797109127044678 0.83797109127044678
0.62373393774032593 0.62373393774032593 0.62373393774032593
0.59663546085357666 0.59663546085357666 0.59663546085357666
0.57509309053421021 0.57509309053421021 0.57509309053421021
0.60784083604812622 0.60784083604812622 0.60784083604812622
0.71614426374435425 0.71614426374435425 0.71614426374435425
0.81696480512619019 0.81696480512619019 0.81696480512619019
0.875213623046875 0.875213623046875 0.875213623046875
0.78454530239105225 0.78454530239105225 0.78454530239105225
0.76834332942962646 0.76834332942962646 0.76834332942962646
0.75482261180877686 0.75482261180877686 0.75482261180877686
0.76122617721557617 0.76122617721557617 0.76122617721557617
0.81260216236114502 0.81260216236114502 0.81260216236114502
0.87066960334777832 0.87066960334777832 0.87066960334777832
0.91138261556625366 0.91138261556625366 0.91138261556625366
0.32570454478263855 0.32570454478263855 0.32570454478263855
0.3338867723941803 0.3338867723941803 0.3338867723941803
0.3610289990901947 0.3610289990901947 0.3610289990901947
0.40532347559928894 0.40532347559928894 0.40532347559928894
0.47617581486701965 0.47617581486701965 0.47617581486701965
0.5704309344291687 0.5704309344291687 0.5704309344291687
0.67638945579528809 0.67638945579528809 0.67638945579528809
0.3474155068397522 0.3474155068397522 0.3474155068397522
0.35029026865959167 0.35029026865959167 0.35029026865959167
0.37636822462081909 0.37636822462081909 0.37636822462081909
0.42421025037765503 0.42421025037765503 0.42421025037765503
0.49037361145019531 0.49037361145019531 0.49037361145019531
0.58245420455932617 0.58245420455932617 0.58245420455932617
0.6853938102722168 0.6853938102722168 0.6853938102722168
0.39755344390869141 0.39755344390869141 0.39755344390869141
0.39115035533905029 0.39115035533905029 0.39115035533905029
0.41304823756217957 0.41304823756217957 0.41304823756217957
0.47326397895812988 0.47326397895812988 0.47326397895812988
0.5518333911895752 0.5518333911895752 0.5518333911895752
0.63036507368087769 0.63036507368087769 0.63036507368087769
0.71668112277984619 0.71668112277984619 0.71668112277984619
0.48245155811309814 0.48245155811309814 0.48245155811309814
0.46389579772949219 0.46389579772949219 0.46389579772949219
0.46569129824638367 0.46569129824638367 0.46569129824638367
0.52426975965499878 0.52426975965499878 0.52426975965499878
0.63772588968276978 0.63772588968276978 0.63772588968276978
0.70575988292694092 0.70575988292694092 0.70575988292694092
0.77272051572799683 0.77272051572799683 0.77272051572799683
0.58163833618164062 0.58163833618164062 0.58163833618164062
0.56010884046554565 0.56010884046554565 0.56010884046554565
0.53593403100967407 0.53593403100967407 0.53593403100967407
0.56435596942901611 0.56435596942901611 0.56435596942901611
0.68955284357070923 0.68955284357070923 0.68955284357070923
0.77865338325500488 0.77865338325500488 0.77865338325500488
0.83547574281692505 0.83547574281692505 0.83547574281692505
0.69396352767944336 0.69396352767944336 0.69396352767944336
0.67524093389511108 0.67524093389511108 0.67524093389511108
0.64797890186309814 0.64797890186309814 0.64797890186309814
0.64153987169265747 0.64153987169265747 0.64153987169265747
0.73147433996200562 0.73147433996200562 0.73147433996200562
0.82578146457672119 0.82578146457672119 0.82578146457672119
0.87966459989547729 0.87966459989547729 0.87966459989547729
0.8215177059173584 0.8215177059173584 0.8215177059173584
0.81050235033035278 0.81050235033035278 0.81050235033035278
0.79463809728622437 0.79463809728622437 0.79463809728622437
0.78283238410949707 0.78283238410949707 0.78283238410949707
0.82438141107559204 0.82438141107559204 0.82438141107559204
0.87853056192398071 0.87853056192398071 0.87853056192398071
0.91789215803146362 0.91789215803146362 0.91789215803146362
0.38163959980010986 0.38163959980010986 0.38163959980010986
0.39953729510307312 0.39953729510307312 0.39953729510307312
0.43253952264785767 0.43253952264785767 0.43253952264785767
0.47426000237464905 0.47426000237464905 0.47426000237464905
0.53831976652145386 0.53831976652145386 0.53831976652145386
0.65275734663009644 0.65275734663009644 0.65275734663009644
0.74829679727554321 0.74829679727554321 0.74829679727554321
0.40734317898750305 0.40734317898750305 0.40734317898750305
0.4158039391040802 0.4158039391040802 0.4158039391040802
0.44482338428497314 0.44482338428497314 0.44482338428497314
0.49271908402442932 0.49271908402442932 0.49271908402442932
0.55931878089904785 0.55931878089904785 0.55931878089904785
0.65461206436157227 0.65461206436157227 0.65461206436157227
0.7473713755607605 0.7473713755607605 0.7473713755607605
0.44461202621459961 0.44461202621459961 0.44461202621459961
0.44621473550796509 0.44621473550796509 0.44621473550796509
0.47413367033004761 0.47413367033004761 0.47413367033004761
0.53499501943588257 0.53499501943588257 0.53499501943588257
0.60579270124435425 0.60579270124435425 0.60579270124435425
0.68602991104125977 0.68602991104125977 0.68602991104125977
0.75831067562103271 0.75831067562103271 0.75831067562103271
0.52518719434738159 0.52518719434738159 0.52518719434738159
0.5241628885269165 0.5241628885269165 0.5241628885269165
0.55116432905197144 0.55116432905197144 0.55116432905197144
0.59603488445281982 0.59603488445281982 0.59603488445281982
0.6628108024597168 0.6628108024597168 0.6628108024597168
0.71685588359832764 0.71685588359832764 0.71685588359832764
0.78636234998703003 0.78636234998703003 0.78636234998703003
0.65308272838592529 0.65308272838592529 0.65308272838592529
0.64636898040771484 0.64636898040771484 0.64636898040771484
0.65505445003509521 0.65505445003509521 0.65505445003509521
0.65055686235427856 0.65055686235427856 0.65055686235427856
0.71001756191253662 0.71001756191253662 0.71001756191253662
0.79108458757400513 0.79108458757400513 0.79108458757400513
0.84145134687423706 0.84145134687423706 0.84145134687423706
0.7599368691444397 0.7599368691444397 0.7599368691444397
0.75472134351730347 0.75472134351730347 0.75472134351730347
0.74392175674438477 0.74392175674438477 0.74392175674438477
0.71953952312469482 0.71953952312469482 0.71953952312469482
0.75925016403198242 0.75925016403198242 0.75925016403198242
0.83741921186447144 0.83741921186447144 0.83741921186447144
0.88347357511520386 0.88347357511520386 0.88347357511520386
0.85958021879196167 0.85958021879196167 0.85958021879196167
0.85505563020706177 0.85505563020706177 0.85505563020706177
0.84028643369674683 0.84028643369674683 0.84028643369674683
0.82052910327911377 0.82052910327911377 0.82052910327911377
0.83408212661743164 0.83408212661743164 0.83408212661743164
0.87552738189697266 0.87552738189697266 0.87552738189697266
0.91411739587783813 0.91411739587783813 0.91411739587783813
0.50188487768173218 0.50188487768173218 0.50188487768173218
0.52470028400421143 0.52470028400421143 0.52470028400421143
0.55698847770690918 0.55698847770690918 0.55698847770690918
0.59466713666915894 0.59466713666915894 0.59466713666915894
0.62786924839019775 0.62786924839019775 0.62786924839019775
0.6903110146522522 0.6903110146522522 0.6903110146522522
0.78904694318771362 0.78904694318771362 0.78904694318771362
0.53456342220306396 0.53456342220306396 0.53456342220306396
0.54706895351409912 0.54706895351409912 0.54706895351409912
0.57177966833114624 0.57177966833114624 0.57177966833114624
0.6099972128868103 0.6099972128868103 0.6099972128868103
0.65010792016983032 0.65010792016983032 0.65010792016983032
0.69998759031295776 0.69998759031295776 0.69998759031295776
0.79355424642562866 0.79355424642562866 0.79355424642562866
0.54977899789810181 0.54977899789810181 0.54977899789810181
0.56854230165481567 0.56854230165481567 0.56854230165481567
0.59234535694122314 0.59234535694122314 0.59234535694122314
0.63643985986709595 0.63643985986709595 0.63643985986709595
0.68441450595855713 0.68441450595855713 0.68441450595855713
0.73871994018554688 0.73871994018554688 0.73871994018554688
0.80540800094604492 0.80540800094604492 0.80540800094604492
0.57722735404968262 0.57722735404968262 0.57722735404968262
0.60405004024505615 0.60405004024505615 0.60405004024505615
0.63113880157470703 0.63113880157470703 0.63113880157470703
0.67186558246612549 0.67186558246612549 0.67186558246612549
0.72169524431228638 0.72169524431228638 0.72169524431228638
0.77217376232147217 0.77217376232147217 0.77217376232147217
0.8247838020324707 0.8247838020324707 0.8247838020324707
0.67860275506973267 0.67860275506973267 0.67860275506973267
0.69177722930908203 0.69177722930908203 0.69177722930908203
0.71186178922653198 0.71186178922653198 0.71186178922653198
0.72902435064315796 0.72902435064315796 0.72902435064315796
0.7621271014213562 0.7621271014213562 0.7621271014213562
0.81720519065856934 0.81720519065856934 0.81720519065856934
0.85808765888214111 0.85808765888214111 0.85808765888214111
0.79901587963104248 0.79901587963104248 0.79901587963104248
0.80077719688415527 0.80077719688415527 0.80077719688415527
0.80613338947296143 0.80613338947296143 0.80613338947296143
0.80544650554656982 0.80544650554656982 0.80544650554656982
0.8100045919418335 0.8100045919418335 0.8100045919418335
0.85121756792068481 0.85121756792068481 0.85121756792068481
0.88572251796722412 0.88572251796722412 0.88572251796722412
0.88776624202728271 0.88776624202728271 0.88776624202728271
0.88754183053970337 0.88754183053970337 0.88754183053970337
0.87966400384902954 0.87966400384902954 0.87966400384902954
0.86510151624679565 0.86510151624679565 0.86510151624679565
0.85789930820465088 0.85789930820465088 0.85789930820465088
0.8775368332862854 0.8775368332862854 0.8775368332862854
0.90879815816879272 0.90879815816879272 0.90879815816879272
0.67286455631256104 0.67286455631256104 0.67286455631256104
0.68716508150100708 0.68716508150100708 0.68716508150100708
0.70818018913269043 0.70818018913269043 0.70818018913269043
0.74122107028961182 0.74122107028961182 0.74122107028961182
0.77716648578643799 0.77716648578643799 0.77716648578643799
0.77921772003173828 0.77921772003173828 0.77921772003173828
0.81854879856109619 0.81854879856109619 0.81854879856109619
0.70166051387786865 0.70166051387786865 0.70166051387786865
0.71205365657806396 0.71205365657806396 0.71205365657806396
0.7252386212348938 0.7252386212348938 0.7252386212348938
0.75151199102401733 0.75151199102401733 0.75151199102401733
0.78671598434448242 0.78671598434448242 0.78671598434448242
0.7969212532043457 0.7969212532043457 0.7969212532043457
0.8344416618347168 0.8344416618347168 0.8344416618347168
0.71506667137145996 0.71506667137145996 0.71506667137145996
0.72793519496917725 0.72793519496917725 0.72793519496917725
0.73893368244171143 0.73893368244171143 0.73893368244171143
0.76497304439544678 0.76497304439544678 0.76497304439544678
0.79677051305770874 0.79677051305770874 0.79677051305770874
0.81479477882385254 0.81479477882385254 0.81479477882385254
0.8501056432723999 0.8501056432723999 0.8501056432723999
0.70947587490081787 0.70947587490081787 0.70947587490081787
0.72634637355804443 0.72634637355804443 0.72634637355804443
0.73937439918518066 0.73937439918518066 0.73937439918518066
0.77180761098861694 0.77180761098861694 0.77180761098861694
0.80673742294311523 0.80673742294311523 0.80673742294311523
0.83383715152740479 0.83383715152740479 0.83383715152740479
0.86567443609237671 0.86567443609237671 0.86567443609237671
0.74441069364547729 0.74441069364547729 0.74441069364547729
0.75631380081176758 0.75631380081176758 0.75631380081176758
0.76963430643081665 0.76963430643081665 0.76963430643081665
0.79721665382385254 0.79721665382385254 0.79721665382385254
0.82648807764053345 0.82648807764053345 0.82648807764053345
0.85278236865997314 0.85278236865997314 0.85278236865997314
0.88027858734130859 0.88027858734130859 0.88027858734130859
0.82329905033111572 0.82329905033111572 0.82329905033111572
0.8310433030128479 0.8310433030128479 0.8310433030128479
0.84117615222930908 0.84117615222930908 0.84117615222930908
0.85200852155685425 0.85200852155685425 0.85200852155685425
0.85641258955001831 0.85641258955001831 0.85641258955001831
0.87003207206726074 0.87003207206726074 0.87003207206726074
0.89217144250869751 0.89217144250869751 0.89217144250869751
0.89556246995925903 0.89556246995925903 0.89556246995925903
0.90005993843078613 0.90005993843078613 0.90005993843078613
0.90039551258087158 0.90039551258087158 0.90039551258087158
0.89493858814239502 0.89493858814239502 0.89493858814239502
0.88694941997528076 0.88694941997528076 0.88694941997528076
0.89040696620941162 0.89040696620941162 0.89040696620941162
0.90841937065124512 0.90841937065124512 0.90841937065124512
0.83555036783218384 0.83555036783218384 0.83555036783218384
0.83997249603271484 0.83997249603271484 0.83997249603271484
0.84512770175933838 0.84512770175933838 0.84512770175933838
0.85680735111236572 0.85680735111236572 0.85680735111236572
0.87028408050537109 0.87028408050537109 0.87028408050537109
0.87004983425140381 0.87004983425140381 0.87004983425140381
0.88320600986480713 0.88320600986480713 0.88320600986480713
0.85230553150177002 0.85230553150177002 0.85230553150177002
0.85731464624404907 0.85731464624404907 0.85731464624404907
0.85872840881347656 0.85872840881347656 0.85872840881347656
0.86720699071884155 0.86720699071884155 0.86720699071884155
0.88229548931121826 0.88229548931121826 0.88229548931121826
0.88508337736129761 0.88508337736129761 0.88508337736129761
0.8959471583366394 0.8959471583366394 0.8959471583366394
0.85770934820175171 0.85770934820175171 0.85770934820175171
0.86119163036346436 0.86119163036346436 0.86119163036346436
0.86326390504837036 0.86326390504837036 0.86326390504837036
0.87582153081893921 0.87582153081893921 0.87582153081893921
0.88944846391677856 0.88944846391677856 0.88944846391677856
0.89471256732940674 0.89471256732940674 0.89471256732940674
0.90685772895812988 0.90685772895812988 0.90685772895812988
0.84103000164031982 0.84103000164031982 0.84103000164031982
0.84597402811050415 0.84597402811050415 0.84597402811050415
0.85295367240905762 0.85295367240905762 0.85295367240905762
0.8714103102684021 0.8714103102684021 0.8714103102684021
0.88672161102294922 0.88672161102294922 0.88672161102294922
0.89615970849990845 0.89615970849990845 0.89615970849990845
0.91149699687957764 0.91149699687957764 0.91149699687957764
0.83713030815124512 0.83713030815124512 0.83713030815124512
0.84296274185180664 0.84296274185180664 0.84296274185180664
0.85315769910812378 0.85315769910812378 0.85315769910812378
0.8702126145362854 0.8702126145362854 0.8702126145362854
0.88541197776794434 0.88541197776794434 0.88541197776794434
0.8961828351020813 0.8961828351020813 0.8961828351020813
0.91194230318069458 0.91194230318069458 0.91194230318069458
0.86254912614822388 0.86254912614822388 0.86254912614822388
0.87002289295196533 0.87002289295196533 0.87002289295196533
0.88060832023620605 0.88060832023620605 0.88060832023620605
0.88984930515289307 0.88984930515289307 0.88984930515289307
0.89456033706665039 0.89456033706665039 0.89456033706665039
0.89890354871749878 0.89890354871749878 0.89890354871749878
0.91205894947052002 0.91205894947052002 0.91205894947052002
0.90129685401916504 0.90129685401916504 0.90129685401916504
0.9106329083442688 0.9106329083442688 0.9106329083442688
0.91809606552124023 0.91809606552124023 0.91809606552124023
0.9188234806060791 0.9188234806060791 0.9188234806060791
0.91415494680404663 0.91415494680404663 0.91415494680404663
0.91180860996246338 0.91180860996246338 0.91180860996246338
0.92070776224136353 0.92070776224136353 0.92070776224136353
