luts/instant_pro/fuji_fp-100c_cool_--.cube
# Created by: G'MIC (https://gmic.eu)
TITLE "fuji_fp-100c_cool_--"
# LUT size
LUT_3D_SIZE 7
# Data domain
DOMAIN_MIN 0.0 0.0 0.0
DOMAIN_MAX 1.0 1.0 1.0
# LUT data points
0.0095015885308384895 0.02092183381319046 0.022480159997940063
0.10487609356641769 0.027082242071628571 0.024428557604551315
0.30169463157653809 0.014618233777582645 0.024072056636214256
0.53378033638000488 0.0063856537453830242 0.029695143923163414
0.74907821416854858 0.01238663587719202 0.021720707416534424
0.88891100883483887 0.010250301100313663 0.010133945383131504
0.99348151683807373 0.036613345146179199 0.003335616085678339
0.0044521107338368893 0.13299241662025452 0.031225435435771942
0.10966264456510544 0.1409716010093689 0.023390885442495346
0.3353726863861084 0.14309932291507721 0.014229134656488895
0.5674934983253479 0.10328780859708786 0.011874254792928696
0.75472885370254517 0.074447229504585266 0.0099844690412282944
0.89284896850585938 0.099227458238601685 0.0040292628109455109
0.98841315507888794 0.20322711765766144 0.0071988725103437901
0.0048574409447610378 0.3222215473651886 0.020886918529868126
0.021412942558526993 0.31979608535766602 0.01234035100787878
0.32401543855667114 0.34627479314804077 0.0055313860066235065
0.58563476800918579 0.35916262865066528 0.0038641537539660931
0.77571696043014526 0.35926425457000732 0.0042778612114489079
0.9007943868637085 0.35504233837127686 0.0069239148870110512
0.99218142032623291 0.38079959154129028 0.015214927494525909
0.001906226621940732 0.49656367301940918 0.0061880224384367466
0.0090083852410316467 0.49131253361701965 0.011294017545878887
0.21081815659999847 0.49776104092597961 0.0043726004660129547
0.51495683193206787 0.51753658056259155 0.006451326422393322
0.73570406436920166 0.52451449632644653 0.010110248811542988
0.88822847604751587 0.54760825634002686 0.013185029849410057
0.99173170328140259 0.56944775581359863 0.023868367075920105
0.00039918188122101128 0.63332808017730713 0.008130660280585289
0.0070818285457789898 0.63148331642150879 0.017040656879544258
0.15012194216251373 0.63042795658111572 0.0051648006774485111
0.44628909230232239 0.64788097143173218 0.0048693935386836529
0.66631507873535156 0.66136598587036133 0.0082834428176283836
0.8350142240524292 0.68193560838699341 0.0066021340899169445
0.9744800329208374 0.70382416248321533 0.0088666575029492378
0.00024312337336596102 0.78508514165878296 0.063108555972576141
0.0056313457898795605 0.7825590968132019 0.065420232713222504
0.21938453614711761 0.77373200654983521 0.057908374816179276
0.45185312628746033 0.77934587001800537 0.013844523578882217
0.64160990715026855 0.79493772983551025 0.010527771897614002
0.81865257024765015 0.81639879941940308 0.0038982315454632044
0.96630954742431641 0.82811009883880615 0.0026847091503441334
0.28118526935577393 0.94416970014572144 0.33846303820610046
0.35409420728683472 0.94219434261322021 0.33836016058921814
0.46547698974609375 0.93588733673095703 0.34232813119888306
0.59916645288467407 0.93337702751159668 0.34325981140136719
0.71299469470977783 0.94230097532272339 0.28654462099075317
0.84142208099365234 0.95151644945144653 0.17392845451831818
0.97287464141845703 0.96007007360458374 0.046065986156463623
0.021650277078151703 0.019169243052601814 0.1477067768573761
0.14793793857097626 0.012321082875132561 0.16662761569023132
0.29011392593383789 0.016959695145487785 0.15228235721588135
0.5313422679901123 0.0053375242277979851 0.15178075432777405
0.73455804586410522 0.0065016504377126694 0.14464101195335388
0.88009428977966309 0.0070976107381284237 0.13792331516742706
0.98933440446853638 0.046382710337638855 0.13106150925159454
0.0084891673177480698 0.14260901510715485 0.16090533137321472
0.13148139417171478 0.15455940365791321 0.17973193526268005
0.34194537997245789 0.16675424575805664 0.15819878876209259
0.57764983177185059 0.12542636692523956 0.15837700664997101
0.74903327226638794 0.098348535597324371 0.14879909157752991
0.88374227285385132 0.11835932731628418 0.14133919775485992
0.97904735803604126 0.19961754977703094 0.14043392241001129
0.0052908654324710369 0.35245922207832336 0.18756449222564697
0.046089574694633484 0.36658373475074768 0.18841877579689026
0.35690408945083618 0.37152194976806641 0.14411261677742004
0.60865503549575806 0.37527221441268921 0.13878855109214783
0.775249183177948 0.36392548680305481 0.15725106000900269
0.89370530843734741 0.36125820875167847 0.14464731514453888
0.98139333724975586 0.39746597409248352 0.15484675765037537
0.0079496791586279869 0.52750241756439209 0.18239977955818176
0.010132418945431709 0.52060848474502563 0.17460210621356964
0.2634986937046051 0.51648342609405518 0.13653759658336639
0.54078972339630127 0.52934110164642334 0.051359303295612335
0.74924784898757935 0.53511720895767212 0.043529659509658813
0.89750188589096069 0.55505084991455078 0.12340440601110458
0.98408782482147217 0.57629919052124023 0.18727192282676697
0.0021939147263765335 0.65699172019958496 0.16555066406726837
0.0076136868447065353 0.65034133195877075 0.16668114066123962
0.19839167594909668 0.6418837308883667 0.14888568222522736
0.46029350161552429 0.65722590684890747 0.072249285876750946
0.67624056339263916 0.66842931509017944 0.01472205389291048
0.8514941930770874 0.6849677562713623 0.010190672241151333
0.98174172639846802 0.71005380153656006 0.064489327371120453
0.00070033356314525008 0.79333114624023438 0.19148606061935425
0.0078729214146733284 0.79182165861129761 0.19380076229572296
0.22841525077819824 0.78081858158111572 0.1922910064458847
0.4581209123134613 0.78132236003875732 0.12998679280281067
0.6415364146232605 0.79392069578170776 0.035300429910421371
0.81638556718826294 0.81486028432846069 0.011224783957004547
0.9642484188079834 0.83169692754745483 0.0085369488224387169
0.2735152542591095 0.94668030738830566 0.3794647753238678
0.34498563408851624 0.94301998615264893 0.38466593623161316
0.46137121319770813 0.93580180406570435 0.39211541414260864
0.59424388408660889 0.93294215202331543 0.39643740653991699
0.71533381938934326 0.93747526407241821 0.3478303849697113
0.84028750658035278 0.95008659362792969 0.25348338484764099
0.97224146127700806 0.96095770597457886 0.096913732588291168
0.0039268792606890202 0.018068784847855568 0.34251677989959717
0.17966273427009583 0.0072013703174889088 0.38114598393440247
0.4410088062286377 0.0016914367442950606 0.40245935320854187
0.5184934139251709 0.033176004886627197 0.34489661455154419
0.6954265832901001 0.018604472279548645 0.33167538046836853
0.86139178276062012 0.0041541452519595623 0.29860606789588928
0.98277175426483154 0.02366403304040432 0.28438660502433777
0.0041734133847057819 0.1393238753080368 0.33511084318161011
0.14265432953834534 0.13609881699085236 0.3729436993598938
0.44671881198883057 0.11523783206939697 0.41195583343505859
0.55646771192550659 0.19138094782829285 0.3697408139705658
0.72824770212173462 0.12765564024448395 0.33658337593078613
0.87722682952880859 0.10762418806552887 0.30851954221725464
0.98179018497467041 0.1965242326259613 0.30230256915092468
0.0021199544426053762 0.35981997847557068 0.38369056582450867
0.11302869021892548 0.38502988219261169 0.40240484476089478
0.42282000184059143 0.4134402871131897 0.42083495855331421
0.60958570241928101 0.40827822685241699 0.39578568935394287
0.75955826044082642 0.37531358003616333 0.36139681935310364
0.88451492786407471 0.36962577700614929 0.33635243773460388
0.97615092992782593 0.3901066780090332 0.32396969199180603
0.0037689059972763062 0.56840264797210693 0.41796618700027466
0.10638944059610367 0.57892972230911255 0.41543540358543396
0.37974172830581665 0.57194197177886963 0.39170530438423157
0.58028382062911987 0.56616413593292236 0.3546023964881897
0.76475435495376587 0.56877344846725464 0.35114902257919312
0.89139342308044434 0.56611537933349609 0.36203056573867798
0.97934746742248535 0.57645308971405029 0.3607124388217926
0.014349350705742836 0.69339078664779663 0.38688617944717407
0.030281037092208862 0.69339489936828613 0.36943578720092773
0.28969037532806396 0.6840893030166626 0.35673543810844421
0.5073474645614624 0.67796194553375244 0.32310676574707031
0.70264840126037598 0.69123810529708862 0.25583955645561218
0.86282682418823242 0.69705408811569214 0.2372443825006485
0.97735989093780518 0.72336804866790771 0.3333069384098053
0.003427228657528758 0.81188595294952393 0.35797452926635742
0.0093213552609086037 0.80874675512313843 0.35660651326179504
0.26038715243339539 0.79987812042236328 0.35314288735389709
0.47632375359535217 0.78931629657745361 0.32847920060157776
0.65452808141708374 0.80306869745254517 0.27636486291885376
0.82001078128814697 0.81826454401016235 0.16567191481590271
0.97020715475082397 0.83108168840408325 0.08266526460647583
0.24325810372829437 0.95038366317749023 0.46206730604171753
0.32356506586074829 0.94871217012405396 0.46566623449325562
0.44828426837921143 0.94061517715454102 0.46858292818069458
0.58345478773117065 0.93524402379989624 0.47124481201171875
0.70734947919845581 0.94047784805297852 0.45084244012832642
0.83936536312103271 0.94825392961502075 0.39077344536781311
0.97025591135025024 0.95823276042938232 0.25780186057090759
0.010288657620549202 0.0058684404939413071 0.52800709009170532
0.18371511995792389 0.0042640534229576588 0.55198091268539429
0.51213568449020386 0.0014957652892917395 0.60616958141326904
0.73076999187469482 0.00074823416071012616 0.61886626482009888
0.73839485645294189 0.036033228039741516 0.52797919511795044
0.8181527853012085 0.17025360465049744 0.50524383783340454
0.96306633949279785 0.15132820606231689 0.49427607655525208
0.010115290991961956 0.13517703115940094 0.52643722295761108
0.18234749138355255 0.11837407946586609 0.55096554756164551
0.49500763416290283 0.053923722356557846 0.60335391759872437
0.72977161407470703 0.045712430030107498 0.62490308284759521
0.74440979957580566 0.20870888233184814 0.54439061880111694
0.83410727977752686 0.26975122094154358 0.50952297449111938
0.969524085521698 0.24285437166690826 0.48971801996231079
0.0042108721099793911 0.31580314040184021 0.50110071897506714
0.096997186541557312 0.34043768048286438 0.52670490741729736
0.4361412525177002 0.36426597833633423 0.57632488012313843
0.68633878231048584 0.39525827765464783 0.61618149280548096
0.73606449365615845 0.42567157745361328 0.55759638547897339
0.85380500555038452 0.40123865008354187 0.51960307359695435
0.97641807794570923 0.36450719833374023 0.47551831603050232
0.020109424367547035 0.54134303331375122 0.55880641937255859
0.2109990268945694 0.56075763702392578 0.57223904132843018
0.42964911460876465 0.58670490980148315 0.58902972936630249
0.62932485342025757 0.60585880279541016 0.59421813488006592
0.7572016716003418 0.60385870933532715 0.57558739185333252
0.87310695648193359 0.56312662363052368 0.53458380699157715
0.97009384632110596 0.54315286874771118 0.50869721174240112
0.092072352766990662 0.72281509637832642 0.59478819370269775
0.25743827223777771 0.72244751453399658 0.58929234743118286
0.43187937140464783 0.72683590650558472 0.58571076393127441
0.5786249041557312 0.72485148906707764 0.55316591262817383
0.72715622186660767 0.72354185581207275 0.53137266635894775
0.86453378200531006 0.72964894771575928 0.51740801334381104
0.97085785865783691 0.73605906963348389 0.55737996101379395
0.19418400526046753 0.83286023139953613 0.57511484622955322
0.25947430729866028 0.83152735233306885 0.56486612558364868
0.35728305578231812 0.82746130228042603 0.5375903844833374
0.51658695936203003 0.82068949937820435 0.51743042469024658
0.66328412294387817 0.81330329179763794 0.48097899556159973
0.82535701990127563 0.82701361179351807 0.43507587909698486
0.96657103300094604 0.84145534038543701 0.4178561270236969
0.29334366321563721 0.95656657218933105 0.59849387407302856
0.32483088970184326 0.95498579740524292 0.58724111318588257
0.42134097218513489 0.94994652271270752 0.57899981737136841
0.562705397605896 0.94130039215087891 0.57178151607513428
0.70458674430847168 0.9429556131362915 0.57483667135238647
0.83230185508728027 0.95073157548904419 0.53399276733398438
0.96695727109909058 0.95663321018218994 0.46507170796394348
0.086533278226852417 0.002834065817296505 0.67678314447402954
0.27128410339355469 0.0061460309661924839 0.69123339653015137
0.50298148393630981 0.0025460487231612206 0.72609061002731323
0.75698035955429077 0.00068694469518959522 0.77150678634643555
0.89948463439941406 0.0013841516338288784 0.77029269933700562
0.89297181367874146 0.10369686037302017 0.68385273218154907
0.93928354978561401 0.34559085965156555 0.679329514503479
0.11352530121803284 0.1172209233045578 0.68178427219390869
0.28297123312950134 0.097647123038768768 0.69342344999313354
0.50307226181030273 0.041071709245443344 0.72619199752807617
0.74781674146652222 0.016265794634819031 0.76978963613510132
0.89330834150314331 0.03968670591711998 0.77238321304321289
0.89320045709609985 0.25458416342735291 0.69716423749923706
0.93731802701950073 0.4079231321811676 0.68423259258270264
0.019811352714896202 0.30037477612495422 0.64928203821182251
0.20599921047687531 0.31474855542182922 0.67080694437026978
0.45454341173171997 0.31627935171127319 0.70354670286178589
0.70268285274505615 0.32638740539550781 0.75139379501342773
0.85511684417724609 0.3803105354309082 0.76231026649475098
0.87084347009658813 0.44671851396560669 0.70748615264892578
0.93679553270339966 0.50038659572601318 0.68611198663711548
0.015009412541985512 0.4712083637714386 0.63124269247055054
0.12374182045459747 0.48608124256134033 0.64259845018386841
0.37219896912574768 0.50743967294692993 0.65967804193496704
0.61711925268173218 0.54957336187362671 0.71327602863311768
0.8054538369178772 0.60229682922363281 0.75654369592666626
0.84999924898147583 0.60720407962799072 0.71240627765655518
0.93824458122253418 0.58993738889694214 0.67316579818725586
0.20806042850017548 0.6716277003288269 0.68606454133987427
0.30367425084114075 0.68240076303482056 0.69453626871109009
0.4440453052520752 0.70274817943572998 0.70813459157943726
0.59888511896133423 0.72588390111923218 0.72129207849502563
0.76146930456161499 0.76184123754501343 0.74254554510116577
0.85970050096511841 0.74961739778518677 0.71726202964782715
0.95806759595870972 0.71492487192153931 0.68850147724151611
0.28128170967102051 0.84989887475967407 0.74372720718383789
0.34568145871162415 0.84615051746368408 0.73653626441955566
0.4633961021900177 0.84842568635940552 0.73270273208618164
0.58226996660232544 0.8488578200340271 0.71577310562133789
0.7078707218170166 0.84824901819229126 0.69416648149490356
0.83693993091583252 0.84977591037750244 0.66931372880935669
0.95499426126480103 0.85971641540527344 0.6733812689781189
0.42125734686851501 0.95689630508422852 0.76462000608444214
0.46115070581436157 0.95449954271316528 0.76186442375183105
0.52237969636917114 0.95585876703262329 0.75330132246017456
0.59174692630767822 0.95117449760437012 0.72491085529327393
0.69126421213150024 0.94769763946533203 0.70284855365753174
0.82835489511489868 0.94957637786865234 0.6862567663192749
0.9622378945350647 0.9569169282913208 0.64355379343032837
0.33165720105171204 0.0078233005478978157 0.82308995723724365
0.42713385820388794 0.0098445964977145195 0.83096373081207275
0.56959766149520874 0.0036699483171105385 0.84936791658401489
0.76405364274978638 0.0061432784423232079 0.87468838691711426
0.93594986200332642 0.0037161733489483595 0.89768379926681519
0.9947885274887085 0.0057105119340121746 0.88012957572937012
0.99506539106369019 0.26620060205459595 0.83067697286605835
0.32546460628509521 0.097027212381362915 0.82268065214157104
0.41184526681900024 0.076639346778392792 0.82901912927627563
0.5594983696937561 0.040123328566551208 0.84595698118209839
0.74153357744216919 0.013811447657644749 0.86895912885665894
0.92033165693283081 0.012407056055963039 0.89654874801635742
0.99549394845962524 0.099843956530094147 0.89103162288665771
0.99150961637496948 0.36386173963546753 0.83451622724533081
0.24547074735164642 0.3058701753616333 0.80156677961349487
0.33371815085411072 0.29763492941856384 0.8062053918838501
0.50464487075805664 0.29623723030090332 0.82481002807617188
0.70807963609695435 0.29250064492225647 0.85662209987640381
0.88291054964065552 0.3161335289478302 0.88648515939712524
0.97303849458694458 0.39284387230873108 0.88166648149490356
0.97449421882629395 0.50482654571533203 0.83455425500869751
0.0064282584935426712 0.43727424740791321 0.75754523277282715
0.096440456807613373 0.44935703277587891 0.76428627967834473
0.39077535271644592 0.46979564428329468 0.78796768188476562
0.62107527256011963 0.50381499528884888 0.82617080211639404
0.82201838493347168 0.56202912330627441 0.86558634042739868
0.94177395105361938 0.59812396764755249 0.87641274929046631
0.95560580492019653 0.63756781816482544 0.84061223268508911
0.023903341963887215 0.61248248815536499 0.76263487339019775
0.12460413575172424 0.61372464895248413 0.763916015625
0.32394063472747803 0.62324553728103638 0.77084124088287354
0.50981831550598145 0.63974958658218384 0.78299582004547119
0.73684209585189819 0.7079695463180542 0.83319389820098877
0.89528602361679077 0.75885957479476929 0.8677859902381897
0.93264412879943848 0.76160454750061035 0.83579879999160767
0.29414588212966919 0.7966989278793335 0.81181496381759644
0.35973376035690308 0.80173146724700928 0.81681638956069946
0.46084669232368469 0.81039273738861084 0.82176917791366577
0.5750001072883606 0.83078175783157349 0.83953630924224854
0.71815437078475952 0.84974652528762817 0.84645456075668335
0.85627132654190063 0.87945067882537842 0.85903048515319824
0.94520193338394165 0.87774068117141724 0.84967023134231567
0.45471811294555664 0.96099472045898438 0.88967764377593994
0.48582971096038818 0.96114665269851685 0.88744843006134033
0.54986357688903809 0.95873862504959106 0.88414710760116577
0.63658684492111206 0.95947456359863281 0.88027167320251465
0.72445285320281982 0.95969307422637939 0.85679119825363159
0.82931745052337646 0.96023976802825928 0.83707344532012939
0.95878309011459351 0.96971088647842407 0.82158035039901733
0.56524008512496948 0.081335119903087616 0.96395206451416016
0.60497754812240601 0.058614440262317657 0.96525377035140991
0.69000589847564697 0.032305009663105011 0.97020077705383301
0.80470985174179077 0.0093328887596726418 0.97385960817337036
0.92849743366241455 0.0044818352907896042 0.98057782649993896
0.99975287914276123 0.0064997053705155849 0.98404830694198608
1 0.1021527573466301 0.98328286409378052
0.55362969636917114 0.22241076827049255 0.95731186866760254
0.59604489803314209 0.2136957198381424 0.95984619855880737
0.67843151092529297 0.1724638044834137 0.96523571014404297
0.79263800382614136 0.11059700697660446 0.97415226697921753
0.92119228839874268 0.050694424659013748 0.98355817794799805
0.99727553129196167 0.020176352933049202 0.98852348327636719
1 0.25548610091209412 0.98232358694076538
0.51237469911575317 0.38969114422798157 0.94817644357681274
0.56034332513809204 0.38947632908821106 0.9514840841293335
0.64250218868255615 0.38002967834472656 0.95546746253967285
0.76408863067626953 0.35278955101966858 0.96284371614456177
0.89227986335754395 0.33983257412910461 0.97433996200561523
0.99054133892059326 0.33783689141273499 0.98216819763183594
0.99990355968475342 0.45584338903427124 0.97276186943054199
0.36639520525932312 0.51798003911972046 0.93456763029098511
0.43639227747917175 0.52929806709289551 0.93400996923446655
0.55625104904174805 0.53040486574172974 0.94178342819213867
0.70474660396575928 0.5367017388343811 0.95273858308792114
0.84679239988327026 0.55642163753509521 0.96671104431152344
0.97371721267700195 0.56856942176818848 0.9775087833404541
0.99433887004852295 0.62432646751403809 0.96642923355102539
0.1686784029006958 0.65763312578201294 0.91132277250289917
0.23941193521022797 0.65576988458633423 0.91186982393264771
0.38966637849807739 0.64764964580535889 0.917827308177948
0.56849461793899536 0.65639883279800415 0.9287371039390564
0.76213729381561279 0.6985587477684021 0.95079392194747925
0.91662013530731201 0.73652130365371704 0.96173524856567383
0.98436111211776733 0.76633048057556152 0.96740120649337769
0.33195394277572632 0.80932718515396118 0.92607975006103516
0.37106320261955261 0.80790442228317261 0.92547392845153809
0.44009882211685181 0.80783575773239136 0.92574149370193481
0.54287785291671753 0.80768507719039917 0.92705321311950684
0.66737675666809082 0.81047326326370239 0.92988777160644531
0.84842187166213989 0.85069358348846436 0.95504415035247803
0.97435927391052246 0.88166332244873047 0.96463561058044434
0.51514089107513428 0.94374948740005493 0.95818859338760376
0.53594082593917847 0.94350814819335938 0.96056878566741943
0.58459979295730591 0.94472789764404297 0.96208733320236206
0.65482646226882935 0.94953614473342896 0.96294736862182617
0.73943746089935303 0.95396053791046143 0.95555180311203003
0.84850555658340454 0.95808500051498413 0.96308904886245728
0.96074241399765015 0.97328144311904907 0.96290963888168335
