luts/instant_pro/fuji_fp-100c_negative_+++.cube
# Created by: G'MIC (https://gmic.eu)
TITLE "fuji_fp-100c_negative_+++"
# LUT size
LUT_3D_SIZE 13
# Data domain
DOMAIN_MIN 0.0 0.0 0.0
DOMAIN_MAX 1.0 1.0 1.0
# LUT data points
0.21862399578094482 0.16857144236564636 0.22937218844890594
0.22119395434856415 0.16683344542980194 0.22811746597290039
0.23944836854934692 0.16352425515651703 0.22648444771766663
0.27086916565895081 0.1594451516866684 0.22545969486236572
0.31562420725822449 0.16041822731494904 0.22567696869373322
0.39061662554740906 0.16344383358955383 0.22656784951686859
0.47791418433189392 0.16380493342876434 0.22649453580379486
0.57795637845993042 0.17211659252643585 0.22786559164524078
0.68355327844619751 0.19746844470500946 0.22901174426078796
0.78242141008377075 0.22901029884815216 0.23018914461135864
0.86385208368301392 0.28875049948692322 0.23115471005439758
0.93767458200454712 0.35693266987800598 0.22899487614631653
0.98654305934906006 0.41488838195800781 0.23151779174804688
0.21578839421272278 0.1738256961107254 0.22956801950931549
0.21878898143768311 0.17037621140480042 0.2285057008266449
0.23991255462169647 0.17161944508552551 0.22830913960933685
0.27875775098800659 0.17960770428180695 0.22957269847393036
0.32838594913482666 0.18276000022888184 0.22855083644390106
0.39543232321739197 0.18253873288631439 0.22670945525169373
0.48508977890014648 0.18753959238529205 0.22735020518302917
0.58761131763458252 0.19686755537986755 0.2292158305644989
0.68929475545883179 0.22179226577281952 0.22912383079528809
0.78615880012512207 0.26322010159492493 0.230158731341362
0.86507755517959595 0.32019257545471191 0.2303871214389801
0.93647736310958862 0.37795966863632202 0.22806291282176971
0.98715680837631226 0.43482887744903564 0.23036302626132965
0.21208047866821289 0.18878538906574249 0.23087173700332642
0.22190204262733459 0.19273515045642853 0.23180556297302246
0.24226821959018707 0.19988760352134705 0.23249714076519012
0.28062117099761963 0.20896950364112854 0.23310156166553497
0.33874243497848511 0.21372577548027039 0.23086071014404297
0.40838247537612915 0.21419252455234528 0.22759859263896942
0.4998614490032196 0.22581693530082703 0.22727945446968079
0.60155409574508667 0.24609161913394928 0.2279655784368515
0.70016270875930786 0.26662686467170715 0.22747083008289337
0.79113125801086426 0.29977944493293762 0.22668410837650299
0.86410015821456909 0.35461103916168213 0.22766678035259247
0.93408298492431641 0.41195496916770935 0.22769857943058014
0.9855189323425293 0.46495187282562256 0.22993439435958862
0.2161598801612854 0.22470566630363464 0.23752903938293457
0.23010437190532684 0.23168163001537323 0.23813413083553314
0.24435526132583618 0.23645488917827606 0.23680464923381805
0.2777751088142395 0.24608328938484192 0.23538860678672791
0.3425900936126709 0.26327475905418396 0.23350131511688232
0.42726171016693115 0.28181168437004089 0.22709375619888306
0.5228697657585144 0.28913447260856628 0.22420543432235718
0.62017875909805298 0.30101415514945984 0.22516971826553345
0.71027064323425293 0.32851514220237732 0.22302350401878357
0.79487895965576172 0.36441183090209961 0.21959254145622253
0.86753654479980469 0.41086563467979431 0.221441850066185
0.93717020750045776 0.45823514461517334 0.22270536422729492
0.98940932750701904 0.49887624382972717 0.22573612630367279
0.22345016896724701 0.28291746973991394 0.25136679410934448
0.23661273717880249 0.28580769896507263 0.24978610873222351
0.25293290615081787 0.29045131802558899 0.24797692894935608
0.28379452228546143 0.30248820781707764 0.24500980973243713
0.34443473815917969 0.32461145520210266 0.2379847913980484
0.44712436199188232 0.35848569869995117 0.22451232373714447
0.5468025803565979 0.37543535232543945 0.21836176514625549
0.63598310947418213 0.38354095816612244 0.21715787053108215
0.71682053804397583 0.4057195782661438 0.21324002742767334
0.80010652542114258 0.4397825300693512 0.20886954665184021
0.87267673015594482 0.48142519593238831 0.21142493188381195
0.93872088193893433 0.51720237731933594 0.21643176674842834
0.98649531602859497 0.54435008764266968 0.22857794165611267
0.22888892889022827 0.34809768199920654 0.26653331518173218
0.24567663669586182 0.35356822609901428 0.26517358422279358
0.26698219776153564 0.35991227626800537 0.26407009363174438
0.29237982630729675 0.36850747466087341 0.26078975200653076
0.35108786821365356 0.39391970634460449 0.25138396024703979
0.44099271297454834 0.42981699109077454 0.2346959114074707
0.5576663613319397 0.46909064054489136 0.21468783915042877
0.65468901395797729 0.48980551958084106 0.20444339513778687
0.73214495182037354 0.50199830532073975 0.20149892568588257
0.80686026811599731 0.51533752679824829 0.19869379699230194
0.87458175420761108 0.54259389638900757 0.20438854396343231
0.93842625617980957 0.57161110639572144 0.21186202764511108
0.98316794633865356 0.59779608249664307 0.2330641895532608
0.22974291443824768 0.42264094948768616 0.27924355864524841
0.25312304496765137 0.43078175187110901 0.28287205100059509
0.28011760115623474 0.43682274222373962 0.28402853012084961
0.30976599454879761 0.44428688287734985 0.28159603476524353
0.36260795593261719 0.46770983934402466 0.27299842238426208
0.43581441044807434 0.49884390830993652 0.25742104649543762
0.54514867067337036 0.53781366348266602 0.23433041572570801
0.65554910898208618 0.57463264465332031 0.20753465592861176
0.74386811256408691 0.59402978420257568 0.19590213894844055
0.81379806995391846 0.60001057386398315 0.20298661291599274
0.87940245866775513 0.61439675092697144 0.20821830630302429
0.94282788038253784 0.63097721338272095 0.21480339765548706
0.98501908779144287 0.65282350778579712 0.24156765639781952
0.2381862998008728 0.50439411401748657 0.29914030432701111
0.26031148433685303 0.50963377952575684 0.30312976241111755
0.2957673966884613 0.5162232518196106 0.30715826153755188
0.34126129746437073 0.5268593430519104 0.30870559811592102
0.38776689767837524 0.54412490129470825 0.30345222353935242
0.44607177376747131 0.56602948904037476 0.29312416911125183
0.53467154502868652 0.5966346263885498 0.27420178055763245
0.63651043176651001 0.63086658716201782 0.24936625361442566
0.74179059267044067 0.66508322954177856 0.22110109031200409
0.82260066270828247 0.68410921096801758 0.21135109663009644
0.88931077718734741 0.69270026683807373 0.22635720670223236
0.95267182588577271 0.70066922903060913 0.24122138321399689
0.98900139331817627 0.70849895477294922 0.26854556798934937
0.2750152051448822 0.58989167213439941 0.33082693815231323
0.29734933376312256 0.59226727485656738 0.3343149721622467
0.33500474691390991 0.59792721271514893 0.34045591950416565
0.38272327184677124 0.60523355007171631 0.3455568253993988
0.42711976170539856 0.61638933420181274 0.34626632928848267
0.48138856887817383 0.63459646701812744 0.34066548943519592
0.54838281869888306 0.65913718938827515 0.32740345597267151
0.63007867336273193 0.68380790948867798 0.31439545750617981
0.72328823804855347 0.71291065216064453 0.29436963796615601
0.81898736953735352 0.74244171380996704 0.27008631825447083
0.90085667371749878 0.75740343332290649 0.26786342263221741
0.96362406015396118 0.76145994663238525 0.28669044375419617
0.99366241693496704 0.76117998361587524 0.31506359577178955
0.35227367281913757 0.67250174283981323 0.37876123189926147
0.37220793962478638 0.6744236946105957 0.38110998272895813
0.40032738447189331 0.6775355339050293 0.38710123300552368
0.44490054249763489 0.68190521001815796 0.39624765515327454
0.49094602465629578 0.68868368864059448 0.40166017413139343
0.53892219066619873 0.70293939113616943 0.4037621021270752
0.59147512912750244 0.71926987171173096 0.39791515469551086
0.654918372631073 0.73842298984527588 0.38981252908706665
0.72501957416534424 0.76152557134628296 0.37789750099182129
0.80248314142227173 0.78269588947296143 0.36178138852119446
0.8970109224319458 0.79984015226364136 0.34863784909248352
0.97246009111404419 0.8100554347038269 0.35629221796989441
0.9962005615234375 0.80986493825912476 0.38169977068901062
0.44830584526062012 0.74829560518264771 0.43657141923904419
0.46561673283576965 0.74758470058441162 0.44254174828529358
0.49618238210678101 0.74882656335830688 0.45049580931663513
0.52780336141586304 0.75319010019302368 0.45844554901123047
0.56536871194839478 0.75901687145233154 0.4658237099647522
0.60903781652450562 0.76746714115142822 0.47204941511154175
0.65288025140762329 0.77710515260696411 0.47385558485984802
0.70575350522994995 0.79161924123764038 0.4699360728263855
0.76002359390258789 0.80824321508407593 0.4625345766544342
0.81582272052764893 0.82009196281433105 0.45289433002471924
0.88956797122955322 0.83104008436203003 0.44740939140319824
0.96456658840179443 0.84476321935653687 0.44126060605049133
0.99503397941589355 0.84890353679656982 0.45450791716575623
0.58698296546936035 0.80976277589797974 0.50727558135986328
0.59781169891357422 0.81168955564498901 0.51234036684036255
0.61813712120056152 0.81295949220657349 0.51806145906448364
0.64406478404998779 0.81550222635269165 0.52431303262710571
0.67127817869186401 0.81921130418777466 0.53132951259613037
0.69940370321273804 0.82344263792037964 0.5378991961479187
0.72726631164550781 0.83146977424621582 0.54507708549499512
0.76264107227325439 0.84062755107879639 0.54659509658813477
0.80389183759689331 0.8508155345916748 0.54390895366668701
0.84956574440002441 0.8589821457862854 0.53820294141769409
0.90792828798294067 0.8659706711769104 0.53206592798233032
0.96021795272827148 0.87543010711669922 0.53062546253204346
0.99415129423141479 0.88197135925292969 0.5329245924949646
0.73612600564956665 0.87063729763031006 0.58099609613418579
0.7426641583442688 0.87058854103088379 0.58338773250579834
0.7536129355430603 0.86958771944046021 0.58466637134552002
0.77197402715682983 0.87216252088546753 0.58925050497055054
0.79291075468063354 0.87224662303924561 0.59375911951065063
0.81801068782806396 0.87433004379272461 0.60022550821304321
0.83812606334686279 0.87773942947387695 0.60471910238265991
0.86188584566116333 0.88308423757553101 0.60743057727813721
0.88727504014968872 0.88938683271408081 0.60711193084716797
0.91491973400115967 0.89479905366897583 0.60329580307006836
0.95181065797805786 0.90194636583328247 0.60241156816482544
0.98294371366500854 0.90852886438369751 0.6022869348526001
0.99666851758956909 0.91223430633544922 0.60158705711364746
0.22182151675224304 0.16805024445056915 0.23767580091953278
0.22515945136547089 0.16265010833740234 0.23402139544487
0.23675018548965454 0.15935432910919189 0.2312464565038681
0.27208060026168823 0.15971282124519348 0.2326342910528183
0.32350417971611023 0.16425226628780365 0.23610255122184753
0.38745138049125671 0.1673150360584259 0.23757116496562958
0.48089072108268738 0.17087444663047791 0.24113407731056213
0.58734560012817383 0.17927445471286774 0.24460397660732269
0.69021427631378174 0.20310269296169281 0.24889568984508514
0.78516292572021484 0.2355639785528183 0.25435352325439453
0.86522430181503296 0.29246711730957031 0.25573104619979858
0.93698149919509888 0.35696908831596375 0.25475224852561951
0.98886251449584961 0.41619387269020081 0.25765693187713623
0.21726500988006592 0.17463348805904388 0.23809950053691864
0.22446146607398987 0.17357409000396729 0.23789359629154205
0.24476054310798645 0.17558181285858154 0.23911690711975098
0.27913326025009155 0.17694179713726044 0.23861035704612732
0.3283596932888031 0.17934189736843109 0.23877736926078796
0.40006384253501892 0.18660703301429749 0.24107630550861359
0.49327242374420166 0.19319060444831848 0.24300156533718109
0.59642982482910156 0.19840285181999207 0.24394494295120239
0.69302171468734741 0.22337661683559418 0.24911482632160187
0.78720426559448242 0.26636934280395508 0.25457873940467834
0.86500453948974609 0.32036355137825012 0.25454035401344299
0.93582612276077271 0.37816751003265381 0.25214555859565735
0.98937487602233887 0.43442574143409729 0.2540736198425293
0.2151624858379364 0.19045764207839966 0.23962922394275665
0.2293773740530014 0.19790154695510864 0.24316583573818207
0.25097733736038208 0.20588608086109161 0.24588106572628021
0.28422904014587402 0.21045716106891632 0.24361920356750488
0.34254434704780579 0.2157466858625412 0.24192145466804504
0.4193776547908783 0.2202933132648468 0.24292895197868347
0.5105292797088623 0.2297368049621582 0.24372851848602295
0.60879427194595337 0.24707423150539398 0.24531204998493195
0.70219117403030396 0.27214312553405762 0.24943150579929352
0.79247307777404785 0.30547511577606201 0.25287696719169617
0.86557477712631226 0.35720831155776978 0.25070536136627197
0.93596673011779785 0.41203469038009644 0.2480873167514801
0.98781752586364746 0.46518662571907043 0.2524077296257019
0.22129406034946442 0.23186179995536804 0.24761052429676056
0.23849283158779144 0.23864951729774475 0.24830994009971619
0.25695100426673889 0.24568361043930054 0.24848568439483643
0.28607025742530823 0.25262618064880371 0.24648456275463104
0.35532107949256897 0.2656465470790863 0.24552416801452637
0.44084340333938599 0.27521505951881409 0.24203671514987946
0.52944839000701904 0.28236550092697144 0.23974035680294037
0.62203526496887207 0.30568227171897888 0.24412569403648376
0.7112002968788147 0.33414342999458313 0.24550183117389679
0.79501360654830933 0.36685988306999207 0.24404111504554749
0.86894232034683228 0.41129642724990845 0.242479607462883
0.93885666131973267 0.45839142799377441 0.24199460446834564
0.9858245849609375 0.50414544343948364 0.25261333584785461
0.22778868675231934 0.28733024001121521 0.25954943895339966
0.24524004757404327 0.29181370139122009 0.25937536358833313
0.26519507169723511 0.29765200614929199 0.25885030627250671
0.29186531901359558 0.30719232559204102 0.25621643662452698
0.3552401065826416 0.3294169008731842 0.25193959474563599
0.451994389295578 0.35384204983711243 0.24189908802509308
0.54798567295074463 0.37018224596977234 0.23488540947437286
0.63368219137191772 0.38458412885665894 0.23653872311115265
0.71703332662582397 0.40503197908401489 0.23461697995662689
0.7999376654624939 0.43612819910049438 0.23075023293495178
0.87242233753204346 0.47643712162971497 0.23279355466365814
0.9396587610244751 0.51380628347396851 0.23838619887828827
0.9836164116859436 0.55034613609313965 0.25527769327163696
0.23256690800189972 0.34853282570838928 0.27246567606925964
0.2517738938331604 0.35530650615692139 0.27341121435165405
0.27456313371658325 0.36074602603912354 0.27427917718887329
0.30147859454154968 0.3700065016746521 0.27257296442985535
0.35889402031898499 0.39855894446372986 0.26558214426040649
0.45364475250244141 0.43531817197799683 0.25096756219863892
0.56307381391525269 0.46914657950401306 0.23359584808349609
0.65176326036453247 0.48579779267311096 0.22694370150566101
0.73142600059509277 0.49677139520645142 0.22318412363529205
0.80783212184906006 0.51040607690811157 0.22083984315395355
0.87324953079223633 0.53700023889541626 0.22989358007907867
0.93853145837783813 0.57049274444580078 0.2398240864276886
0.98293048143386841 0.60111188888549805 0.2610785961151123
0.23807358741760254 0.42561754584312439 0.28954988718032837
0.25773406028747559 0.43258050084114075 0.29172644019126892
0.28565633296966553 0.4365476667881012 0.29352861642837524
0.32046288251876831 0.44606107473373413 0.29430437088012695
0.37527963519096375 0.47187554836273193 0.28765323758125305
0.44316774606704712 0.50203245878219604 0.27203196287155151
0.55241274833679199 0.54061621427536011 0.25132784247398376
0.6613883376121521 0.5767817497253418 0.22589094936847687
0.74595773220062256 0.59258997440338135 0.21821820735931396
0.81460928916931152 0.59601521492004395 0.22854386270046234
0.87881457805633545 0.61126279830932617 0.23663301765918732
0.94421738386154175 0.63101100921630859 0.24214275181293488
0.98689967393875122 0.65331786870956421 0.26687312126159668
0.24878978729248047 0.5111272931098938 0.3112429678440094
0.2693120539188385 0.51467394828796387 0.31396859884262085
0.29982918500900269 0.51869922876358032 0.31633731722831726
0.34563994407653809 0.52972579002380371 0.31995126605033875
0.39667865633964539 0.54571068286895752 0.31939634680747986
0.45562341809272766 0.56850367784500122 0.30835780501365662
0.54236191511154175 0.60014301538467407 0.29097899794578552
0.64704495668411255 0.63669723272323608 0.26513457298278809
0.74533134698867798 0.66598474979400635 0.2433372288942337
0.82417052984237671 0.68203747272491455 0.24042071402072906
0.88993370532989502 0.69115442037582397 0.25648850202560425
0.95388364791870117 0.69957554340362549 0.26943472027778625
0.99233371019363403 0.70937210321426392 0.29082942008972168
0.28761783242225647 0.59475821256637573 0.34282475709915161
0.30662232637405396 0.59819525480270386 0.34395793080329895
0.34310081601142883 0.60153734683990479 0.35129788517951965
0.3925178050994873 0.60809999704360962 0.36078378558158875
0.43899920582771301 0.61976605653762817 0.36190712451934814
0.48960098624229431 0.63625431060791016 0.35786986351013184
0.5585402250289917 0.66175282001495361 0.34302365779876709
0.63527774810791016 0.68726694583892822 0.32793524861335754
0.72901147603988647 0.71537190675735474 0.31127360463142395
0.82190203666687012 0.74242454767227173 0.29506942629814148
0.90117257833480835 0.75548422336578369 0.29723456501960754
0.96452450752258301 0.76131480932235718 0.31288379430770874
0.99722027778625488 0.7627713680267334 0.32850658893585205
0.35901641845703125 0.67443883419036865 0.38824200630187988
0.37523761391639709 0.67744004726409912 0.38884839415550232
0.40957793593406677 0.6811290979385376 0.3981640636920929
0.45779016613960266 0.68483012914657593 0.41150596737861633
0.50293266773223877 0.69429785013198853 0.41617575287818909
0.54443830251693726 0.70775556564331055 0.41443726420402527
0.59106147289276123 0.7226441502571106 0.40850824117660522
0.65862947702407837 0.74137330055236816 0.40414643287658691
0.72737640142440796 0.76220071315765381 0.3962288498878479
0.80488413572311401 0.78284382820129395 0.38240283727645874
0.89758992195129395 0.79981249570846558 0.36794319748878479
0.97153586149215698 0.80996888875961304 0.37569645047187805
0.99568480253219604 0.81037849187850952 0.39081153273582458
0.45390182733535767 0.7476615309715271 0.44538429379463196
0.46780753135681152 0.7519993782043457 0.44900855422019958
0.49516180157661438 0.75325793027877808 0.45592185854911804
0.52846145629882812 0.75675618648529053 0.46472951769828796
0.56878268718719482 0.76303911209106445 0.47241026163101196
0.61300379037857056 0.77055460214614868 0.47666409611701965
0.65360981225967407 0.77923911809921265 0.48039564490318298
0.70215791463851929 0.79267853498458862 0.48080790042877197
0.75646799802780151 0.80751997232437134 0.47616297006607056
0.81741136312484741 0.81975400447845459 0.46699357032775879
0.88956701755523682 0.8306279182434082 0.45652741193771362
0.96119183301925659 0.8439975380897522 0.45445480942726135
0.99302458763122559 0.85034185647964478 0.46110108494758606
0.58707946538925171 0.81193381547927856 0.51295238733291626
0.59691095352172852 0.81344610452651978 0.51518326997756958
0.61426317691802979 0.81436997652053833 0.51947247982025146
0.64129292964935303 0.81658852100372314 0.52595609426498413
0.66963404417037964 0.81875169277191162 0.53335011005401611
0.70271486043930054 0.82442456483840942 0.54345595836639404
0.73461264371871948 0.83202260732650757 0.54980778694152832
0.76733475923538208 0.8406296968460083 0.55113053321838379
0.80679219961166382 0.85020631551742554 0.54918450117111206
0.85433167219161987 0.85841608047485352 0.54216635227203369
0.91054791212081909 0.86491429805755615 0.53390806913375854
0.9580528736114502 0.87399435043334961 0.53417611122131348
0.98962253332138062 0.88228076696395874 0.5368049144744873
0.73604863882064819 0.8706774115562439 0.58335298299789429
0.7398989200592041 0.87005829811096191 0.58316361904144287
0.7513311505317688 0.87022507190704346 0.58511132001876831
0.77116066217422485 0.87246626615524292 0.58984017372131348
0.79006940126419067 0.87109375 0.59360969066619873
0.81734782457351685 0.87356323003768921 0.60257375240325928
0.84108877182006836 0.87704533338546753 0.60760021209716797
0.86179894208908081 0.88132184743881226 0.60801726579666138
0.89155596494674683 0.8890107274055481 0.60876023769378662
0.91781795024871826 0.89373636245727539 0.6038740873336792
0.94886702299118042 0.89936572313308716 0.60154110193252563
0.98351943492889404 0.90695631504058838 0.60290980339050293
0.99475878477096558 0.9117199182510376 0.60385358333587646
0.22595855593681335 0.16418179869651794 0.25201132893562317
0.22956360876560211 0.16010341048240662 0.24672530591487885
0.23997408151626587 0.15853078663349152 0.24344372749328613
0.27748778462409973 0.16294831037521362 0.2460043877363205
0.32969409227371216 0.16918450593948364 0.25157949328422546
0.39954152703285217 0.16886508464813232 0.25552752614021301
0.49865490198135376 0.16302025318145752 0.25874298810958862
0.60111957788467407 0.17175067961215973 0.26627922058105469
0.70248597860336304 0.19351072609424591 0.27438127994537354
0.79064911603927612 0.23457281291484833 0.28061237931251526
0.86828058958053589 0.29170083999633789 0.28421506285667419
0.93923860788345337 0.35682258009910583 0.28747960925102234
0.99190270900726318 0.41770032048225403 0.29380720853805542
0.21978284418582916 0.17341859638690948 0.25019091367721558
0.22863557934761047 0.17501719295978546 0.25038972496986389
0.24839873611927032 0.1791636049747467 0.2538573145866394
0.28306117653846741 0.17750674486160278 0.25300806760787964
0.33270871639251709 0.18146790564060211 0.25423961877822876
0.40885934233665466 0.18928767740726471 0.25930449366569519
0.507068932056427 0.19139586389064789 0.26385200023651123
0.61504453420639038 0.19561032950878143 0.26980608701705933
0.70763516426086426 0.22056606411933899 0.27789786458015442
0.79504883289337158 0.26337054371833801 0.28300866484642029
0.86836689710617065 0.31865304708480835 0.28472870588302612
0.93800348043441772 0.37801641225814819 0.28758430480957031
0.99094736576080322 0.43457451462745667 0.29419183731079102
0.21653401851654053 0.19084563851356506 0.25206854939460754
0.23201875388622284 0.19855427742004395 0.25860187411308289
0.25333938002586365 0.20519812405109406 0.2632962167263031
0.28799527883529663 0.21037138998508453 0.26115673780441284
0.34687688946723938 0.2205163836479187 0.26192861795425415
0.4243144690990448 0.22573712468147278 0.2640039324760437
0.5198972225189209 0.23163722455501556 0.26664173603057861
0.62468945980072021 0.24545256793498993 0.27281391620635986
0.71464443206787109 0.27255502343177795 0.2782282829284668
0.79810279607772827 0.3082808256149292 0.28088995814323425
0.87072229385375977 0.35890132188796997 0.28047975897789001
0.94022107124328613 0.41357290744781494 0.28211939334869385
0.99090063571929932 0.46791559457778931 0.29361546039581299
0.22573167085647583 0.23745168745517731 0.26301136612892151
0.24138371646404266 0.24167613685131073 0.26615530252456665
0.26048737764358521 0.24810761213302612 0.26821246743202209
0.29229229688644409 0.25618162751197815 0.26833459734916687
0.35979726910591125 0.2720029354095459 0.26970657706260681
0.44513827562332153 0.2804834246635437 0.267984539270401
0.5415651798248291 0.28468358516693115 0.26661154627799988
0.63381022214889526 0.30696231126785278 0.2717384397983551
0.72025394439697266 0.33591040968894958 0.27401620149612427
0.8004835844039917 0.36989128589630127 0.2746066153049469
0.87381494045257568 0.41243773698806763 0.27430340647697449
0.94306379556655884 0.45927107334136963 0.27634671330451965
0.98716276884078979 0.50836676359176636 0.29306808114051819
0.23724205791950226 0.29577326774597168 0.27784925699234009
0.25693118572235107 0.30348670482635498 0.28057220578193665
0.27650123834609985 0.30946466326713562 0.28106889128684998
0.3029710054397583 0.31670409440994263 0.27979609370231628
0.36015540361404419 0.33479666709899902 0.27613005042076111
0.45504084229469299 0.35632613301277161 0.26862499117851257
0.5560421347618103 0.37110921740531921 0.26266181468963623
0.64139878749847412 0.3844599723815918 0.26684048771858215
0.72472941875457764 0.40632891654968262 0.26633146405220032
