luts/instant_pro/fuji_fp-3000b_negative_--.cube
# Created by: G'MIC (https://gmic.eu)
TITLE "fuji_fp-3000b_negative_--"
# LUT size
LUT_3D_SIZE 5
# Data domain
DOMAIN_MIN 0.0 0.0 0.0
DOMAIN_MAX 1.0 1.0 1.0
# LUT data points
0.051888514310121536 0.051888514310121536 0.051888514310121536
0.12102793902158737 0.12102793902158737 0.12102793902158737
0.29895833134651184 0.29895833134651184 0.29895833134651184
0.48432877659797668 0.48432877659797668 0.48432877659797668
0.66378486156463623 0.66378486156463623 0.66378486156463623
0.18336313962936401 0.18336313962936401 0.18336313962936401
0.22731365263462067 0.22731365263462067 0.22731365263462067
0.37990221381187439 0.37990221381187439 0.37990221381187439
0.5416644811630249 0.5416644811630249 0.5416644811630249
0.69543564319610596 0.69543564319610596 0.69543564319610596
0.40416276454925537 0.40416276454925537 0.40416276454925537
0.4025096595287323 0.4025096595287323 0.4025096595287323
0.48527848720550537 0.48527848720550537 0.48527848720550537
0.61493277549743652 0.61493277549743652 0.61493277549743652
0.74681645631790161 0.74681645631790161 0.74681645631790161
0.62964779138565063 0.62964779138565063 0.62964779138565063
0.60730594396591187 0.60730594396591187 0.60730594396591187
0.63992065191268921 0.63992065191268921 0.63992065191268921
0.7265893816947937 0.7265893816947937 0.7265893816947937
0.82538306713104248 0.82538306713104248 0.82538306713104248
0.86090254783630371 0.86090254783630371 0.86090254783630371
0.851787269115448 0.851787269115448 0.851787269115448
0.85463547706604004 0.85463547706604004 0.85463547706604004
0.88398897647857666 0.88398897647857666 0.88398897647857666
0.9335210919380188 0.9335210919380188 0.9335210919380188
0.18063187599182129 0.18063187599182129 0.18063187599182129
0.25929194688796997 0.25929194688796997 0.25929194688796997
0.37696105241775513 0.37696105241775513 0.37696105241775513
0.51391935348510742 0.51391935348510742 0.51391935348510742
0.67095279693603516 0.67095279693603516 0.67095279693603516
0.27493920922279358 0.27493920922279358 0.27493920922279358
0.31384870409965515 0.31384870409965515 0.31384870409965515
0.41989791393280029 0.41989791393280029 0.41989791393280029
0.55770367383956909 0.55770367383956909 0.55770367383956909
0.70522218942642212 0.70522218942642212 0.70522218942642212
0.4923158586025238 0.4923158586025238 0.4923158586025238
0.47240504622459412 0.47240504622459412 0.47240504622459412
0.51715290546417236 0.51715290546417236 0.51715290546417236
0.62829679250717163 0.62829679250717163 0.62829679250717163
0.75949668884277344 0.75949668884277344 0.75949668884277344
0.6854252815246582 0.6854252815246582 0.6854252815246582
0.65878701210021973 0.65878701210021973 0.65878701210021973
0.65658891201019287 0.65658891201019287 0.65658891201019287
0.73553168773651123 0.73553168773651123 0.73553168773651123
0.83964020013809204 0.83964020013809204 0.83964020013809204
0.88429379463195801 0.88429379463195801 0.88429379463195801
0.86670786142349243 0.86670786142349243 0.86670786142349243
0.85446280241012573 0.85446280241012573 0.85446280241012573
0.89461773633956909 0.89461773633956909 0.89461773633956909
0.94613128900527954 0.94613128900527954 0.94613128900527954
0.4118179976940155 0.4118179976940155 0.4118179976940155
0.46470654010772705 0.46470654010772705 0.46470654010772705
0.51724016666412354 0.51724016666412354 0.51724016666412354
0.59795135259628296 0.59795135259628296 0.59795135259628296
0.7394413948059082 0.7394413948059082 0.7394413948059082
0.42509850859642029 0.42509850859642029 0.42509850859642029
0.46757259964942932 0.46757259964942932 0.46757259964942932
0.55293792486190796 0.55293792486190796 0.55293792486190796
0.62712830305099487 0.62712830305099487 0.62712830305099487
0.74960267543792725 0.74960267543792725 0.74960267543792725
0.54424417018890381 0.54424417018890381 0.54424417018890381
0.56771820783615112 0.56771820783615112 0.56771820783615112
0.6060599684715271 0.6060599684715271 0.6060599684715271
0.67968219518661499 0.67968219518661499 0.67968219518661499
0.79052698612213135 0.79052698612213135 0.79052698612213135
0.72781294584274292 0.72781294584274292 0.72781294584274292
0.7334173321723938 0.7334173321723938 0.7334173321723938
0.72270947694778442 0.72270947694778442 0.72270947694778442
0.7700190544128418 0.7700190544128418 0.7700190544128418
0.8629956841468811 0.8629956841468811 0.8629956841468811
0.90707457065582275 0.90707457065582275 0.90707457065582275
0.9001765251159668 0.9001765251159668 0.9001765251159668
0.88797229528427124 0.88797229528427124 0.88797229528427124
0.90426993370056152 0.90426993370056152 0.90426993370056152
0.95022642612457275 0.95022642612457275 0.95022642612457275
0.64368444681167603 0.64368444681167603 0.64368444681167603
0.66178905963897705 0.66178905963897705 0.66178905963897705
0.73099374771118164 0.73099374771118164 0.73099374771118164
0.74801391363143921 0.74801391363143921 0.74801391363143921
0.79695677757263184 0.79695677757263184 0.79695677757263184
0.66136264801025391 0.66136264801025391 0.66136264801025391
0.66958153247833252 0.66958153247833252 0.66958153247833252
0.7262609601020813 0.7262609601020813 0.7262609601020813
0.75845366716384888 0.75845366716384888 0.75845366716384888
0.80806982517242432 0.80806982517242432 0.80806982517242432
0.65486180782318115 0.65486180782318115 0.65486180782318115
0.69089174270629883 0.69089174270629883 0.69089174270629883
0.72007644176483154 0.72007644176483154 0.72007644176483154
0.77061301469802856 0.77061301469802856 0.77061301469802856
0.83993160724639893 0.83993160724639893 0.83993160724639893
0.77673405408859253 0.77673405408859253 0.77673405408859253
0.79138213396072388 0.79138213396072388 0.79138213396072388
0.79000699520111084 0.79000699520111084 0.79000699520111084
0.82580786943435669 0.82580786943435669 0.82580786943435669
0.88961893320083618 0.88961893320083618 0.88961893320083618
0.92614030838012695 0.92614030838012695 0.92614030838012695
0.92609614133834839 0.92609614133834839 0.92609614133834839
0.92455601692199707 0.92455601692199707 0.92455601692199707
0.92348009347915649 0.92348009347915649 0.92348009347915649
0.95088356733322144 0.95088356733322144 0.95088356733322144
0.87344169616699219 0.87344169616699219 0.87344169616699219
0.8822517991065979 0.8822517991065979 0.8822517991065979
0.91527187824249268 0.91527187824249268 0.91527187824249268
0.93154966831207275 0.93154966831207275 0.93154966831207275
0.92673039436340332 0.92673039436340332 0.92673039436340332
0.88154178857803345 0.88154178857803345 0.88154178857803345
0.88286155462265015 0.88286155462265015 0.88286155462265015
0.90661853551864624 0.90661853551864624 0.90661853551864624
0.91821658611297607 0.91821658611297607 0.91821658611297607
0.92015266418457031 0.92015266418457031 0.92015266418457031
0.8679167628288269 0.8679167628288269 0.8679167628288269
0.86886096000671387 0.86886096000671387 0.86886096000671387
0.88498926162719727 0.88498926162719727 0.88498926162719727
0.91485536098480225 0.91485536098480225 0.91485536098480225
0.93912798166275024 0.93912798166275024 0.93912798166275024
0.88445419073104858 0.88445419073104858 0.88445419073104858
0.88899070024490356 0.88899070024490356 0.88899070024490356
0.89936363697052002 0.89936363697052002 0.89936363697052002
0.93434476852416992 0.93434476852416992 0.93434476852416992
0.96145308017730713 0.96145308017730713 0.96145308017730713
0.95227539539337158 0.95227539539337158 0.95227539539337158
0.9614560604095459 0.9614560604095459 0.9614560604095459
0.96832573413848877 0.96832573413848877 0.96832573413848877
0.97153353691101074 0.97153353691101074 0.97153353691101074
0.97894430160522461 0.97894430160522461 0.97894430160522461
