luts/instant_pro/fuji_fp-3000b_++.cube
# Created by: G'MIC (https://gmic.eu)
TITLE "fuji_fp-3000b_++"
# LUT size
LUT_3D_SIZE 13
# Data domain
DOMAIN_MIN 0.0 0.0 0.0
DOMAIN_MAX 1.0 1.0 1.0
# LUT data points
0.21176470816135406 0.21176470816135406 0.21176470816135406
0.21216802299022675 0.21216802299022675 0.21216802299022675
0.21662846207618713 0.21662846207618713 0.21662846207618713
0.22440205514431 0.22440205514431 0.22440205514431
0.23775717616081238 0.23775717616081238 0.23775717616081238
0.25736913084983826 0.25736913084983826 0.25736913084983826
0.28392088413238525 0.28392088413238525 0.28392088413238525
0.31871494650840759 0.31871494650840759 0.31871494650840759
0.3630216121673584 0.3630216121673584 0.3630216121673584
0.41838037967681885 0.41838037967681885 0.41838037967681885
0.48440006375312805 0.48440006375312805 0.48440006375312805
0.55688762664794922 0.55688762664794922 0.55688762664794922
0.6297149658203125 0.6297149658203125 0.6297149658203125
0.21178840100765228 0.21178840100765228 0.21178840100765228
0.21419927477836609 0.21419927477836609 0.21419927477836609
0.21999606490135193 0.21999606490135193 0.21999606490135193
0.23052315413951874 0.23052315413951874 0.23052315413951874
0.24659906327724457 0.24659906327724457 0.24659906327724457
0.26811864972114563 0.26811864972114563 0.26811864972114563
0.29532960057258606 0.29532960057258606 0.29532960057258606
0.32953095436096191 0.32953095436096191 0.32953095436096191
0.37350544333457947 0.37350544333457947 0.37350544333457947
0.42922937870025635 0.42922937870025635 0.42922937870025635
0.49579143524169922 0.49579143524169922 0.49579143524169922
0.56847184896469116 0.56847184896469116 0.56847184896469116
0.64121550321578979 0.64121550321578979 0.64121550321578979
0.21491572260856628 0.21491572260856628 0.21491572260856628
0.21813210844993591 0.21813210844993591 0.21813210844993591
0.22597876191139221 0.22597876191139221 0.22597876191139221
0.24017612636089325 0.24017612636089325 0.24017612636089325
0.26142135262489319 0.26142135262489319 0.26142135262489319
0.28764504194259644 0.28764504194259644 0.28764504194259644
0.31661471724510193 0.31661471724510193 0.31661471724510193
0.34987345337867737 0.34987345337867737 0.34987345337867737
0.39260205626487732 0.39260205626487732 0.39260205626487732
0.44764867424964905 0.44764867424964905 0.44764867424964905
0.51363056898117065 0.51363056898117065 0.51363056898117065
0.58546477556228638 0.58546477556228638 0.58546477556228638
0.65674412250518799 0.65674412250518799 0.65674412250518799
0.22309653460979462 0.22309653460979462 0.22309653460979462
0.22568146884441376 0.22568146884441376 0.22568146884441376
0.23507797718048096 0.23507797718048096 0.23507797718048096
0.25373092293739319 0.25373092293739319 0.25373092293739319
0.28240403532981873 0.28240403532981873 0.28240403532981873
0.31696468591690063 0.31696468591690063 0.31696468591690063
0.35039669275283813 0.35039669275283813 0.35039669275283813
0.38223558664321899 0.38223558664321899 0.38223558664321899
0.42308977246284485 0.42308977246284485 0.42308977246284485
0.47628974914550781 0.47628974914550781 0.47628974914550781
0.53950023651123047 0.53950023651123047 0.53950023651123047
0.60886019468307495 0.60886019468307495 0.60886019468307495
0.67824763059616089 0.67824763059616089 0.67824763059616089
0.2378343790769577 0.2378343790769577 0.2378343790769577
0.23861978948116302 0.23861978948116302 0.23861978948116302
0.24774570763111115 0.24774570763111115 0.24774570763111115
0.26948386430740356 0.26948386430740356 0.26948386430740356
0.30649808049201965 0.30649808049201965 0.30649808049201965
0.35367926955223083 0.35367926955223083 0.35367926955223083
0.39836063981056213 0.39836063981056213 0.39836063981056213
0.43317338824272156 0.43317338824272156 0.43317338824272156
0.47179344296455383 0.47179344296455383 0.47179344296455383
0.51923465728759766 0.51923465728759766 0.51923465728759766
0.57595419883728027 0.57595419883728027 0.57595419883728027
0.64068567752838135 0.64068567752838135 0.64068567752838135
0.70486307144165039 0.70486307144165039 0.70486307144165039
0.26015001535415649 0.26015001535415649 0.26015001535415649
0.25803044438362122 0.25803044438362122 0.25803044438362122
0.26419571042060852 0.26419571042060852 0.26419571042060852
0.28532984852790833 0.28532984852790833 0.28532984852790833
0.32709276676177979 0.32709276676177979 0.32709276676177979
0.38680362701416016 0.38680362701416016 0.38680362701416016
0.45049425959587097 0.45049425959587097 0.45049425959587097
0.50105518102645874 0.50105518102645874 0.50105518102645874
0.53985166549682617 0.53985166549682617 0.53985166549682617
0.57899600267410278 0.57899600267410278 0.57899600267410278
0.62605136632919312 0.62605136632919312 0.62605136632919312
0.68122130632400513 0.68122130632400513 0.68122130632400513
0.73632806539535522 0.73632806539535522 0.73632806539535522
0.29168581962585449 0.29168581962585449 0.29168581962585449
0.2861911952495575 0.2861911952495575 0.2861911952495575
0.28728821873664856 0.28728821873664856 0.28728821873664856
0.30189669132232666 0.30189669132232666 0.30189669132232666
0.34056314826011658 0.34056314826011658 0.34056314826011658
0.4035760760307312 0.4035760760307312 0.4035760760307312
0.47806704044342041 0.47806704044342041 0.47806704044342041
0.54558432102203369 0.54558432102203369 0.54558432102203369
0.60266953706741333 0.60266953706741333 0.60266953706741333
0.64842015504837036 0.64842015504837036 0.64842015504837036
0.68599218130111694 0.68599218130111694 0.68599218130111694
0.72778093814849854 0.72778093814849854 0.72778093814849854
0.77032178640365601 0.77032178640365601 0.77032178640365601
0.33445766568183899 0.33445766568183899 0.33445766568183899
0.32719877362251282 0.32719877362251282 0.32719877362251282
0.32311102747917175 0.32311102747917175 0.32311102747917175
0.3273872435092926 0.3273872435092926 0.3273872435092926
0.35490947961807251 0.35490947961807251 0.35490947961807251
0.40931838750839233 0.40931838750839233 0.40931838750839233
0.47932958602905273 0.47932958602905273 0.47932958602905273
0.5535353422164917 0.5535353422164917 0.5535353422164917
0.63682138919830322 0.63682138919830322 0.63682138919830322
0.70070952177047729 0.70070952177047729 0.70070952177047729
0.73782819509506226 0.73782819509506226 0.73782819509506226
0.77003288269042969 0.77003288269042969 0.77003288269042969
0.80271041393280029 0.80271041393280029 0.80271041393280029
0.39207750558853149 0.39207750558853149 0.39207750558853149
0.38571223616600037 0.38571223616600037 0.38571223616600037
0.3797244131565094 0.3797244131565094 0.3797244131565094
0.37509950995445251 0.37509950995445251 0.37509950995445251
0.3861299455165863 0.3861299455165863 0.3861299455165863
0.42442357540130615 0.42442357540130615 0.42442357540130615
0.48627060651779175 0.48627060651779175 0.48627060651779175
0.56307023763656616 0.56307023763656616 0.56307023763656616
0.65059125423431396 0.65059125423431396 0.65059125423431396
0.72367238998413086 0.72367238998413086 0.72367238998413086
0.76930791139602661 0.76930791139602661 0.76930791139602661
0.80111676454544067 0.80111676454544067 0.80111676454544067
0.82878530025482178 0.82878530025482178 0.82878530025482178
0.46857011318206787 0.46857011318206787 0.46857011318206787
0.46266549825668335 0.46266549825668335 0.46266549825668335
0.4561384916305542 0.4561384916305542 0.4561384916305542
0.44456321001052856 0.44456321001052856 0.44456321001052856
0.43792831897735596 0.43792831897735596 0.43792831897735596
0.4588877260684967 0.4588877260684967 0.4588877260684967
0.5143892765045166 0.5143892765045166 0.5143892765045166
0.59117245674133301 0.59117245674133301 0.59117245674133301
0.67318493127822876 0.67318493127822876 0.67318493127822876
0.74260908365249634 0.74260908365249634 0.74260908365249634
0.79056465625762939 0.79056465625762939 0.79056465625762939
0.82310062646865845 0.82310062646865845 0.82310062646865845
0.84823626279830933 0.84823626279830933 0.84823626279830933
0.55997246503829956 0.55997246503829956 0.55997246503829956
0.55302977561950684 0.55302977561950684 0.55302977561950684
0.54347747564315796 0.54347747564315796 0.54347747564315796
0.5267224907875061 0.5267224907875061 0.5267224907875061
0.50981825590133667 0.50981825590133667 0.50981825590133667
0.51867538690567017 0.51867538690567017 0.51867538690567017
0.56818884611129761 0.56818884611129761 0.56818884611129761
0.63887357711791992 0.63887357711791992 0.63887357711791992
0.71157723665237427 0.71157723665237427 0.71157723665237427
0.77114957571029663 0.77114957571029663 0.77114957571029663
0.81304150819778442 0.81304150819778442 0.81304150819778442
0.8417733907699585 0.8417733907699585 0.8417733907699585
0.86423689126968384 0.86423689126968384 0.86423689126968384
0.65896719694137573 0.65896719694137573 0.65896719694137573
0.65141290426254272 0.65141290426254272 0.65141290426254272
0.64083534479141235 0.64083534479141235 0.64083534479141235
0.62582856416702271 0.62582856416702271 0.62582856416702271
0.61122685670852661 0.61122685670852661 0.61122685670852661
0.61445897817611694 0.61445897817611694 0.61445897817611694
0.64971143007278442 0.64971143007278442 0.64971143007278442
0.70581740140914917 0.70581740140914917 0.70581740140914917
0.76435571908950806 0.76435571908950806 0.76435571908950806
0.80916756391525269 0.80916756391525269 0.80916756391525269
0.839935302734375 0.839935302734375 0.839935302734375
0.8617749810218811 0.8617749810218811 0.8617749810218811
0.87953007221221924 0.87953007221221924 0.87953007221221924
0.75782942771911621 0.75782942771911621 0.75782942771911621
0.75150710344314575 0.75150710344314575 0.75150710344314575
0.7433476448059082 0.7433476448059082 0.7433476448059082
0.73546332120895386 0.73546332120895386 0.73546332120895386
0.72840279340744019 0.72840279340744019 0.72840279340744019
0.72712874412536621 0.72712874412536621 0.72712874412536621
0.74493855237960815 0.74493855237960815 0.74493855237960815
0.78030675649642944 0.78030675649642944 0.78030675649642944
0.81991487741470337 0.81991487741470337 0.81991487741470337
0.85052031278610229 0.85052031278610229 0.85052031278610229
0.87138116359710693 0.87138116359710693 0.87138116359710693
0.8858911395072937 0.8858911395072937 0.8858911395072937
0.89914721250534058 0.89914721250534058 0.89914721250534058
0.21192122995853424 0.21192122995853424 0.21192122995853424
0.21463334560394287 0.21463334560394287 0.21463334560394287
0.21940641105175018 0.21940641105175018 0.21940641105175018
0.22727313637733459 0.22727313637733459 0.22727313637733459
0.24027422070503235 0.24027422070503235 0.24027422070503235
0.25999978184700012 0.25999978184700012 0.25999978184700012
0.28732430934906006 0.28732430934906006 0.28732430934906006
0.32215359807014465 0.32215359807014465 0.32215359807014465
0.3653474748134613 0.3653474748134613 0.3653474748134613
0.41918572783470154 0.41918572783470154 0.41918572783470154
0.4841218888759613 0.4841218888759613 0.4841218888759613
0.55571722984313965 0.55571722984313965 0.55571722984313965
0.62720876932144165 0.62720876932144165 0.62720876932144165
0.21387431025505066 0.21387431025505066 0.21387431025505066
0.2176385372877121 0.2176385372877121 0.2176385372877121
0.22398792207241058 0.22398792207241058 0.22398792207241058
0.23392651975154877 0.23392651975154877 0.23392651975154877
0.24959239363670349 0.24959239363670349 0.24959239363670349
0.27165240049362183 0.27165240049362183 0.27165240049362183
0.29997983574867249 0.29997983574867249 0.29997983574867249
0.33474913239479065 0.33474913239479065 0.33474913239479065
0.37767285108566284 0.37767285108566284 0.37767285108566284
0.43198341131210327 0.43198341131210327 0.43198341131210327
0.49718990921974182 0.49718990921974182 0.49718990921974182
0.56915163993835449 0.56915163993835449 0.56915163993835449
0.64106225967407227 0.64106225967407227 0.64106225967407227
0.21897779405117035 0.21897779405117035 0.21897779405117035
0.2226996123790741 0.2226996123790741 0.2226996123790741
0.23059001564979553 0.23059001564979553 0.23059001564979553
0.24422983825206757 0.24422983825206757 0.24422983825206757
0.26544925570487976 0.26544925570487976 0.26544925570487976
0.29305964708328247 0.29305964708328247 0.29305964708328247
0.32392895221710205 0.32392895221710205 0.32392895221710205
0.35798338055610657 0.35798338055610657 0.35798338055610657
0.39941677451133728 0.39941677451133728 0.39941677451133728
0.45222502946853638 0.45222502946853638 0.45222502946853638
0.51641416549682617 0.51641416549682617 0.51641416549682617
0.58773541450500488 0.58773541450500488 0.58773541450500488
0.65930408239364624 0.65930408239364624 0.65930408239364624
0.22968302667140961 0.22968302667140961 0.22968302667140961
0.23213279247283936 0.23213279247283936 0.23213279247283936
0.24040384590625763 0.24040384590625763 0.24040384590625763
0.25787773728370667 0.25787773728370667 0.25787773728370667
0.28709650039672852 0.28709650039672852 0.28709650039672852
0.3247610330581665 0.3247610330581665 0.3247610330581665
0.36162039637565613 0.36162039637565613 0.36162039637565613
0.39504292607307434 0.39504292607307434 0.39504292607307434
0.43283751606941223 0.43283751606941223 0.43283751606941223
0.48167884349822998 0.48167884349822998 0.48167884349822998
0.5426403284072876 0.5426403284072876 0.5426403284072876
0.61232519149780273 0.61232519149780273 0.61232519149780273
0.6827777624130249 0.6827777624130249 0.6827777624130249
0.24825720489025116 0.24825720489025116 0.24825720489025116
0.24829427897930145 0.24829427897930145 0.24829427897930145
0.25494912266731262 0.25494912266731262 0.25494912266731262
0.27401229739189148 0.27401229739189148 0.27401229739189148
0.31140723824501038 0.31140723824501038 0.31140723824501038
0.36346113681793213 0.36346113681793213 0.36346113681793213
0.4120602011680603 0.4120602011680603 0.4120602011680603
0.44787123799324036 0.44787123799324036 0.44787123799324036
0.48209318518638611 0.48209318518638611 0.48209318518638611
0.52342826128005981 0.52342826128005981 0.52342826128005981
0.57811695337295532 0.57811695337295532 0.57811695337295532
0.64345759153366089 0.64345759153366089 0.64345759153366089
0.70959204435348511 0.70959204435348511 0.70959204435348511
0.2757011353969574 0.2757011353969574 0.2757011353969574
0.27235147356987 0.27235147356987 0.27235147356987
0.27498552203178406 0.27498552203178406 0.27498552203178406
0.29126733541488647 0.29126733541488647 0.29126733541488647
0.33187979459762573 0.33187979459762573 0.33187979459762573
0.39518970251083374 0.39518970251083374 0.39518970251083374
0.45897522568702698 0.45897522568702698 0.45897522568702698
0.50691455602645874 0.50691455602645874 0.50691455602645874
0.54463905096054077 0.54463905096054077 0.54463905096054077
0.58032459020614624 0.58032459020614624 0.58032459020614624
0.62642556428909302 0.62642556428909302 0.62642556428909302
0.6831246018409729 0.6831246018409729 0.6831246018409729
0.7395208477973938 0.7395208477973938 0.7395208477973938
0.31199207901954651 0.31199207901954651 0.31199207901954651
0.30534633994102478 0.30534633994102478 0.30534633994102478
0.30200487375259399 0.30200487375259399 0.30200487375259399
0.31086364388465881 0.31086364388465881 0.31086364388465881
0.34539932012557983 0.34539932012557983 0.34539932012557983
0.40784025192260742 0.40784025192260742 0.40784025192260742
0.48101446032524109 0.48101446032524109 0.48101446032524109
0.54813253879547119 0.54813253879547119 0.54813253879547119
0.60434305667877197 0.60434305667877197 0.60434305667877197
0.64815086126327515 0.64815086126327515 0.64815086126327515
0.68697905540466309 0.68697905540466309 0.68697905540466309
0.72981923818588257 0.72981923818588257 0.72981923818588257
0.77330571413040161 0.77330571413040161 0.77330571413040161
0.35788404941558838 0.35788404941558838 0.35788404941558838
0.34910997748374939 0.34910997748374939 0.34910997748374939
0.34087979793548584 0.34087979793548584 0.34087979793548584
0.33852598071098328 0.33852598071098328 0.33852598071098328
0.36069193482398987 0.36069193482398987 0.36069193482398987
0.41374802589416504 0.41374802589416504 0.41374802589416504
0.48546504974365234 0.48546504974365234 0.48546504974365234
0.56455355882644653 0.56455355882644653 0.56455355882644653
0.64209640026092529 0.64209640026092529 0.64209640026092529
0.70113080739974976 0.70113080739974976 0.70113080739974976
0.74001163244247437 0.74001163244247437 0.74001163244247437
0.7732398509979248 0.7732398509979248 0.7732398509979248
0.80553746223449707 0.80553746223449707 0.80553746223449707
0.41586825251579285 0.41586825251579285 0.41586825251579285
0.40796113014221191 0.40796113014221191 0.40796113014221191
0.39832022786140442 0.39832022786140442 0.39832022786140442
0.38857662677764893 0.38857662677764893 0.38857662677764893
0.39505261182785034 0.39505261182785034 0.39505261182785034
0.43102577328681946 0.43102577328681946 0.43102577328681946
0.49442839622497559 0.49442839622497559 0.49442839622497559
0.57545721530914307 0.57545721530914307 0.57545721530914307
0.66038018465042114 0.66038018465042114 0.66038018465042114
0.72883510589599609 0.72883510589599609 0.72883510589599609
0.7736661434173584 0.7736661434173584 0.7736661434173584
0.80511415004730225 0.80511415004730225 0.80511415004730225
0.83170807361602783 0.83170807361602783 0.83170807361602783
0.48890942335128784 0.48890942335128784 0.48890942335128784
0.48205852508544922 0.48205852508544922 0.48205852508544922
0.47319993376731873 0.47319993376731873 0.47319993376731873
0.45927774906158447 0.45927774906158447 0.45927774906158447
0.45034480094909668 0.45034480094909668 0.45034480094909668
0.46943795680999756 0.46943795680999756 0.46943795680999756
0.52241688966751099 0.52241688966751099 0.52241688966751099
0.59890580177307129 0.59890580177307129 0.59890580177307129
0.68010729551315308 0.68010729551315308 0.68010729551315308
0.74801504611968994 0.74801504611968994 0.74801504611968994
0.7950890064239502 0.7950890064239502 0.7950890064239502
0.82683515548706055 0.82683515548706055 0.82683515548706055
0.85124427080154419 0.85124427080154419 0.85124427080154419
0.57490640878677368 0.57490640878677368 0.57490640878677368
0.56793469190597534 0.56793469190597534 0.56793469190597534
0.55744200944900513 0.55744200944900513 0.55744200944900513
0.54019618034362793 0.54019618034362793 0.54019618034362793
0.52431648969650269 0.52431648969650269 0.52431648969650269
0.53260225057601929 0.53260225057601929 0.53260225057601929
0.57547962665557861 0.57547962665557861 0.57547962665557861
0.64241355657577515 0.64241355657577515 0.64241355657577515
0.71355783939361572 0.71355783939361572 0.71355783939361572
0.77313399314880371 0.77313399314880371 0.77313399314880371
0.8156706690788269 0.8156706690788269 0.8156706690788269
0.84469062089920044 0.84469062089920044 0.84469062089920044
0.8665088415145874 0.8665088415145874 0.8665088415145874
0.66872304677963257 0.66872304677963257 0.66872304677963257
0.66144603490829468 0.66144603490829468 0.66144603490829468
0.65018057823181152 0.65018057823181152 0.65018057823181152
0.63431781530380249 0.63431781530380249 0.63431781530380249
0.62013083696365356 0.62013083696365356 0.62013083696365356
0.6227383017539978 0.6227383017539978 0.6227383017539978
0.65346932411193848 0.65346932411193848 0.65346932411193848
0.70507341623306274 0.70507341623306274 0.70507341623306274
0.76090425252914429 0.76090425252914429 0.76090425252914429
0.80721050500869751 0.80721050500869751 0.80721050500869751
0.84042412042617798 0.84042412042617798 0.84042412042617798
0.86356186866760254 0.86356186866760254 0.86356186866760254
0.88197386264801025 0.88197386264801025 0.88197386264801025
0.76305413246154785 0.76305413246154785 0.76305413246154785
0.75671160221099854 0.75671160221099854 0.75671160221099854
0.74764436483383179 0.74764436483383179 0.74764436483383179
0.73690760135650635 0.73690760135650635 0.73690760135650635
0.72736811637878418 0.72736811637878418 0.72736811637878418
0.72662711143493652 0.72662711143493652 0.72662711143493652
0.74349486827850342 0.74349486827850342 0.74349486827850342
0.7766575813293457 0.7766575813293457 0.7766575813293457
0.81495183706283569 0.81495183706283569 0.81495183706283569
0.84682691097259521 0.84682691097259521 0.84682691097259521
0.86992943286895752 0.86992943286895752 0.86992943286895752
0.88642591238021851 0.88642591238021851 0.88642591238021851
0.90073859691619873 0.90073859691619873 0.90073859691619873
0.21607318520545959 0.21607318520545959 0.21607318520545959
0.22076223790645599 0.22076223790645599 0.22076223790645599
0.22707739472389221 0.22707739472389221 0.22707739472389221
0.23482482135295868 0.23482482135295868 0.23482482135295868
0.2474924623966217 0.2474924623966217 0.2474924623966217
0.26832681894302368 0.26832681894302368 0.26832681894302368
0.29828894138336182 0.29828894138336182 0.29828894138336182
0.3358137309551239 0.3358137309551239 0.3358137309551239
0.37898364663124084 0.37898364663124084 0.37898364663124084
0.43052870035171509 0.43052870035171509 0.43052870035171509
0.49401921033859253 0.49401921033859253 0.49401921033859253
0.56250810623168945 0.56250810623168945 0.56250810623168945
0.6303175687789917 0.6303175687789917 0.6303175687789917
0.2197631299495697 0.2197631299495697 0.2197631299495697
0.22549709677696228 0.22549709677696228 0.22549709677696228
0.23326234519481659 0.23326234519481659 0.23326234519481659
0.24237784743309021 0.24237784743309021 0.24237784743309021
0.25721758604049683 0.25721758604049683 0.25721758604049683
0.28022831678390503 0.28022831678390503 0.28022831678390503
0.31098371744155884 0.31098371744155884 0.31098371744155884
0.34824681282043457 0.34824681282043457 0.34824681282043457
0.39263397455215454 0.39263397455215454 0.39263397455215454
0.44553962349891663 0.44553962349891663 0.44553962349891663
0.50888490676879883 0.50888490676879883 0.50888490676879883
0.57780051231384277 0.57780051231384277 0.57780051231384277
0.64617538452148438 0.64617538452148438 0.64617538452148438
0.22717337310314178 0.22717337310314178 0.22717337310314178
0.23237195611000061 0.23237195611000061 0.23237195611000061
0.24061761796474457 0.24061761796474457 0.24061761796474457
0.25293099880218506 0.25293099880218506 0.25293099880218506
0.27311694622039795 0.27311694622039795 0.27311694622039795
0.3017125129699707 0.3017125129699707 0.3017125129699707
0.33535605669021606 0.33535605669021606 0.33535605669021606
0.37243488430976868 0.37243488430976868 0.37243488430976868
0.41498616337776184 0.41498616337776184 0.41498616337776184
0.46646964550018311 0.46646964550018311 0.46646964550018311
0.5285341739654541 0.5285341739654541 0.5285341739654541
0.59730291366577148 0.59730291366577148 0.59730291366577148
0.66614091396331787 0.66614091396331787 0.66614091396331787
0.24159671366214752 0.24159671366214752 0.24159671366214752
0.2448820173740387 0.2448820173740387 0.2448820173740387
0.25208684802055359 0.25208684802055359 0.25208684802055359
0.26669877767562866 0.26669877767562866 0.26669877767562866
0.29382279515266418 0.29382279515266418 0.29382279515266418
0.33240664005279541 0.33240664005279541 0.33240664005279541
0.37249812483787537 0.37249812483787537 0.37249812483787537
0.40933138132095337 0.40933138132095337 0.40933138132095337
0.44789958000183105 0.44789958000183105 0.44789958000183105
0.49488180875778198 0.49488180875778198 0.49488180875778198
0.55351048707962036 0.55351048707962036 0.55351048707962036
0.62098795175552368 0.62098795175552368 0.62098795175552368
0.68944853544235229 0.68944853544235229 0.68944853544235229
0.26693829894065857 0.26693829894065857 0.26693829894065857
0.26711401343345642 0.26711401343345642 0.26711401343345642
0.27092382311820984 0.27092382311820984 0.27092382311820984
0.28399592638015747 0.28399592638015747 0.28399592638015747
0.31672647595405579 0.31672647595405579 0.31672647595405579
0.36897650361061096 0.36897650361061096 0.36897650361061096
0.42026323080062866 0.42026323080062866 0.42026323080062866
0.45890811085700989 0.45890811085700989 0.45890811085700989
0.49449536204338074 0.49449536204338074 0.49449536204338074
