luts/instant_pro/fuji_fp-3000b_negative_-.cube
# Created by: G'MIC (https://gmic.eu)
TITLE "fuji_fp-3000b_negative_-"
# LUT size
LUT_3D_SIZE 13
# Data domain
DOMAIN_MIN 0.0 0.0 0.0
DOMAIN_MAX 1.0 1.0 1.0
# LUT data points
0.042409680783748627 0.042409680783748627 0.042409680783748627
0.046838782727718353 0.046838782727718353 0.046838782727718353
0.063037127256393433 0.063037127256393433 0.063037127256393433
0.094859778881072998 0.094859778881072998 0.094859778881072998
0.14231899380683899 0.14231899380683899 0.14231899380683899
0.20168893039226532 0.20168893039226532 0.20168893039226532
0.26587995886802673 0.26587995886802673 0.26587995886802673
0.3301653265953064 0.3301653265953064 0.3301653265953064
0.39369404315948486 0.39369404315948486 0.39369404315948486
0.45832142233848572 0.45832142233848572 0.45832142233848572
0.5251617431640625 0.5251617431640625 0.5251617431640625
0.59280514717102051 0.59280514717102051 0.59280514717102051
0.65828359127044678 0.65828359127044678 0.65828359127044678
0.063193179666996002 0.063193179666996002 0.063193179666996002
0.066821441054344177 0.066821441054344177 0.066821441054344177
0.082929827272891998 0.082929827272891998 0.082929827272891998
0.11509275436401367 0.11509275436401367 0.11509275436401367
0.1631733626127243 0.1631733626127243 0.1631733626127243
0.22286933660507202 0.22286933660507202 0.22286933660507202
0.2877255380153656 0.2877255380153656 0.2877255380153656
0.35193836688995361 0.35193836688995361 0.35193836688995361
0.41462582349777222 0.41462582349777222 0.41462582349777222
0.4774324893951416 0.4774324893951416 0.4774324893951416
0.54151612520217896 0.54151612520217896 0.54151612520217896
0.60606378316879272 0.60606378316879272 0.60606378316879272
0.66867619752883911 0.66867619752883911 0.66867619752883911
0.10062777996063232 0.10062777996063232 0.10062777996063232
0.10206303000450134 0.10206303000450134 0.10206303000450134
0.11652626842260361 0.11652626842260361 0.11652626842260361
0.14722403883934021 0.14722403883934021 0.14722403883934021
0.19403569400310516 0.19403569400310516 0.19403569400310516
0.25273466110229492 0.25273466110229492 0.25273466110229492
0.31669521331787109 0.31669521331787109 0.31669521331787109
0.37980473041534424 0.37980473041534424 0.37980473041534424
0.44025337696075439 0.44025337696075439 0.44025337696075439
0.50008517503738403 0.50008517503738403 0.50008517503738403
0.5609736442565918 0.5609736442565918 0.5609736442565918
0.62102878093719482 0.62102878093719482 0.62102878093719482
0.68044555187225342 0.68044555187225342 0.68044555187225342
0.15600867569446564 0.15600867569446564 0.15600867569446564
0.15329557657241821 0.15329557657241821 0.15329557657241821
0.16396936774253845 0.16396936774253845 0.16396936774253845
0.19132065773010254 0.19132065773010254 0.19132065773010254
0.23423554003238678 0.23423554003238678 0.23423554003238678
0.28942924737930298 0.28942924737930298 0.28942924737930298
0.35141721367835999 0.35141721367835999 0.35141721367835999
0.41154462099075317 0.41154462099075317 0.41154462099075317
0.46822464466094971 0.46822464466094971 0.46822464466094971
0.52495992183685303 0.52495992183685303 0.52495992183685303
0.5819665789604187 0.5819665789604187 0.5819665789604187
0.63946080207824707 0.63946080207824707 0.63946080207824707
0.69572710990905762 0.69572710990905762 0.69572710990905762
0.22541780769824982 0.22541780769824982 0.22541780769824982
0.22078195214271545 0.22078195214271545 0.22078195214271545
0.22612251341342926 0.22612251341342926 0.22612251341342926
0.24662397801876068 0.24662397801876068 0.24662397801876068
0.28220948576927185 0.28220948576927185 0.28220948576927185
0.33043187856674194 0.33043187856674194 0.33043187856674194
0.38643890619277954 0.38643890619277954 0.38643890619277954
0.44245719909667969 0.44245719909667969 0.44245719909667969
0.49635025858879089 0.49635025858879089 0.49635025858879089
0.55047416687011719 0.55047416687011719 0.55047416687011719
0.60533028841018677 0.60533028841018677 0.60533028841018677
0.65977627038955688 0.65977627038955688 0.65977627038955688
0.71363985538482666 0.71363985538482666 0.71363985538482666
0.30201160907745361 0.30201160907745361 0.30201160907745361
0.29663929343223572 0.29663929343223572 0.29663929343223572
0.29715803265571594 0.29715803265571594 0.29715803265571594
0.30937182903289795 0.30937182903289795 0.30937182903289795
0.3353080153465271 0.3353080153465271 0.3353080153465271
0.37436383962631226 0.37436383962631226 0.37436383962631226
0.42195099592208862 0.42195099592208862 0.42195099592208862
0.47300893068313599 0.47300893068313599 0.47300893068313599
0.52477538585662842 0.52477538585662842 0.52477538585662842
0.57721441984176636 0.57721441984176636 0.57721441984176636
0.6299784779548645 0.6299784779548645 0.6299784779548645
0.68242824077606201 0.68242824077606201 0.68242824077606201
0.73376023769378662 0.73376023769378662 0.73376023769378662
0.38031414151191711 0.38031414151191711 0.38031414151191711
0.37388679385185242 0.37388679385185242 0.37388679385185242
0.37010031938552856 0.37010031938552856 0.37010031938552856
0.37517771124839783 0.37517771124839783 0.37517771124839783
0.39212161302566528 0.39212161302566528 0.39212161302566528
0.42186686396598816 0.42186686396598816 0.42186686396598816
0.46170240640640259 0.46170240640640259 0.46170240640640259
0.50756633281707764 0.50756633281707764 0.50756633281707764
0.55639922618865967 0.55639922618865967 0.55639922618865967
0.60628706216812134 0.60628706216812134 0.60628706216812134
0.65691310167312622 0.65691310167312622 0.65691310167312622
0.70709186792373657 0.70709186792373657 0.70709186792373657
0.7559705376625061 0.7559705376625061 0.7559705376625061
0.4591582715511322 0.4591582715511322 0.4591582715511322
0.45156082510948181 0.45156082510948181 0.45156082510948181
0.44463703036308289 0.44463703036308289 0.44463703036308289
0.4432673454284668 0.4432673454284668 0.4432673454284668
0.45232993364334106 0.45232993364334106 0.45232993364334106
0.47484764456748962 0.47484764456748962 0.47484764456748962
0.50810086727142334 0.50810086727142334 0.50810086727142334
0.54874813556671143 0.54874813556671143 0.54874813556671143
0.59296673536300659 0.59296673536300659 0.59296673536300659
0.63954490423202515 0.63954490423202515 0.63954490423202515
0.68666434288024902 0.68666434288024902 0.68666434288024902
0.73376590013504028 0.73376590013504028 0.73376590013504028
0.77969175577163696 0.77969175577163696 0.77969175577163696
0.53877085447311401 0.53877085447311401 0.53877085447311401
0.53054916858673096 0.53054916858673096 0.53054916858673096
0.52142184972763062 0.52142184972763062 0.52142184972763062
0.51545488834381104 0.51545488834381104 0.51545488834381104
0.51858091354370117 0.51858091354370117 0.51858091354370117
0.53536182641983032 0.53536182641983032 0.53536182641983032
0.56295347213745117 0.56295347213745117 0.56295347213745117
0.59751492738723755 0.59751492738723755 0.59751492738723755
0.63659924268722534 0.63659924268722534 0.63659924268722534
0.6778760552406311 0.6778760552406311 0.6778760552406311
0.71989661455154419 0.71989661455154419 0.71989661455154419
0.76292431354522705 0.76292431354522705 0.76292431354522705
0.80499637126922607 0.80499637126922607 0.80499637126922607
0.61945235729217529 0.61945235729217529 0.61945235729217529
0.61161744594573975 0.61161744594573975 0.61161744594573975
0.6023138165473938 0.6023138165473938 0.6023138165473938
0.59483271837234497 0.59483271837234497 0.59483271837234497
0.59487026929855347 0.59487026929855347 0.59487026929855347
0.60646748542785645 0.60646748542785645 0.60646748542785645
0.62718290090560913 0.62718290090560913 0.62718290090560913
0.65449649095535278 0.65449649095535278 0.65449649095535278
0.68623042106628418 0.68623042106628418 0.68623042106628418
0.72076475620269775 0.72076475620269775 0.72076475620269775
0.75695687532424927 0.75695687532424927 0.75695687532424927
0.79481059312820435 0.79481059312820435 0.79481059312820435
0.83245468139648438 0.83245468139648438 0.83245468139648438
0.70070517063140869 0.70070517063140869 0.70070517063140869
0.6942136287689209 0.6942136287689209 0.6942136287689209
0.68637454509735107 0.68637454509735107 0.68637454509735107
0.67998027801513672 0.67998027801513672 0.67998027801513672
0.67872488498687744 0.67872488498687744 0.67872488498687744
0.68503236770629883 0.68503236770629883 0.68503236770629883
0.69841349124908447 0.69841349124908447 0.69841349124908447
0.71781247854232788 0.71781247854232788 0.71781247854232788
0.7418137788772583 0.7418137788772583 0.7418137788772583
0.76901590824127197 0.76901590824127197 0.76901590824127197
0.79847055673599243 0.79847055673599243 0.79847055673599243
0.82975143194198608 0.82975143194198608 0.82975143194198608
0.86236369609832764 0.86236369609832764 0.86236369609832764
0.78072571754455566 0.78072571754455566 0.78072571754455566
0.77618998289108276 0.77618998289108276 0.77618998289108276
0.77014386653900146 0.77014386653900146 0.77014386653900146
0.76524186134338379 0.76524186134338379 0.76524186134338379
0.7637174129486084 0.7637174129486084 0.7637174129486084
0.76625263690948486 0.76625263690948486 0.76625263690948486
0.77311623096466064 0.77311623096466064 0.77311623096466064
0.7845916748046875 0.7845916748046875 0.7845916748046875
0.80014497041702271 0.80014497041702271 0.80014497041702271
0.82019871473312378 0.82019871473312378 0.82019871473312378
0.8429795503616333 0.8429795503616333 0.8429795503616333
0.86802119016647339 0.86802119016647339 0.86802119016647339
0.89532512426376343 0.89532512426376343 0.89532512426376343
0.85720115900039673 0.85720115900039673 0.85720115900039673
0.85419636964797974 0.85419636964797974 0.85419636964797974
0.84990608692169189 0.84990608692169189 0.84990608692169189
0.84641391038894653 0.84641391038894653 0.84641391038894653
0.84512549638748169 0.84512549638748169 0.84512549638748169
0.84472548961639404 0.84472548961639404 0.84472548961639404
0.84634244441986084 0.84634244441986084 0.84634244441986084
0.85142397880554199 0.85142397880554199 0.85142397880554199
0.8605726957321167 0.8605726957321167 0.8605726957321167
0.87427622079849243 0.87427622079849243 0.87427622079849243
0.89047503471374512 0.89047503471374512 0.89047503471374512
0.90953421592712402 0.90953421592712402 0.90953421592712402
0.93171656131744385 0.93171656131744385 0.93171656131744385
0.063642807304859161 0.063642807304859161 0.063642807304859161
0.068113721907138824 0.068113721907138824 0.068113721907138824
0.082901433110237122 0.082901433110237122 0.082901433110237122
0.11273299902677536 0.11273299902677536 0.11273299902677536
0.16010139882564545 0.16010139882564545 0.16010139882564545
0.22009129822254181 0.22009129822254181 0.22009129822254181
0.28392884135246277 0.28392884135246277 0.28392884135246277
0.34492045640945435 0.34492045640945435 0.34492045640945435
0.40335279703140259 0.40335279703140259 0.40335279703140259
0.46425533294677734 0.46425533294677734 0.46425533294677734
0.52908259630203247 0.52908259630203247 0.52908259630203247
0.59481328725814819 0.59481328725814819 0.59481328725814819
0.65846890211105347 0.65846890211105347 0.65846890211105347
0.08188127726316452 0.08188127726316452 0.08188127726316452
0.086851097643375397 0.086851097643375397 0.086851097643375397
0.10222414880990982 0.10222414880990982 0.10222414880990982
0.13245856761932373 0.13245856761932373 0.13245856761932373
0.17920248210430145 0.17920248210430145 0.17920248210430145
0.2383279949426651 0.2383279949426651 0.2383279949426651
0.30177411437034607 0.30177411437034607 0.30177411437034607
0.36299422383308411 0.36299422383308411 0.36299422383308411
0.42239558696746826 0.42239558696746826 0.42239558696746826
0.48216012120246887 0.48216012120246887 0.48216012120246887
0.54422628879547119 0.54422628879547119 0.54422628879547119
0.60689061880111694 0.60689061880111694 0.60689061880111694
0.66785389184951782 0.66785389184951782 0.66785389184951782
0.12126808613538742 0.12126808613538742 0.12126808613538742
0.12436836212873459 0.12436836212873459 0.12436836212873459
0.13671845197677612 0.13671845197677612 0.13671845197677612
0.16377928853034973 0.16377928853034973 0.16377928853034973
0.20798484981060028 0.20798484981060028 0.20798484981060028
0.26444488763809204 0.26444488763809204 0.26444488763809204
0.32635205984115601 0.32635205984115601 0.32635205984115601
0.38718721270561218 0.38718721270561218 0.38718721270561218
0.44586637616157532 0.44586637616157532 0.44586637616157532
0.50397151708602905 0.50397151708602905 0.50397151708602905
0.56281584501266479 0.56281584501266479 0.56281584501266479
0.62185972929000854 0.62185972929000854 0.62185972929000854
0.68029689788818359 0.68029689788818359 0.68029689788818359
0.1843695193529129 0.1843695193529129 0.1843695193529129
0.18332019448280334 0.18332019448280334 0.18332019448280334
0.18812426924705505 0.18812426924705505 0.18812426924705505
0.20825040340423584 0.20825040340423584 0.20825040340423584
0.24651333689689636 0.24651333689689636 0.24651333689689636
0.29867073893547058 0.29867073893547058 0.29867073893547058
0.35697430372238159 0.35697430372238159 0.35697430372238159
0.41532108187675476 0.41532108187675476 0.41532108187675476
0.47178441286087036 0.47178441286087036 0.47178441286087036
0.52786386013031006 0.52786386013031006 0.52786386013031006
0.58418488502502441 0.58418488502502441 0.58418488502502441
0.64007782936096191 0.64007782936096191 0.64007782936096191
0.6963379979133606 0.6963379979133606 0.6963379979133606
0.26005169749259949 0.26005169749259949 0.26005169749259949
0.25511544942855835 0.25511544942855835 0.25511544942855835
0.25291407108306885 0.25291407108306885 0.25291407108306885
0.26464399695396423 0.26464399695396423 0.26464399695396423
0.29421940445899963 0.29421940445899963 0.29421940445899963
0.33819085359573364 0.33819085359573364 0.33819085359573364
0.39037275314331055 0.39037275314331055 0.39037275314331055
0.44467228651046753 0.44467228651046753 0.44467228651046753
0.4985206127166748 0.4985206127166748 0.4985206127166748
0.55279827117919922 0.55279827117919922 0.55279827117919922
0.60731154680252075 0.60731154680252075 0.60731154680252075
0.66169661283493042 0.66169661283493042 0.66169661283493042
0.71499669551849365 0.71499669551849365 0.71499669551849365
0.33582636713981628 0.33582636713981628 0.33582636713981628
0.32920262217521667 0.32920262217521667 0.32920262217521667
0.32339903712272644 0.32339903712272644 0.32339903712272644
0.32802116870880127 0.32802116870880127 0.32802116870880127
0.34793487191200256 0.34793487191200256 0.34793487191200256
0.38161548972129822 0.38161548972129822 0.38161548972129822
0.4256838858127594 0.4256838858127594 0.4256838858127594
0.47498884797096252 0.47498884797096252 0.47498884797096252
0.52646327018737793 0.52646327018737793 0.52646327018737793
0.57894456386566162 0.57894456386566162 0.57894456386566162
0.63201606273651123 0.63201606273651123 0.63201606273651123
0.68477934598922729 0.68477934598922729 0.68477934598922729
0.73628848791122437 0.73628848791122437 0.73628848791122437
0.4114736020565033 0.4114736020565033 0.4114736020565033
0.40336740016937256 0.40336740016937256 0.40336740016937256
0.39494472742080688 0.39494472742080688 0.39494472742080688
0.393453449010849 0.393453449010849 0.393453449010849
0.40401622653007507 0.40401622653007507 0.40401622653007507
0.42855271697044373 0.42855271697044373 0.42855271697044373
0.46490940451622009 0.46490940451622009 0.46490940451622009
0.5091366171836853 0.5091366171836853 0.5091366171836853
0.55733883380889893 0.55733883380889893 0.55733883380889893
0.60778939723968506 0.60778939723968506 0.60778939723968506
0.65882569551467896 0.65882569551467896 0.65882569551467896
0.70978814363479614 0.70978814363479614 0.70978814363479614
0.75921493768692017 0.75921493768692017 0.75921493768692017
0.4870811402797699 0.4870811402797699 0.4870811402797699
0.47772839665412903 0.47772839665412903 0.47772839665412903
0.46692019701004028 0.46692019701004028 0.46692019701004028
0.45998510718345642 0.45998510718345642 0.45998510718345642
0.46296277642250061 0.46296277642250061 0.46296277642250061
0.48039442300796509 0.48039442300796509 0.48039442300796509
0.51062381267547607 0.51062381267547607 0.51062381267547607
0.54953795671463013 0.54953795671463013 0.54953795671463013
0.59353703260421753 0.59353703260421753 0.59353703260421753
0.64042586088180542 0.64042586088180542 0.64042586088180542
0.68857038021087646 0.68857038021087646 0.68857038021087646
0.73653143644332886 0.73653143644332886 0.73653143644332886
0.7830929160118103 0.7830929160118103 0.7830929160118103
0.56291204690933228 0.56291204690933228 0.56291204690933228
0.55325818061828613 0.55325818061828613 0.55325818061828613
0.54095602035522461 0.54095602035522461 0.54095602035522461
0.5299677848815918 0.5299677848815918 0.5299677848815918
0.52737993001937866 0.52737993001937866 0.52737993001937866
0.54012429714202881 0.54012429714202881 0.54012429714202881
0.56493818759918213 0.56493818759918213 0.56493818759918213
0.59810960292816162 0.59810960292816162 0.59810960292816162
0.6368677020072937 0.6368677020072937 0.6368677020072937
0.67832094430923462 0.67832094430923462 0.67832094430923462
0.7216799259185791 0.7216799259185791 0.7216799259185791
0.76516473293304443 0.76516473293304443 0.76516473293304443
0.80802589654922485 0.80802589654922485 0.80802589654922485
0.64000886678695679 0.64000886678695679 0.64000886678695679
0.63111680746078491 0.63111680746078491 0.63111680746078491
0.61891210079193115 0.61891210079193115 0.61891210079193115
0.60755473375320435 0.60755473375320435 0.60755473375320435
0.60269284248352051 0.60269284248352051 0.60269284248352051
0.61074364185333252 0.61074364185333252 0.61074364185333252
0.62913751602172852 0.62913751602172852 0.62913751602172852
0.65526372194290161 0.65526372194290161 0.65526372194290161
0.68671572208404541 0.68671572208404541 0.68671572208404541
0.72161000967025757 0.72161000967025757 0.72161000967025757
0.75863778591156006 0.75863778591156006 0.75863778591156006
0.79660314321517944 0.79660314321517944 0.79660314321517944
0.8346361517906189 0.8346361517906189 0.8346361517906189
0.71761643886566162 0.71761643886566162 0.71761643886566162
0.71020787954330444 0.71020787954330444 0.71020787954330444
0.70023459196090698 0.70023459196090698 0.70023459196090698
0.69070148468017578 0.69070148468017578 0.69070148468017578
0.6860472559928894 0.6860472559928894 0.6860472559928894
0.68932771682739258 0.68932771682739258 0.68932771682739258
0.70072829723358154 0.70072829723358154 0.70072829723358154
0.71894770860671997 0.71894770860671997 0.71894770860671997
0.74244898557662964 0.74244898557662964 0.74244898557662964
0.76968228816986084 0.76968228816986084 0.76968228816986084
0.7996177077293396 0.7996177077293396 0.7996177077293396
0.83126884698867798 0.83126884698867798 0.83126884698867798
0.86391347646713257 0.86391347646713257 0.86391347646713257
0.79390686750411987 0.79390686750411987 0.79390686750411987
0.78864496946334839 0.78864496946334839 0.78864496946334839
0.78135406970977783 0.78135406970977783 0.78135406970977783
0.77406138181686401 0.77406138181686401 0.77406138181686401
0.76971018314361572 0.76971018314361572 0.76971018314361572
0.76989316940307617 0.76989316940307617 0.76989316940307617
0.77524650096893311 0.77524650096893311 0.77524650096893311
0.78603136539459229 0.78603136539459229 0.78603136539459229
0.80191648006439209 0.80191648006439209 0.80191648006439209
0.82132834196090698 0.82132834196090698 0.82132834196090698
0.84407073259353638 0.84407073259353638 0.84407073259353638
0.86923646926879883 0.86923646926879883 0.86923646926879883
0.89660221338272095 0.89660221338272095 0.89660221338272095
0.86686837673187256 0.86686837673187256 0.86686837673187256
0.86367309093475342 0.86367309093475342 0.86367309093475342
0.8584863543510437 0.8584863543510437 0.8584863543510437
0.8531830906867981 0.8531830906867981 0.8531830906867981
0.84921610355377197 0.84921610355377197 0.84921610355377197
0.84748423099517822 0.84748423099517822 0.84748423099517822
0.84804189205169678 0.84804189205169678 0.84804189205169678
0.85280352830886841 0.85280352830886841 0.85280352830886841
0.8618808388710022 0.8618808388710022 0.8618808388710022
0.87475818395614624 0.87475818395614624 0.87475818395614624
0.89115077257156372 0.89115077257156372 0.89115077257156372
0.91049098968505859 0.91049098968505859 0.91049098968505859
0.93284106254577637 0.93284106254577637 0.93284106254577637
0.1003643125295639 0.1003643125295639 0.1003643125295639
0.10813411325216293 0.10813411325216293 0.10813411325216293
0.12386863678693771 0.12386863678693771 0.12386863678693771
0.15116843581199646 0.15116843581199646 0.15116843581199646
0.19456736743450165 0.19456736743450165 0.19456736743450165
0.25092566013336182 0.25092566013336182 0.25092566013336182
0.31273850798606873 0.31273850798606873 0.31273850798606873
0.36799994111061096 0.36799994111061096 0.36799994111061096
0.41933134198188782 0.41933134198188782 0.41933134198188782
0.4757518470287323 0.4757518470287323 0.4757518470287323
0.53790789842605591 0.53790789842605591 0.53790789842605591
0.60017961263656616 0.60017961263656616 0.60017961263656616
0.66078037023544312 0.66078037023544312 0.66078037023544312
0.1118161529302597 0.1118161529302597 0.1118161529302597
0.12175409495830536 0.12175409495830536 0.12175409495830536
0.14010763168334961 0.14010763168334961 0.14010763168334961
0.16887876391410828 0.16887876391410828 0.16887876391410828
0.21132972836494446 0.21132972836494446 0.21132972836494446
0.26514604687690735 0.26514604687690735 0.26514604687690735
0.32458224892616272 0.32458224892616272 0.32458224892616272
0.38122278451919556 0.38122278451919556 0.38122278451919556
0.43576103448867798 0.43576103448867798 0.43576103448867798
0.49256917834281921 0.49256917834281921 0.49256917834281921
0.55106908082962036 0.55106908082962036 0.55106908082962036
0.6102367639541626 0.6102367639541626 0.6102367639541626
0.66870653629302979 0.66870653629302979 0.66870653629302979
0.14658544957637787 0.14658544957637787 0.14658544957637787
0.15568912029266357 0.15568912029266357 0.15568912029266357
0.16985003650188446 0.16985003650188446 0.16985003650188446
0.19455944001674652 0.19455944001674652 0.19455944001674652
0.23487107455730438 0.23487107455730438 0.23487107455730438
0.28661623597145081 0.28661623597145081 0.28661623597145081
0.34297436475753784 0.34297436475753784 0.34297436475753784
0.40001937747001648 0.40001937747001648 0.40001937747001648
0.45605206489562988 0.45605206489562988 0.45605206489562988
0.51243358850479126 0.51243358850479126 0.51243358850479126
0.56875789165496826 0.56875789165496826 0.56875789165496826
0.62499386072158813 0.62499386072158813 0.62499386072158813
0.68102008104324341 0.68102008104324341 0.68102008104324341
0.21383295953273773 0.21383295953273773 0.21383295953273773
0.21718563139438629 0.21718563139438629 0.21718563139438629
0.21908842027187347 0.21908842027187347 0.21908842027187347
0.23434734344482422 0.23434734344482422 0.23434734344482422
0.26885294914245605 0.26885294914245605 0.26885294914245605
0.31627669930458069 0.31627669930458069 0.31627669930458069
0.36898523569107056 0.36898523569107056 0.36898523569107056
0.42393562197685242 0.42393562197685242 0.42393562197685242
0.47942569851875305 0.47942569851875305 0.47942569851875305
0.53459274768829346 0.53459274768829346 0.53459274768829346
0.5893179178237915 0.5893179178237915 0.5893179178237915
0.64378541707992554 0.64378541707992554 0.64378541707992554
0.69793981313705444 0.69793981313705444 0.69793981313705444
0.29508492350578308 0.29508492350578308 0.29508492350578308
0.29217755794525146 0.29217755794525146 0.29217755794525146
0.28475341200828552 0.28475341200828552 0.28475341200828552
0.29067212343215942 0.29067212343215942 0.29067212343215942
0.31511938571929932 0.31511938571929932 0.31511938571929932
0.35351911187171936 0.35351911187171936 0.35351911187171936
0.40023383498191833 0.40023383498191833 0.40023383498191833
0.45116376876831055 0.45116376876831055 0.45116376876831055
