luts/instant_pro/fuji_fp-3000b_--.cube
# Created by: G'MIC (https://gmic.eu)
TITLE "fuji_fp-3000b_--"
# LUT size
LUT_3D_SIZE 7
# Data domain
DOMAIN_MIN 0.0 0.0 0.0
DOMAIN_MAX 1.0 1.0 1.0
# LUT data points
0.030639259144663811 0.030639259144663811 0.030639259144663811
0.11868084222078323 0.11868084222078323 0.11868084222078323
0.21530476212501526 0.21530476212501526 0.21530476212501526
0.30768147110939026 0.30768147110939026 0.30768147110939026
0.41552051901817322 0.41552051901817322 0.41552051901817322
0.52504825592041016 0.52504825592041016 0.52504825592041016
0.63887655735015869 0.63887655735015869 0.63887655735015869
0.10094541311264038 0.10094541311264038 0.10094541311264038
0.18661783635616302 0.18661783635616302 0.18661783635616302
0.28887790441513062 0.28887790441513062 0.28887790441513062
0.36068472266197205 0.36068472266197205 0.36068472266197205
0.45330557227134705 0.45330557227134705 0.45330557227134705
0.55278843641281128 0.55278843641281128 0.55278843641281128
0.65815019607543945 0.65815019607543945 0.65815019607543945
0.23335222899913788 0.23335222899913788 0.23335222899913788
0.24255342781543732 0.24255342781543732 0.24255342781543732
0.3711945116519928 0.3711945116519928 0.3711945116519928
0.46957153081893921 0.46957153081893921 0.46957153081893921
0.53145134449005127 0.53145134449005127 0.53145134449005127
0.60375243425369263 0.60375243425369263 0.60375243425369263
0.69231593608856201 0.69231593608856201 0.69231593608856201
0.3404790461063385 0.3404790461063385 0.3404790461063385
0.32759064435958862 0.32759064435958862 0.32759064435958862
0.38947433233261108 0.38947433233261108 0.38947433233261108
0.52088010311126709 0.52088010311126709 0.52088010311126709
0.6180538535118103 0.6180538535118103 0.6180538535118103
0.67551946640014648 0.67551946640014648 0.67551946640014648
0.7425234317779541 0.7425234317779541 0.7425234317779541
0.43447571992874146 0.43447571992874146 0.43447571992874146
0.42346537113189697 0.42346537113189697 0.42346537113189697
0.44949844479560852 0.44949844479560852 0.44949844479560852
0.54262691736221313 0.54262691736221313 0.54262691736221313
0.66726219654083252 0.66726219654083252 0.66726219654083252
0.75104826688766479 0.75104826688766479 0.75104826688766479
0.81046211719512939 0.81046211719512939 0.81046211719512939
0.57220327854156494 0.57220327854156494 0.57220327854156494
0.56134754419326782 0.56134754419326782 0.56134754419326782
0.54919135570526123 0.54919135570526123 0.54919135570526123
0.58894079923629761 0.58894079923629761 0.58894079923629761
0.7079957127571106 0.7079957127571106 0.7079957127571106
0.80797231197357178 0.80797231197357178 0.80797231197357178
0.87314152717590332 0.87314152717590332 0.87314152717590332
0.75337594747543335 0.75337594747543335 0.75337594747543335
0.74859040975570679 0.74859040975570679 0.74859040975570679
0.7327306866645813 0.7327306866645813 0.7327306866645813
0.7287747859954834 0.7287747859954834 0.7287747859954834
0.80994242429733276 0.80994242429733276 0.80994242429733276
0.88618874549865723 0.88618874549865723 0.88618874549865723
0.93964076042175293 0.93964076042175293 0.93964076042175293
0.11698180437088013 0.11698180437088013 0.11698180437088013
0.18323685228824615 0.18323685228824615 0.18323685228824615
0.26246988773345947 0.26246988773345947 0.26246988773345947
0.35805538296699524 0.35805538296699524 0.35805538296699524
0.45255190134048462 0.45255190134048462 0.45255190134048462
0.53769493103027344 0.53769493103027344 0.53769493103027344
0.63377338647842407 0.63377338647842407 0.63377338647842407
0.19576720893383026 0.19576720893383026 0.19576720893383026
0.22992642223834991 0.22992642223834991 0.22992642223834991
0.31069231033325195 0.31069231033325195 0.31069231033325195
0.38834401965141296 0.38834401965141296 0.38834401965141296
0.46912622451782227 0.46912622451782227 0.46912622451782227
0.55911111831665039 0.55911111831665039 0.55911111831665039
0.65891760587692261 0.65891760587692261 0.65891760587692261
0.3157564103603363 0.3157564103603363 0.3157564103603363
0.30768448114395142 0.30768448114395142 0.30768448114395142
0.38027232885360718 0.38027232885360718 0.38027232885360718
0.47267505526542664 0.47267505526542664 0.47267505526542664
0.52710139751434326 0.52710139751434326 0.52710139751434326
0.60829049348831177 0.60829049348831177 0.60829049348831177
0.70427495241165161 0.70427495241165161 0.70427495241165161
0.40120875835418701 0.40120875835418701 0.40120875835418701
0.38492423295974731 0.38492423295974731 0.38492423295974731
0.41844648122787476 0.41844648122787476 0.41844648122787476
0.53181546926498413 0.53181546926498413 0.53181546926498413
0.62013423442840576 0.62013423442840576 0.62013423442840576
0.6880563497543335 0.6880563497543335 0.6880563497543335
0.75866186618804932 0.75866186618804932 0.75866186618804932
0.48252260684967041 0.48252260684967041 0.48252260684967041
0.46920850872993469 0.46920850872993469 0.46920850872993469
0.47694301605224609 0.47694301605224609 0.47694301605224609
0.5495801568031311 0.5495801568031311 0.5495801568031311
0.66799837350845337 0.66799837350845337 0.66799837350845337
0.76312375068664551 0.76312375068664551 0.76312375068664551
0.82494676113128662 0.82494676113128662 0.82494676113128662
0.60206037759780884 0.60206037759780884 0.60206037759780884
0.59447389841079712 0.59447389841079712 0.59447389841079712
0.57970452308654785 0.57970452308654785 0.57970452308654785
0.60552233457565308 0.60552233457565308 0.60552233457565308
0.70694470405578613 0.70694470405578613 0.70694470405578613
0.81177836656570435 0.81177836656570435 0.81177836656570435
0.88364642858505249 0.88364642858505249 0.88364642858505249
0.76347476243972778 0.76347476243972778 0.76347476243972778
0.76514285802841187 0.76514285802841187 0.76514285802841187
0.75223439931869507 0.75223439931869507 0.75223439931869507
0.74684852361679077 0.74684852361679077 0.74684852361679077
0.80375868082046509 0.80375868082046509 0.80375868082046509
0.88142257928848267 0.88142257928848267 0.88142257928848267
0.9464104175567627 0.9464104175567627 0.9464104175567627
0.23857060074806213 0.23857060074806213 0.23857060074806213
0.28832152485847473 0.28832152485847473 0.28832152485847473
0.33502328395843506 0.33502328395843506 0.33502328395843506
0.41445726156234741 0.41445726156234741 0.41445726156234741
0.49845868349075317 0.49845868349075317 0.49845868349075317
0.5681145191192627 0.5681145191192627 0.5681145191192627
0.6489594578742981 0.6489594578742981 0.6489594578742981
0.27542328834533691 0.27542328834533691 0.27542328834533691
0.32262963056564331 0.32262963056564331 0.32262963056564331
0.37777236104011536 0.37777236104011536 0.37777236104011536
0.43580350279808044 0.43580350279808044 0.43580350279808044
0.51585990190505981 0.51585990190505981 0.51585990190505981
0.59063470363616943 0.59063470363616943 0.59063470363616943
0.67575490474700928 0.67575490474700928 0.67575490474700928
0.37347075343132019 0.37347075343132019 0.37347075343132019
0.4058043360710144 0.4058043360710144 0.4058043360710144
0.4389244019985199 0.4389244019985199 0.4389244019985199
0.49179118871688843 0.49179118871688843 0.49179118871688843
0.53934872150421143 0.53934872150421143 0.53934872150421143
0.61967998743057251 0.61967998743057251 0.61967998743057251
0.70833182334899902 0.70833182334899902 0.70833182334899902
0.47159382700920105 0.47159382700920105 0.47159382700920105
0.48206764459609985 0.48206764459609985 0.48206764459609985
0.48661080002784729 0.48661080002784729 0.48661080002784729
0.54645204544067383 0.54645204544067383 0.54645204544067383
0.63019287586212158 0.63019287586212158 0.63019287586212158
0.6918940544128418 0.6918940544128418 0.6918940544128418
0.75969642400741577 0.75969642400741577 0.75969642400741577
0.56088662147521973 0.56088662147521973 0.56088662147521973
0.55769795179367065 0.55769795179367065 0.55769795179367065
0.54576176404953003 0.54576176404953003 0.54576176404953003
0.56824076175689697 0.56824076175689697 0.56824076175689697
0.67438870668411255 0.67438870668411255 0.67438870668411255
0.76280397176742554 0.76280397176742554 0.76280397176742554
0.82910650968551636 0.82910650968551636 0.82910650968551636
0.6653180718421936 0.6653180718421936 0.6653180718421936
0.66456454992294312 0.66456454992294312 0.66456454992294312
0.64240509271621704 0.64240509271621704 0.64240509271621704
0.62929767370223999 0.62929767370223999 0.62929767370223999
0.70570594072341919 0.70570594072341919 0.70570594072341919
0.80987542867660522 0.80987542867660522 0.80987542867660522
0.89063191413879395 0.89063191413879395 0.89063191413879395
0.79399389028549194 0.79399389028549194 0.79399389028549194
0.80166161060333252 0.80166161060333252 0.80166161060333252
0.78935199975967407 0.78935199975967407 0.78935199975967407
0.76963514089584351 0.76963514089584351 0.76963514089584351
0.80249685049057007 0.80249685049057007 0.80249685049057007
0.87902343273162842 0.87902343273162842 0.87902343273162842
0.95358681678771973 0.95358681678771973 0.95358681678771973
0.37541523575782776 0.37541523575782776 0.37541523575782776
0.40287956595420837 0.40287956595420837 0.40287956595420837
0.43375635147094727 0.43375635147094727 0.43375635147094727
0.46726757287979126 0.46726757287979126 0.46726757287979126
0.52567583322525024 0.52567583322525024 0.52567583322525024
0.61799424886703491 0.61799424886703491 0.61799424886703491
0.71989673376083374 0.71989673376083374 0.71989673376083374
0.39648860692977905 0.39648860692977905 0.39648860692977905
0.4276350736618042 0.4276350736618042 0.4276350736618042
0.46686974167823792 0.46686974167823792 0.46686974167823792
0.50754308700561523 0.50754308700561523 0.50754308700561523
0.56061232089996338 0.56061232089996338 0.56061232089996338
0.65000182390213013 0.65000182390213013 0.65000182390213013
0.73599714040756226 0.73599714040756226 0.73599714040756226
0.44806626439094543 0.44806626439094543 0.44806626439094543
0.47161442041397095 0.47161442041397095 0.47161442041397095
0.50163882970809937 0.50163882970809937 0.50163882970809937
0.54176491498947144 0.54176491498947144 0.54176491498947144
0.59102600812911987 0.59102600812911987 0.59102600812911987
0.65697318315505981 0.65697318315505981 0.65697318315505981
0.73544031381607056 0.73544031381607056 0.73544031381607056
0.52553820610046387 0.52553820610046387 0.52553820610046387
0.53744465112686157 0.53744465112686157 0.53744465112686157
0.54747611284255981 0.54747611284255981 0.54747611284255981
0.57727140188217163 0.57727140188217163 0.57727140188217163
0.64614063501358032 0.64614063501358032 0.64614063501358032
0.70208007097244263 0.70208007097244263 0.70208007097244263
0.76813054084777832 0.76813054084777832 0.76813054084777832
0.6353832483291626 0.6353832483291626 0.6353832483291626
0.63754534721374512 0.63754534721374512 0.63754534721374512
0.64341670274734497 0.64341670274734497 0.64341670274734497
0.63138765096664429 0.63138765096664429 0.63138765096664429
0.69330310821533203 0.69330310821533203 0.69330310821533203
0.7629508376121521 0.7629508376121521 0.7629508376121521
0.83187562227249146 0.83187562227249146 0.83187562227249146
0.73858523368835449 0.73858523368835449 0.73858523368835449
0.74192380905151367 0.74192380905151367 0.74192380905151367
0.73484569787979126 0.73484569787979126 0.73484569787979126
0.70012533664703369 0.70012533664703369 0.70012533664703369
0.72223329544067383 0.72223329544067383 0.72223329544067383
0.81570267677307129 0.81570267677307129 0.81570267677307129
0.90033197402954102 0.90033197402954102 0.90033197402954102
0.8459312915802002 0.8459312915802002 0.8459312915802002
0.85258668661117554 0.85258668661117554 0.85258668661117554
0.8425898551940918 0.8425898551940918 0.8425898551940918
0.81440502405166626 0.81440502405166626 0.81440502405166626
0.82134228944778442 0.82134228944778442 0.82134228944778442
0.88878786563873291 0.88878786563873291 0.88878786563873291
0.96370720863342285 0.96370720863342285 0.96370720863342285
0.5082889199256897 0.5082889199256897 0.5082889199256897
0.52064913511276245 0.52064913511276245 0.52064913511276245
0.54991656541824341 0.54991656541824341 0.54991656541824341
0.58076757192611694 0.58076757192611694 0.58076757192611694
0.6088331937789917 0.6088331937789917 0.6088331937789917
0.66677212715148926 0.66677212715148926 0.66677212715148926
0.77093726396560669 0.77093726396560669 0.77093726396560669
0.53343397378921509 0.53343397378921509 0.53343397378921509
0.54535949230194092 0.54535949230194092 0.54535949230194092
0.57602417469024658 0.57602417469024658 0.57602417469024658
0.61920690536499023 0.61920690536499023 0.61920690536499023
0.63667833805084229 0.63667833805084229 0.63667833805084229
0.6896786093711853 0.6896786093711853 0.6896786093711853
0.78452450037002563 0.78452450037002563 0.78452450037002563
0.55549353361129761 0.55549353361129761 0.55549353361129761
0.56383728981018066 0.56383728981018066 0.56383728981018066
0.58838415145874023 0.58838415145874023 0.58838415145874023
0.6304587721824646 0.6304587721824646 0.6304587721824646
0.66564595699310303 0.66564595699310303 0.66564595699310303
0.70418655872344971 0.70418655872344971 0.70418655872344971
0.79490840435028076 0.79490840435028076 0.79490840435028076
0.57375258207321167 0.57375258207321167 0.57375258207321167
0.58800423145294189 0.58800423145294189 0.58800423145294189
0.61054414510726929 0.61054414510726929 0.61054414510726929
0.64984691143035889 0.64984691143035889 0.64984691143035889
0.69406586885452271 0.69406586885452271 0.69406586885452271
0.73735630512237549 0.73735630512237549 0.73735630512237549
0.81447166204452515 0.81447166204452515 0.81447166204452515
0.67627948522567749 0.67627948522567749 0.67627948522567749
0.66983669996261597 0.66983669996261597 0.66983669996261597
0.68489575386047363 0.68489575386047363 0.68489575386047363
0.70173686742782593 0.70173686742782593 0.70173686742782593
0.73180484771728516 0.73180484771728516 0.73180484771728516
0.77638810873031616 0.77638810873031616 0.77638810873031616
0.84204089641571045 0.84204089641571045 0.84204089641571045
0.78516149520874023 0.78516149520874023 0.78516149520874023
0.77818554639816284 0.77818554639816284 0.77818554639816284
0.78981554508209229 0.78981554508209229 0.78981554508209229
0.78667742013931274 0.78667742013931274 0.78667742013931274
0.78486156463623047 0.78486156463623047 0.78486156463623047
0.83773088455200195 0.83773088455200195 0.83773088455200195
0.90805202722549438 0.90805202722549438 0.90805202722549438
0.89062994718551636 0.89062994718551636 0.89062994718551636
0.89383822679519653 0.89383822679519653 0.89383822679519653
0.89178752899169922 0.89178752899169922 0.89178752899169922
0.8768189549446106 0.8768189549446106 0.8768189549446106
0.86886560916900635 0.86886560916900635 0.86886560916900635
0.90921139717102051 0.90921139717102051 0.90921139717102051
0.96809989213943481 0.96809989213943481 0.96809989213943481
0.65822142362594604 0.65822142362594604 0.65822142362594604
0.66057103872299194 0.66057103872299194 0.66057103872299194
0.68578541278839111 0.68578541278839111 0.68578541278839111
0.7173190712928772 0.7173190712928772 0.7173190712928772
0.74565547704696655 0.74565547704696655 0.74565547704696655
0.75669050216674805 0.75669050216674805 0.75669050216674805
0.80472356081008911 0.80472356081008911 0.80472356081008911
0.68102610111236572 0.68102610111236572 0.68102610111236572
0.68370294570922852 0.68370294570922852 0.68370294570922852
0.70439141988754272 0.70439141988754272 0.70439141988754272
0.73793679475784302 0.73793679475784302 0.73793679475784302
0.76391267776489258 0.76391267776489258 0.76391267776489258
0.76956725120544434 0.76956725120544434 0.76956725120544434
0.81525617837905884 0.81525617837905884 0.81525617837905884
0.69152152538299561 0.69152152538299561 0.69152152538299561
0.69469267129898071 0.69469267129898071 0.69469267129898071
0.7094416618347168 0.7094416618347168 0.7094416618347168
0.74147975444793701 0.74147975444793701 0.74147975444793701
0.77417832612991333 0.77417832612991333 0.77417832612991333
0.78583627939224243 0.78583627939224243 0.78583627939224243
0.82998406887054443 0.82998406887054443 0.82998406887054443
0.68489193916320801 0.68489193916320801 0.68489193916320801
0.69433403015136719 0.69433403015136719 0.69433403015136719
0.71083945035934448 0.71083945035934448 0.71083945035934448
0.74313998222351074 0.74313998222351074 0.74313998222351074
0.78154587745666504 0.78154587745666504 0.78154587745666504
0.80600327253341675 0.80600327253341675 0.80600327253341675
0.84668409824371338 0.84668409824371338 0.84668409824371338
0.73604631423950195 0.73604631423950195 0.73604631423950195
0.7292780876159668 0.7292780876159668 0.7292780876159668
0.73818379640579224 0.73818379640579224 0.73818379640579224
0.76729148626327515 0.76729148626327515 0.76729148626327515
0.80259734392166138 0.80259734392166138 0.80259734392166138
0.8285948634147644 0.8285948634147644 0.8285948634147644
0.86695891618728638 0.86695891618728638 0.86695891618728638
0.82318097352981567 0.82318097352981567 0.82318097352981567
0.81372427940368652 0.81372427940368652 0.81372427940368652
0.82012677192687988 0.82012677192687988 0.82012677192687988
0.83466321229934692 0.83466321229934692 0.83466321229934692
0.847301185131073 0.847301185131073 0.847301185131073
0.87106239795684814 0.87106239795684814 0.87106239795684814
0.9101986289024353 0.9101986289024353 0.9101986289024353
0.91914373636245728 0.91914373636245728 0.91914373636245728
0.9200127124786377 0.9200127124786377 0.9200127124786377
0.91771543025970459 0.91771543025970459 0.91771543025970459
0.91521859169006348 0.91521859169006348 0.91521859169006348
0.91237854957580566 0.91237854957580566 0.91237854957580566
0.92843097448348999 0.92843097448348999 0.92843097448348999
0.96241801977157593 0.96241801977157593 0.96241801977157593
0.82228446006774902 0.82228446006774902 0.82228446006774902
0.82140308618545532 0.82140308618545532 0.82140308618545532
0.83135563135147095 0.83135563135147095 0.83135563135147095
0.85231971740722656 0.85231971740722656 0.85231971740722656
0.87492328882217407 0.87492328882217407 0.87492328882217407
0.88436353206634521 0.88436353206634521 0.88436353206634521
0.90619379281997681 0.90619379281997681 0.90619379281997681
0.83436262607574463 0.83436262607574463 0.83436262607574463
0.83564966917037964 0.83564966917037964 0.83564966917037964
0.8436543345451355 0.8436543345451355 0.8436543345451355
0.86220854520797729 0.86220854520797729 0.86220854520797729
0.88495880365371704 0.88495880365371704 0.88495880365371704
0.89040368795394897 0.89040368795394897 0.89040368795394897
0.90313273668289185 0.90313273668289185 0.90313273668289185
0.83963108062744141 0.83963108062744141 0.83963108062744141
0.84257632493972778 0.84257632493972778 0.84257632493972778
0.8479926586151123 0.8479926586151123 0.8479926586151123
0.86097657680511475 0.86097657680511475 0.86097657680511475
0.88570320606231689 0.88570320606231689 0.88570320606231689
0.8951529860496521 0.8951529860496521 0.8951529860496521
0.90131402015686035 0.90131402015686035 0.90131402015686035
0.83467203378677368 0.83467203378677368 0.83467203378677368
0.84044897556304932 0.84044897556304932 0.84044897556304932
0.8498539924621582 0.8498539924621582 0.8498539924621582
0.86130738258361816 0.86130738258361816 0.86130738258361816
0.88819038867950439 0.88819038867950439 0.88819038867950439
0.89787828922271729 0.89787828922271729 0.89787828922271729
0.89909201860427856 0.89909201860427856 0.89909201860427856
0.84326517581939697 0.84326517581939697 0.84326517581939697
0.84498411417007446 0.84498411417007446 0.84498411417007446
0.85006511211395264 0.85006511211395264 0.85006511211395264
0.86649799346923828 0.86649799346923828 0.86649799346923828
0.89631986618041992 0.89631986618041992 0.89631986618041992
0.90864044427871704 0.90864044427871704 0.90864044427871704
0.91623294353485107 0.91623294353485107 0.91623294353485107
0.88130486011505127 0.88130486011505127 0.88130486011505127
0.88207268714904785 0.88207268714904785 0.88207268714904785
0.88676291704177856 0.88676291704177856 0.88676291704177856
0.89942991733551025 0.89942991733551025 0.89942991733551025
0.91474288702011108 0.91474288702011108 0.91474288702011108
0.92397499084472656 0.92397499084472656 0.92397499084472656
0.93984842300415039 0.93984842300415039 0.93984842300415039
0.93847239017486572 0.93847239017486572 0.93847239017486572
0.94764643907546997 0.94764643907546997 0.94764643907546997
0.95310765504837036 0.95310765504837036 0.95310765504837036
0.95625138282775879 0.95625138282775879 0.95625138282775879
0.95736020803451538 0.95736020803451538 0.95736020803451538
0.95999318361282349 0.95999318361282349 0.95999318361282349
0.97424376010894775 0.97424376010894775 0.97424376010894775
