luts/instant_pro/fuji_fp-3000b.cube
# Created by: G'MIC (https://gmic.eu)
TITLE "fuji_fp-3000b"
# LUT size
LUT_3D_SIZE 7
# Data domain
DOMAIN_MIN 0.0 0.0 0.0
DOMAIN_MAX 1.0 1.0 1.0
# LUT data points
0.085671804845333099 0.085671804845333099 0.085671804845333099
0.10259163379669189 0.10259163379669189 0.10259163379669189
0.15174762904644012 0.15174762904644012 0.15174762904644012
0.23300376534461975 0.23300376534461975 0.23300376534461975
0.34389805793762207 0.34389805793762207 0.34389805793762207
0.48410290479660034 0.48410290479660034 0.48410290479660034
0.63011246919631958 0.63011246919631958 0.63011246919631958
0.11488741636276245 0.11488741636276245 0.11488741636276245
0.1372050940990448 0.1372050940990448 0.1372050940990448
0.21470682322978973 0.21470682322978973 0.21470682322978973
0.29390555620193481 0.29390555620193481 0.29390555620193481
0.38942116498947144 0.38942116498947144 0.38942116498947144
0.51561325788497925 0.51561325788497925 0.51561325788497925
0.64879536628723145 0.64879536628723145 0.64879536628723145
0.17734189331531525 0.17734189331531525 0.17734189331531525
0.18521557748317719 0.18521557748317719 0.18521557748317719
0.30411246418952942 0.30411246418952942 0.30411246418952942
0.40475571155548096 0.40475571155548096 0.40475571155548096
0.49066156148910522 0.49066156148910522 0.49066156148910522
0.59116828441619873 0.59116828441619873 0.59116828441619873
0.69561558961868286 0.69561558961868286 0.69561558961868286
0.27476376295089722 0.27476376295089722 0.27476376295089722
0.26064938306808472 0.26064938306808472 0.26064938306808472
0.33251684904098511 0.33251684904098511 0.33251684904098511
0.47830280661582947 0.47830280661582947 0.47830280661582947
0.60982590913772583 0.60982590913772583 0.60982590913772583
0.69219952821731567 0.69219952821731567 0.69219952821731567
0.76342475414276123 0.76342475414276123 0.76342475414276123
0.40467661619186401 0.40467661619186401 0.40467661619186401
0.38107520341873169 0.38107520341873169 0.38107520341873169
0.39010134339332581 0.39010134339332581 0.39010134339332581
0.50565242767333984 0.50565242767333984 0.50565242767333984
0.65960556268692017 0.65960556268692017 0.65960556268692017
0.75965797901153564 0.75965797901153564 0.75965797901153564
0.82386714220046997 0.82386714220046997 0.82386714220046997
0.57080614566802979 0.57080614566802979 0.57080614566802979
0.55222606658935547 0.55222606658935547 0.55222606658935547
0.51822346448898315 0.51822346448898315 0.51822346448898315
0.577109694480896 0.577109694480896 0.577109694480896
0.7115180492401123 0.7115180492401123 0.7115180492401123
0.8113548755645752 0.8113548755645752 0.8113548755645752
0.87311124801635742 0.87311124801635742 0.87311124801635742
0.76045924425125122 0.76045924425125122 0.76045924425125122
0.74785226583480835 0.74785226583480835 0.74785226583480835
0.73216915130615234 0.73216915130615234 0.73216915130615234
0.74773430824279785 0.74773430824279785 0.74773430824279785
0.82064545154571533 0.82064545154571533 0.82064545154571533
0.88255810737609863 0.88255810737609863 0.88255810737609863
0.92742002010345459 0.92742002010345459 0.92742002010345459
0.11744456738233566 0.11744456738233566 0.11744456738233566
0.14221644401550293 0.14221644401550293 0.14221644401550293
0.1951691210269928 0.1951691210269928 0.1951691210269928
0.28204306960105896 0.28204306960105896 0.28204306960105896
0.38396498560905457 0.38396498560905457 0.38396498560905457
0.51066493988037109 0.51066493988037109 0.51066493988037109
0.63413757085800171 0.63413757085800171 0.63413757085800171
0.15837538242340088 0.15837538242340088 0.15837538242340088
0.18064901232719421 0.18064901232719421 0.18064901232719421
0.23622754216194153 0.23622754216194153 0.23622754216194153
0.31524467468261719 0.31524467468261719 0.31524467468261719
0.41877704858779907 0.41877704858779907 0.41877704858779907
0.53920692205429077 0.53920692205429077 0.53920692205429077
0.65725302696228027 0.65725302696228027 0.65725302696228027
0.25793135166168213 0.25793135166168213 0.25793135166168213
0.24738632142543793 0.24738632142543793 0.24738632142543793
0.3057762086391449 0.3057762086391449 0.3057762086391449
0.4154587984085083 0.4154587984085083 0.4154587984085083
0.50445973873138428 0.50445973873138428 0.50445973873138428
0.60458683967590332 0.60458683967590332 0.60458683967590332
0.70135915279388428 0.70135915279388428 0.70135915279388428
0.36011573672294617 0.36011573672294617 0.36011573672294617
0.32483235001564026 0.32483235001564026 0.32483235001564026
0.34669172763824463 0.34669172763824463 0.34669172763824463
0.490733802318573 0.490733802318573 0.490733802318573
0.61864334344863892 0.61864334344863892 0.61864334344863892
0.70115923881530762 0.70115923881530762 0.70115923881530762
0.76728552579879761 0.76728552579879761 0.76728552579879761
0.46523082256317139 0.46523082256317139 0.46523082256317139
0.43531692028045654 0.43531692028045654 0.43531692028045654
0.4188697338104248 0.4188697338104248 0.4188697338104248
0.51491504907608032 0.51491504907608032 0.51491504907608032
0.66819113492965698 0.66819113492965698 0.66819113492965698
0.77006226778030396 0.77006226778030396 0.77006226778030396
0.83065271377563477 0.83065271377563477 0.83065271377563477
0.60323053598403931 0.60323053598403931 0.60323053598403931
0.58840066194534302 0.58840066194534302 0.58840066194534302
0.55638831853866577 0.55638831853866577 0.55638831853866577
0.59330970048904419 0.59330970048904419 0.59330970048904419
0.71353089809417725 0.71353089809417725 0.71353089809417725
0.81578606367111206 0.81578606367111206 0.81578606367111206
0.87982016801834106 0.87982016801834106 0.87982016801834106
0.77828848361968994 0.77828848361968994 0.77828848361968994
0.76977217197418213 0.76977217197418213 0.76977217197418213
0.75335884094238281 0.75335884094238281 0.75335884094238281
0.75898188352584839 0.75898188352584839 0.75898188352584839
0.81498575210571289 0.81498575210571289 0.81498575210571289
0.87963730096817017 0.87963730096817017 0.87963730096817017
0.93121087551116943 0.93121087551116943 0.93121087551116943
0.19007618725299835 0.19007618725299835 0.19007618725299835
0.22369527816772461 0.22369527816772461 0.22369527816772461
0.27172300219535828 0.27172300219535828 0.27172300219535828
0.35494169592857361 0.35494169592857361 0.35494169592857361
0.46497905254364014 0.46497905254364014 0.46497905254364014
0.57432949542999268 0.57432949542999268 0.57432949542999268
0.66816979646682739 0.66816979646682739 0.66816979646682739
0.21928204596042633 0.21928204596042633 0.21928204596042633
0.25752043724060059 0.25752043724060059 0.25752043724060059
0.30210959911346436 0.30210959911346436 0.30210959911346436
0.37406983971595764 0.37406983971595764 0.37406983971595764
0.48775124549865723 0.48775124549865723 0.48775124549865723
0.59406262636184692 0.59406262636184692 0.59406262636184692
0.69011795520782471 0.69011795520782471 0.69011795520782471
0.31134751439094543 0.31134751439094543 0.31134751439094543
0.33294963836669922 0.33294963836669922 0.33294963836669922
0.36686533689498901 0.36686533689498901 0.36686533689498901
0.44397908449172974 0.44397908449172974 0.44397908449172974
0.52118802070617676 0.52118802070617676 0.52118802070617676
0.62952136993408203 0.62952136993408203 0.62952136993408203
0.71781641244888306 0.71781641244888306 0.71781641244888306
0.44645673036575317 0.44645673036575317 0.44645673036575317
0.44649201631546021 0.44649201631546021 0.44649201631546021
0.44029763340950012 0.44029763340950012 0.44029763340950012
0.51822084188461304 0.51822084188461304 0.51822084188461304
0.62634074687957764 0.62634074687957764 0.62634074687957764
0.71082776784896851 0.71082776784896851 0.71082776784896851
0.7715599536895752 0.7715599536895752 0.7715599536895752
0.56272894144058228 0.56272894144058228 0.56272894144058228
0.54765444993972778 0.54765444993972778 0.54765444993972778
0.51553547382354736 0.51553547382354736 0.51553547382354736
0.55353236198425293 0.55353236198425293 0.55353236198425293
0.68225777149200439 0.68225777149200439 0.68225777149200439
0.78410530090332031 0.78410530090332031 0.78410530090332031
0.83902382850646973 0.83902382850646973 0.83902382850646973
0.68063998222351074 0.68063998222351074 0.68063998222351074
0.6686699390411377 0.6686699390411377 0.6686699390411377
0.63814222812652588 0.63814222812652588 0.63814222812652588
0.64144980907440186 0.64144980907440186 0.64144980907440186
0.72507774829864502 0.72507774829864502 0.72507774829864502
0.82449460029602051 0.82449460029602051 0.82449460029602051
0.89024060964584351 0.89024060964584351 0.89024060964584351
0.81680840253829956 0.81680840253829956 0.81680840253829956
0.81065124273300171 0.81065124273300171 0.81065124273300171
0.79348599910736084 0.79348599910736084 0.79348599910736084
0.78433090448379517 0.78433090448379517 0.78433090448379517
0.81744670867919922 0.81744670867919922 0.81744670867919922
0.87926524877548218 0.87926524877548218 0.87926524877548218
0.93674266338348389 0.93674266338348389 0.93674266338348389
0.31684628129005432 0.31684628129005432 0.31684628129005432
0.34857830405235291 0.34857830405235291 0.34857830405235291
0.40443778038024902 0.40443778038024902 0.40443778038024902
0.43500441312789917 0.43500441312789917 0.43500441312789917
0.51587754487991333 0.51587754487991333 0.51587754487991333
0.64967972040176392 0.64967972040176392 0.64967972040176392
0.73799616098403931 0.73799616098403931 0.73799616098403931
0.35817793011665344 0.35817793011665344 0.35817793011665344
0.38111245632171631 0.38111245632171631 0.38111245632171631
0.41864559054374695 0.41864559054374695 0.41864559054374695
0.467416912317276 0.467416912317276 0.467416912317276
0.55484533309936523 0.55484533309936523 0.55484533309936523
0.65864461660385132 0.65864461660385132 0.65864461660385132
0.74696153402328491 0.74696153402328491 0.74696153402328491
0.39390501379966736 0.39390501379966736 0.39390501379966736
0.42020332813262939 0.42020332813262939 0.42020332813262939
0.45523467659950256 0.45523467659950256 0.45523467659950256
0.51377218961715698 0.51377218961715698 0.51377218961715698
0.5893789529800415 0.5893789529800415 0.5893789529800415
0.68877649307250977 0.68877649307250977 0.68877649307250977
0.75699681043624878 0.75699681043624878 0.75699681043624878
0.50171029567718506 0.50171029567718506 0.50171029567718506
0.51485896110534668 0.51485896110534668 0.51485896110534668
0.53192973136901855 0.53192973136901855 0.53192973136901855
0.57128357887268066 0.57128357887268066 0.57128357887268066
0.65193700790405273 0.65193700790405273 0.65193700790405273
0.73610633611679077 0.73610633611679077 0.73610633611679077
0.78662538528442383 0.78662538528442383 0.78662538528442383
0.64868688583374023 0.64868688583374023 0.64868688583374023
0.64194363355636597 0.64194363355636597 0.64194363355636597
0.64437508583068848 0.64437508583068848 0.64437508583068848
0.63614803552627563 0.63614803552627563 0.63614803552627563
0.7063976526260376 0.7063976526260376 0.7063976526260376
0.79943549633026123 0.79943549633026123 0.79943549633026123
0.8509184718132019 0.8509184718132019 0.8509184718132019
0.75774729251861572 0.75774729251861572 0.75774729251861572
0.75130075216293335 0.75130075216293335 0.75130075216293335
0.74051177501678467 0.74051177501678467 0.74051177501678467
0.71904599666595459 0.71904599666595459 0.71904599666595459
0.74898403882980347 0.74898403882980347 0.74898403882980347
0.83608615398406982 0.83608615398406982 0.83608615398406982
0.90277159214019775 0.90277159214019775 0.90277159214019775
0.85863953828811646 0.85863953828811646 0.85863953828811646
0.85598158836364746 0.85598158836364746 0.85598158836364746
0.84557425975799561 0.84557425975799561 0.84557425975799561
0.82939440011978149 0.82939440011978149 0.82939440011978149
0.83470439910888672 0.83470439910888672 0.83470439910888672
0.88255715370178223 0.88255715370178223 0.88255715370178223
0.94115281105041504 0.94115281105041504 0.94115281105041504
0.47584810853004456 0.47584810853004456 0.47584810853004456
0.49693974852561951 0.49693974852561951 0.49693974852561951
0.55126726627349854 0.55126726627349854 0.55126726627349854
0.60090446472167969 0.60090446472167969 0.60090446472167969
0.6273881196975708 0.6273881196975708 0.6273881196975708
0.68446093797683716 0.68446093797683716 0.68446093797683716
0.78313034772872925 0.78313034772872925 0.78313034772872925
0.51914983987808228 0.51914983987808228 0.51914983987808228
0.53037959337234497 0.53037959337234497 0.53037959337234497
0.56421440839767456 0.56421440839767456 0.56421440839767456
0.61430901288986206 0.61430901288986206 0.61430901288986206
0.65142726898193359 0.65142726898193359 0.65142726898193359
0.69900405406951904 0.69900405406951904 0.69900405406951904
0.79454296827316284 0.79454296827316284 0.79454296827316284
0.53182131052017212 0.53182131052017212 0.53182131052017212
0.54138952493667603 0.54138952493667603 0.54138952493667603
0.5725589394569397 0.5725589394569397 0.5725589394569397
0.62788593769073486 0.62788593769073486 0.62788593769073486
0.68129235506057739 0.68129235506057739 0.68129235506057739
0.73981952667236328 0.73981952667236328 0.73981952667236328
0.81891548633575439 0.81891548633575439 0.81891548633575439
0.57683181762695312 0.57683181762695312 0.57683181762695312
0.58770513534545898 0.58770513534545898 0.58770513534545898
0.61758887767791748 0.61758887767791748 0.61758887767791748
0.66417932510375977 0.66417932510375977 0.66417932510375977
0.71952098608016968 0.71952098608016968 0.71952098608016968
0.77950525283813477 0.77950525283813477 0.77950525283813477
0.83072799444198608 0.83072799444198608 0.83072799444198608
0.69698083400726318 0.69698083400726318 0.69698083400726318
0.6887277364730835 0.6887277364730835 0.6887277364730835
0.70655268430709839 0.70655268430709839 0.70655268430709839
0.72604936361312866 0.72604936361312866 0.72604936361312866
0.76147663593292236 0.76147663593292236 0.76147663593292236
0.81927275657653809 0.81927275657653809 0.81927275657653809
0.86830306053161621 0.86830306053161621 0.86830306053161621
0.79478228092193604 0.79478228092193604 0.79478228092193604
0.78849565982818604 0.78849565982818604 0.78849565982818604
0.7968938946723938 0.7968938946723938 0.7968938946723938
0.80033886432647705 0.80033886432647705 0.80033886432647705
0.80687069892883301 0.80687069892883301 0.80687069892883301
0.85297524929046631 0.85297524929046631 0.85297524929046631
0.90751457214355469 0.90751457214355469 0.90751457214355469
0.88199138641357422 0.88199138641357422 0.88199138641357422
0.88297337293624878 0.88297337293624878 0.88297337293624878
0.88843280076980591 0.88843280076980591 0.88843280076980591
0.88865947723388672 0.88865947723388672 0.88865947723388672
0.87135690450668335 0.87135690450668335 0.87135690450668335
0.89035236835479736 0.89035236835479736 0.89035236835479736
0.93921488523483276 0.93921488523483276 0.93921488523483276
0.66415643692016602 0.66415643692016602 0.66415643692016602
0.67918580770492554 0.67918580770492554 0.67918580770492554
0.71371984481811523 0.71371984481811523 0.71371984481811523
0.75103968381881714 0.75103968381881714 0.75103968381881714
0.76486754417419434 0.76486754417419434 0.76486754417419434
0.78366827964782715 0.78366827964782715 0.78366827964782715
0.8396487832069397 0.8396487832069397 0.8396487832069397
0.69594871997833252 0.69594871997833252 0.69594871997833252
0.70191073417663574 0.70191073417663574 0.70191073417663574
0.72450178861618042 0.72450178861618042 0.72450178861618042
0.76046657562255859 0.76046657562255859 0.76046657562255859
0.78210729360580444 0.78210729360580444 0.78210729360580444
0.79621261358261108 0.79621261358261108 0.79621261358261108
0.8393549919128418 0.8393549919128418 0.8393549919128418
0.70709669589996338 0.70709669589996338 0.70709669589996338
0.7058219313621521 0.7058219313621521 0.7058219313621521
0.72421920299530029 0.72421920299530029 0.72421920299530029
0.76042026281356812 0.76042026281356812 0.76042026281356812
0.79138404130935669 0.79138404130935669 0.79138404130935669
0.81114017963409424 0.81114017963409424 0.81114017963409424
0.84501057863235474 0.84501057863235474 0.84501057863235474
0.70963859558105469 0.70963859558105469 0.70963859558105469
0.71364784240722656 0.71364784240722656 0.71364784240722656
0.73565882444381714 0.73565882444381714 0.73565882444381714
0.7712894082069397 0.7712894082069397 0.7712894082069397
0.80581498146057129 0.80581498146057129 0.80581498146057129
0.83640682697296143 0.83640682697296143 0.83640682697296143
0.86799943447113037 0.86799943447113037 0.86799943447113037
0.75925582647323608 0.75925582647323608 0.75925582647323608
0.75659668445587158 0.75659668445587158 0.75659668445587158
0.77540826797485352 0.77540826797485352 0.77540826797485352
0.80401545763015747 0.80401545763015747 0.80401545763015747
0.83035731315612793 0.83035731315612793 0.83035731315612793
0.8609810471534729 0.8609810471534729 0.8609810471534729
0.89413374662399292 0.89413374662399292 0.89413374662399292
0.82541096210479736 0.82541096210479736 0.82541096210479736
0.82345777750015259 0.82345777750015259 0.82345777750015259
0.83948606252670288 0.83948606252670288 0.83948606252670288
0.85755568742752075 0.85755568742752075 0.85755568742752075
0.86448222398757935 0.86448222398757935 0.86448222398757935
0.88263887166976929 0.88263887166976929 0.88263887166976929
0.9147794246673584 0.9147794246673584 0.9147794246673584
0.89779162406921387 0.89779162406921387 0.89779162406921387
0.90134131908416748 0.90134131908416748 0.90134131908416748
0.91460436582565308 0.91460436582565308 0.91460436582565308
0.92189872264862061 0.92189872264862061 0.92189872264862061
0.91065585613250732 0.91065585613250732 0.91065585613250732
0.91244411468505859 0.91244411468505859 0.91244411468505859
0.93941932916641235 0.93941932916641235 0.93941932916641235
0.84334039688110352 0.84334039688110352 0.84334039688110352
0.8508676290512085 0.8508676290512085 0.8508676290512085
0.86529803276062012 0.86529803276062012 0.86529803276062012
0.88245123624801636 0.88245123624801636 0.88245123624801636
0.89205920696258545 0.89205920696258545 0.89205920696258545
0.90033435821533203 0.90033435821533203 0.90033435821533203
0.92334103584289551 0.92334103584289551 0.92334103584289551
0.85363388061523438 0.85363388061523438 0.85363388061523438
0.86082965135574341 0.86082965135574341 0.86082965135574341
0.87298721075057983 0.87298721075057983 0.87298721075057983
0.89066523313522339 0.89066523313522339 0.89066523313522339
0.90436059236526489 0.90436059236526489 0.90436059236526489
0.90705394744873047 0.90705394744873047 0.90705394744873047
0.91297024488449097 0.91297024488449097 0.91297024488449097
0.84889334440231323 0.84889334440231323 0.84889334440231323
0.85468041896820068 0.85468041896820068 0.85468041896820068
0.86737042665481567 0.86737042665481567 0.86737042665481567
0.88616138696670532 0.88616138696670532 0.88616138696670532
0.90260297060012817 0.90260297060012817 0.90260297060012817
0.90589839220046997 0.90589839220046997 0.90589839220046997
0.90585458278656006 0.90585458278656006 0.90585458278656006
0.83947598934173584 0.83947598934173584 0.83947598934173584
0.84409552812576294 0.84409552812576294 0.84409552812576294
0.85905593633651733 0.85905593633651733 0.85905593633651733
0.8798757791519165 0.8798757791519165 0.8798757791519165
0.89856410026550293 0.89856410026550293 0.89856410026550293
0.91149550676345825 0.91149550676345825 0.91149550676345825
0.92351436614990234 0.92351436614990234 0.92351436614990234
0.84909713268280029 0.84909713268280029 0.84909713268280029
0.85134446620941162 0.85134446620941162 0.85134446620941162
0.86621594429016113 0.86621594429016113 0.86621594429016113
0.8863568902015686 0.8863568902015686 0.8863568902015686
0.90346580743789673 0.90346580743789673 0.90346580743789673
0.92004567384719849 0.92004567384719849 0.92004567384719849
0.93885594606399536 0.93885594606399536 0.93885594606399536
0.87939834594726562 0.87939834594726562 0.87939834594726562
0.88226556777954102 0.88226556777954102 0.88226556777954102
0.89706194400787354 0.89706194400787354 0.89706194400787354
0.91175085306167603 0.91175085306167603 0.91175085306167603
0.91885221004486084 0.91885221004486084 0.91885221004486084
0.92638450860977173 0.92638450860977173 0.92638450860977173
0.94397157430648804 0.94397157430648804 0.94397157430648804
0.92744779586791992 0.92744779586791992 0.92744779586791992
0.93349891901016235 0.93349891901016235 0.93349891901016235
0.94647538661956787 0.94647538661956787 0.94647538661956787
0.95354002714157104 0.95354002714157104 0.95354002714157104
0.94952386617660522 0.94952386617660522 0.94952386617660522
0.94631284475326538 0.94631284475326538 0.94631284475326538
0.95852190256118774 0.95852190256118774 0.95852190256118774
