luts/instant_pro/fuji_fp-100c_+++.cube
# Created by: G'MIC (https://gmic.eu)
TITLE "fuji_fp-100c_+++"
# LUT size
LUT_3D_SIZE 5
# Data domain
DOMAIN_MIN 0.0 0.0 0.0
DOMAIN_MAX 1.0 1.0 1.0
# LUT data points
0.29607173800468445 0.28339260816574097 0.30626913905143738
0.33358332514762878 0.27456715703010559 0.29417583346366882
0.45644921064376831 0.27521225810050964 0.29392966628074646
0.69273793697357178 0.28389632701873779 0.29460513591766357
0.93084746599197388 0.31297910213470459 0.29271587729454041
0.29050758481025696 0.31993961334228516 0.29745489358901978
0.34169736504554749 0.32208892703056335 0.29380989074707031
0.51109075546264648 0.35292708873748779 0.29642316699028015
0.73888349533081055 0.37763133645057678 0.29522347450256348
0.94473117589950562 0.39958581328392029 0.29285451769828796
0.28099179267883301 0.45042982697486877 0.30508401989936829
0.34528917074203491 0.44648751616477966 0.30606040358543396
0.50567775964736938 0.47998076677322388 0.28312018513679504
0.75178110599517822 0.52947843074798584 0.27564546465873718
0.97090798616409302 0.56560558080673218 0.30287104845046997
0.25404468178749084 0.64272403717041016 0.30818787217140198
0.3425726592540741 0.64118200540542603 0.30939188599586487
0.50066739320755005 0.65122038125991821 0.2937411367893219
0.72573959827423096 0.69070649147033691 0.25270602107048035
0.95612406730651855 0.72804182767868042 0.23324193060398102
0.43263375759124756 0.87751823663711548 0.44717490673065186
0.49676734209060669 0.87276178598403931 0.44801586866378784
0.63696634769439697 0.86918628215789795 0.46085074543952942
0.79392808675765991 0.8830486536026001 0.43286922574043274
0.96538847684860229 0.8972131609916687 0.37202593684196472
0.29565063118934631 0.27156755328178406 0.33864215016365051
0.35185936093330383 0.26888996362686157 0.35171100497245789
0.45372766256332397 0.27827435731887817 0.35044416785240173
0.69495046138763428 0.2448902428150177 0.3411896824836731
0.92885178327560425 0.27044329047203064 0.3431449830532074
0.29340311884880066 0.32548114657402039 0.35229688882827759
0.3521466851234436 0.34014913439750671 0.36250561475753784
0.52468085289001465 0.34684157371520996 0.36409276723861694
0.73901194334030151 0.34973070025444031 0.35780367255210876
0.94840723276138306 0.37447777390480042 0.35769575834274292
0.23565103113651276 0.50293195247650146 0.37825500965118408
0.34017658233642578 0.49611145257949829 0.37052133679389954
0.53417491912841797 0.50681877136230469 0.35303020477294922
0.77609384059906006 0.53929328918457031 0.36417534947395325
0.96345841884613037 0.56210982799530029 0.38390719890594482
0.20262104272842407 0.67860579490661621 0.38389408588409424
0.32630550861358643 0.66739803552627563 0.37508335709571838
0.51034438610076904 0.67168509960174561 0.36453691124916077
0.73991996049880981 0.70295506715774536 0.32489043474197388
0.96143525838851929 0.73150545358657837 0.33380025625228882
0.41684946417808533 0.88302701711654663 0.50269269943237305
0.48655274510383606 0.87961584329605103 0.50456446409225464
0.6355249285697937 0.87463986873626709 0.51755768060684204
0.79103201627731323 0.88394701480865479 0.49394640326499939
0.96307790279388428 0.89900177717208862 0.43956694006919861
0.30614137649536133 0.2713618278503418 0.49466457962989807
0.39846429228782654 0.25555115938186646 0.53162556886672974
0.62324297428131104 0.20611685514450073 0.5915340781211853
0.68373686075210571 0.28353658318519592 0.528206467628479
0.91308140754699707 0.25893530249595642 0.524924635887146
0.27227801084518433 0.33272135257720947 0.49691954255104065
0.36859610676765442 0.33381280303001404 0.54054510593414307
0.62612003087997437 0.31552624702453613 0.60585016012191772
0.71247124671936035 0.3687061071395874 0.54616743326187134
0.94194924831390381 0.32297676801681519 0.51316338777542114
0.23750165104866028 0.51156526803970337 0.56170463562011719
0.34816658496856689 0.52930140495300293 0.5755007266998291
0.58647257089614868 0.56581491231918335 0.60847824811935425
0.78109657764434814 0.5475584864616394 0.57838112115859985
0.9607853889465332 0.53100931644439697 0.54568994045257568
0.22253113985061646 0.73139876127243042 0.60913926362991333
0.34834897518157959 0.72999483346939087 0.59545767307281494
0.53738987445831299 0.72220641374588013 0.57387864589691162
0.76748311519622803 0.72847181558609009 0.53702974319458008
0.95914965867996216 0.75187951326370239 0.57517367601394653
0.39659059047698975 0.89668065309524536 0.64088916778564453
0.45928886532783508 0.89259368181228638 0.63255399465560913
0.618072509765625 0.885048508644104 0.63815689086914062
0.78892695903778076 0.88641464710235596 0.63961929082870483
0.95802783966064453 0.89882767200469971 0.5928192138671875
0.34432420134544373 0.26054507493972778 0.73743325471878052
0.4623907208442688 0.23881606757640839 0.76151090860366821
0.69107824563980103 0.14860232174396515 0.81764322519302368
0.92165106534957886 0.039622243493795395 0.84028589725494385
0.94317299127578735 0.32770019769668579 0.76615220308303833
0.27246788144111633 0.32466477155685425 0.73274928331375122
0.3928673267364502 0.31787139177322388 0.75678783655166626
0.66368550062179565 0.27524712681770325 0.81206834316253662
0.90914255380630493 0.27767089009284973 0.83906680345535278
0.93785279989242554 0.43486151099205017 0.77553516626358032
0.14799453318119049 0.46661263704299927 0.68281334638595581
0.26838019490242004 0.47118732333183289 0.70509403944015503
0.55823063850402832 0.50905907154083252 0.77853059768676758
0.86263209581375122 0.5659976601600647 0.83264684677124023
0.92267888784408569 0.60683906078338623 0.78365492820739746
0.2570992112159729 0.70632892847061157 0.7693830132484436
0.36671251058578491 0.71420902013778687 0.77676892280578613
0.58045357465744019 0.73866713047027588 0.79629147052764893
0.81246668100357056 0.78097778558731079 0.82672041654586792
0.94297462701797485 0.76213282346725464 0.80022788047790527
0.51008695363998413 0.90398681163787842 0.8478018045425415
0.557686448097229 0.90405130386352539 0.84238642454147339
0.67131131887435913 0.9007570743560791 0.83302980661392212
0.79333788156509399 0.89091503620147705 0.80657970905303955
0.94677585363388062 0.9036632776260376 0.79717481136322021
0.48866742849349976 0.27367031574249268 0.95306843519210815
0.57311064004898071 0.2514546811580658 0.95353531837463379
0.73879766464233398 0.19714367389678955 0.96525847911834717
0.95353817939758301 0.043152797967195511 0.98219931125640869
1 0.22974494099617004 0.97708946466445923
0.43913215398788452 0.35216179490089417 0.94901925325393677
0.52480340003967285 0.34500479698181152 0.95038580894470215
0.7119104266166687 0.31631094217300415 0.9652179479598999
0.93488317728042603 0.28391718864440918 0.97641217708587646
0.99972391128540039 0.39479765295982361 0.97218221426010132
0.23292958736419678 0.512642502784729 0.93336617946624756
0.37786820530891418 0.50552809238433838 0.93665975332260132
0.6288110613822937 0.5122605562210083 0.949482262134552
0.88657021522521973 0.54696595668792725 0.96464759111404419
0.99315595626831055 0.6177067756652832 0.95870488882064819
0.16560643911361694 0.71394473314285278 0.91923052072525024
0.27521786093711853 0.70953083038330078 0.91609054803848267
0.47658741474151611 0.7030290961265564 0.91865283250808716
0.79726046323776245 0.74383771419525146 0.94552946090698242
0.9725005030632019 0.79618996381759644 0.95566755533218384
0.58645129203796387 0.88981282711029053 0.94571113586425781
0.61748743057250977 0.88964658975601196 0.94334769248962402
0.71146094799041748 0.89445161819458008 0.94821405410766602
0.82820868492126465 0.90254062414169312 0.95252037048339844
0.94787108898162842 0.91914761066436768 0.9558221697807312
