luts/instant_pro/fuji_fp-3000b_negative_-.cube
# Created by: G'MIC (https://gmic.eu)
TITLE "fuji_fp-3000b_negative_-"
# LUT size
LUT_3D_SIZE 5
# Data domain
DOMAIN_MIN 0.0 0.0 0.0
DOMAIN_MAX 1.0 1.0 1.0
# LUT data points
0.042409680783748627 0.042409680783748627 0.042409680783748627
0.094859778881072998 0.094859778881072998 0.094859778881072998
0.26587995886802673 0.26587995886802673 0.26587995886802673
0.45832142233848572 0.45832142233848572 0.45832142233848572
0.65828359127044678 0.65828359127044678 0.65828359127044678
0.15600867569446564 0.15600867569446564 0.15600867569446564
0.19132065773010254 0.19132065773010254 0.19132065773010254
0.35141721367835999 0.35141721367835999 0.35141721367835999
0.52495992183685303 0.52495992183685303 0.52495992183685303
0.69572710990905762 0.69572710990905762 0.69572710990905762
0.38031414151191711 0.38031414151191711 0.38031414151191711
0.37517771124839783 0.37517771124839783 0.37517771124839783
0.46170240640640259 0.46170240640640259 0.46170240640640259
0.60628706216812134 0.60628706216812134 0.60628706216812134
0.7559705376625061 0.7559705376625061 0.7559705376625061
0.61945235729217529 0.61945235729217529 0.61945235729217529
0.59483271837234497 0.59483271837234497 0.59483271837234497
0.62718290090560913 0.62718290090560913 0.62718290090560913
0.72076475620269775 0.72076475620269775 0.72076475620269775
0.83245468139648438 0.83245468139648438 0.83245468139648438
0.85720115900039673 0.85720115900039673 0.85720115900039673
0.84641391038894653 0.84641391038894653 0.84641391038894653
0.84634244441986084 0.84634244441986084 0.84634244441986084
0.87427622079849243 0.87427622079849243 0.87427622079849243
0.93171656131744385 0.93171656131744385 0.93171656131744385
0.15750725567340851 0.15750725567340851 0.15750725567340851
0.22257812321186066 0.22257812321186066 0.22257812321186066
0.34838998317718506 0.34838998317718506 0.34838998317718506
0.49886846542358398 0.49886846542358398 0.49886846542358398
0.66898024082183838 0.66898024082183838 0.66898024082183838
0.24026419222354889 0.24026419222354889 0.24026419222354889
0.2744964063167572 0.2744964063167572 0.2744964063167572
0.39137735962867737 0.39137735962867737 0.39137735962867737
0.54824143648147583 0.54824143648147583 0.54824143648147583
0.70298618078231812 0.70298618078231812 0.70298618078231812
0.47558456659317017 0.47558456659317017 0.47558456659317017
0.45235112309455872 0.45235112309455872 0.45235112309455872
0.4913470447063446 0.4913470447063446 0.4913470447063446
0.61913639307022095 0.61913639307022095 0.61913639307022095
0.76750457286834717 0.76750457286834717 0.76750457286834717
0.68368160724639893 0.68368160724639893 0.68368160724639893
0.65527242422103882 0.65527242422103882 0.65527242422103882
0.65084207057952881 0.65084207057952881 0.65084207057952881
0.73069489002227783 0.73069489002227783 0.73069489002227783
0.84052568674087524 0.84052568674087524 0.84052568674087524
0.88394856452941895 0.88394856452941895 0.88394856452941895
0.87057101726531982 0.87057101726531982 0.87057101726531982
0.857951819896698 0.857951819896698 0.857951819896698
0.88169974088668823 0.88169974088668823 0.88169974088668823
0.9381338357925415 0.9381338357925415 0.9381338357925415
0.39704433083534241 0.39704433083534241 0.39704433083534241
0.45765748620033264 0.45765748620033264 0.45765748620033264
0.51180684566497803 0.51180684566497803 0.51180684566497803
0.60105234384536743 0.60105234384536743 0.60105234384536743
0.73681128025054932 0.73681128025054932 0.73681128025054932
0.41446399688720703 0.41446399688720703 0.41446399688720703
0.46464633941650391 0.46464633941650391 0.46464633941650391
0.53046107292175293 0.53046107292175293 0.53046107292175293
0.62898939847946167 0.62898939847946167 0.62898939847946167
0.7527698278427124 0.7527698278427124 0.7527698278427124
0.53144955635070801 0.53144955635070801 0.53144955635070801
0.54984301328659058 0.54984301328659058 0.54984301328659058
0.5892714262008667 0.5892714262008667 0.5892714262008667
0.66654831171035767 0.66654831171035767 0.66654831171035767
0.78333669900894165 0.78333669900894165 0.78333669900894165
0.73685938119888306 0.73685938119888306 0.73685938119888306
0.73494088649749756 0.73494088649749756 0.73494088649749756
0.7215084433555603 0.7215084433555603 0.7215084433555603
0.76511567831039429 0.76511567831039429 0.76511567831039429
0.85024380683898926 0.85024380683898926 0.85024380683898926
0.90373909473419189 0.90373909473419189 0.90373909473419189
0.90312045812606812 0.90312045812606812 0.90312045812606812
0.88840222358703613 0.88840222358703613 0.88840222358703613
0.90269476175308228 0.90269476175308228 0.90269476175308228
0.94762825965881348 0.94762825965881348 0.94762825965881348
0.63828688859939575 0.63828688859939575 0.63828688859939575
0.65832978487014771 0.65832978487014771 0.65832978487014771
0.72308921813964844 0.72308921813964844 0.72308921813964844
0.75690966844558716 0.75690966844558716 0.75690966844558716
0.81005674600601196 0.81005674600601196 0.81005674600601196
0.66202759742736816 0.66202759742736816 0.66202759742736816
0.6676134467124939 0.6676134467124939 0.6676134467124939
0.72166967391967773 0.72166967391967773 0.72166967391967773
0.76011598110198975 0.76011598110198975 0.76011598110198975
0.81549936532974243 0.81549936532974243 0.81549936532974243
0.67135351896286011 0.67135351896286011 0.67135351896286011
0.6743013858795166 0.6743013858795166 0.6743013858795166
0.72552555799484253 0.72552555799484253 0.72552555799484253
0.77310514450073242 0.77310514450073242 0.77310514450073242
0.83385449647903442 0.83385449647903442 0.83385449647903442
0.78493279218673706 0.78493279218673706 0.78493279218673706
0.78162205219268799 0.78162205219268799 0.78162205219268799
0.79459226131439209 0.79459226131439209 0.79459226131439209
0.83202695846557617 0.83202695846557617 0.83202695846557617
0.88441187143325806 0.88441187143325806 0.88441187143325806
0.9143863320350647 0.9143863320350647 0.9143863320350647
0.9208686351776123 0.9208686351776123 0.9208686351776123
0.91856354475021362 0.91856354475021362 0.91856354475021362
0.92717045545578003 0.92717045545578003 0.92717045545578003
0.95413541793823242 0.95413541793823242 0.95413541793823242
0.87705200910568237 0.87705200910568237 0.87705200910568237
0.88486874103546143 0.88486874103546143 0.88486874103546143
0.91596150398254395 0.91596150398254395 0.91596150398254395
0.93542015552520752 0.93542015552520752 0.93542015552520752
0.93391579389572144 0.93391579389572144 0.93391579389572144
0.87868469953536987 0.87868469953536987 0.87868469953536987
0.88526058197021484 0.88526058197021484 0.88526058197021484
0.9177926778793335 0.9177926778793335 0.9177926778793335
0.94211143255233765 0.94211143255233765 0.94211143255233765
0.92964041233062744 0.92964041233062744 0.92964041233062744
0.86361885070800781 0.86361885070800781 0.86361885070800781
0.86913985013961792 0.86913985013961792 0.86913985013961792
0.90794354677200317 0.90794354677200317 0.90794354677200317
0.93487513065338135 0.93487513065338135 0.93487513065338135
0.9430699348449707 0.9430699348449707 0.9430699348449707
0.8847392201423645 0.8847392201423645 0.8847392201423645
0.89077121019363403 0.89077121019363403 0.89077121019363403
0.91661989688873291 0.91661989688873291 0.91661989688873291
0.94093519449234009 0.94093519449234009 0.94093519449234009
0.96247696876525879 0.96247696876525879 0.96247696876525879
0.95185261964797974 0.95185261964797974 0.95185261964797974
0.96218502521514893 0.96218502521514893 0.96218502521514893
0.97227281332015991 0.97227281332015991 0.97227281332015991
0.97455096244812012 0.97455096244812012 0.97455096244812012
0.97955691814422607 0.97955691814422607 0.97955691814422607
