luts/instant_pro/fuji_fp-3000b_negative_+++.cube
# Created by: G'MIC (https://gmic.eu)
TITLE "fuji_fp-3000b_negative_+++"
# LUT size
LUT_3D_SIZE 13
# Data domain
DOMAIN_MIN 0.0 0.0 0.0
DOMAIN_MAX 1.0 1.0 1.0
# LUT data points
0.11912251263856888 0.11912251263856888 0.11912251263856888
0.11753209680318832 0.11753209680318832 0.11753209680318832
0.12156215310096741 0.12156215310096741 0.12156215310096741
0.13377372920513153 0.13377372920513153 0.13377372920513153
0.15618917346000671 0.15618917346000671 0.15618917346000671
0.19011229276657104 0.19011229276657104 0.19011229276657104
0.23516787588596344 0.23516787588596344 0.23516787588596344
0.29011636972427368 0.29011636972427368 0.29011636972427368
0.35346585512161255 0.35346585512161255 0.35346585512161255
0.42052289843559265 0.42052289843559265 0.42052289843559265
0.48630812764167786 0.48630812764167786 0.48630812764167786
0.54827821254730225 0.54827821254730225 0.54827821254730225
0.60292011499404907 0.60292011499404907 0.60292011499404907
0.13115726411342621 0.13115726411342621 0.13115726411342621
0.12828727066516876 0.12828727066516876 0.12828727066516876
0.13137030601501465 0.13137030601501465 0.13137030601501465
0.14311395585536957 0.14311395585536957 0.14311395585536957
0.16603359580039978 0.16603359580039978 0.16603359580039978
0.20072995126247406 0.20072995126247406 0.20072995126247406
0.24655930697917938 0.24655930697917938 0.24655930697917938
0.30215910077095032 0.30215910077095032 0.30215910077095032
0.36560007929801941 0.36560007929801941 0.36560007929801941
0.43269306421279907 0.43269306421279907 0.43269306421279907
0.49795687198638916 0.49795687198638916 0.49795687198638916
0.55860763788223267 0.55860763788223267 0.55860763788223267
0.61175268888473511 0.61175268888473511 0.61175268888473511
0.15281201899051666 0.15281201899051666 0.15281201899051666
0.14863638579845428 0.14863638579845428 0.14863638579845428
0.15030486881732941 0.15030486881732941 0.15030486881732941
0.16134686768054962 0.16134686768054962 0.16134686768054962
0.18451236188411713 0.18451236188411713 0.18451236188411713
0.22048449516296387 0.22048449516296387 0.22048449516296387
0.26772329211235046 0.26772329211235046 0.26772329211235046
0.3236534595489502 0.3236534595489502 0.3236534595489502
0.3859003484249115 0.3859003484249115 0.3859003484249115
0.45039823651313782 0.45039823651313782 0.45039823651313782
0.51267367601394653 0.51267367601394653 0.51267367601394653
0.5703241229057312 0.5703241229057312 0.5703241229057312
0.62049776315689087 0.62049776315689087 0.62049776315689087
0.1863640695810318 0.1863640695810318 0.1863640695810318
0.18026655912399292 0.18026655912399292 0.18026655912399292
0.17942449450492859 0.17942449450492859 0.17942449450492859
0.18900886178016663 0.18900886178016663 0.18900886178016663
0.21211084723472595 0.21211084723472595 0.21211084723472595
0.2491508275270462 0.2491508275270462 0.2491508275270462
0.29755851626396179 0.29755851626396179 0.29755851626396179
0.35324254631996155 0.35324254631996155 0.35324254631996155
0.41318124532699585 0.41318124532699585 0.41318124532699585
0.47378018498420715 0.47378018498420715 0.47378018498420715
0.53178715705871582 0.53178715705871582 0.53178715705871582
0.58481192588806152 0.58481192588806152 0.58481192588806152
0.63116663694381714 0.63116663694381714 0.63116663694381714
0.23113031685352325 0.23113031685352325 0.23113031685352325
0.22274789214134216 0.22274789214134216 0.22274789214134216
0.21861211955547333 0.21861211955547333 0.21861211955547333
0.2253359854221344 0.2253359854221344 0.2253359854221344
0.24780787527561188 0.24780787527561188 0.24780787527561188
0.28534391522407532 0.28534391522407532 0.28534391522407532
0.33385616540908813 0.33385616540908813 0.33385616540908813
0.3887142539024353 0.3887142539024353 0.3887142539024353
0.44556650519371033 0.44556650519371033 0.44556650519371033
0.50192499160766602 0.50192499160766602 0.50192499160766602
0.55479717254638672 0.55479717254638672 0.55479717254638672
0.60241097211837769 0.60241097211837769 0.60241097211837769
0.64378517866134644 0.64378517866134644 0.64378517866134644
0.28506654500961304 0.28506654500961304 0.28506654500961304
0.27403992414474487 0.27403992414474487 0.27403992414474487
0.26602303981781006 0.26602303981781006 0.26602303981781006
0.26923456788063049 0.26923456788063049 0.26923456788063049
0.29000160098075867 0.29000160098075867 0.29000160098075867
0.32707849144935608 0.32707849144935608 0.32707849144935608
0.37471097707748413 0.37471097707748413 0.37471097707748413
0.42743209004402161 0.42743209004402161 0.42743209004402161
0.48111739754676819 0.48111739754676819 0.48111739754676819
0.53301775455474854 0.53301775455474854 0.53301775455474854
0.58054763078689575 0.58054763078689575 0.58054763078689575
0.62207180261611938 0.62207180261611938 0.62207180261611938
0.65777367353439331 0.65777367353439331 0.65777367353439331
0.34557059407234192 0.34557059407234192 0.34557059407234192
0.33325052261352539 0.33325052261352539 0.33325052261352539
0.32229757308959961 0.32229757308959961 0.32229757308959961
0.32159340381622314 0.32159340381622314 0.32159340381622314
0.34001368284225464 0.34001368284225464 0.34001368284225464
0.3747255802154541 0.3747255802154541 0.3747255802154541
0.41912305355072021 0.41912305355072021 0.41912305355072021
0.46815910935401917 0.46815910935401917 0.46815910935401917
0.51789408922195435 0.51789408922195435 0.51789408922195435
0.56508201360702515 0.56508201360702515 0.56508201360702515
0.60713231563568115 0.60713231563568115 0.60713231563568115
0.64214229583740234 0.64214229583740234 0.64214229583740234
0.6718941330909729 0.6718941330909729 0.6718941330909729
0.41072884202003479 0.41072884202003479 0.41072884202003479
0.39991867542266846 0.39991867542266846 0.39991867542266846
0.38933894038200378 0.38933894038200378 0.38933894038200378
0.38728624582290649 0.38728624582290649 0.38728624582290649
0.40109285712242126 0.40109285712242126 0.40109285712242126
0.42946141958236694 0.42946141958236694 0.42946141958236694
0.46766787767410278 0.46766787767410278 0.46766787767410278
0.51042908430099487 0.51042908430099487 0.51042908430099487
0.55397254228591919 0.55397254228591919 0.55397254228591919
0.59547662734985352 0.59547662734985352 0.59547662734985352
0.63137984275817871 0.63137984275817871 0.63137984275817871
0.65990144014358521 0.65990144014358521 0.65990144014358521
0.68407899141311646 0.68407899141311646 0.68407899141311646
0.47788390517234802 0.47788390517234802 0.47788390517234802
0.47071543335914612 0.47071543335914612 0.47071543335914612
0.46350780129432678 0.46350780129432678 0.46350780129432678
0.4619956910610199 0.4619956910610199 0.4619956910610199
0.47080731391906738 0.47080731391906738 0.47080731391906738
0.49093568325042725 0.49093568325042725 0.49093568325042725
0.51977723836898804 0.51977723836898804 0.51977723836898804
0.5534406304359436 0.5534406304359436 0.5534406304359436
0.58839583396911621 0.58839583396911621 0.58839583396911621
0.6216500997543335 0.6216500997543335 0.6216500997543335
0.65049690008163452 0.65049690008163452 0.65049690008163452
0.67386871576309204 0.67386871576309204 0.67386871576309204
0.69367098808288574 0.69367098808288574 0.69367098808288574
0.54360508918762207 0.54360508918762207 0.54360508918762207
0.54117828607559204 0.54117828607559204 0.54117828607559204
0.53839218616485596 0.53839218616485596 0.53839218616485596
0.53830695152282715 0.53830695152282715 0.53830695152282715
0.54303169250488281 0.54303169250488281 0.54303169250488281
0.55462735891342163 0.55462735891342163 0.55462735891342163
0.57296860218048096 0.57296860218048096 0.57296860218048096
0.5959169864654541 0.5959169864654541 0.5959169864654541
0.62090492248535156 0.62090492248535156 0.62090492248535156
0.64519113302230835 0.64519113302230835 0.64519113302230835
0.66660916805267334 0.66660916805267334 0.66660916805267334
0.68481433391571045 0.68481433391571045 0.68481433391571045
0.70069503784179688 0.70069503784179688 0.70069503784179688
0.60412824153900146 0.60412824153900146 0.60412824153900146
0.6059918999671936 0.6059918999671936 0.6059918999671936
0.60757821798324585 0.60757821798324585 0.60757821798324585
0.60955846309661865 0.60955846309661865 0.60955846309661865
0.61067193746566772 0.61067193746566772 0.61067193746566772
0.61445349454879761 0.61445349454879761 0.61445349454879761
0.62298840284347534 0.62298840284347534 0.62298840284347534
0.63608449697494507 0.63608449697494507 0.63608449697494507
0.65137100219726562 0.65137100219726562 0.65137100219726562
0.66702783107757568 0.66702783107757568 0.66702783107757568
0.68142598867416382 0.68142598867416382 0.68142598867416382
0.69430005550384521 0.69430005550384521 0.69430005550384521
0.70618563890457153 0.70618563890457153 0.70618563890457153
0.65679347515106201 0.65679347515106201 0.65679347515106201
0.661185622215271 0.661185622215271 0.661185622215271
0.6649366021156311 0.6649366021156311 0.6649366021156311
0.66791272163391113 0.66791272163391113 0.66791272163391113
0.66643548011779785 0.66643548011779785 0.66643548011779785
0.66509199142456055 0.66509199142456055 0.66509199142456055
0.66677790880203247 0.66677790880203247 0.66677790880203247
0.67176836729049683 0.67176836729049683 0.67176836729049683
0.67912667989730835 0.67912667989730835 0.67912667989730835
0.68744403123855591 0.68744403123855591 0.68744403123855591
0.6954960823059082 0.6954960823059082 0.6954960823059082
0.70316684246063232 0.70316684246063232 0.70316684246063232
0.71132981777191162 0.71132981777191162 0.71132981777191162
0.69994419813156128 0.69994419813156128 0.69994419813156128
0.70473188161849976 0.70473188161849976 0.70473188161849976
0.7081531286239624 0.7081531286239624 0.7081531286239624
0.70946168899536133 0.70946168899536133 0.70946168899536133
0.70760667324066162 0.70760667324066162 0.70760667324066162
0.70434898138046265 0.70434898138046265 0.70434898138046265
0.7021220326423645 0.7021220326423645 0.7021220326423645
0.70223820209503174 0.70223820209503174 0.70223820209503174
0.70390099287033081 0.70390099287033081 0.70390099287033081
0.7063254714012146 0.7063254714012146 0.7063254714012146
0.70933932065963745 0.70933932065963745 0.70933932065963745
0.71279442310333252 0.71279442310333252 0.71279442310333252
0.71727287769317627 0.71727287769317627 0.71727287769317627
0.13007757067680359 0.13007757067680359 0.13007757067680359
0.12889030575752258 0.12889030575752258 0.12889030575752258
0.13299144804477692 0.13299144804477692 0.13299144804477692
0.14497198164463043 0.14497198164463043 0.14497198164463043
0.1669715940952301 0.1669715940952301 0.1669715940952301
0.20127268135547638 0.20127268135547638 0.20127268135547638
0.24820670485496521 0.24820670485496521 0.24820670485496521
0.30582821369171143 0.30582821369171143 0.30582821369171143
0.37016013264656067 0.37016013264656067 0.37016013264656067
0.4356321394443512 0.4356321394443512 0.4356321394443512
0.49904778599739075 0.49904778599739075 0.49904778599739075
0.55805003643035889 0.55805003643035889 0.55805003643035889
0.60978049039840698 0.60978049039840698 0.60978049039840698
0.14034241437911987 0.14034241437911987 0.14034241437911987
0.13823436200618744 0.13823436200618744 0.13823436200618744
0.14125564694404602 0.14125564694404602 0.14125564694404602
0.15274611115455627 0.15274611115455627 0.15274611115455627
0.17562192678451538 0.17562192678451538 0.17562192678451538
0.2112479954957962 0.2112479954957962 0.2112479954957962
0.25903883576393127 0.25903883576393127 0.25903883576393127
0.31691399216651917 0.31691399216651917 0.31691399216651917
0.38086912035942078 0.38086912035942078 0.38086912035942078
0.4464074969291687 0.4464074969291687 0.4464074969291687
0.50943630933761597 0.50943630933761597 0.50943630933761597
0.56752151250839233 0.56752151250839233 0.56752151250839233
0.61838585138320923 0.61838585138320923 0.61838585138320923
0.16194087266921997 0.16194087266921997 0.16194087266921997
0.15842138230800629 0.15842138230800629 0.15842138230800629
0.15983112156391144 0.15983112156391144 0.15983112156391144
0.1701936274766922 0.1701936274766922 0.1701936274766922
0.19346049427986145 0.19346049427986145 0.19346049427986145
0.2307535707950592 0.2307535707950592 0.2307535707950592
0.27950060367584229 0.27950060367584229 0.27950060367584229
0.33677655458450317 0.33677655458450317 0.33677655458450317
0.39899879693984985 0.39899879693984985 0.39899879693984985
0.46223551034927368 0.46223551034927368 0.46223551034927368
0.52290022373199463 0.52290022373199463 0.52290022373199463
0.57828682661056519 0.57828682661056519 0.57828682661056519
0.62691527605056763 0.62691527605056763 0.62691527605056763
0.19808067381381989 0.19808067381381989 0.19808067381381989
0.19247125089168549 0.19247125089168549 0.19247125089168549
0.19080343842506409 0.19080343842506409 0.19080343842506409
0.19905754923820496 0.19905754923820496 0.19905754923820496
0.22184650599956512 0.22184650599956512 0.22184650599956512
0.2600712776184082 0.2600712776184082 0.2600712776184082
0.30953505635261536 0.30953505635261536 0.30953505635261536
0.36560380458831787 0.36560380458831787 0.36560380458831787
0.42494618892669678 0.42494618892669678 0.42494618892669678
0.48412695527076721 0.48412695527076721 0.48412695527076721
0.54065889120101929 0.54065889120101929 0.54065889120101929
0.59206277132034302 0.59206277132034302 0.59206277132034302
0.63721877336502075 0.63721877336502075 0.63721877336502075
0.24806049466133118 0.24806049466133118 0.24806049466133118
0.23993928730487823 0.23993928730487823 0.23993928730487823
0.23411731421947479 0.23411731421947479 0.23411731421947479
0.23838192224502563 0.23838192224502563 0.23838192224502563
0.2594587504863739 0.2594587504863739 0.2594587504863739
0.29747989773750305 0.29747989773750305 0.29747989773750305
0.34695014357566833 0.34695014357566833 0.34695014357566833
0.40127956867218018 0.40127956867218018 0.40127956867218018
0.45672833919525146 0.45672833919525146 0.45672833919525146
0.51117074489593506 0.51117074489593506 0.51117074489593506
0.56244742870330811 0.56244742870330811 0.56244742870330811
0.60874289274215698 0.60874289274215698 0.60874289274215698
0.64921784400939941 0.64921784400939941 0.64921784400939941
0.30681702494621277 0.30681702494621277 0.30681702494621277
0.29609242081642151 0.29609242081642151 0.29609242081642151
0.28568485379219055 0.28568485379219055 0.28568485379219055
0.28551888465881348 0.28551888465881348 0.28551888465881348
0.30350041389465332 0.30350041389465332 0.30350041389465332
0.33985430002212524 0.33985430002212524 0.33985430002212524
0.38801679015159607 0.38801679015159607 0.38801679015159607
0.43992909789085388 0.43992909789085388 0.43992909789085388
0.49154624342918396 0.49154624342918396 0.49154624342918396
0.54128050804138184 0.54128050804138184 0.54128050804138184
0.58710569143295288 0.58710569143295288 0.58710569143295288
0.6277804970741272 0.6277804970741272 0.6277804970741272
0.66261523962020874 0.66261523962020874 0.66261523962020874
0.3698594868183136 0.3698594868183136 0.3698594868183136
0.35746824741363525 0.35746824741363525 0.35746824741363525
0.34399810433387756 0.34399810433387756 0.34399810433387756
0.33947023749351501 0.33947023749351501 0.33947023749351501
0.35302528738975525 0.35302528738975525 0.35302528738975525
0.38584461808204651 0.38584461808204651 0.38584461808204651
0.43051207065582275 0.43051207065582275 0.43051207065582275
0.47902724146842957 0.47902724146842957 0.47902724146842957
0.52677339315414429 0.52677339315414429 0.52677339315414429
0.57197117805480957 0.57197117805480957 0.57197117805480957
0.61218464374542236 0.61218464374542236 0.61218464374542236
0.64661699533462524 0.64661699533462524 0.64661699533462524
0.67590785026550293 0.67590785026550293 0.67590785026550293
0.43486568331718445 0.43486568331718445 0.43486568331718445
0.42291420698165894 0.42291420698165894 0.42291420698165894
0.40942192077636719 0.40942192077636719 0.40942192077636719
0.40214395523071289 0.40214395523071289 0.40214395523071289
0.41073691844940186 0.41073691844940186 0.41073691844940186
0.43770530819892883 0.43770530819892883 0.43770530819892883
0.47615396976470947 0.47615396976470947 0.47615396976470947
0.51888018846511841 0.51888018846511841 0.51888018846511841
0.56114357709884644 0.56114357709884644 0.56114357709884644
0.60075706243515015 0.60075706243515015 0.60075706243515015
0.6351468563079834 0.6351468563079834 0.6351468563079834
0.66353529691696167 0.66353529691696167 0.66353529691696167
0.68745970726013184 0.68745970726013184 0.68745970726013184
0.49987685680389404 0.49987685680389404 0.49987685680389404
0.49087357521057129 0.49087357521057129 0.49087357521057129
0.48027637600898743 0.48027637600898743 0.48027637600898743
0.47358313202857971 0.47358313202857971 0.47358313202857971
0.47813132405281067 0.47813132405281067 0.47813132405281067
0.49701273441314697 0.49701273441314697 0.49701273441314697
0.5261833667755127 0.5261833667755127 0.5261833667755127
0.55990320444107056 0.55990320444107056 0.55990320444107056
0.5940474271774292 0.5940474271774292 0.5940474271774292
0.62626516819000244 0.62626516819000244 0.62626516819000244
0.65411293506622314 0.65411293506622314 0.65411293506622314
0.67712384462356567 0.67712384462356567 0.67712384462356567
0.69666808843612671 0.69666808843612671 0.69666808843612671
0.56223201751708984 0.56223201751708984 0.56223201751708984
0.55729633569717407 0.55729633569717407 0.55729633569717407
0.55097222328186035 0.55097222328186035 0.55097222328186035
0.54661333560943604 0.54661333560943604 0.54661333560943604
0.54850131273269653 0.54850131273269653 0.54850131273269653
0.55931377410888672 0.55931377410888672 0.55931377410888672
0.57784843444824219 0.57784843444824219 0.57784843444824219
0.60109817981719971 0.60109817981719971 0.60109817981719971
0.62560194730758667 0.62560194730758667 0.62560194730758667
0.64907330274581909 0.64907330274581909 0.64907330274581909
0.67016500234603882 0.67016500234603882 0.67016500234603882
0.68784070014953613 0.68784070014953613 0.68784070014953613
0.70344364643096924 0.70344364643096924 0.70344364643096924
0.61780810356140137 0.61780810356140137 0.61780810356140137
0.61730849742889404 0.61730849742889404 0.61730849742889404
0.6153186559677124 0.6153186559677124 0.6153186559677124
0.61346596479415894 0.61346596479415894 0.61346596479415894
0.61348718404769897 0.61348718404769897 0.61348718404769897
0.61727839708328247 0.61727839708328247 0.61727839708328247
0.62657821178436279 0.62657821178436279 0.62657821178436279
0.63987267017364502 0.63987267017364502 0.63987267017364502
0.65500235557556152 0.65500235557556152 0.65500235557556152
0.67041921615600586 0.67041921615600586 0.67041921615600586
0.684528648853302 0.684528648853302 0.684528648853302
0.69720631837844849 0.69720631837844849 0.69720631837844849
0.70890903472900391 0.70890903472900391 0.70890903472900391
0.6655040979385376 0.6655040979385376 0.6655040979385376
0.66754525899887085 0.66754525899887085 0.66754525899887085
0.66847896575927734 0.66847896575927734 0.66847896575927734
0.66833239793777466 0.66833239793777466 0.66833239793777466
0.66646867990493774 0.66646867990493774 0.66646867990493774
0.66628873348236084 0.66628873348236084 0.66628873348236084
0.66846555471420288 0.66846555471420288 0.66846555471420288
0.67432016134262085 0.67432016134262085 0.67432016134262085
0.68175578117370605 0.68175578117370605 0.68175578117370605
0.68996995687484741 0.68996995687484741 0.68996995687484741
0.69810038805007935 0.69810038805007935 0.69810038805007935
0.70585805177688599 0.70585805177688599 0.70585805177688599
0.71399390697479248 0.71399390697479248 0.71399390697479248
0.70420545339584351 0.70420545339584351 0.70420545339584351
0.70739352703094482 0.70739352703094482 0.70739352703094482
0.70883893966674805 0.70883893966674805 0.70883893966674805
0.70870345830917358 0.70870345830917358 0.70870345830917358
0.70655405521392822 0.70655405521392822 0.70655405521392822
0.70428401231765747 0.70428401231765747 0.70428401231765747
0.70298784971237183 0.70298784971237183 0.70298784971237183
0.7034299373626709 0.7034299373626709 0.7034299373626709
0.70537722110748291 0.70537722110748291 0.70537722110748291
0.70797955989837646 0.70797955989837646 0.70797955989837646
0.71139514446258545 0.71139514446258545 0.71139514446258545
0.71510607004165649 0.71510607004165649 0.71510607004165649
0.72012639045715332 0.72012639045715332 0.72012639045715332
0.14934474229812622 0.14934474229812622 0.14934474229812622
0.15002356469631195 0.15002356469631195 0.15002356469631195
0.15538635849952698 0.15538635849952698 0.15538635849952698
0.16724894940853119 0.16724894940853119 0.16724894940853119
0.18814153969287872 0.18814153969287872 0.18814153969287872
0.22099804878234863 0.22099804878234863 0.22099804878234863
0.26890978217124939 0.26890978217124939 0.26890978217124939
0.32906222343444824 0.32906222343444824 0.32906222343444824
0.39290952682495117 0.39290952682495117 0.39290952682495117
0.45479691028594971 0.45479691028594971 0.45479691028594971
0.51313132047653198 0.51313132047653198 0.51313132047653198
0.56710577011108398 0.56710577011108398 0.56710577011108398
0.61525315046310425 0.61525315046310425 0.61525315046310425
0.15692047774791718 0.15692047774791718 0.15692047774791718
0.15673376619815826 0.15673376619815826 0.15673376619815826
0.16173332929611206 0.16173332929611206 0.16173332929611206
0.17385806143283844 0.17385806143283844 0.17385806143283844
0.19631363451480865 0.19631363451480865 0.19631363451480865
0.23119610548019409 0.23119610548019409 0.23119610548019409
0.27933001518249512 0.27933001518249512 0.27933001518249512
0.33804115653038025 0.33804115653038025 0.33804115653038025
0.40108218789100647 0.40108218789100647 0.40108218789100647
0.46323674917221069 0.46323674917221069 0.46323674917221069
0.52202397584915161 0.52202397584915161 0.52202397584915161
0.5759350061416626 0.5759350061416626 0.5759350061416626
0.62365734577178955 0.62365734577178955 0.62365734577178955
0.17688125371932983 0.17688125371932983 0.17688125371932983
0.17592358589172363 0.17592358589172363 0.17592358589172363
0.17889922857284546 0.17889922857284546 0.17889922857284546
0.18944960832595825 0.18944960832595825 0.18944960832595825
0.21287406980991364 0.21287406980991364 0.21287406980991364
0.25008749961853027 0.25008749961853027 0.25008749961853027
0.29847124218940735 0.29847124218940735 0.29847124218940735
0.35531899333000183 0.35531899333000183 0.35531899333000183
0.41554805636405945 0.41554805636405945 0.41554805636405945
0.47598552703857422 0.47598552703857422 0.47598552703857422
0.53354930877685547 0.53354930877685547 0.53354930877685547
0.58592450618743896 0.58592450618743896 0.58592450618743896
0.63202017545700073 0.63202017545700073 0.63202017545700073
0.21489325165748596 0.21489325165748596 0.21489325165748596
0.21217906475067139 0.21217906475067139 0.21217906475067139
0.2112022340297699 0.2112022340297699 0.2112022340297699
0.21814678609371185 0.21814678609371185 0.21814678609371185
0.24067525565624237 0.24067525565624237 0.24067525565624237
0.27898937463760376 0.27898937463760376 0.27898937463760376
0.32780289649963379 0.32780289649963379 0.32780289649963379
0.38250449299812317 0.38250449299812317 0.38250449299812317
0.43909573554992676 0.43909573554992676 0.43909573554992676
0.49577781558036804 0.49577781558036804 0.49577781558036804
0.54964166879653931 0.54964166879653931 0.54964166879653931
0.59862655401229858 0.59862655401229858 0.59862655401229858
0.64169371128082275 0.64169371128082275 0.64169371128082275
0.27106264233589172 0.27106264233589172 0.27106264233589172
0.26587569713592529 0.26587569713592529 0.26587569713592529
0.2590082585811615 0.2590082585811615 0.2590082585811615
0.260610431432724 0.260610431432724 0.260610431432724
0.27997496724128723 0.27997496724128723 0.27997496724128723
0.31753796339035034 0.31753796339035034 0.31753796339035034
0.36643478274345398 0.36643478274345398 0.36643478274345398
0.41812145709991455 0.41812145709991455 0.41812145709991455
0.46993488073348999 0.46993488073348999 0.46993488073348999
