luts/instant_pro/fuji_fp-100c_cool.cube
# Created by: G'MIC (https://gmic.eu)
TITLE "fuji_fp-100c_cool"
# LUT size
LUT_3D_SIZE 7
# Data domain
DOMAIN_MIN 0.0 0.0 0.0
DOMAIN_MAX 1.0 1.0 1.0
# LUT data points
0.029020152986049652 0.067983426153659821 0.087669044733047485
0.11904838681221008 0.064112946391105652 0.098048493266105652
0.2887423038482666 0.039927300065755844 0.098325736820697784
0.50987207889556885 0.0046667661517858505 0.10794945806264877
0.69464033842086792 0.0069706039503216743 0.11742441356182098
0.83877849578857422 0.015814254060387611 0.12704117596149445
0.95780718326568604 0.15568970143795013 0.15265057981014252
0.019049925729632378 0.13955032825469971 0.10314377397298813
0.1430627703666687 0.14952316880226135 0.099285870790481567
0.33490398526191711 0.16221918165683746 0.099141739308834076
0.54395526647567749 0.14792825281620026 0.11431249231100082
0.71112126111984253 0.13858954608440399 0.12477529048919678
0.85008329153060913 0.18646240234375 0.13861449062824249
0.96318167448043823 0.2619665265083313 0.16157357394695282
0.0036539563443511724 0.30714446306228638 0.12788859009742737
0.13999173045158386 0.31777828931808472 0.12600460648536682
0.35626083612442017 0.34043654799461365 0.082214340567588806
0.56766611337661743 0.35918530821800232 0.071045055985450745
0.73285210132598877 0.36913266777992249 0.13209883868694305
0.85940843820571899 0.38556236028671265 0.16584250330924988
0.96632593870162964 0.41755509376525879 0.19233819842338562
0.0027623046189546585 0.48252001404762268 0.15096798539161682
0.091538295149803162 0.48443508148193359 0.15508216619491577
0.31694233417510986 0.49517056345939636 0.1247720941901207
0.52146929502487183 0.51752316951751709 0.030929401516914368
0.70626389980316162 0.52981328964233398 0.028949422761797905
0.8488084077835083 0.55490458011627197 0.14247490465641022
0.96276992559432983 0.58195072412490845 0.2457597553730011
0.006171761080622673 0.62585437297821045 0.19539172947406769
0.091449350118637085 0.62431114912033081 0.18959440290927887
0.31112447381019592 0.62185066938400269 0.18112392723560333
0.48327350616455078 0.63794952630996704 0.13306425511837006
0.65492957830429077 0.66235131025314331 0.027377782389521599
0.8131224513053894 0.67640042304992676 0.017442487180233002
0.94290745258331299 0.70239055156707764 0.18093566596508026
0.075682051479816437 0.76678502559661865 0.25736197829246521
0.19988353550434113 0.76029253005981445 0.2602350115776062
0.35186073184013367 0.75369387865066528 0.25683203339576721
0.49175143241882324 0.75884932279586792 0.23728133738040924
0.63891732692718506 0.77993428707122803 0.18600407242774963
0.78738486766815186 0.79811191558837891 0.074483282864093781
0.92503148317337036 0.81211131811141968 0.018432063981890678
0.39734295010566711 0.9102480411529541 0.44540345668792725
0.43214082717895508 0.90615379810333252 0.4429110586643219
0.50822156667709351 0.90379410982131958 0.44696015119552612
0.60851097106933594 0.90384691953659058 0.45442834496498108
0.70886510610580444 0.9149935245513916 0.44143742322921753
0.82277011871337891 0.92841076850891113 0.41092613339424133
0.9413488507270813 0.94039678573608398 0.35681909322738647
0.026180805638432503 0.064463041722774506 0.17494465410709381
0.14435778558254242 0.048542171716690063 0.18567444384098053
0.28482356667518616 0.053974032402038574 0.18686304986476898
0.51107829809188843 0.0086867837235331535 0.20143452286720276
0.69667279720306396 0.004208284430205822 0.20569659769535065
0.83268839120864868 0.053138777613639832 0.21625591814517975
0.95390778779983521 0.17660702764987946 0.22896502912044525
0.014528686180710793 0.15658418834209442 0.20586563646793365
0.15828579664230347 0.16333428025245667 0.2101585865020752
0.34776335954666138 0.17880879342556 0.21689645946025848
0.5492749810218811 0.16841338574886322 0.22621020674705505
0.71310329437255859 0.17402154207229614 0.22809654474258423
0.84413081407546997 0.2100972980260849 0.23196861147880554
0.96132463216781616 0.27931466698646545 0.24326217174530029
0.0068840323947370052 0.3540475070476532 0.24861130118370056
0.15562063455581665 0.35428479313850403 0.24125154316425323
0.38227590918540955 0.36891919374465942 0.22127433121204376
0.58351528644561768 0.38226804137229919 0.23325765132904053
0.73087203502655029 0.37921735644340515 0.25279870629310608
0.85605454444885254 0.3894389271736145 0.25562900304794312
0.96018236875534058 0.42434102296829224 0.27405169606208801
0.0044096554629504681 0.52042114734649658 0.25596523284912109
0.11323017627000809 0.51712656021118164 0.2565750777721405
0.34820905327796936 0.52190053462982178 0.24317355453968048
0.54052412509918213 0.53561747074127197 0.20022870600223541
0.71102237701416016 0.54680907726287842 0.18603457510471344
0.85158717632293701 0.56430089473724365 0.26882827281951904
0.95754766464233398 0.5867798924446106 0.32199385762214661
0.0072057684883475304 0.64852064847946167 0.27988585829734802
0.110655777156353 0.64382904767990112 0.27390897274017334
0.32752892374992371 0.64409363269805908 0.2696891725063324
0.49034672975540161 0.65154576301574707 0.23909327387809753
0.66381716728210449 0.66636615991592407 0.1749148964881897
0.81816160678863525 0.68231189250946045 0.14787594974040985
0.94104260206222534 0.71001565456390381 0.28677782416343689
0.093433454632759094 0.77389985322952271 0.31859388947486877
0.2114400714635849 0.76789140701293945 0.32285565137863159
0.36941614747047424 0.76399356126785278 0.32477137446403503
0.49989256262779236 0.76678377389907837 0.30885544419288635
0.63842916488647461 0.78291434049606323 0.27018186450004578
0.79098886251449585 0.79986310005187988 0.20383301377296448
0.92543971538543701 0.81232082843780518 0.13156594336032867
0.39461725950241089 0.91260075569152832 0.48061719536781311
0.4323107898235321 0.90915095806121826 0.47751539945602417
0.51108372211456299 0.90675109624862671 0.48138806223869324
0.61008119583129883 0.90781742334365845 0.4933127760887146
0.70784217119216919 0.91582655906677246 0.47909864783287048
0.82306182384490967 0.92868858575820923 0.45242816209793091
0.93640953302383423 0.93909692764282227 0.40165051817893982
0.01249853428453207 0.05798633024096489 0.33056196570396423
0.19881802797317505 0.022937459871172905 0.3681800365447998
0.41342547535896301 0.0057241553440690041 0.39434438943862915
0.49817737936973572 0.073772013187408447 0.36002787947654724
0.66666603088378906 0.070234976708889008 0.36083325743675232
0.82663118839263916 0.035942152142524719 0.34435316920280457
0.94851529598236084 0.14475066959857941 0.34251642227172852
0.010162982158362865 0.1567024439573288 0.34892341494560242
0.19370727241039276 0.15538279712200165 0.37868770956993103
0.4310518205165863 0.14169995486736298 0.41698512434959412
0.53377312421798706 0.21716450154781342 0.39019668102264404
0.69893831014633179 0.20065467059612274 0.37341371178627014
0.8369295597076416 0.21166318655014038 0.36003464460372925
0.94783246517181396 0.27590793371200562 0.36383020877838135
0.020581876859068871 0.35713440179824829 0.4064171314239502
0.19470071792602539 0.37968900799751282 0.41830331087112427
0.42086794972419739 0.40598213672637939 0.43345287442207336
0.58417773246765137 0.41499796509742737 0.42520830035209656
0.7229730486869812 0.39995020627975464 0.41146370768547058
0.84485775232315063 0.39378231763839722 0.39703655242919922
0.9494318962097168 0.42786297202110291 0.39455649256706238
0.023549443110823631 0.56726348400115967 0.45032832026481628
0.21494585275650024 0.57025814056396484 0.44792169332504272
0.39431899785995483 0.56399089097976685 0.43351656198501587
0.57149922847747803 0.56742697954177856 0.40854227542877197
0.72282922267913818 0.57986629009246826 0.41570904850959778
0.84512221813201904 0.57940757274627686 0.43896213173866272
0.945465087890625 0.58963322639465332 0.4445854127407074
0.080756872892379761 0.68976753950119019 0.43546894192695618
0.20430898666381836 0.68336206674575806 0.4294683039188385
0.37082713842391968 0.67544418573379517 0.42390519380569458
0.52882009744644165 0.67588740587234497 0.40765160322189331
0.67951977252960205 0.68321830034255981 0.37732437252998352
0.82076454162597656 0.69996100664138794 0.37149474024772644
0.93719273805618286 0.72730112075805664 0.45309028029441833
0.12162507325410843 0.79239112138748169 0.4363841712474823
0.23674389719963074 0.78837341070175171 0.43535724282264709
0.37750634551048279 0.78061175346374512 0.43254709243774414
0.51481175422668457 0.77922707796096802 0.42776802182197571
0.6470639705657959 0.78915697336196899 0.40602636337280273
0.78664910793304443 0.80379372835159302 0.36179834604263306
0.92576295137405396 0.81990921497344971 0.33923709392547607
0.3814641535282135 0.91848820447921753 0.54573160409927368
0.41926568746566772 0.91629350185394287 0.54359030723571777
0.50005578994750977 0.9132009744644165 0.5467953085899353
0.60293108224868774 0.91019588708877563 0.55101662874221802
0.70810091495513916 0.91595631837844849 0.54805785417556763
0.81902611255645752 0.92938989400863647 0.53055566549301147
0.93514502048492432 0.9413686990737915 0.4838460385799408
0.024940460920333862 0.03542289137840271 0.51413440704345703
0.22369112074375153 0.008721071295440197 0.53591823577880859
0.47849917411804199 0.0015463884919881821 0.59558606147766113
0.68461650609970093 0.00098675000481307507 0.62411010265350342
0.70131117105484009 0.1102563887834549 0.54468017816543579
0.78259360790252686 0.2525382936000824 0.53434461355209351
0.91519331932067871 0.2570616602897644 0.5277101993560791
0.047341290861368179 0.15611684322357178 0.5212206244468689
0.23125527799129486 0.13784408569335938 0.5493355393409729
0.47280037403106689 0.098580300807952881 0.60282057523727417
0.68280065059661865 0.086576931178569794 0.63097178936004639
0.70424842834472656 0.26478272676467896 0.56336480379104614
0.79194945096969604 0.32850387692451477 0.54510271549224854
0.92302262783050537 0.32431802153587341 0.5274655818939209
0.035683933645486832 0.3255634605884552 0.52023565769195557
0.20367038249969482 0.3428385853767395 0.5375555157661438
0.43949103355407715 0.37452790141105652 0.5878061056137085
0.64684593677520752 0.41217753291130066 0.63366758823394775
0.70235925912857056 0.45122683048248291 0.58732157945632935
0.81116825342178345 0.44222924113273621 0.55904161930084229
0.93338680267333984 0.42029184103012085 0.52882438898086548
0.14169968664646149 0.54464459419250488 0.58363145589828491
0.26339614391326904 0.55705124139785767 0.59135788679122925
0.41936606168746948 0.58418399095535278 0.6100388765335083
0.59649688005447388 0.613353431224823 0.62494379281997681
0.71512389183044434 0.6114647388458252 0.61121737957000732
0.82576340436935425 0.58956962823867798 0.58834338188171387
0.93110251426696777 0.57664257287979126 0.56510204076766968
0.20504036545753479 0.71883571147918701 0.62815576791763306
0.29445797204971313 0.71694827079772949 0.62675034999847412
0.42302700877189636 0.715343177318573 0.61604487895965576
0.56109350919723511 0.71382951736450195 0.60265457630157471
0.69781237840652466 0.71937209367752075 0.58269274234771729
0.81897497177124023 0.72627192735671997 0.58435022830963135
0.92713350057601929 0.73823237419128418 0.61967933177947998
0.28404021263122559 0.81758171319961548 0.61951255798339844
0.32658559083938599 0.8159371018409729 0.60806167125701904
0.40313830971717834 0.81135576963424683 0.58969545364379883
0.53127670288085938 0.79894810914993286 0.57819539308547974
0.65787547826766968 0.8022879958152771 0.56608766317367554
0.79484456777572632 0.81590300798416138 0.53300386667251587
0.92173546552658081 0.83082234859466553 0.53523081541061401
0.37245899438858032 0.92863017320632935 0.64702439308166504
0.39986729621887207 0.92835301160812378 0.64072060585021973
0.48046261072158813 0.92381578683853149 0.64140152931213379
0.58972656726837158 0.9195747971534729 0.64379596710205078
0.7035943865776062 0.91992342472076416 0.64834427833557129
0.81384658813476562 0.93157374858856201 0.62945199012756348
0.92956686019897461 0.94414865970611572 0.59538668394088745
0.15573666989803314 0.0094210756942629814 0.67817586660385132
0.28438562154769897 0.0014444986591115594 0.69328969717025757
0.48133653402328491 0.00094181136228144169 0.73291099071502686
0.71361851692199707 0.00021161846234463155 0.78220647573471069
0.85147076845169067 0.003483940614387393 0.78371345996856689
0.85261636972427368 0.2153911292552948 0.70873266458511353
0.89323711395263672 0.39647197723388672 0.70152461528778076
0.16375046968460083 0.14902174472808838 0.67782688140869141
0.28694292902946472 0.13113833963871002 0.69625639915466309
0.47961640357971191 0.098713457584381104 0.73379796743392944
0.70084822177886963 0.048744816333055496 0.78097623586654663
0.84961849451065063 0.12497111409902573 0.79122954607009888
0.84652101993560791 0.33281496167182922 0.72058963775634766
0.89016008377075195 0.45426288247108459 0.71033746004104614
0.092329569160938263 0.31297361850738525 0.666331946849823
0.24863794445991516 0.32644587755203247 0.68180692195892334
0.44810906052589417 0.34661409258842468 0.71550625562667847
0.66632324457168579 0.37085390090942383 0.76708710193634033
0.8093457818031311 0.42233532667160034 0.78077322244644165
0.82483482360839844 0.4878728985786438 0.72870826721191406
0.88732767105102539 0.53608149290084839 0.71540522575378418
0.12093698978424072 0.48370122909545898 0.65599322319030762
0.22862979769706726 0.49485689401626587 0.66383951902389526
0.38574957847595215 0.51546752452850342 0.6823500394821167
0.59411019086837769 0.57037961483001709 0.74092978239059448
0.76311236619949341 0.62027209997177124 0.77783787250518799
0.80569553375244141 0.62720942497253418 0.73764783143997192
0.90160548686981201 0.61717414855957031 0.70686888694763184
0.26336556673049927 0.67688727378845215 0.71885669231414795
0.32944601774215698 0.68228828907012939 0.72270190715789795
0.44227713346481323 0.6973121166229248 0.73315232992172241
0.57303184270858765 0.72519403696060181 0.75329869985580444
0.72418457269668579 0.75379985570907593 0.7727171778678894
0.81430774927139282 0.75244814157485962 0.75718003511428833
0.91370475292205811 0.72886162996292114 0.73006409406661987
0.32490581274032593 0.83232957124710083 0.77168446779251099
0.37511166930198669 0.83433789014816284 0.76956415176391602
0.46410167217254639 0.83627587556838989 0.76713567972183228
0.57247006893157959 0.83473652601242065 0.7571108341217041
0.68322271108627319 0.83116054534912109 0.73738676309585571
0.80117303133010864 0.83958065509796143 0.71957170963287354
0.91071397066116333 0.85202401876449585 0.73261737823486328
0.44300800561904907 0.93618637323379517 0.79887884855270386
0.47071370482444763 0.93671226501464844 0.79407572746276855
0.52100479602813721 0.93653994798660278 0.78599536418914795
0.58513081073760986 0.93225955963134766 0.76209104061126709
0.69094222784042358 0.93149405717849731 0.75449001789093018
0.80764526128768921 0.93345379829406738 0.74551218748092651
0.92367821931838989 0.94840693473815918 0.73422694206237793
0.31772169470787048 0.0072521734982728958 0.83381730318069458
0.39359951019287109 0.0057438570074737072 0.83943289518356323
0.53206807374954224 0.0070282882079482079 0.85775786638259888
0.69665193557739258 0.0033403134439140558 0.88217967748641968
0.88244843482971191 0.0016786912456154823 0.91489124298095703
0.97678685188293457 0.049752328544855118 0.90902602672576904
0.96588999032974243 0.35175409913063049 0.85008585453033447
0.31537866592407227 0.15252985060214996 0.82934689521789551
0.3901086151599884 0.12653237581253052 0.83712625503540039
0.5246349573135376 0.096528254449367523 0.85770320892333984
0.69179725646972656 0.063492059707641602 0.88286685943603516
0.87236636877059937 0.066143974661827087 0.91270798444747925
0.96311968564987183 0.23782598972320557 0.90443795919418335
0.95794427394866943 0.4339202344417572 0.85373353958129883
0.25726017355918884 0.32695209980010986 0.81555402278900146
0.34278836846351624 0.32544878125190735 0.8215709924697876
0.48616284132003784 0.32978540658950806 0.83951783180236816
0.66866582632064819 0.34493014216423035 0.86832344532012939
0.83714348077774048 0.38506186008453369 0.90080982446670532
0.93891268968582153 0.46072730422019958 0.9010431170463562
0.93825775384902954 0.54844939708709717 0.85449439287185669
0.027689795941114426 0.45110329985618591 0.77396738529205322
0.1846243143081665 0.45795527100563049 0.7828482985496521
0.38494342565536499 0.48495078086853027 0.80578196048736572
0.58915817737579346 0.52836364507675171 0.83688485622406006
0.77521651983261108 0.58283483982086182 0.88019043207168579
0.89587670564651489 0.62735837697982788 0.89103490114212036
0.91069358587265015 0.65531063079833984 0.85871320962905884
0.11668412387371063 0.61879581212997437 0.7870858907699585
0.20812012255191803 0.62186866998672485 0.79002279043197632
0.34588891267776489 0.62872433662414551 0.79430270195007324
0.50102472305297852 0.65129047632217407 0.8046765923500061
0.69702041149139404 0.71393722295761108 0.84895592927932739
0.85453987121582031 0.76721543073654175 0.89005231857299805
0.89121872186660767 0.76683324575424194 0.85950255393981934
0.33512899279594421 0.79190170764923096 0.83934694528579712
0.38344335556030273 0.79530316591262817 0.83927273750305176
0.45806154608726501 0.80015236139297485 0.84675711393356323
0.57386952638626099 0.81647539138793945 0.85620617866516113
0.69154983758926392 0.8418763279914856 0.8697245717048645
0.8246045708656311 0.86873352527618408 0.88504546880722046
0.90669775009155273 0.86721932888031006 0.87794989347457886
0.47711718082427979 0.94334238767623901 0.90909892320632935
0.50172597169876099 0.94284427165985107 0.90609854459762573
0.55175662040710449 0.94616210460662842 0.90530765056610107
0.62573790550231934 0.94529002904891968 0.90095138549804688
0.70991599559783936 0.94735300540924072 0.88497936725616455
0.8063122034072876 0.94386512041091919 0.86895513534545898
0.91681373119354248 0.95551508665084839 0.86526775360107422
0.52290678024291992 0.15895387530326843 0.97176676988601685
0.55759191513061523 0.13201867043972015 0.97250044345855713
0.6396527886390686 0.091646052896976471 0.97808098793029785
0.75536125898361206 0.0492706298828125 0.98466759920120239
0.89102393388748169 0.024124683812260628 0.9914889931678772
0.99493777751922607 0.013321476057171822 0.99406999349594116
1 0.30066162347793579 0.98623013496398926
0.51693576574325562 0.27352571487426758 0.96811789274215698
0.55516350269317627 0.2580360472202301 0.96796202659606934
0.63182324171066284 0.23606246709823608 0.97163373231887817
0.74678975343704224 0.22064593434333801 0.97827333211898804
0.88160622119903564 0.19441929459571838 0.98553586006164551
0.99474823474884033 0.22163230180740356 0.99349772930145264
0.99986875057220459 0.39295461773872375 0.98335075378417969
0.47501388192176819 0.40906891226768494 0.96074843406677246
0.51679158210754395 0.40669664740562439 0.96115100383758545
0.59856182336807251 0.40497615933418274 0.96451246738433838
0.72001570463180542 0.40463986992835999 0.97198748588562012
0.85170644521713257 0.41588956117630005 0.98101627826690674
0.97550475597381592 0.44096723198890686 0.98624736070632935
0.99579447507858276 0.5350756049156189 0.97828656435012817
0.33804672956466675 0.52806729078292847 0.94506031274795532
0.40949642658233643 0.53233903646469116 0.94747841358184814
0.51580643653869629 0.54131555557250977 0.95130050182342529
0.65836954116821289 0.55846256017684937 0.9591829776763916
0.8058701753616333 0.58431708812713623 0.97398543357849121
0.93836414813995361 0.61284339427947998 0.9822344183921814
0.99473023414611816 0.66043394804000854 0.9808422327041626
0.17275997996330261 0.65857088565826416 0.92264389991760254
0.2457769513130188 0.65401607751846313 0.92379307746887207
0.36821025609970093 0.64973431825637817 0.9284166693687439
0.53604632616043091 0.66360652446746826 0.94093763828277588
0.72998380661010742 0.70524007081985474 0.95778799057006836
0.8840402364730835 0.74526536464691162 0.97269243001937866
0.97150278091430664 0.77436143159866333 0.97331291437149048
0.33375236392021179 0.80197358131408691 0.93693584203720093
0.36423835158348083 0.80197834968566895 0.93542337417602539
0.42900052666664124 0.80027240514755249 0.93752408027648926
0.51955145597457886 0.80207580327987671 0.93759632110595703
0.632152259349823 0.80412006378173828 0.94085133075714111
0.81510978937149048 0.84370535612106323 0.95883619785308838
0.94064861536026001 0.88102048635482788 0.970439612865448
0.52315562963485718 0.93223816156387329 0.96430033445358276
0.53859740495681763 0.9295647144317627 0.96217316389083862
0.58182203769683838 0.93326199054718018 0.96290087699890137
0.64915060997009277 0.9360426664352417 0.96591895818710327
0.72901266813278198 0.94437891244888306 0.96898084878921509
0.81899994611740112 0.95063155889511108 0.96627962589263916
0.92795932292938232 0.96795421838760376 0.97136408090591431
