luts/instant_pro/fuji_fp-100c_alt.cube
# Created by: G'MIC (https://gmic.eu)
TITLE "fuji_fp-100c_alt"
# LUT size
LUT_3D_SIZE 13
# Data domain
DOMAIN_MIN 0.0 0.0 0.0
DOMAIN_MAX 1.0 1.0 1.0
# LUT data points
0.030877744778990746 0.0095699978992342949 0.019319571554660797
0.049124356359243393 0.0092549491673707962 0.012261364609003067
0.079546891152858734 0.0078406240791082382 0.0081558674573898315
0.12101274728775024 0.005995641928166151 0.0055837444961071014
0.16841980814933777 0.0048588919453322887 0.0036293030716478825
0.22073100507259369 0.0058285431005060673 0.0024525660555809736
0.28548848628997803 0.007298189215362072 0.0014298532623797655
0.36973205208778381 0.0057990280911326408 4.7751032980158925e-05
0.46916055679321289 0.001973574748262763 0
0.56974619626998901 0 0
0.66086667776107788 7.0399866672232747e-05 4.6673944780195598e-06
0.73832815885543823 0.00060909497551620007 0.00021995096176397055
0.80529636144638062 0.0014441695529967546 0.00071838975418359041
0.060254670679569244 0.05830923467874527 0.031762365251779556
0.072844319045543671 0.057374257594347 0.023788707330822945
0.10078608244657516 0.053121261298656464 0.019081339240074158
0.14195509254932404 0.047186847776174545 0.014902003109455109
0.19056202471256256 0.042018067091703415 0.010200859978795052
0.24582761526107788 0.038143862038850784 0.0056202905252575874
0.31395915150642395 0.032547011971473694 0.0024776533246040344
0.39901930093765259 0.022791171446442604 0.0005203396431170404
0.49558445811271667 0.0096872514113783836 0
0.5916251540184021 0.00055809767218306661 0
0.67731362581253052 0 0.00025495642330497503
0.75005275011062622 0 0.0011018939549103379
0.81260991096496582 0 0.0029620451387017965
0.09276263415813446 0.11767054349184036 0.049855682998895645
0.10087162256240845 0.11654048413038254 0.042643707245588303
0.12462218105792999 0.1117890477180481 0.037931866943836212
0.16393360495567322 0.10403008759021759 0.032368678599596024
0.21386967599391937 0.095595613121986389 0.024085698649287224
0.27354201674461365 0.086427055299282074 0.014062888920307159
0.34596714377403259 0.074266992509365082 0.0063307816162705421
0.43205457925796509 0.057276587933301926 0.0026418648194521666
0.52521699666976929 0.034887410700321198 0.00046959670726209879
0.61612409353256226 0.01393420621752739 0
0.69552791118621826 0.0029468759894371033 7.7789906072212034e-07
0.76339751482009888 8.392333984375e-05 0.0004523482930380851
0.82210797071456909 0 0.0026026556733995676
0.12118662148714066 0.18881125748157501 0.07298964262008667
0.12830846011638641 0.18795637786388397 0.067848443984985352
0.15024904906749725 0.18283864855766296 0.063518732786178589
0.1892617791891098 0.17430399358272552 0.05700085312128067
0.2420089989900589 0.16479100286960602 0.04587821289896965
0.30636113882064819 0.15375834703445435 0.031803641468286514
0.38213148713111877 0.13908486068248749 0.019110720604658127
0.46775123476982117 0.11818233132362366 0.0096579007804393768
0.55736023187637329 0.09177900105714798 0.0024123396724462509
0.64251601696014404 0.06415887176990509 1.4540728443535045e-05
0.71726661920547485 0.039456326514482498 0
0.78090918064117432 0.017107481136918068 5.8342430975244497e-07
0.83718812465667725 0.0042237676680088043 0.00033060708665288985
0.13555908203125 0.2781185507774353 0.098384484648704529
0.14830006659030914 0.27655461430549622 0.095101192593574524
0.1752011626958847 0.27032914757728577 0.0915650874376297
0.21833565831184387 0.2605690062046051 0.084888532757759094
0.27564951777458191 0.25104823708534241 0.072322234511375427
0.34423565864562988 0.24105767905712128 0.055747311562299728
0.42228230834007263 0.22701053321361542 0.03924247995018959
0.5064159631729126 0.20677654445171356 0.023702807724475861
0.59204161167144775 0.18058986961841583 0.0093293730169534683
0.67243963479995728 0.15077626705169678 0.0012335085775703192
0.74335116147994995 0.11931734532117844 0.0001092648963094689
0.80474978685379028 0.086874626576900482 0
0.85760289430618286 0.059912931174039841 0
0.14944306015968323 0.38291403651237488 0.12235774844884872
0.16932289302349091 0.38199248909950256 0.11958048492670059
0.2043280154466629 0.37455642223358154 0.11596114188432693
0.2540130615234375 0.36281606554985046 0.10900823771953583
0.31640887260437012 0.3533211350440979 0.095734722912311554
0.38829755783081055 0.34494706988334656 0.079029977321624756
0.46669468283653259 0.33341783285140991 0.061685122549533844
0.5483822226524353 0.31665003299713135 0.043989621102809906
0.62946009635925293 0.29301837086677551 0.026490394026041031
0.70526677370071411 0.26534417271614075 0.0145250353962183
0.77277654409408569 0.23443011939525604 0.0087099559605121613
0.83131474256515503 0.20129844546318054 0.0038422977086156607
0.88215762376785278 0.1716235876083374 0.00063614192185923457
0.18204078078269958 0.49145108461380005 0.1392858624458313
0.20644031465053558 0.49297851324081421 0.13568441569805145
0.24684695899486542 0.48724785447120667 0.13070970773696899
0.30161246657371521 0.47524461150169373 0.1222035139799118
0.36683258414268494 0.46433228254318237 0.10981336236000061
0.43932962417602539 0.45623517036437988 0.095546454191207886
0.51603788137435913 0.44791609048843384 0.081271931529045105
0.5935712456703186 0.43529513478279114 0.066416062414646149
0.66916882991790771 0.41660246253013611 0.050574388355016708
0.74015349149703979 0.39386022090911865 0.038261443376541138
0.80393308401107788 0.36920759081840515 0.029965240508317947
0.85981941223144531 0.34153801202774048 0.022136807441711426
0.90790212154388428 0.31170699000358582 0.014093211852014065
0.24652920663356781 0.58914732933044434 0.14150726795196533
0.2710500955581665 0.59483110904693604 0.13763996958732605
0.31102851033210754 0.59184539318084717 0.13190226256847382
0.36565259099006653 0.58018463850021362 0.12290258705615997
0.42921483516693115 0.56931066513061523 0.1119447723031044
0.49860960245132446 0.56215691566467285 0.10132338851690292
0.57045596837997437 0.55730551481246948 0.092209428548812866
0.64238607883453369 0.54963380098342896 0.082645714282989502
0.71129804849624634 0.53515160083770752 0.069821089506149292
0.77607673406600952 0.51811271905899048 0.058878492563962936
0.83534008264541626 0.50169080495834351 0.051433101296424866
0.88783502578735352 0.48250547051429749 0.044843412935733795
0.93250823020935059 0.45448064804077148 0.03644624724984169
0.34203791618347168 0.66835975646972656 0.12686373293399811
0.36352822184562683 0.67502284049987793 0.12320510298013687
0.39883038401603699 0.67383724451065063 0.11838452517986298
0.44683963060379028 0.66589337587356567 0.11128846555948257
0.50343179702758789 0.65725558996200562 0.10233177989721298
0.56565213203430176 0.65165078639984131 0.094172999262809753
0.62985920906066895 0.64869004487991333 0.088938675820827484
0.69351917505264282 0.64434188604354858 0.0839247927069664
0.75469541549682617 0.63378643989562988 0.075217470526695251
0.81268632411956787 0.62185519933700562 0.067739017307758331
0.86564350128173828 0.6116148829460144 0.063558600842952728
0.9136924147605896 0.59962153434753418 0.059816263616085052
0.95420056581497192 0.575420081615448 0.052074987441301346
0.45565521717071533 0.73102420568466187 0.099897705018520355
0.47353431582450867 0.73653799295425415 0.096903301775455475
0.50202339887619019 0.73634922504425049 0.094634100794792175
0.54017764329910278 0.73163187503814697 0.090666800737380981
0.58659279346466064 0.72560876607894897 0.084190130233764648
0.63812041282653809 0.72108763456344604 0.077448524534702301
0.69251143932342529 0.71856987476348877 0.073513790965080261
0.74676507711410522 0.71494245529174805 0.070778071880340576
0.79927200078964233 0.70824730396270752 0.066151700913906097
0.84924548864364624 0.69983512163162231 0.062358271330595016
0.89554494619369507 0.69154399633407593 0.061712183058261871
0.93686860799789429 0.68153846263885498 0.060167007148265839
0.97202801704406738 0.66432797908782959 0.054416026920080185
0.57682567834854126 0.78094428777694702 0.066438563168048859
0.59086275100708008 0.78461390733718872 0.065849944949150085
0.61123943328857422 0.78467810153961182 0.067142874002456665
0.63877749443054199 0.78172439336776733 0.066268712282180786
0.67377960681915283 0.77769899368286133 0.062120623886585236
0.71382778882980347 0.77420192956924438 0.057194113731384277
0.75711101293563843 0.77146732807159424 0.054428581148386002
0.80128610134124756 0.76865154504776001 0.051681742072105408
0.84542250633239746 0.76418972015380859 0.049641028046607971
0.88803547620773315 0.75811052322387695 0.047514673322439194
0.92776435613632202 0.75093626976013184 0.04737376794219017
0.96189439296722412 0.7426903247833252 0.04648386687040329
0.98757219314575195 0.73106861114501953 0.044459085911512375
0.69735336303710938 0.82265269756317139 0.035920176655054092
0.70684713125228882 0.82438725233078003 0.038089737296104431
0.71956181526184082 0.82434225082397461 0.042323797941207886
0.73789471387863159 0.82199066877365112 0.042978100478649139
0.76213312149047852 0.81924116611480713 0.040295351296663284
0.79134929180145264 0.81647628545761108 0.036298342049121857
0.82367211580276489 0.81347465515136719 0.033246267586946487
0.85794746875762939 0.81223362684249878 0.031216476112604141
0.89322644472122192 0.80893564224243164 0.030935773625969887
0.92826336622238159 0.80537796020507812 0.030207151547074318
0.96117734909057617 0.80061602592468262 0.027114838361740112
0.98665386438369751 0.79477763175964355 0.024656841531395912
0.99806910753250122 0.78583508729934692 0.027676422148942947
0.81162232160568237 0.85943984985351562 0.011457988992333412
0.81704342365264893 0.86019563674926758 0.015329921618103981
0.82393848896026611 0.85956770181655884 0.019455300644040108
0.83509975671768188 0.85842746496200562 0.020264405757188797
0.85072231292724609 0.85575312376022339 0.016850624233484268
0.86944687366485596 0.85335904359817505 0.012210098095238209
0.89200848340988159 0.85125243663787842 0.0089425630867481232
0.91669946908950806 0.85122549533843994 0.0073693669401109219
0.94252830743789673 0.84920758008956909 0.0076838922686874866
0.96799254417419434 0.84715569019317627 0.0082075381651520729
0.98914319276809692 0.84445130825042725 0.0062670391052961349
0.9992060661315918 0.84034603834152222 0.0046898787841200829
1 0.83375388383865356 0.0074084713123738766
0.031934492290019989 0.012014904990792274 0.056112926453351974
0.050595004111528397 0.011190137825906277 0.047891370952129364
0.080969475209712982 0.0092377010732889175 0.040913090109825134
0.12287289649248123 0.0067285872064530849 0.034657929092645645
0.17162790894508362 0.0048444261774420738 0.028149144724011421
0.22563427686691284 0.0053135738708078861 0.020929343998432159
0.29190242290496826 0.005916849710047245 0.012045318260788918
0.37487158179283142 0.0055281096138060093 0.0028054032009094954
0.47116386890411377 0.0029312882106751204 7.725135947111994e-05
0.56973612308502197 3.8775277062086388e-05 0
0.65951192378997803 0.00082729564746841788 0
0.73629939556121826 0.0031697740778326988 0
0.80162566900253296 0.0063622118905186653 0
0.064286299049854279 0.062724500894546509 0.06935514509677887
0.077577747404575348 0.060237422585487366 0.060532141476869583
0.10411638766527176 0.055341474711894989 0.053522326052188873
0.14489258825778961 0.048528499901294708 0.04647514596581459
0.19425071775913239 0.041997183114290237 0.038329120725393295
0.25055122375488281 0.037215244024991989 0.029194612056016922
0.31912007927894592 0.031339112669229507 0.01953125
0.40297937393188477 0.022435013204813004 0.0099901091307401657
0.49684393405914307 0.011252010241150856 0.0028222326654940844
0.59085261821746826 0.0018119512824341655 0.00016521378711331636
0.67573672533035278 0 0
0.7472415566444397 1.4750162335985806e-05 0
0.80758941173553467 0.0010482488432899117 7.5067255238536745e-05
0.096667662262916565 0.12266118824481964 0.087469004094600677
0.10539312660694122 0.11979348957538605 0.079089082777500153
0.12780734896659851 0.11420952528715134 0.072209693491458893
0.1663004457950592 0.10594835132360458 0.064904950559139252
0.21681243181228638 0.096649914979934692 0.054738886654376984
0.27751991152763367 0.086500667035579681 0.042496025562286377
0.35033312439918518 0.073834635317325592 0.030357256531715393
0.43494874238967896 0.057555224746465683 0.019376881420612335
0.52614057064056396 0.037651810795068741 0.0099236434325575829
0.61487150192260742 0.018445497378706932 0.0023650974035263062
0.69403618574142456 0.0050690146163105965 5.9240002883598208e-05
0.76081186532974243 0.00024029600899666548 0
0.81765270233154297 0 0.00011707381054293364
0.11951376497745514 0.19377733767032623 0.10892088711261749
0.12869097292423248 0.19108058512210846 0.10236547142267227
0.15087935328483582 0.18594907224178314 0.096459120512008667
0.19023111462593079 0.17764811217784882 0.088775649666786194
0.24367134273052216 0.16747529804706573 0.07722308486700058
0.30883496999740601 0.15529817342758179 0.062245149165391922
0.38488277792930603 0.13979268074035645 0.046822953969240189
0.46982452273368835 0.11942192167043686 0.03170197457075119
0.55797326564788818 0.094512730836868286 0.018048439174890518
0.64208567142486572 0.067975856363773346 0.0071120169013738632
0.71659988164901733 0.042581848800182343 0.0012374877696856856
0.78031021356582642 0.020485254004597664 3.5544002457754686e-05
0.83520054817199707 0.0080422349274158478 0
0.12844887375831604 0.28023204207420349 0.13121925294399261
0.14409156143665314 0.2789703905582428 0.12688697874546051
0.17313845455646515 0.27385622262954712 0.12257766723632812
0.21764323115348816 0.26532593369483948 0.1152660921216011
0.27591666579246521 0.25557371973991394 0.10284549742937088
0.34513282775878906 0.24440944194793701 0.086366884410381317
0.4235433042049408 0.22928014397621155 0.067942194640636444
0.50780975818634033 0.2089124321937561 0.04840381070971489
0.59289288520812988 0.18334555625915527 0.029934093356132507
0.67272001504898071 0.1538972407579422 0.016327263787388802
0.74366044998168945 0.12243315577507019 0.0079366201534867287
0.80460435152053833 0.090965345501899719 0.002390498761087656
0.85763287544250488 0.067101635038852692 0.00029841403011232615
0.14207486808300018 0.38221272826194763 0.15328751504421234
0.16447620093822479 0.3819577693939209 0.14985273778438568
0.2016146183013916 0.37717527151107788 0.14577016234397888
0.2526698112487793 0.36831438541412354 0.1383822113275528
0.31546959280967712 0.35887783765792847 0.12584346532821655
0.38792294263839722 0.34904956817626953 0.10909450799226761
0.46673166751861572 0.33651313185691833 0.090476736426353455
0.54869937896728516 0.31899341940879822 0.070734940469264984
0.62962538003921509 0.29626622796058655 0.050749145448207855
0.70573818683624268 0.26925709843635559 0.035951949656009674
0.77348631620407104 0.23922480642795563 0.02612152136862278
0.83239525556564331 0.2067810446023941 0.015843484550714493
0.88288992643356323 0.17737570405006409 0.0061767278239130974
0.17921973764896393 0.48939162492752075 0.17019210755825043
0.20394943654537201 0.49180763959884644 0.16591796278953552
0.24539698660373688 0.48788917064666748 0.16059942543506622
0.30031195282936096 0.47880324721336365 0.15233588218688965
0.36546105146408081 0.46913158893585205 0.1401280015707016
0.43828779458999634 0.46036502718925476 0.12536333501338959
0.51490974426269531 0.45070892572402954 0.10957131534814835
0.59294813871383667 0.43768945336341858 0.093290872871875763
0.66871660947799683 0.41989597678184509 0.076335296034812927
0.74021100997924805 0.3987133800983429 0.062828347086906433
0.80466562509536743 0.37528824806213379 0.053023632615804672
0.86104440689086914 0.34839063882827759 0.042327880859375
0.90907937288284302 0.31842094659805298 0.030328145250678062
0.24680162966251373 0.58869624137878418 0.17391267418861389
0.27114108204841614 0.59334087371826172 0.16843727231025696
0.31120404601097107 0.59119170904159546 0.16198019683361053
0.36493906378746033 0.58289355039596558 0.15342766046524048
0.42800167202949524 0.57342112064361572 0.14211173355579376
0.49691939353942871 0.56571418046951294 0.12994401156902313
0.5687788724899292 0.55925893783569336 0.11857673525810242
0.64055758714675903 0.5506550669670105 0.10734311491250992
0.70977926254272461 0.53756976127624512 0.094993188977241516
0.77485287189483643 0.5225864052772522 0.084648832678794861
0.83489406108856201 0.50708878040313721 0.077310033142566681
0.88814860582351685 0.48809993267059326 0.069651328027248383
0.93383127450942993 0.46097525954246521 0.059948429465293884
0.34256395697593689 0.6708754301071167 0.1602247953414917
0.36440840363502502 0.67665278911590576 0.15373831987380981
0.39940041303634644 0.67565912008285522 0.1481635570526123
0.44633910059928894 0.66914510726928711 0.14092089235782623
0.50255328416824341 0.66103494167327881 0.13096553087234497
0.56395220756530762 0.65489190816879272 0.12029993534088135
0.62777316570281982 0.65061622858047485 0.11275133490562439
0.69077968597412109 0.64503616094589233 0.10659580677747726
0.75167632102966309 0.63610374927520752 0.098580487072467804
0.80926835536956787 0.62561458349227905 0.092047624289989471
0.86323165893554688 0.61536866426467896 0.089109398424625397
0.91259908676147461 0.60278725624084473 0.085112296044826508
0.95453429222106934 0.58146935701370239 0.07755616307258606
0.45692965388298035 0.73519706726074219 0.12908594310283661
0.47537162899971008 0.74017292261123657 0.12308457493782043
0.50284212827682495 0.73981022834777832 0.12061155587434769
0.54003280401229858 0.73518663644790649 0.11665903776884079
0.58539789915084839 0.72924196720123291 0.10893093794584274
0.63704067468643188 0.72424352169036865 0.099087119102478027
0.69007980823516846 0.72078001499176025 0.093799367547035217
0.74308818578720093 0.71699684858322144 0.091013036668300629
0.7948300838470459 0.71068829298019409 0.0858650803565979
0.8442879319190979 0.70293229818344116 0.082343697547912598
0.89075702428817749 0.69475722312927246 0.08383459597826004
0.93444979190826416 0.68578082323074341 0.084262281656265259
0.97314810752868652 0.6722760796546936 0.078491061925888062
0.57925355434417725 0.78504633903503418 0.083614230155944824
0.59313857555389404 0.78831803798675537 0.080307364463806152
0.61241662502288818 0.78809654712677002 0.083689264953136444
0.63864636421203613 0.78486895561218262 0.083857759833335876
0.67242860794067383 0.78070008754730225 0.078720182180404663
0.71217787265777588 0.77685129642486572 0.072022005915641785
0.75425976514816284 0.77397572994232178 0.067919664084911346
0.79693126678466797 0.77086174488067627 0.065695099532604218
0.83964413404464722 0.76621729135513306 0.062528006732463837
0.88141393661499023 0.76031690835952759 0.059886377304792404
0.92104274034500122 0.75353020429611206 0.062662087380886078
0.95796746015548706 0.74669498205184937 0.065559655427932739
0.98908811807632446 0.73880040645599365 0.063784986734390259
0.700203537940979 0.82532691955566406 0.036199815571308136
0.70868402719497681 0.82651907205581665 0.038377426564693451
0.72016078233718872 0.82608282566070557 0.046517673879861832
0.73756515979766846 0.82416296005249023 0.04793943464756012
0.76027923822402954 0.82099270820617676 0.042910199612379074
0.78880059719085693 0.81797033548355103 0.038150385022163391
0.82023215293884277 0.81592428684234619 0.034969225525856018
0.85308837890625 0.81308990716934204 0.033808346837759018
0.88704019784927368 0.81032556295394897 0.036693617701530457
0.92144763469696045 0.80671936273574829 0.03735598549246788
0.95418131351470947 0.80248749256134033 0.035924486815929413
0.98267298936843872 0.79764634370803833 0.034466881304979324
0.99852281808853149 0.79155910015106201 0.035783249884843826
0.81365108489990234 0.86056315898895264 0.0074187782593071461
0.81787252426147461 0.86052972078323364 0.011218755505979061
0.82384085655212402 0.86011546850204468 0.017926085740327835
0.83465933799743652 0.85904181003570557 0.018730387091636658
0.84947443008422852 0.85637581348419189 0.012674817815423012
0.86822664737701416 0.85420399904251099 0.0068362066522240639
0.88977420330047607 0.85205435752868652 0.0041071572341024876
0.91309237480163574 0.85125428438186646 0.0042398339137434959
0.93797659873962402 0.850211501121521 0.0093775875866413116
0.963470458984375 0.84762942790985107 0.013223251327872276
0.98559832572937012 0.84565240144729614 0.011700993403792381
0.99790799617767334 0.84237635135650635 0.006934446282684803
1 0.83807748556137085 0.0050562391988933086
0.031223505735397339 0.017402319237589836 0.10123180598020554
0.049886517226696014 0.01628398522734642 0.092659413814544678
0.079194255173206329 0.013668149709701538 0.084942713379859924
0.12078682333230972 0.010064338333904743 0.076708309352397919
0.17145626246929169 0.0072009516879916191 0.06699911504983902
0.22989390790462494 0.0055379080586135387 0.054696686565876007
0.29911375045776367 0.0045908610336482525 0.038633428514003754
0.38134938478469849 0.0040428610518574715 0.020852541550993919
0.47468194365501404 0.0018639956833794713 0.008690299466252327
0.57006055116653442 2.423454679956194e-05 0.0020497790537774563
0.65889328718185425 0.000452542764833197 3.7398993299575523e-05
0.73520845174789429 0.0037699083331972361 0
0.79873991012573242 0.0072809257544577122 0
0.065382756292819977 0.06997024267911911 0.11491687595844269
0.078651100397109985 0.067288987338542938 0.10633864998817444
0.10412047058343887 0.062032632529735565 0.098830625414848328
0.14394691586494446 0.054315574467182159 0.090549573302268982
0.19474054872989655 0.046130266040563583 0.080516934394836426
0.25471433997154236 0.038387298583984375 0.068080946803092957
0.32567498087882996 0.03025614470243454 0.05322754755616188
0.40845316648483276 0.021721769124269485 0.036999091506004333
0.49942430853843689 0.012312302365899086 0.021862657740712166
0.59092384576797485 0.0036728652194142342 0.0087516186758875847
0.67414456605911255 0.00014928182645235211 0.0011600719299167395
0.74485540390014648 0.00013495053281076252 0
0.80404531955718994 0.0021654914598912001 0
0.098618842661380768 0.13067324459552765 0.13307228684425354
0.10749930888414383 0.126966193318367 0.12466520071029663
0.12913265824317932 0.12100192904472351 0.11757282912731171
0.16729933023452759 0.11214524507522583 0.10964753478765488
0.21933712065219879 0.10166696459054947 0.099188484251499176
0.2819482684135437 0.089464209973812103 0.086140185594558716
0.35560879111289978 0.075451873242855072 0.070963241159915924
0.43901410698890686 0.059553436934947968 0.054260164499282837
0.52726751565933228 0.042190343141555786 0.037134822458028793
0.61396342515945435 0.024737503379583359 0.020887022837996483
0.69190478324890137 0.0093516632914543152 0.0074234609492123127
0.75816875696182251 0.00095597811741754413 0.0010533052263781428
0.81457400321960449 0 0.00012102314212825149
0.11917954683303833 0.20116341114044189 0.15332116186618805
0.12851206958293915 0.19780115783214569 0.14618834853172302
0.15187418460845947 0.19272857904434204 0.1402791440486908
0.19200789928436279 0.1844446212053299 0.13309384882450104
0.24637144804000854 0.17379589378833771 0.12241782248020172
0.31261652708053589 0.16037726402282715 0.10817284882068634
0.388771653175354 0.1439988762140274 0.0911836177110672
0.47232693433761597 0.12408101558685303 0.072573073208332062
0.55825388431549072 0.10114919394254684 0.053579293191432953
0.64090561866760254 0.075975678861141205 0.035689588636159897
0.71482998132705688 0.04970945417881012 0.020160749554634094
0.77840113639831543 0.025547191500663757 0.0085654463618993759
0.83329921960830688 0.012041158974170685 0.0045820497907698154
0.12293503433465958 0.28442633152008057 0.17296980321407318
0.14160902798175812 0.28330156207084656 0.1687067449092865
0.17362362146377563 0.27994561195373535 0.16495610773563385
0.21937797963619232 0.27296614646911621 0.15858852863311768
0.27819967269897461 0.2633126974105835 0.14793428778648376
0.34793093800544739 0.25091472268104553 0.13284814357757568
0.42577391862869263 0.23496103286743164 0.1146106943488121
0.50878894329071045 0.2147948294878006 0.094500884413719177
