luts/instant_pro/fuji_fp-3000b_negative_+.cube
# Created by: G'MIC (https://gmic.eu)
TITLE "fuji_fp-3000b_negative_+"
# LUT size
LUT_3D_SIZE 7
# Data domain
DOMAIN_MIN 0.0 0.0 0.0
DOMAIN_MAX 1.0 1.0 1.0
# LUT data points
0.037950240075588226 0.037950240075588226 0.037950240075588226
0.046940073370933533 0.046940073370933533 0.046940073370933533
0.081004217267036438 0.081004217267036438 0.081004217267036438
0.18741348385810852 0.18741348385810852 0.18741348385810852
0.34890592098236084 0.34890592098236084 0.34890592098236084
0.51464778184890747 0.51464778184890747 0.51464778184890747
0.66572475433349609 0.66572475433349609 0.66572475433349609
0.052493751049041748 0.052493751049041748 0.052493751049041748
0.070779420435428619 0.070779420435428619 0.070779420435428619
0.13420610129833221 0.13420610129833221 0.13420610129833221
0.2593994140625 0.2593994140625 0.2593994140625
0.40608197450637817 0.40608197450637817 0.40608197450637817
0.55420190095901489 0.55420190095901489 0.55420190095901489
0.68897557258605957 0.68897557258605957 0.68897557258605957
0.14532393217086792 0.14532393217086792 0.14532393217086792
0.16322843730449677 0.16322843730449677 0.16322843730449677
0.22981265187263489 0.22981265187263489 0.22981265187263489
0.35933920741081238 0.35933920741081238 0.35933920741081238
0.49101042747497559 0.49101042747497559 0.49101042747497559
0.614524245262146 0.614524245262146 0.614524245262146
0.72424310445785522 0.72424310445785522 0.72424310445785522
0.33645731210708618 0.33645731210708618 0.33645731210708618
0.32926243543624878 0.32926243543624878 0.32926243543624878
0.35977587103843689 0.35977587103843689 0.35977587103843689
0.45734709501266479 0.45734709501266479 0.45734709501266479
0.57111972570419312 0.57111972570419312 0.57111972570419312
0.67536455392837524 0.67536455392837524 0.67536455392837524
0.76760226488113403 0.76760226488113403 0.76760226488113403
0.5393105149269104 0.5393105149269104 0.5393105149269104
0.51989203691482544 0.51989203691482544 0.51989203691482544
0.51917952299118042 0.51917952299118042 0.51917952299118042
0.57370662689208984 0.57370662689208984 0.57370662689208984
0.65325075387954712 0.65325075387954712 0.65325075387954712
0.73499792814254761 0.73499792814254761 0.73499792814254761
0.81368762254714966 0.81368762254714966 0.81368762254714966
0.70345646142959595 0.70345646142959595 0.70345646142959595
0.69050049781799316 0.69050049781799316 0.69050049781799316
0.68222278356552124 0.68222278356552124 0.68222278356552124
0.70299255847930908 0.70299255847930908 0.70299255847930908
0.74745827913284302 0.74745827913284302 0.74745827913284302
0.80338257551193237 0.80338257551193237 0.80338257551193237
0.86554640531539917 0.86554640531539917 0.86554640531539917
0.84769231081008911 0.84769231081008911 0.84769231081008911
0.83613985776901245 0.83613985776901245 0.83613985776901245
0.82501703500747681 0.82501703500747681 0.82501703500747681
0.82813370227813721 0.82813370227813721 0.82813370227813721
0.84835612773895264 0.84835612773895264 0.84835612773895264
0.8819766640663147 0.8819766640663147 0.8819766640663147
0.92730128765106201 0.92730128765106201 0.92730128765106201
0.046237900853157043 0.046237900853157043 0.046237900853157043
0.066306635737419128 0.066306635737419128 0.066306635737419128
0.10851269960403442 0.10851269960403442 0.10851269960403442
0.24352531135082245 0.24352531135082245 0.24352531135082245
0.39860358834266663 0.39860358834266663 0.39860358834266663
0.5468401312828064 0.5468401312828064 0.5468401312828064
0.68141090869903564 0.68141090869903564 0.68141090869903564
0.076993457973003387 0.076993457973003387 0.076993457973003387
0.088832050561904907 0.088832050561904907 0.088832050561904907
0.1602865606546402 0.1602865606546402 0.1602865606546402
0.29793542623519897 0.29793542623519897 0.29793542623519897
0.42849665880203247 0.42849665880203247 0.42849665880203247
0.56953638792037964 0.56953638792037964 0.56953638792037964
0.69561827182769775 0.69561827182769775 0.69561827182769775
0.21970577538013458 0.21970577538013458 0.21970577538013458
0.21617157757282257 0.21617157757282257 0.21617157757282257
0.25752109289169312 0.25752109289169312 0.25752109289169312
0.38964512944221497 0.38964512944221497 0.38964512944221497
0.50448149442672729 0.50448149442672729 0.50448149442672729
0.61856323480606079 0.61856323480606079 0.61856323480606079
0.72475141286849976 0.72475141286849976 0.72475141286849976
0.4143182635307312 0.4143182635307312 0.4143182635307312
0.39048409461975098 0.39048409461975098 0.39048409461975098
0.38990497589111328 0.38990497589111328 0.38990497589111328
0.47852915525436401 0.47852915525436401 0.47852915525436401
0.57996457815170288 0.57996457815170288 0.57996457815170288
0.67671060562133789 0.67671060562133789 0.67671060562133789
0.76701062917709351 0.76701062917709351 0.76701062917709351
0.5808137059211731 0.5808137059211731 0.5808137059211731
0.56107616424560547 0.56107616424560547 0.56107616424560547
0.55086284875869751 0.55086284875869751 0.55086284875869751
0.59289014339447021 0.59289014339447021 0.59289014339447021
0.66084748506546021 0.66084748506546021 0.66084748506546021
0.73682880401611328 0.73682880401611328 0.73682880401611328
0.81409049034118652 0.81409049034118652 0.81409049034118652
0.7196502685546875 0.7196502685546875 0.7196502685546875
0.71288800239562988 0.71288800239562988 0.71288800239562988
0.70425206422805786 0.70425206422805786 0.70425206422805786
0.71733057498931885 0.71733057498931885 0.71733057498931885
0.75294464826583862 0.75294464826583862 0.75294464826583862
0.80423474311828613 0.80423474311828613 0.80423474311828613
0.86460429430007935 0.86460429430007935 0.86460429430007935
0.8497849702835083 0.8497849702835083 0.8497849702835083
0.84584224224090576 0.84584224224090576 0.84584224224090576
0.83764946460723877 0.83764946460723877 0.83764946460723877
0.8370131254196167 0.8370131254196167 0.8370131254196167
0.85111111402511597 0.85111111402511597 0.85111111402511597
0.88001638650894165 0.88001638650894165 0.88001638650894165
0.92438113689422607 0.92438113689422607 0.92438113689422607
0.14873504638671875 0.14873504638671875 0.14873504638671875
0.20179012417793274 0.20179012417793274 0.20179012417793274
0.26379263401031494 0.26379263401031494 0.26379263401031494
0.35437485575675964 0.35437485575675964 0.35437485575675964
0.48375555872917175 0.48375555872917175 0.48375555872917175
0.60327738523483276 0.60327738523483276 0.60327738523483276
0.71028560400009155 0.71028560400009155 0.71028560400009155
0.17518571019172668 0.17518571019172668 0.17518571019172668
0.22192403674125671 0.22192403674125671 0.22192403674125671
0.29448977112770081 0.29448977112770081 0.29448977112770081
0.38874331116676331 0.38874331116676331 0.38874331116676331
0.49852624535560608 0.49852624535560608 0.49852624535560608
0.61363017559051514 0.61363017559051514 0.61363017559051514
0.71308130025863647 0.71308130025863647 0.71308130025863647
0.30676141381263733 0.30676141381263733 0.30676141381263733
0.31916666030883789 0.31916666030883789 0.31916666030883789
0.3570677638053894 0.3570677638053894 0.3570677638053894
0.44390839338302612 0.44390839338302612 0.44390839338302612
0.54156118631362915 0.54156118631362915 0.54156118631362915
0.64329928159713745 0.64329928159713745 0.64329928159713745
0.73338508605957031 0.73338508605957031 0.73338508605957031
0.50204300880432129 0.50204300880432129 0.50204300880432129
0.49979767203330994 0.49979767203330994 0.49979767203330994
0.48880201578140259 0.48880201578140259 0.48880201578140259
0.53184372186660767 0.53184372186660767 0.53184372186660767
0.60572612285614014 0.60572612285614014 0.60572612285614014
0.69027316570281982 0.69027316570281982 0.69027316570281982
0.7747725248336792 0.7747725248336792 0.7747725248336792
0.64533913135528564 0.64533913135528564 0.64533913135528564
0.63983523845672607 0.63983523845672607 0.63983523845672607
0.62967658042907715 0.62967658042907715 0.62967658042907715
0.63973152637481689 0.63973152637481689 0.63973152637481689
0.68030226230621338 0.68030226230621338 0.68030226230621338
0.74713164567947388 0.74713164567947388 0.74713164567947388
0.8222694993019104 0.8222694993019104 0.8222694993019104
0.7561219334602356 0.7561219334602356 0.7561219334602356
0.75622886419296265 0.75622886419296265 0.75622886419296265
0.74886214733123779 0.74886214733123779 0.74886214733123779
0.74702250957489014 0.74702250957489014 0.74702250957489014
0.76672255992889404 0.76672255992889404 0.76672255992889404
0.81109023094177246 0.81109023094177246 0.81109023094177246
0.86952680349349976 0.86952680349349976 0.86952680349349976
0.86426472663879395 0.86426472663879395 0.86426472663879395
0.8665655255317688 0.8665655255317688 0.8665655255317688
0.86176204681396484 0.86176204681396484 0.86176204681396484
0.85576313734054565 0.85576313734054565 0.85576313734054565
0.86067354679107666 0.86067354679107666 0.86067354679107666
0.88421130180358887 0.88421130180358887 0.88421130180358887
0.92494422197341919 0.92494422197341919 0.92494422197341919
0.35370489954948425 0.35370489954948425 0.35370489954948425
0.39778792858123779 0.39778792858123779 0.39778792858123779
0.47849416732788086 0.47849416732788086 0.47849416732788086
0.51507866382598877 0.51507866382598877 0.51507866382598877
0.56714814901351929 0.56714814901351929 0.56714814901351929
0.65979385375976562 0.65979385375976562 0.65979385375976562
0.75076740980148315 0.75076740980148315 0.75076740980148315
0.40018060803413391 0.40018060803413391 0.40018060803413391
0.42700678110122681 0.42700678110122681 0.42700678110122681
0.49082621932029724 0.49082621932029724 0.49082621932029724
0.538585364818573 0.538585364818573 0.538585364818573
0.59260565042495728 0.59260565042495728 0.59260565042495728
0.67506307363510132 0.67506307363510132 0.67506307363510132
0.7507748007774353 0.7507748007774353 0.7507748007774353
0.41906425356864929 0.41906425356864929 0.41906425356864929
0.4439028799533844 0.4439028799533844 0.4439028799533844
0.49471032619476318 0.49471032619476318 0.49471032619476318
0.5600816011428833 0.5600816011428833 0.5600816011428833
0.61495035886764526 0.61495035886764526 0.61495035886764526
0.69249057769775391 0.69249057769775391 0.69249057769775391
0.76202547550201416 0.76202547550201416 0.76202547550201416
0.55752503871917725 0.55752503871917725 0.55752503871917725
0.5682075023651123 0.5682075023651123 0.5682075023651123
0.57129144668579102 0.57129144668579102 0.57129144668579102
0.6098555326461792 0.6098555326461792 0.6098555326461792
0.65874677896499634 0.65874677896499634 0.65874677896499634
0.72367507219314575 0.72367507219314575 0.72367507219314575
0.79483199119567871 0.79483199119567871 0.79483199119567871
0.69761753082275391 0.69761753082275391 0.69761753082275391
0.69633573293685913 0.69633573293685913 0.69633573293685913
0.69292652606964111 0.69292652606964111 0.69292652606964111
0.68781715631484985 0.68781715631484985 0.68781715631484985
0.70979970693588257 0.70979970693588257 0.70979970693588257
0.76748323440551758 0.76748323440551758 0.76748323440551758
0.83625525236129761 0.83625525236129761 0.83625525236129761
0.79249471426010132 0.79249471426010132 0.79249471426010132
0.79544538259506226 0.79544538259506226 0.79544538259506226
0.79013729095458984 0.79013729095458984 0.79013729095458984
0.77856731414794922 0.77856731414794922 0.77856731414794922
0.78537970781326294 0.78537970781326294 0.78537970781326294
0.82297629117965698 0.82297629117965698 0.82297629117965698
0.87661302089691162 0.87661302089691162 0.87661302089691162
0.88457423448562622 0.88457423448562622 0.88457423448562622
0.89081013202667236 0.89081013202667236 0.89081013202667236
0.89043384790420532 0.89043384790420532 0.89043384790420532
0.87993162870407104 0.87993162870407104 0.87993162870407104
0.87477481365203857 0.87477481365203857 0.87477481365203857
0.89090543985366821 0.89090543985366821 0.89090543985366821
0.9267803430557251 0.9267803430557251 0.9267803430557251
0.56239593029022217 0.56239593029022217 0.56239593029022217
0.59243077039718628 0.59243077039718628 0.59243077039718628
0.63622963428497314 0.63622963428497314 0.63622963428497314
0.66992217302322388 0.66992217302322388 0.66992217302322388
0.68417602777481079 0.68417602777481079 0.68417602777481079
0.71422630548477173 0.71422630548477173 0.71422630548477173
0.79524558782577515 0.79524558782577515 0.79524558782577515
0.60042095184326172 0.60042095184326172 0.60042095184326172
0.61390113830566406 0.61390113830566406 0.61390113830566406
0.63663214445114136 0.63663214445114136 0.63663214445114136
0.68045002222061157 0.68045002222061157 0.68045002222061157
0.70164549350738525 0.70164549350738525 0.70164549350738525
0.73514974117279053 0.73514974117279053 0.73514974117279053
0.79367107152938843 0.79367107152938843 0.79367107152938843
0.6024094820022583 0.6024094820022583 0.6024094820022583
0.61416524648666382 0.61416524648666382 0.61416524648666382
0.64345848560333252 0.64345848560333252 0.64345848560333252
0.69896984100341797 0.69896984100341797 0.69896984100341797
0.72188961505889893 0.72188961505889893 0.72188961505889893
0.75260460376739502 0.75260460376739502 0.75260460376739502
0.80104458332061768 0.80104458332061768 0.80104458332061768
0.63001435995101929 0.63001435995101929 0.63001435995101929
0.63742375373840332 0.63742375373840332 0.63742375373840332
0.66224902868270874 0.66224902868270874 0.66224902868270874
0.70205205678939819 0.70205205678939819 0.70205205678939819
0.73446226119995117 0.73446226119995117 0.73446226119995117
0.77436375617980957 0.77436375617980957 0.77436375617980957
0.82650184631347656 0.82650184631347656 0.82650184631347656
0.72174233198165894 0.72174233198165894 0.72174233198165894
0.72420388460159302 0.72420388460159302 0.72420388460159302
0.73179829120635986 0.73179829120635986 0.73179829120635986
0.73878484964370728 0.73878484964370728 0.73878484964370728
0.75918948650360107 0.75918948650360107 0.75918948650360107
0.80233269929885864 0.80233269929885864 0.80233269929885864
0.85637485980987549 0.85637485980987549 0.85637485980987549
0.81260210275650024 0.81260210275650024 0.81260210275650024
0.81800562143325806 0.81800562143325806 0.81800562143325806
0.81914913654327393 0.81914913654327393 0.81914913654327393
0.81181538105010986 0.81181538105010986 0.81181538105010986
0.8152889609336853 0.8152889609336853 0.8152889609336853
0.84379637241363525 0.84379637241363525 0.84379637241363525
0.88814085721969604 0.88814085721969604 0.88814085721969604
0.89887332916259766 0.89887332916259766 0.89887332916259766
0.90791475772857666 0.90791475772857666 0.90791475772857666
0.91488337516784668 0.91488337516784668 0.91488337516784668
0.90410071611404419 0.90410071611404419 0.90410071611404419
0.89248490333557129 0.89248490333557129 0.89248490333557129
0.90151995420455933 0.90151995420455933 0.90151995420455933
0.93133080005645752 0.93133080005645752 0.93133080005645752
0.73878508806228638 0.73878508806228638 0.73878508806228638
0.75533813238143921 0.75533813238143921 0.75533813238143921
0.7690894603729248 0.7690894603729248 0.7690894603729248
0.79279786348342896 0.79279786348342896 0.79279786348342896
0.81650394201278687 0.81650394201278687 0.81650394201278687
0.82278478145599365 0.82278478145599365 0.82278478145599365
0.85117477178573608 0.85117477178573608 0.85117477178573608
0.76072800159454346 0.76072800159454346 0.76072800159454346
0.76680845022201538 0.76680845022201538 0.76680845022201538
0.77132391929626465 0.77132391929626465 0.77132391929626465
0.79403913021087646 0.79403913021087646 0.79403913021087646
0.81169962882995605 0.81169962882995605 0.81169962882995605
0.81732159852981567 0.81732159852981567 0.81732159852981567
0.84092825651168823 0.84092825651168823 0.84092825651168823
0.75354635715484619 0.75354635715484619 0.75354635715484619
0.7586979866027832 0.7586979866027832 0.7586979866027832
0.77159148454666138 0.77159148454666138 0.77159148454666138
0.79733097553253174 0.79733097553253174 0.79733097553253174
0.81387954950332642 0.81387954950332642 0.81387954950332642
0.82495969533920288 0.82495969533920288 0.82495969533920288
0.85097980499267578 0.85097980499267578 0.85097980499267578
0.73611772060394287 0.73611772060394287 0.73611772060394287
0.74722665548324585 0.74722665548324585 0.74722665548324585
0.76888018846511841 0.76888018846511841 0.76888018846511841
0.79297220706939697 0.79297220706939697 0.79297220706939697
0.81496632099151611 0.81496632099151611 0.81496632099151611
0.84179192781448364 0.84179192781448364 0.84179192781448364
0.87803632020950317 0.87803632020950317 0.87803632020950317
0.77623480558395386 0.77623480558395386 0.77623480558395386
0.78387212753295898 0.78387212753295898 0.78387212753295898
0.79524296522140503 0.79524296522140503 0.79524296522140503
0.80361616611480713 0.80361616611480713 0.80361616611480713
0.82278132438659668 0.82278132438659668 0.82278132438659668
0.85590231418609619 0.85590231418609619 0.85590231418609619
0.89684998989105225 0.89684998989105225 0.89684998989105225
0.84274792671203613 0.84274792671203613 0.84274792671203613
0.84949648380279541 0.84949648380279541 0.84949648380279541
0.85410004854202271 0.85410004854202271 0.85410004854202271
0.85135090351104736 0.85135090351104736 0.85135090351104736
0.85694193840026855 0.85694193840026855 0.85694193840026855
0.87864285707473755 0.87864285707473755 0.87864285707473755
0.9131476879119873 0.9131476879119873 0.9131476879119873
0.91616404056549072 0.91616404056549072 0.91616404056549072
0.92407083511352539 0.92407083511352539 0.92407083511352539
0.93025630712509155 0.93025630712509155 0.93025630712509155
0.92402142286300659 0.92402142286300659 0.92402142286300659
0.91599059104919434 0.91599059104919434 0.91599059104919434
0.92089492082595825 0.92089492082595825 0.92089492082595825
0.94441598653793335 0.94441598653793335 0.94441598653793335
0.88572794198989868 0.88572794198989868 0.88572794198989868
0.89383304119110107 0.89383304119110107 0.89383304119110107
0.89619648456573486 0.89619648456573486 0.89619648456573486
0.90890848636627197 0.90890848636627197 0.90890848636627197
0.9260064959526062 0.9260064959526062 0.9260064959526062
0.92746162414550781 0.92746162414550781 0.92746162414550781
0.93220275640487671 0.93220275640487671 0.93220275640487671
0.891193687915802 0.891193687915802 0.891193687915802
0.89785826206207275 0.89785826206207275 0.89785826206207275
0.89692860841751099 0.89692860841751099 0.89692860841751099
0.90468102693557739 0.90468102693557739 0.90468102693557739
0.91482871770858765 0.91482871770858765 0.91482871770858765
0.91451406478881836 0.91451406478881836 0.91451406478881836
0.92284882068634033 0.92284882068634033 0.92284882068634033
0.8791230320930481 0.8791230320930481 0.8791230320930481
0.89130580425262451 0.89130580425262451 0.89130580425262451
0.89608603715896606 0.89608603715896606 0.89608603715896606
0.90124523639678955 0.90124523639678955 0.90124523639678955
0.9085732102394104 0.9085732102394104 0.9085732102394104
0.91559982299804688 0.91559982299804688 0.91559982299804688
0.93206799030303955 0.93206799030303955 0.93206799030303955
0.86293923854827881 0.86293923854827881 0.86293923854827881
0.88080918788909912 0.88080918788909912 0.88080918788909912
0.88987082242965698 0.88987082242965698 0.88987082242965698
0.89271444082260132 0.89271444082260132 0.89271444082260132
0.90417677164077759 0.90417677164077759 0.90417677164077759
0.92637991905212402 0.92637991905212402 0.92637991905212402
0.95371413230895996 0.95371413230895996 0.95371413230895996
0.86952215433120728 0.86952215433120728 0.86952215433120728
0.88057386875152588 0.88057386875152588 0.88057386875152588
0.88728076219558716 0.88728076219558716 0.88728076219558716
0.88831615447998047 0.88831615447998047 0.88831615447998047
0.90108716487884521 0.90108716487884521 0.90108716487884521
0.92730045318603516 0.92730045318603516 0.92730045318603516
0.9587516188621521 0.9587516188621521 0.9587516188621521
0.90123367309570312 0.90123367309570312 0.90123367309570312
0.90766960382461548 0.90766960382461548 0.90766960382461548
0.9114723801612854 0.9114723801612854 0.9114723801612854
0.91062802076339722 0.91062802076339722 0.91062802076339722
0.91564929485321045 0.91564929485321045 0.91564929485321045
0.93162649869918823 0.93162649869918823 0.93162649869918823
0.95821815729141235 0.95821815729141235 0.95821815729141235
0.95122301578521729 0.95122301578521729 0.95122301578521729
0.9575730562210083 0.9575730562210083 0.9575730562210083
0.96195632219314575 0.96195632219314575 0.96195632219314575
0.95886605978012085 0.95886605978012085 0.95886605978012085
0.95474827289581299 0.95474827289581299 0.95474827289581299
0.95760965347290039 0.95760965347290039 0.95760965347290039
0.97468400001525879 0.97468400001525879 0.97468400001525879
