luts/instant_pro/fuji_fp-100c_cool_++.cube
# Created by: G'MIC (https://gmic.eu)
TITLE "fuji_fp-100c_cool_++"
# LUT size
LUT_3D_SIZE 7
# Data domain
DOMAIN_MIN 0.0 0.0 0.0
DOMAIN_MAX 1.0 1.0 1.0
# LUT data points
0.16954982280731201 0.13088801503181458 0.16680851578712463
0.1909174770116806 0.13145932555198669 0.16585598886013031
0.29331856966018677 0.12769874930381775 0.16477593779563904
0.46168625354766846 0.10118064284324646 0.1629515141248703
0.6499904990196228 0.067475385963916779 0.15722222626209259
0.81555122137069702 0.067392356693744659 0.15019808709621429
0.95793771743774414 0.14003024995326996 0.15465368330478668
0.16856908798217773 0.16180771589279175 0.16717995703220367
0.20540995895862579 0.16703687608242035 0.16418072581291199
0.32835641503334045 0.18463210761547089 0.16143891215324402
0.4987589418888092 0.18267159163951874 0.16311506927013397
0.68178629875183105 0.18674781918525696 0.15787062048912048
0.8327406644821167 0.20058777928352356 0.15229849517345428
0.96366101503372192 0.24610759317874908 0.15939491987228394
0.13227030634880066 0.28809040784835815 0.17006005346775055
0.20504339039325714 0.28719028830528259 0.16891889274120331
0.34545323252677917 0.30810731649398804 0.14362542331218719
0.53646564483642578 0.33724120259284973 0.13333982229232788
0.71571505069732666 0.35465261340141296 0.14971494674682617
0.85479074716567993 0.37127411365509033 0.16166800260543823
0.96858358383178711 0.39375826716423035 0.17739573121070862
0.05001400038599968 0.44232890009880066 0.16996897757053375
0.17591843008995056 0.43401554226875305 0.17355997860431671
0.33062386512756348 0.44661703705787659 0.14668193459510803
0.50484561920166016 0.47481605410575867 0.091395296156406403
0.6901925802230835 0.50188750028610229 0.046822447329759598
0.85527783632278442 0.52805787324905396 0.12118308991193771
0.97525519132614136 0.55347013473510742 0.22099554538726807
0.0074924994260072708 0.59283530712127686 0.1911981999874115
0.13555820286273956 0.58469992876052856 0.19110900163650513
0.31351161003112793 0.58500391244888306 0.17727184295654297
0.47755917906761169 0.60470080375671387 0.13125984370708466
0.65142363309860229 0.63255167007446289 0.031966280192136765
0.82723164558410645 0.64900076389312744 0.011025985702872276
0.96728783845901489 0.67410331964492798 0.15501454472541809
0.089130252599716187 0.73478418588638306 0.24432368576526642
0.21413862705230713 0.73051345348358154 0.24913647770881653
0.36222916841506958 0.72772067785263062 0.25137573480606079
0.49703517556190491 0.73145532608032227 0.23301689326763153
0.65208685398101807 0.75086027383804321 0.17161421477794647
0.80818188190460205 0.76858580112457275 0.058313857764005661
0.95236462354660034 0.78008818626403809 0.0090133817866444588
0.42840710282325745 0.87827438116073608 0.44401919841766357
0.46700635552406311 0.8765748143196106 0.44300326704978943
0.54193150997161865 0.87230253219604492 0.44839480519294739
0.64121717214584351 0.87181395292282104 0.45670011639595032
0.74456065893173218 0.88136988878250122 0.44008681178092957
0.86110442876815796 0.89201653003692627 0.40840932726860046
0.97495841979980469 0.90363401174545288 0.34736883640289307
0.17000582814216614 0.12999127805233002 0.19214349985122681
0.20074661076068878 0.12548969686031342 0.20325379073619843
0.2836507260799408 0.11945286393165588 0.20156171917915344
0.46999642252922058 0.054924760013818741 0.206804558634758
0.65472120046615601 0.03014761209487915 0.21214061975479126
0.81471937894821167 0.033376388251781464 0.2131173312664032
0.95638257265090942 0.12868987023830414 0.21935613453388214
0.16358421742916107 0.16767407953739166 0.2054746001958847
0.20822238922119141 0.17727304995059967 0.21680101752281189
0.33790120482444763 0.18160803616046906 0.21363206207752228
0.51278841495513916 0.17078715562820435 0.22854328155517578
0.68388164043426514 0.17012283205986023 0.22833332419395447
0.83116441965103149 0.18606679141521454 0.22673933207988739
0.96388739347457886 0.239742711186409 0.229911208152771
0.11079550534486771 0.31711173057556152 0.24871058762073517
0.20696048438549042 0.31900528073310852 0.24058952927589417
0.3702051043510437 0.33299779891967773 0.21920172870159149
0.55763411521911621 0.35103577375411987 0.22666344046592712
0.7189784049987793 0.36323407292366028 0.24792379140853882
0.85493600368499756 0.36716282367706299 0.24800251424312592
0.96482336521148682 0.39006206393241882 0.26203685998916626
0.01641031913459301 0.48220369219779968 0.25365170836448669
0.17131640017032623 0.47187083959579468 0.24662205576896667
0.34266114234924316 0.47892796993255615 0.23553380370140076
0.52543109655380249 0.4931233823299408 0.20079660415649414
0.70745748281478882 0.51722103357315063 0.18657068908214569
0.86234861612319946 0.5411803126335144 0.25091966986656189
0.97448325157165527 0.55585771799087524 0.3021189272403717
0.011530707590281963 0.61468231678009033 0.26615893840789795
0.13524696230888367 0.60800039768218994 0.26202738285064697
0.32661226391792297 0.60608577728271484 0.25574126839637756
0.48499992489814758 0.61638879776000977 0.22505125403404236
0.66963189840316772 0.63693976402282715 0.16517262160778046
0.83286720514297485 0.65606224536895752 0.12346821278333664
0.96520060300827026 0.68069827556610107 0.25999858975410461
0.090863324701786041 0.74561959505081177 0.30984517931938171
0.22096790373325348 0.7420620322227478 0.30799815058708191
0.36380684375762939 0.73831868171691895 0.31126391887664795
0.50425189733505249 0.74031651020050049 0.29499536752700806
0.65501445531845093 0.75472891330718994 0.26235443353652954
0.81153112649917603 0.77002763748168945 0.17220701277256012
0.95695394277572632 0.78220701217651367 0.09524981677532196
0.42585191130638123 0.88174432516098022 0.47704818844795227
0.46343109011650085 0.87941676378250122 0.47521594166755676
0.54109662771224976 0.87579452991485596 0.48061248660087585
0.6437753438949585 0.87340462207794189 0.49187415838241577
0.74646377563476562 0.88067364692687988 0.48001867532730103
0.85939896106719971 0.89412468671798706 0.45096698403358459
0.97319948673248291 0.90390521287918091 0.39410153031349182
0.16283309459686279 0.12523449957370758 0.32481935620307922
0.24222765862941742 0.10654805600643158 0.34717956185340881
0.38854736089706421 0.041417904198169708 0.3703046441078186
0.46995750069618225 0.098353229463100433 0.34751054644584656
0.63526982069015503 0.061743360012769699 0.34526261687278748
0.81088614463806152 0.0087977992370724678 0.3359188437461853
0.9536711573600769 0.052816592156887054 0.32572433352470398
0.13733503222465515 0.1686486154794693 0.3278844952583313
0.22219404578208923 0.16802477836608887 0.35535672307014465
0.40375390648841858 0.14856676757335663 0.3915957510471344
0.50318515300750732 0.19815844297409058 0.36992284655570984
0.67306298017501831 0.16367730498313904 0.35177963972091675
0.83100372552871704 0.13933245837688446 0.33928355574607849
0.95994848012924194 0.20865209400653839 0.34511750936508179
0.10071186721324921 0.32798352837562561 0.38324236869812012
0.21192394196987152 0.34502413868904114 0.39724048972129822
0.40232154726982117 0.37043085694313049 0.42049172520637512
0.55963975191116333 0.37918785214424133 0.4068705141544342
0.71355164051055908 0.36015716195106506 0.38764259219169617
0.84826642274856567 0.35822924971580505 0.37835460901260376
0.9633324146270752 0.38116732239723206 0.37912476062774658
0.02407289482653141 0.53265118598937988 0.43155887722969055
0.19787953794002533 0.5336984395980835 0.42622140049934387
0.37549892067909241 0.53216689825057983 0.41288894414901733
0.54969626665115356 0.5335964560508728 0.38980802893638611
0.72313076257705688 0.54841065406799316 0.39219582080841064
0.85817253589630127 0.55462294816970825 0.42143219709396362
0.96594321727752686 0.55828976631164551 0.42678740620613098
0.052529264241456985 0.6610410213470459 0.41891807317733765
0.16682909429073334 0.65437567234039307 0.4063316285610199
0.35200628638267517 0.64568442106246948 0.40332391858100891
0.51313179731369019 0.63931369781494141 0.38680467009544373
0.6859428882598877 0.65317463874816895 0.35377836227416992
0.83683198690414429 0.67288076877593994 0.34347182512283325
0.96172183752059937 0.69597417116165161 0.42667242884635925
0.0931357741355896 0.76660001277923584 0.42303916811943054
0.22109827399253845 0.76338404417037964 0.4215334951877594
0.37454763054847717 0.75854319334030151 0.42085298895835876
0.51470100879669189 0.75322830677032471 0.41159218549728394
0.66105961799621582 0.76329982280731201 0.39221566915512085
0.81052196025848389 0.77542448043823242 0.34901231527328491
0.9577103853225708 0.78705102205276489 0.31335562467575073
0.4171966016292572 0.8877454400062561 0.54527223110198975
0.45811831951141357 0.88700157403945923 0.54640620946884155
0.53322017192840576 0.88223147392272949 0.54378384351730347
0.63942313194274902 0.87747883796691895 0.55467969179153442
0.74410676956176758 0.8837704062461853 0.54824173450469971
0.85618311166763306 0.89381390810012817 0.52742773294448853
0.96896421909332275 0.90614807605743408 0.48316368460655212
0.15469743311405182 0.10905342549085617 0.49062839150428772
0.2508074939250946 0.079406678676605225 0.51982408761978149
0.45625534653663635 0.0060990126803517342 0.57274502515792847
0.65544474124908447 0.0022791244555264711 0.60402798652648926
0.67576652765274048 0.075556270778179169 0.5272025465965271
0.77572202682495117 0.19126935303211212 0.52089613676071167
0.93045151233673096 0.16648949682712555 0.51511639356613159
0.097748681902885437 0.16853031516075134 0.4988560676574707
0.22910787165164948 0.16166228055953979 0.52920496463775635
0.44363191723823547 0.10491959750652313 0.58346545696258545
0.66142243146896362 0.058908410370349884 0.61377960443496704
0.68555665016174316 0.21554534137248993 0.54655152559280396
0.79465657472610474 0.26083111763000488 0.52770590782165527
0.93876677751541138 0.2436748743057251 0.5110200047492981
0.076545342803001404 0.31297317147254944 0.49544075131416321
0.19527477025985718 0.32477870583534241 0.52130126953125
0.40220433473587036 0.34200006723403931 0.57155501842498779
0.63669300079345703 0.3666330873966217 0.61790674924850464
0.69481408596038818 0.40540221333503723 0.56858772039413452
0.82051455974578857 0.38861498236656189 0.53474432229995728
0.95257711410522461 0.36188098788261414 0.50624024868011475
0.095082484185695648 0.5147208571434021 0.56590425968170166
0.22600564360618591 0.52510064840316772 0.5736878514289856
0.39278307557106018 0.55016839504241943 0.59164679050445557
0.59426689147949219 0.57809102535247803 0.61558449268341064
0.72410446405410767 0.57970362901687622 0.59666883945465088
0.8447994589805603 0.55356037616729736 0.57188564538955688
0.95833104848861694 0.55053144693374634 0.55482947826385498
0.13604745268821716 0.69299232959747314 0.61566418409347534
0.25790488719940186 0.68847596645355225 0.6084669828414917
0.4146716296672821 0.68992334604263306 0.60152459144592285
0.5647282600402832 0.68642634153366089 0.59015500545501709
0.71201461553573608 0.69015270471572876 0.57369720935821533
0.84941065311431885 0.70015168190002441 0.57046389579772949
0.95773947238922119 0.7100943922996521 0.61151635646820068
0.28259748220443726 0.79196560382843018 0.60830879211425781
0.32392925024032593 0.78802597522735596 0.59836089611053467
0.40629163384437561 0.78509432077407837 0.57976663112640381
0.53987014293670654 0.77534568309783936 0.57044112682342529
0.67696315050125122 0.7725033164024353 0.55387842655181885
0.82223844528198242 0.78696310520172119 0.52348035573959351
0.95188218355178833 0.80071228742599487 0.52038472890853882
0.41991192102432251 0.8978455662727356 0.64434659481048584
0.4454803466796875 0.89593416452407837 0.63855201005935669
0.51912063360214233 0.89129519462585449 0.63725382089614868
0.62664210796356201 0.88460767269134521 0.63959270715713501
0.7416035532951355 0.88580530881881714 0.64349114894866943
0.85545742511749268 0.8959653377532959 0.63064593076705933
0.96615910530090332 0.9068487286567688 0.59209144115447998
0.16869385540485382 0.077801555395126343 0.66464459896087646
0.27896255254745483 0.03434530645608902 0.68375104665756226
0.46298596262931824 0.0054933438077569008 0.71894752979278564
0.7064812183380127 0.0009779088431969285 0.76788425445556641
0.85617047548294067 0.00090258731506764889 0.77275311946868896
0.85743814706802368 0.12384039163589478 0.6966513991355896
0.90731006860733032 0.34029829502105713 0.69061082601547241
0.12381325662136078 0.16188701987266541 0.66276001930236816
0.24327529966831207 0.13853959739208221 0.68130755424499512
0.44067665934562683 0.08869597315788269 0.71921461820602417
0.68933171033859253 0.022759381681680679 0.76919472217559814
0.85465556383132935 0.045281741768121719 0.77830034494400024
0.85697466135025024 0.26017722487449646 0.70964992046356201
0.90657889842987061 0.40078189969062805 0.69721001386642456
0.014335752464830875 0.2976287305355072 0.64797556400299072
0.18571367859840393 0.30210709571838379 0.67167097330093384
0.40161356329917908 0.30822712182998657 0.70710510015487671
0.65189146995544434 0.31652501225471497 0.75516444444656372
0.82070708274841309 0.36723577976226807 0.77133065462112427
0.83910804986953735 0.44230741262435913 0.71706575155258179
0.90789490938186646 0.48880752921104431 0.700542151927948
0.02240549772977829 0.46125882863998413 0.63749879598617554
0.15579153597354889 0.46976003050804138 0.64827251434326172
0.3399965763092041 0.49086877703666687 0.66489171981811523
0.58020776510238647 0.53910219669342041 0.72431319952011108
0.77669662237167358 0.5788692831993103 0.76743727922439575
0.82186925411224365 0.594246506690979 0.7287634015083313
0.92406004667282104 0.57447868585586548 0.69385761022567749
0.20414081215858459 0.65254563093185425 0.70636546611785889
0.28816238045692444 0.65896701812744141 0.70980489253997803
0.41391271352767944 0.67518478631973267 0.72450172901153564
0.58668661117553711 0.70070403814315796 0.74055230617523193
0.74706727266311646 0.72949910163879395 0.76215922832489014
0.84479141235351562 0.722767174243927 0.74988073110580444
0.94306600093841553 0.69511175155639648 0.71969735622406006
0.33534258604049683 0.80883985757827759 0.76538574695587158
0.38855418562889099 0.80591851472854614 0.76108253002166748
0.48661643266677856 0.80717200040817261 0.75608360767364502
0.60304439067840576 0.80704253911972046 0.74603140354156494
0.71734094619750977 0.80899900197982788 0.73797941207885742
0.83659380674362183 0.80928289890289307 0.72116827964782715
0.94603759050369263 0.82017463445663452 0.73063892126083374
0.50344610214233398 0.90409916639328003 0.79389315843582153
0.52143251895904541 0.90317273139953613 0.78560960292816162
0.57434052228927612 0.90069830417633057 0.77309983968734741
0.63750016689300537 0.89953964948654175 0.75577884912490845
0.73718518018722534 0.89427268505096436 0.7505260705947876
0.8510163426399231 0.89456552267074585 0.74597710371017456
0.96041995286941528 0.91014224290847778 0.72930127382278442
0.26618209481239319 0.044199984520673752 0.82167059183120728
0.34676694869995117 0.012666410766541958 0.83062160015106201
0.50407487154006958 0.0052919872105121613 0.8455812931060791
0.68972039222717285 0.0012908487115055323 0.87028151750564575
0.89766722917556763 0.0028136908076703548 0.90048909187316895
0.98681879043579102 0.0073677361942827702 0.89192754030227661
0.98673897981643677 0.28120750188827515 0.83979541063308716
0.23303303122520447 0.16284964978694916 0.81602025032043457
0.32244426012039185 0.13400304317474365 0.82601213455200195
0.48857349157333374 0.084689751267433167 0.8446584939956665
0.67348921298980713 0.02486846037209034 0.8675847053527832
0.88118183612823486 0.0142480144277215 0.89943206310272217
0.98668426275253296 0.12603561580181122 0.89682388305664062
0.97499221563339233 0.3714902400970459 0.83735424280166626
0.10987870395183563 0.29736724495887756 0.80568629503250122
0.23339049518108368 0.29509586095809937 0.80989617109298706
0.43561974167823792 0.29105538129806519 0.83194684982299805
0.63292795419692993 0.2965385913848877 0.85438692569732666
0.84933221340179443 0.32788798213005066 0.89223259687423706
0.96236813068389893 0.40293830633163452 0.88820129632949829
0.96103042364120483 0.50361692905426025 0.84038400650024414
0.0045763053931295872 0.44138741493225098 0.75986450910568237
0.040469735860824585 0.44455146789550781 0.77192527055740356
0.30962571501731873 0.45435428619384766 0.79546517133712769
0.55807995796203613 0.49384838342666626 0.82841306924819946
0.79121357202529907 0.55136477947235107 0.87283164262771606
0.92276382446289062 0.5956118106842041 0.87995487451553345
0.9396091103553772 0.6313323974609375 0.8462519645690918
0.018659360706806183 0.60750401020050049 0.77567732334136963
0.076436839997768402 0.6073722243309021 0.77480411529541016
0.28072866797447205 0.61482709646224976 0.78279948234558105
0.48124060034751892 0.63362127542495728 0.79532825946807861
0.71577262878417969 0.6917344331741333 0.84466809034347534
0.88968408107757568 0.73464739322662354 0.87996196746826172
0.92453110218048096 0.73266327381134033 0.85134851932525635
0.32998552918434143 0.77193164825439453 0.82826519012451172
0.38020840287208557 0.77315288782119751 0.82959532737731934
0.47288227081298828 0.7791714072227478 0.83299404382705688
0.60485506057739258 0.79324454069137573 0.84532219171524048
0.72744107246398926 0.81178927421569824 0.8598514199256897
0.86712974309921265 0.83709967136383057 0.87735152244567871
0.94581383466720581 0.82918590307235718 0.86457103490829468
0.53269690275192261 0.90856432914733887 0.89599096775054932
0.5575941801071167 0.91045820713043213 0.89746910333633423
0.60916101932525635 0.90998834371566772 0.89288878440856934
0.68267029523849487 0.90748542547225952 0.88471776247024536
0.76774793863296509 0.91068160533905029 0.88091886043548584
0.8627433180809021 0.90676981210708618 0.87111347913742065
0.95788884162902832 0.92023980617523193 0.86252498626708984
0.45293077826499939 0.14275124669075012 0.95956701040267944
0.50222611427307129 0.1168871745467186 0.9602552056312561
0.60078531503677368 0.061236273497343063 0.96639782190322876
0.7428818941116333 0.01958191767334938 0.97515714168548584
0.89858096837997437 0.0045911301858723164 0.98229634761810303
0.99831539392471313 0.0051456228829920292 0.98543596267700195
1 0.21082086861133575 0.98454707860946655
0.44191381335258484 0.24317455291748047 0.95582360029220581
0.49391216039657593 0.23283720016479492 0.95888227224349976
0.59400439262390137 0.19867885112762451 0.96266430616378784
0.73166441917419434 0.1477946937084198 0.97170960903167725
0.88516747951507568 0.095241144299507141 0.98262244462966919
0.99795162677764893 0.085552603006362915 0.99036222696304321
1 0.33440792560577393 0.98082065582275391
0.39400514960289001 0.38195982575416565 0.9510989785194397
0.44706714153289795 0.37614279985427856 0.9505237340927124
0.5628395676612854 0.36918491125106812 0.95583975315093994
0.70226025581359863 0.36278039216995239 0.96527218818664551
0.86122500896453857 0.37078648805618286 0.97582715749740601
0.99054414033889771 0.39543014764785767 0.98282516002655029
0.99652159214019775 0.48359918594360352 0.97279649972915649
0.21794243156909943 0.51205283403396606 0.93546319007873535
0.31003791093826294 0.51372355222702026 0.93541091680526733
0.46524778008460999 0.5119858980178833 0.94225233793258667
0.63989734649658203 0.52519035339355469 0.9502636194229126
0.81034767627716064 0.54538214206695557 0.96217435598373413
0.96096742153167725 0.58230942487716675 0.97686910629272461
0.99623042345046997 0.63282102346420288 0.97204810380935669
0.091838628053665161 0.65899914503097534 0.91337668895721436
0.13460597395896912 0.65403753519058228 0.91245126724243164
0.31854569911956787 0.64805978536605835 0.91659641265869141
0.52378612756729126 0.64992940425872803 0.92209100723266602
0.7432599663734436 0.68224620819091797 0.95164138078689575
0.91083180904388428 0.71638327836990356 0.96612173318862915
0.9919731616973877 0.74885743856430054 0.96736735105514526
0.33539661765098572 0.78859639167785645 0.92753833532333374
0.36647248268127441 0.78807532787322998 0.92661994695663452
0.43896400928497314 0.78655624389648438 0.92629897594451904
0.54110574722290039 0.78723251819610596 0.92964005470275879
0.66200947761535645 0.78431987762451172 0.93073713779449463
0.85036253929138184 0.81418544054031372 0.95370304584503174
0.97386699914932251 0.84595990180969238 0.96643710136413574
0.57145285606384277 0.89952236413955688 0.95426952838897705
0.59038299322128296 0.90157395601272583 0.9568716287612915
0.63825541734695435 0.90473312139511108 0.95908915996551514
0.7015872597694397 0.90632796287536621 0.96191906929016113
0.7811887264251709 0.90671205520629883 0.95880734920501709
0.86759048700332642 0.91614407300949097 0.96369588375091553
0.95942658185958862 0.92911118268966675 0.97129416465759277
