luts/instant_pro/fuji_fp-100c_negative_+.cube
# Created by: G'MIC (https://gmic.eu)
TITLE "fuji_fp-100c_negative_+"
# LUT size
LUT_3D_SIZE 7
# Data domain
DOMAIN_MIN 0.0 0.0 0.0
DOMAIN_MAX 1.0 1.0 1.0
# LUT data points
0.0017798180924728513 0.098895862698554993 0.20394957065582275
0.016428809612989426 0.096027597784996033 0.20207677781581879
0.18895906209945679 0.088421046733856201 0.19958712160587311
0.45873057842254639 0.033512819558382034 0.19701461493968964
0.69833254814147949 0.010497672483325005 0.19369798898696899
0.87104189395904541 0.17453286051750183 0.19297407567501068
0.98708170652389526 0.38543164730072021 0.20978979766368866
0.0041037765331566334 0.13266296684741974 0.20956672728061676
0.041007112711668015 0.12877874076366425 0.20422011613845825
0.23275080323219299 0.13754191994667053 0.19968244433403015
0.495432049036026 0.12768822908401489 0.19459761679172516
0.71191555261611938 0.16850024461746216 0.19163094460964203
0.87424618005752563 0.29398593306541443 0.19253157079219818
0.99233484268188477 0.43721738457679749 0.2093932032585144
0.0041938181966543198 0.23142525553703308 0.22296127676963806
0.063103243708610535 0.24128933250904083 0.21506436169147491
0.28593635559082031 0.29507160186767578 0.1949070543050766
0.54232954978942871 0.34910395741462708 0.17131792008876801
0.72609871625900269 0.37005770206451416 0.17402189970016479
0.87773311138153076 0.44574359059333801 0.1879543662071228
0.99016851186752319 0.53551721572875977 0.22530412673950195
0.0099083846434950829 0.41133326292037964 0.25355607271194458
0.14245161414146423 0.42404443025588989 0.26134103536605835
0.30159991979598999 0.46253380179405212 0.24554705619812012
0.54172384738922119 0.54369783401489258 0.19484873116016388
0.74589169025421143 0.59067219495773315 0.14848227798938751
0.87934654951095581 0.60902959108352661 0.20005296170711517
0.98033112287521362 0.64589011669158936 0.2877352237701416
0.19815357029438019 0.5960039496421814 0.34717175364494324
0.28439828753471375 0.60362690687179565 0.35763174295425415
0.40423703193664551 0.62024867534637451 0.37143146991729736
0.54288434982299805 0.66432982683181763 0.35233867168426514
0.72427809238433838 0.71988511085510254 0.31661328673362732
0.89762365818023682 0.76209175586700439 0.29988288879394531
0.98562610149383545 0.76536041498184204 0.39496403932571411
0.44404712319374084 0.74953490495681763 0.50773417949676514
0.49129012227058411 0.74476474523544312 0.51084494590759277
0.55416512489318848 0.75931286811828613 0.53048127889633179
0.64476054906845093 0.78240835666656494 0.53688281774520874
0.75458353757858276 0.81814199686050415 0.52349615097045898
0.88530850410461426 0.84952008724212646 0.51507276296615601
0.99459618330001831 0.87091565132141113 0.51990407705307007
0.7065855860710144 0.88748633861541748 0.66813486814498901
0.72636628150939941 0.88220739364624023 0.66676068305969238
0.7641405463218689 0.8903273344039917 0.68241935968399048
0.81700003147125244 0.89724874496459961 0.69623899459838867
0.85827344655990601 0.90500986576080322 0.69150650501251221
0.92514371871948242 0.92115199565887451 0.69121319055557251
0.98314696550369263 0.9318205714225769 0.69249582290649414
0.0078475652262568474 0.095935776829719543 0.21994160115718842
0.032310649752616882 0.092856280505657196 0.2152027040719986
0.22300510108470917 0.077384322881698608 0.21867376565933228
0.48135441541671753 0.0074746077880263329 0.22662593424320221
0.71025830507278442 0.019430855289101601 0.23965051770210266
0.87499779462814331 0.20103061199188232 0.26581636071205139
0.9937857985496521 0.39895123243331909 0.29333686828613281
0.008656221441924572 0.13615366816520691 0.23134876787662506
0.06265760213136673 0.12986120581626892 0.22764675319194794
0.26457113027572632 0.14281325042247772 0.22447298467159271
0.51272773742675781 0.13313710689544678 0.23630370199680328
0.72306901216506958 0.18748985230922699 0.24988861382007599
0.883747398853302 0.30967414379119873 0.27834698557853699
0.99209654331207275 0.44999724626541138 0.30558478832244873
0.038565229624509811 0.24321439862251282 0.24766722321510315
0.12866057455539703 0.25702226161956787 0.2511020302772522
0.32043567299842834 0.29655367136001587 0.24286395311355591
0.55469334125518799 0.34599727392196655 0.22955790162086487
0.73754429817199707 0.37683135271072388 0.24417832493782043
0.88236671686172485 0.46145892143249512 0.28187572956085205
0.98289811611175537 0.55386364459991455 0.33697012066841125
0.098796740174293518 0.43315732479095459 0.30028930306434631
0.2024431973695755 0.44845262169837952 0.30722025036811829
0.34795257449150085 0.47508144378662109 0.30358269810676575
0.55757635831832886 0.54458951950073242 0.27288249135017395
0.74923098087310791 0.58831441402435303 0.25301259756088257
0.88172322511672974 0.60765385627746582 0.29342806339263916
0.9794304370880127 0.65435528755187988 0.37612438201904297
0.24299554526805878 0.59809392690658569 0.3970828652381897
0.32380551099777222 0.61666250228881836 0.40466415882110596
0.43425905704498291 0.63139647245407104 0.41548380255699158
0.56981378793716431 0.67037618160247803 0.4090309739112854
0.72194910049438477 0.71859538555145264 0.38731217384338379
0.89485090970993042 0.75632977485656738 0.39457732439041138
0.98580974340438843 0.76888906955718994 0.45959249138832092
0.44812363386154175 0.75261139869689941 0.52403277158737183
0.50106829404830933 0.75351250171661377 0.53897750377655029
0.57150423526763916 0.76798802614212036 0.55421286821365356
0.65256237983703613 0.78555363416671753 0.56237435340881348
0.76361972093582153 0.81564033031463623 0.55892753601074219
0.88560140132904053 0.84689795970916748 0.55632007122039795
0.99034422636032104 0.86774063110351562 0.55812060832977295
0.71298199892044067 0.88741481304168701 0.67306137084960938
0.73025083541870117 0.88596731424331665 0.67596936225891113
0.76580798625946045 0.89273667335510254 0.68981391191482544
0.82411164045333862 0.89796441793441772 0.70268493890762329
0.87886279821395874 0.91066920757293701 0.70476889610290527
0.93682265281677246 0.92371290922164917 0.703399658203125
0.98482918739318848 0.93136703968048096 0.70278358459472656
0.057174697518348694 0.083696357905864716 0.27885904908180237
0.17549684643745422 0.069061562418937683 0.30019861459732056
0.29212644696235657 0.070606067776679993 0.29102730751037598
0.54142850637435913 0.018676085397601128 0.31662902235984802
0.77266877889633179 0.014532814733684063 0.35355749726295471
0.91662943363189697 0.18351122736930847 0.3750951886177063
0.98648017644882202 0.4133562445640564 0.45469635725021362
0.0066310656256973743 0.12314918637275696 0.2934105396270752
0.13613985478878021 0.12575741112232208 0.30519852042198181
0.34362912178039551 0.16636465489864349 0.32283037900924683
0.55512553453445435 0.1608877032995224 0.33846452832221985
0.7626492977142334 0.20085389912128448 0.36389237642288208
0.90525048971176147 0.32114532589912415 0.40210777521133423
0.98595094680786133 0.4754176139831543 0.46326300501823425
0.0076260734349489212 0.24880576133728027 0.32316353917121887
0.13599684834480286 0.26812255382537842 0.33903899788856506
0.36078667640686035 0.31385341286659241 0.36049744486808777
0.57536333799362183 0.37155351042747498 0.37098056077957153
0.75673073530197144 0.40726715326309204 0.39726591110229492
0.8920784592628479 0.47932502627372742 0.4217979907989502
0.97908371686935425 0.57214206457138062 0.47492006421089172
0.16996055841445923 0.44824546575546265 0.40004611015319824
0.29278019070625305 0.46671190857887268 0.41162607073783875
0.41857677698135376 0.50074076652526855 0.42436462640762329
0.58342826366424561 0.55497664213180542 0.42012119293212891
0.75258296728134155 0.60054051876068115 0.42528334259986877
0.88413047790527344 0.62359625101089478 0.44761383533477783
0.98154795169830322 0.66616338491439819 0.50410658121109009
0.36285841464996338 0.62125945091247559 0.49102547764778137
0.40272447466850281 0.62902015447616577 0.49159726500511169
0.48929667472839355 0.64900964498519897 0.50106221437454224
0.59444552659988403 0.67637193202972412 0.50284725427627563
0.74583297967910767 0.72547811269760132 0.50241786241531372
0.89059388637542725 0.75780409574508667 0.51745092868804932
0.98966264724731445 0.76526021957397461 0.55064672231674194
0.48587265610694885 0.75730109214782715 0.57261550426483154
0.51636290550231934 0.76122438907623291 0.57716977596282959
0.57720226049423218 0.77480679750442505 0.59074169397354126
0.67409777641296387 0.79136508703231812 0.60335862636566162
0.77445286512374878 0.81827056407928467 0.61462414264678955
0.90609145164489746 0.8476373553276062 0.60908246040344238
0.99067193269729614 0.8671342134475708 0.60428273677825928
0.71373337507247925 0.88766229152679443 0.68406128883361816
0.73006683588027954 0.88904803991317749 0.69000005722045898
0.76907223463058472 0.89257031679153442 0.69758123159408569
0.82472527027130127 0.89701974391937256 0.70993566513061523
0.88212442398071289 0.90541970729827881 0.71926641464233398
0.94888073205947876 0.91936719417572021 0.71634423732757568
0.98984593152999878 0.92867904901504517 0.72189342975616455
0.19052945077419281 0.035598352551460266 0.43386021256446838
0.30815395712852478 0.018920734524726868 0.44619983434677124
0.49255630373954773 0.018674049526453018 0.47886645793914795
0.62918436527252197 0.16828063130378723 0.49310764670372009
0.77984994649887085 0.23584075272083282 0.52867609262466431
0.94025182723999023 0.36161798238754272 0.57719880342483521
0.99457299709320068 0.47845080494880676 0.59397488832473755
0.098031051456928253 0.10405349731445312 0.44918164610862732
0.25627401471138 0.098048493266105652 0.46613925695419312
0.49096062779426575 0.1560804545879364 0.50121349096298218
0.63801652193069458 0.29084765911102295 0.51893943548202515
0.78007608652114868 0.34843605756759644 0.54862707853317261
0.92951130867004395 0.4397481381893158 0.57895714044570923
0.9950680136680603 0.51135528087615967 0.59890729188919067
0.014126916415989399 0.23901695013046265 0.47303324937820435
0.054657250642776489 0.24641311168670654 0.48571446537971497
0.43287712335586548 0.32668954133987427 0.52095180749893188
0.63138717412948608 0.4473707377910614 0.55151230096817017
0.77558189630508423 0.49246188998222351 0.57621800899505615
0.90703999996185303 0.55240249633789062 0.59193462133407593
0.9882013201713562 0.61504024267196655 0.62270849943161011
0.086429566144943237 0.43722504377365112 0.49095073342323303
0.20361790060997009 0.4532473087310791 0.50702095031738281
0.412188321352005 0.49948203563690186 0.53791999816894531
0.61884564161300659 0.57165580987930298 0.57508319616317749
0.75236696004867554 0.61378985643386841 0.58781296014785767
0.88356107473373413 0.64778822660446167 0.60799551010131836
0.98125392198562622 0.68864333629608154 0.62534564733505249
0.32808220386505127 0.61240112781524658 0.56337839365005493
0.39576670527458191 0.62251740694046021 0.57184857130050659
0.51267814636230469 0.65381336212158203 0.58806222677230835
0.6335645318031311 0.68740320205688477 0.60648071765899658
0.75464069843292236 0.73006975650787354 0.61779016256332397
0.89196795225143433 0.76097697019577026 0.62243509292602539
0.9897037148475647 0.77008289098739624 0.63742119073867798
0.52054405212402344 0.76267403364181519 0.64123570919036865
0.55507391691207886 0.76868116855621338 0.64466619491577148
0.61318045854568481 0.77798181772232056 0.64444446563720703
0.69588333368301392 0.79750210046768188 0.65901392698287964
0.78507596254348755 0.82161891460418701 0.67084527015686035
0.9073106050491333 0.84969711303710938 0.66919028759002686
0.99533271789550781 0.8682062029838562 0.66745603084564209
0.73206478357315063 0.88927626609802246 0.71275299787521362
0.73984593152999878 0.89201247692108154 0.71403658390045166
0.77026945352554321 0.89634394645690918 0.71552962064743042
0.82624763250350952 0.90080457925796509 0.72802054882049561
0.89829170703887939 0.90788370370864868 0.74579370021820068
0.95897930860519409 0.92212271690368652 0.7496151328086853
0.9916185736656189 0.93002033233642578 0.74934500455856323
0.38187927007675171 0.013849146664142609 0.60000282526016235
0.46344509720802307 0.011256393976509571 0.61168277263641357
0.63253283500671387 0.011183989234268665 0.64950627088546753
0.76491677761077881 0.21629105508327484 0.6705130934715271
0.84184491634368896 0.42974770069122314 0.67119777202606201
0.91636896133422852 0.48326572775840759 0.6749800443649292
0.99238550662994385 0.60631769895553589 0.70975130796432495
0.33273249864578247 0.056614432483911514 0.61906528472900391
0.44132941961288452 0.03733578696846962 0.63513797521591187
0.60452836751937866 0.10358323901891708 0.65523135662078857
0.75655406713485718 0.33185312151908875 0.67926818132400513
0.84338855743408203 0.50419515371322632 0.67993295192718506
0.92960721254348755 0.55579262971878052 0.69021707773208618
0.99417996406555176 0.63967758417129517 0.71309190988540649
0.091194033622741699 0.21134363114833832 0.62666571140289307
0.283185213804245 0.23708924651145935 0.63920152187347412
0.54542982578277588 0.31693640351295471 0.66018229722976685
0.72446298599243164 0.46715715527534485 0.68117815256118774
0.82035261392593384 0.59192794561386108 0.68870353698730469
0.91957324743270874 0.63760435581207275 0.70240932703018188
0.99528717994689941 0.69161170721054077 0.72337764501571655
0.01204865425825119 0.40539076924324036 0.61977678537368774
0.019548632204532623 0.41859021782875061 0.62535977363586426
0.31993043422698975 0.45946091413497925 0.64585930109024048
0.6382976770401001 0.56812882423400879 0.67543274164199829
0.81864941120147705 0.67862623929977417 0.69750547409057617
0.92740356922149658 0.71720355749130249 0.70931708812713623
0.99577802419662476 0.74808639287948608 0.72274863719940186
0.20170725882053375 0.60342681407928467 0.62852251529693604
0.29349929094314575 0.61436754465103149 0.6367458701133728
0.42747241258621216 0.62842601537704468 0.65459102392196655
0.59989058971405029 0.6716008186340332 0.67903661727905273
0.79099148511886597 0.74528020620346069 0.70043432712554932
0.92071658372879028 0.78115862607955933 0.71371620893478394
0.99343836307525635 0.79647564888000488 0.7235146164894104
0.40758547186851501 0.74750131368637085 0.67604327201843262
0.47505828738212585 0.74953919649124146 0.68057394027709961
0.56558007001876831 0.76657021045684814 0.68819260597229004
0.69182848930358887 0.7934868335723877 0.70461177825927734
0.80971616506576538 0.82059669494628906 0.72633630037307739
0.9302489161491394 0.85373967885971069 0.73155099153518677
0.9942166805267334 0.87431859970092773 0.74090951681137085
0.68613713979721069 0.88777589797973633 0.73716336488723755
0.70805788040161133 0.88792949914932251 0.73918449878692627
0.76502734422683716 0.89198273420333862 0.74360060691833496
0.83451902866363525 0.89966303110122681 0.75395435094833374
0.90299439430236816 0.90909755229949951 0.76940447092056274
0.95998775959014893 0.91918081045150757 0.7772558331489563
0.99185091257095337 0.93134588003158569 0.79387021064758301
0.60132843255996704 0.021428724750876427 0.73513972759246826
0.65639793872833252 0.013998308219015598 0.73609912395477295
0.76719421148300171 0.014569406397640705 0.75810199975967407
0.85954135656356812 0.29571416974067688 0.76524752378463745
0.93929839134216309 0.55363744497299194 0.76841002702713013
0.98415523767471313 0.64179509878158569 0.75974327325820923
0.99828362464904785 0.68009048700332642 0.76333224773406982
0.58569294214248657 0.011902184225618839 0.74736791849136353
0.65039026737213135 0.02302347868680954 0.75316208600997925
0.74280935525894165 0.13993874192237854 0.7595248818397522
0.84533226490020752 0.39303746819496155 0.76456725597381592
0.9270777702331543 0.58757120370864868 0.76775050163269043
0.97788757085800171 0.68470108509063721 0.76718896627426147
0.99127018451690674 0.72260874509811401 0.77760905027389526
0.46459591388702393 0.21595236659049988 0.74665981531143188
0.54938137531280518 0.24471402168273926 0.75022602081298828
0.68878257274627686 0.33700114488601685 0.75751018524169922
0.81019109487533569 0.49777111411094666 0.76273912191390991
0.90767234563827515 0.64950484037399292 0.77359604835510254
0.97021138668060303 0.72516882419586182 0.77179712057113647
0.9959716796875 0.74898380041122437 0.77744072675704956
0.014961153268814087 0.34447240829467773 0.73387676477432251
0.09132850170135498 0.36081695556640625 0.73795384168624878
0.45941317081451416 0.43132862448692322 0.74686473608016968
0.72065943479537964 0.56308513879776001 0.7568126916885376
0.87890374660491943 0.6934019923210144 0.77075231075286865
0.97681069374084473 0.77784031629562378 0.78144508600234985
0.99920195341110229 0.81109774112701416 0.79721367359161377
0.021105343475937843 0.57055652141571045 0.71999645233154297
0.018431644886732101 0.57602596282958984 0.72070479393005371
0.12000540643930435 0.59101521968841553 0.72423350811004639
0.47918090224266052 0.61812442541122437 0.73671966791152954
0.80582505464553833 0.7282525897026062 0.76016879081726074
0.96997839212417603 0.82270616292953491 0.78739136457443237
0.99789881706237793 0.8491625189781189 0.80501013994216919
0.25710898637771606 0.73394691944122314 0.71709924936294556
0.32155454158782959 0.73835879564285278 0.71956127882003784
0.43715196847915649 0.74893593788146973 0.72512441873550415
0.59812456369400024 0.76944959163665771 0.73534083366394043
0.76596224308013916 0.80145525932312012 0.76122885942459106
0.94365119934082031 0.86082494258880615 0.79255372285842896
0.9955143928527832 0.89041101932525635 0.81682401895523071
0.5607374906539917 0.88498443365097046 0.76701045036315918
0.59066653251647949 0.88722532987594604 0.76868587732315063
0.65130293369293213 0.89119380712509155 0.77115851640701294
0.75873810052871704 0.896636962890625 0.77993875741958618
0.87546330690383911 0.90611368417739868 0.80083739757537842
0.96309757232666016 0.92066586017608643 0.82036846876144409
0.988902747631073 0.92574882507324219 0.83538049459457397
0.81136500835418701 0.088861502707004547 0.85504657030105591
0.836769700050354 0.13452546298503876 0.85538238286972046
0.87897080183029175 0.29240033030509949 0.85512787103652954
0.94053095579147339 0.47794011235237122 0.85464566946029663
0.99435746669769287 0.63564932346343994 0.85306912660598755
0.99922889471054077 0.74600613117218018 0.84571415185928345
1 0.79115599393844604 0.84631621837615967
0.78888225555419922 0.19066160917282104 0.85476267337799072
0.81157732009887695 0.2501545250415802 0.85635983943939209
0.8609309196472168 0.37616536021232605 0.85518693923950195
0.9257122278213501 0.51487565040588379 0.85166800022125244
0.97995221614837646 0.65731531381607056 0.85038667917251587
0.99680161476135254 0.7669302225112915 0.85580545663833618
0.9981001615524292 0.80960750579833984 0.84752887487411499
0.7183958888053894 0.33327984809875488 0.85273915529251099
0.75434255599975586 0.36913564801216125 0.85166901350021362
0.80775183439254761 0.45677506923675537 0.85267502069473267
0.8964044451713562 0.57222265005111694 0.85288757085800171
0.97537636756896973 0.6949649453163147 0.85680979490280151
0.99535518884658813 0.78985559940338135 0.85621356964111328
0.9996030330657959 0.81735008955001831 0.85442972183227539
0.46101081371307373 0.3848232626914978 0.84816527366638184
0.55757021903991699 0.4225999116897583 0.84808540344238281
0.69568318128585815 0.50477153062820435 0.85065650939941406
0.83249056339263916 0.61240237951278687 0.85206788778305054
0.93767917156219482 0.71934992074966431 0.8533816933631897
0.99015945196151733 0.81502914428710938 0.85792368650436401
1 0.85456359386444092 0.86192852258682251
0.0042598950676620007 0.57758373022079468 0.83500552177429199
0.011672704480588436 0.55694663524627686 0.84107023477554321
0.11293108761310577 0.55321389436721802 0.84060591459274292
0.58522307872772217 0.61246538162231445 0.84828794002532959
0.87431401014328003 0.73889410495758057 0.85694652795791626
0.98809540271759033 0.83938968181610107 0.85740476846694946
0.9994046688079834 0.88984817266464233 0.87085521221160889
0.011382009834051132 0.75841635465621948 0.82805436849594116
0.015996012836694717 0.76049727201461792 0.83112168312072754
0.086653418838977814 0.75826209783554077 0.83145761489868164
0.32792621850967407 0.75119763612747192 0.84329104423522949
0.61845040321350098 0.75842440128326416 0.84855139255523682
0.94657844305038452 0.855019211769104 0.86903256177902222
0.99697786569595337 0.91289496421813965 0.8847203254699707
0.50496792793273926 0.88627117872238159 0.85308241844177246
0.5421987771987915 0.88735824823379517 0.85387808084487915
0.58945351839065552 0.88531005382537842 0.85351598262786865
0.68522870540618896 0.88999480009078979 0.85469156503677368
0.80619502067565918 0.89840233325958252 0.86651808023452759
0.92541927099227905 0.91228789091110229 0.8838801383972168
0.99490207433700562 0.93175190687179565 0.89920854568481445
