luts/instant_pro/fuji_fp-3000b_negative_early.cube
# Created by: G'MIC (https://gmic.eu)
TITLE "fuji_fp-3000b_negative_early"
# LUT size
LUT_3D_SIZE 5
# Data domain
DOMAIN_MIN 0.0 0.0 0.0
DOMAIN_MAX 1.0 1.0 1.0
# LUT data points
0.19169561564922333 0.19169561564922333 0.19169561564922333
0.17271170020103455 0.17271170020103455 0.17271170020103455
0.22093060612678528 0.22093060612678528 0.22093060612678528
0.42563501000404358 0.42563501000404358 0.42563501000404358
0.64901840686798096 0.64901840686798096 0.64901840686798096
0.16343283653259277 0.16343283653259277 0.16343283653259277
0.1872820109128952 0.1872820109128952 0.1872820109128952
0.31271862983703613 0.31271862983703613 0.31271862983703613
0.50414669513702393 0.50414669513702393 0.50414669513702393
0.68521797657012939 0.68521797657012939 0.68521797657012939
0.33880937099456787 0.33880937099456787 0.33880937099456787
0.32495021820068359 0.32495021820068359 0.32495021820068359
0.43630427122116089 0.43630427122116089 0.43630427122116089
0.59971922636032104 0.59971922636032104 0.59971922636032104
0.7331206202507019 0.7331206202507019 0.7331206202507019
0.61280828714370728 0.61280828714370728 0.61280828714370728
0.58398294448852539 0.58398294448852539 0.58398294448852539
0.60586607456207275 0.60586607456207275 0.60586607456207275
0.68836218118667603 0.68836218118667603 0.68836218118667603
0.77650099992752075 0.77650099992752075 0.77650099992752075
0.79479104280471802 0.79479104280471802 0.79479104280471802
0.77695953845977783 0.77695953845977783 0.77695953845977783
0.7638586163520813 0.7638586163520813 0.7638586163520813
0.78562992811203003 0.78562992811203003 0.78562992811203003
0.83161765336990356 0.83161765336990356 0.83161765336990356
0.1628652960062027 0.1628652960062027 0.1628652960062027
0.20550665259361267 0.20550665259361267 0.20550665259361267
0.3058016300201416 0.3058016300201416 0.3058016300201416
0.4861813485622406 0.4861813485622406 0.4861813485622406
0.66465669870376587 0.66465669870376587 0.66465669870376587
0.19831772148609161 0.19831772148609161 0.19831772148609161
0.23298296332359314 0.23298296332359314 0.23298296332359314
0.3632977306842804 0.3632977306842804 0.3632977306842804
0.54746395349502563 0.54746395349502563 0.54746395349502563
0.70126169919967651 0.70126169919967651 0.70126169919967651
0.45745992660522461 0.45745992660522461 0.45745992660522461
0.42335483431816101 0.42335483431816101 0.42335483431816101
0.48939028382301331 0.48939028382301331 0.48939028382301331
0.6312451958656311 0.6312451958656311 0.6312451958656311
0.7457384467124939 0.7457384467124939 0.7457384467124939
0.67601186037063599 0.67601186037063599 0.67601186037063599
0.64939266443252563 0.64939266443252563 0.64939266443252563
0.65539431571960449 0.65539431571960449 0.65539431571960449
0.71441388130187988 0.71441388130187988 0.71441388130187988
0.78508478403091431 0.78508478403091431 0.78508478403091431
0.82085460424423218 0.82085460424423218 0.82085460424423218
0.80487865209579468 0.80487865209579468 0.80487865209579468
0.78841531276702881 0.78841531276702881 0.78841531276702881
0.79917120933532715 0.79917120933532715 0.79917120933532715
0.83480721712112427 0.83480721712112427 0.83480721712112427
0.35784667730331421 0.35784667730331421 0.35784667730331421
0.43043249845504761 0.43043249845504761 0.43043249845504761
0.49338376522064209 0.49338376522064209 0.49338376522064209
0.59401100873947144 0.59401100873947144 0.59401100873947144
0.70916873216629028 0.70916873216629028 0.70916873216629028
0.38950535655021667 0.38950535655021667 0.38950535655021667
0.45381566882133484 0.45381566882133484 0.45381566882133484
0.53315919637680054 0.53315919637680054 0.53315919637680054
0.63105589151382446 0.63105589151382446 0.63105589151382446
0.72601115703582764 0.72601115703582764 0.72601115703582764
0.53802919387817383 0.53802919387817383 0.53802919387817383
0.54655522108078003 0.54655522108078003 0.54655522108078003
0.59664750099182129 0.59664750099182129 0.59664750099182129
0.67683368921279907 0.67683368921279907 0.67683368921279907
0.75585949420928955 0.75585949420928955 0.75585949420928955
0.71211296319961548 0.71211296319961548 0.71211296319961548
0.71013003587722778 0.71013003587722778 0.71013003587722778
0.71601802110671997 0.71601802110671997 0.71601802110671997
0.74520552158355713 0.74520552158355713 0.74520552158355713
0.79224604368209839 0.79224604368209839 0.79224604368209839
0.82435423135757446 0.82435423135757446 0.82435423135757446
0.81611752510070801 0.81611752510070801 0.81611752510070801
0.80613094568252563 0.80613094568252563 0.80613094568252563
0.81065839529037476 0.81065839529037476 0.81065839529037476
0.83642274141311646 0.83642274141311646 0.83642274141311646
0.62914133071899414 0.62914133071899414 0.62914133071899414
0.65989428758621216 0.65989428758621216 0.65989428758621216
0.71976739168167114 0.71976739168167114 0.71976739168167114
0.72649246454238892 0.72649246454238892 0.72649246454238892
0.76756304502487183 0.76756304502487183 0.76756304502487183
0.66489452123641968 0.66489452123641968 0.66489452123641968
0.69280683994293213 0.69280683994293213 0.69280683994293213
0.72865760326385498 0.72865760326385498 0.72865760326385498
0.72569382190704346 0.72569382190704346 0.72569382190704346
0.76613008975982666 0.76613008975982666 0.76613008975982666
0.66045200824737549 0.66045200824737549 0.66045200824737549
0.67625957727432251 0.67625957727432251 0.67625957727432251
0.7215343713760376 0.7215343713760376 0.7215343713760376
0.7521209716796875 0.7521209716796875 0.7521209716796875
0.78315937519073486 0.78315937519073486 0.78315937519073486
0.73932933807373047 0.73932933807373047 0.73932933807373047
0.73941695690155029 0.73941695690155029 0.73941695690155029
0.75881999731063843 0.75881999731063843 0.75881999731063843
0.78189408779144287 0.78189408779144287 0.78189408779144287
0.80687075853347778 0.80687075853347778 0.80687075853347778
0.82110345363616943 0.82110345363616943 0.82110345363616943
0.81664025783538818 0.81664025783538818 0.81664025783538818
0.81638145446777344 0.81638145446777344 0.81638145446777344
0.82081705331802368 0.82081705331802368 0.82081705331802368
0.83895331621170044 0.83895331621170044 0.83895331621170044
0.81205219030380249 0.81205219030380249 0.81205219030380249
0.81884729862213135 0.81884729862213135 0.81884729862213135
0.82465624809265137 0.82465624809265137 0.82465624809265137
0.8237270712852478 0.8237270712852478 0.8237270712852478
0.83259505033493042 0.83259505033493042 0.83259505033493042
0.82525867223739624 0.82525867223739624 0.82525867223739624
0.83143085241317749 0.83143085241317749 0.83143085241317749
0.82856887578964233 0.82856887578964233 0.82856887578964233
0.82108604907989502 0.82108604907989502 0.82108604907989502
0.82794827222824097 0.82794827222824097 0.82794827222824097
0.80463171005249023 0.80463171005249023 0.80463171005249023
0.81056100130081177 0.81056100130081177 0.81056100130081177
0.81965416669845581 0.81965416669845581 0.81965416669845581
0.82352036237716675 0.82352036237716675 0.82352036237716675
0.83124065399169922 0.83124065399169922 0.83124065399169922
0.807536780834198 0.807536780834198 0.807536780834198
0.80760055780410767 0.80760055780410767 0.80760055780410767
0.81660723686218262 0.81660723686218262 0.81660723686218262
0.82448393106460571 0.82448393106460571 0.82448393106460571
0.83726304769515991 0.83726304769515991 0.83726304769515991
0.84201985597610474 0.84201985597610474 0.84201985597610474
0.8400605320930481 0.8400605320930481 0.8400605320930481
0.84161168336868286 0.84161168336868286 0.84161168336868286
0.84330129623413086 0.84330129623413086 0.84330129623413086
0.85450661182403564 0.85450661182403564 0.85450661182403564
