luts/instant_pro/fuji_fp-100c_negative_-.cube
# Created by: G'MIC (https://gmic.eu)
TITLE "fuji_fp-100c_negative_-"
# LUT size
LUT_3D_SIZE 5
# Data domain
DOMAIN_MIN 0.0 0.0 0.0
DOMAIN_MAX 1.0 1.0 1.0
# LUT data points
0.016502080485224724 0.11705953627824783 0.11003106832504272
0.19346435368061066 0.11113589257001877 0.10252320766448975
0.5310521125793457 0.043954901397228241 0.11051222681999207
0.80597883462905884 0.14932774007320404 0.13826429843902588
0.98799765110015869 0.40822127461433411 0.20774765312671661
0.020336749032139778 0.20448404550552368 0.1401812881231308
0.21914830803871155 0.24086923897266388 0.12853199243545532
0.56942278146743774 0.26759690046310425 0.10288624465465546
0.81013369560241699 0.34541013836860657 0.14063543081283569
0.98396658897399902 0.49934551119804382 0.22357384860515594
0.082463718950748444 0.44725698232650757 0.26162031292915344
0.2707010805606842 0.47072130441665649 0.27039715647697449
0.54175055027008057 0.54629606008529663 0.20456735789775848
0.8147660493850708 0.5843435525894165 0.17707549035549164
0.99196368455886841 0.64393579959869385 0.25740143656730652
0.36298593878746033 0.66540873050689697 0.43664076924324036
0.45472925901412964 0.68245869874954224 0.45164746046066284
0.5817866325378418 0.70466643571853638 0.45137041807174683
0.80348885059356689 0.77252089977264404 0.40663599967956543
0.98499608039855957 0.81971454620361328 0.39665892720222473
0.67030298709869385 0.88357824087142944 0.65636414289474487
0.70998787879943848 0.88647854328155518 0.66921377182006836
0.79532033205032349 0.89178562164306641 0.68445491790771484
0.87518441677093506 0.9160008430480957 0.68106949329376221
0.9845154881477356 0.93252259492874146 0.6671639084815979
0.056404653936624527 0.11270835995674133 0.23348970711231232
0.23880957067012787 0.11892852932214737 0.23099634051322937
0.58286809921264648 0.062565505504608154 0.26833334565162659
0.81413573026657104 0.23601019382476807 0.32696917653083801
0.9825858473777771 0.4384915828704834 0.3934384286403656
0.034169785678386688 0.22004136443138123 0.26481389999389648
0.28226104378700256 0.26241970062255859 0.29613545536994934
0.59040385484695435 0.30764266848564148 0.30341508984565735
0.80848962068557739 0.39554905891418457 0.34137609601020813
0.97785156965255737 0.52441680431365967 0.40618604421615601
0.26228174567222595 0.47979903221130371 0.38220947980880737
0.35251256823539734 0.49687591195106506 0.38167023658752441
0.56995272636413574 0.54671365022659302 0.37266036868095398
0.81072771549224854 0.59045231342315674 0.36359784007072449
0.98374152183532715 0.64888191223144531 0.40654203295707703
0.40938267111778259 0.67626440525054932 0.48893967270851135
0.47272709012031555 0.68536067008972168 0.4995872974395752
0.6124536395072937 0.71296530961990356 0.51210135221481323
0.81528151035308838 0.77644509077072144 0.48320800065994263
0.99363559484481812 0.81322211027145386 0.48522207140922546
0.66551786661148071 0.88639044761657715 0.66822618246078491
0.71019840240478516 0.88983440399169922 0.68117135763168335
0.79693996906280518 0.89496409893035889 0.70346248149871826
0.88219583034515381 0.91580504179000854 0.6997104287147522
0.9893222451210022 0.93346410989761353 0.69871169328689575
0.23181979358196259 0.07456168532371521 0.46640065312385559
0.44523578882217407 0.082040511071681976 0.50107389688491821
0.65425354242324829 0.2748056948184967 0.51957911252975464
0.86570256948471069 0.37422078847885132 0.56537353992462158
0.99443596601486206 0.47696596384048462 0.59187966585159302
0.059165865182876587 0.20745405554771423 0.49902051687240601
0.39028769731521606 0.26784458756446838 0.51983559131622314
0.64476948976516724 0.42786517739295959 0.54426592588424683
0.85543864965438843 0.48398450016975403 0.58433037996292114
0.99861359596252441 0.5329321026802063 0.59691601991653442
0.18141168355941772 0.46627748012542725 0.50539922714233398
0.36262869834899902 0.49303105473518372 0.52673935890197754
0.62901264429092407 0.57453662157058716 0.56849056482315063
0.82316869497299194 0.61230272054672241 0.58384948968887329
0.98532801866531372 0.66288125514984131 0.60525184869766235
0.44431114196777344 0.67412787675857544 0.58645308017730713
0.52601402997970581 0.69031620025634766 0.59706848859786987
0.65270012617111206 0.72804021835327148 0.60997903347015381
0.82932358980178833 0.78297710418701172 0.61405867338180542
0.99543416500091553 0.80875158309936523 0.61820459365844727
0.68718826770782471 0.88705253601074219 0.71294134855270386
0.72231239080429077 0.8900907039642334 0.71615409851074219
0.79172074794769287 0.89716207981109619 0.72618705034255981
0.90233021974563599 0.91429775953292847 0.74609655141830444
0.99086183309555054 0.93283581733703613 0.74257946014404297
0.51141852140426636 0.0088894711807370186 0.68558049201965332
0.64206874370574951 0.045645754784345627 0.70342153310775757
0.80731707811355591 0.36238151788711548 0.71533632278442383
0.92209386825561523 0.54473811388015747 0.72843647003173828
0.99111473560333252 0.61480838060379028 0.74966365098953247
0.44350820779800415 0.21676830947399139 0.69078546762466431
0.58362728357315063 0.27881091833114624 0.70182400941848755
0.79003739356994629 0.46824052929878235 0.72718405723571777
0.91864854097366333 0.6082502007484436 0.74320930242538452
0.99825477600097656 0.67720192670822144 0.76157218217849731
0.0095825940370559692 0.40811347961425781 0.66211444139480591
0.20595742762088776 0.44013702869415283 0.67020082473754883
0.67996466159820557 0.55541098117828369 0.71888273954391479
0.90723323822021484 0.71233052015304565 0.75424861907958984
0.99334657192230225 0.77485108375549316 0.77803194522857666
0.29733371734619141 0.64751815795898438 0.66026932001113892
0.38628792762756348 0.66008925437927246 0.67263889312744141
0.58863705396652222 0.70036405324935913 0.70513290166854858
0.86160629987716675 0.79421472549438477 0.75480270385742188
0.99503207206726074 0.84402412176132202 0.77722358703613281
0.57974773645401001 0.8816719651222229 0.75810569524765015
0.63830482959747314 0.88438791036605835 0.761871337890625
0.77200359106063843 0.89704662561416626 0.77351373434066772
0.91110467910766602 0.91368609666824341 0.79801934957504272
0.9927641749382019 0.93139833211898804 0.81519919633865356
0.81823652982711792 0.21854329109191895 0.87290781736373901
0.86162173748016357 0.32940781116485596 0.87551546096801758
0.94621187448501587 0.49615317583084106 0.87351399660110474
0.99661481380462646 0.68081241846084595 0.87331348657608032
1 0.7820812463760376 0.86329901218414307
0.7766488790512085 0.35177129507064819 0.87413400411605835
0.82445985078811646 0.4123169481754303 0.86979621648788452
0.9238857626914978 0.5464056134223938 0.87556469440460205
0.9961625337600708 0.7112051248550415 0.87724220752716064
1 0.80308759212493896 0.86869186162948608
0.48509249091148376 0.42698773741722107 0.86774057149887085
0.64110070466995239 0.47798120975494385 0.86985915899276733
0.8398444652557373 0.5955769419670105 0.87554550170898438
0.98270493745803833 0.76163631677627563 0.88244748115539551
0.99994385242462158 0.85214352607727051 0.88699501752853394
0.0047770929522812366 0.68496036529541016 0.8511081337928772
0.0056812362745404243 0.67347216606140137 0.85702747106552124
0.2286192923784256 0.65503227710723877 0.85987359285354614
0.90225791931152344 0.78808975219726562 0.88271254301071167
0.99787300825119019 0.89939415454864502 0.89858472347259521
0.42033535242080688 0.88485777378082275 0.87207949161529541
0.48166754841804504 0.885886549949646 0.87501722574234009
0.62331461906433105 0.88856977224349976 0.8771248459815979
0.83669692277908325 0.90092438459396362 0.89684170484542847
0.99067592620849609 0.93217098712921143 0.91668212413787842
