luts/instant_pro/fuji_fp-100c_+++.cube
# Created by: G'MIC (https://gmic.eu)
TITLE "fuji_fp-100c_+++"
# LUT size
LUT_3D_SIZE 7
# Data domain
DOMAIN_MIN 0.0 0.0 0.0
DOMAIN_MAX 1.0 1.0 1.0
# LUT data points
0.29607173800468445 0.28339260816574097 0.30626913905143738
0.31927639245986938 0.27800297737121582 0.29978951811790466
0.35888653993606567 0.27274009585380554 0.29200595617294312
0.45644921064376831 0.27521225810050964 0.29392966628074646
0.61076194047927856 0.28016349673271179 0.29555788636207581
0.77398192882537842 0.29134646058082581 0.2936561107635498
0.93084746599197388 0.31297910213470459 0.29271587729454041
0.29261359572410583 0.29499202966690063 0.29668161273002625
0.31738609075546265 0.29871916770935059 0.29477956891059875
0.37371215224266052 0.29853394627571106 0.29291674494743347
0.48629483580589294 0.31549376249313354 0.29526129364967346
0.63474714756011963 0.3289942741394043 0.29625877737998962
0.79491263628005981 0.33498978614807129 0.29371601343154907
0.94067376852035522 0.35894429683685303 0.29180008172988892
0.28988108038902283 0.35894015431404114 0.30087345838546753
0.31617569923400879 0.3606509268283844 0.2992425262928009
0.39137342572212219 0.36838710308074951 0.29781332612037659
0.5195731520652771 0.39461514353752136 0.29208275675773621
0.68416523933410645 0.42206388711929321 0.29449537396430969
0.82597392797470093 0.42817354202270508 0.29157200455665588
0.95151436328887939 0.44540327787399292 0.29386362433433533
0.28099179267883301 0.45042982697486877 0.30508401989936829
0.31639298796653748 0.44677984714508057 0.30686745047569275
0.38552197813987732 0.45503425598144531 0.29975011944770813
0.50567775964736938 0.47998076677322388 0.28312018513679504
0.66413265466690063 0.51119893789291382 0.27243268489837646
0.83622562885284424 0.54480791091918945 0.28237196803092957
0.97090798616409302 0.56560558080673218 0.30287104845046997
0.26203200221061707 0.57235604524612427 0.30653077363967896
0.30476123094558716 0.57288640737533569 0.30893945693969727
0.38385140895843506 0.57568573951721191 0.30367556214332581
0.49680846929550171 0.58892726898193359 0.28841984272003174
0.64827650785446167 0.61975312232971191 0.26466166973114014
0.81167370080947876 0.64577627182006836 0.23794916272163391
0.95987141132354736 0.67737805843353271 0.26838251948356628
0.26537594199180603 0.72020220756530762 0.31815263628959656
0.31602329015731812 0.71476489305496216 0.32053664326667786
0.40781483054161072 0.71801376342773438 0.32105037569999695
0.51776975393295288 0.72012150287628174 0.30699756741523743
0.65333223342895508 0.7419971227645874 0.28334608674049377
0.80510222911834717 0.76141226291656494 0.24274401366710663
0.95248758792877197 0.77974921464920044 0.19369906187057495
0.43263375759124756 0.87751823663711548 0.44717490673065186
0.46375802159309387 0.87468558549880981 0.44589012861251831
0.53800344467163086 0.87212955951690674 0.44982662796974182
0.63696634769439697 0.86918628215789795 0.46085074543952942
0.73896396160125732 0.87983942031860352 0.44657120108604431
0.85208761692047119 0.88764649629592896 0.41708812117576599
0.96538847684860229 0.8972131609916687 0.37202593684196472
0.29462483525276184 0.27375993132591248 0.31495484709739685
0.31398600339889526 0.27561771869659424 0.31690734624862671
0.35513982176780701 0.27774521708488464 0.3166363537311554
0.45730790495872498 0.27681100368499756 0.32654339075088501
0.6110418438911438 0.26157751679420471 0.32579123973846436
0.77314716577529907 0.26525416970252991 0.3257659375667572
0.92570400238037109 0.28917115926742554 0.32373914122581482
0.29365462064743042 0.29969704151153564 0.31966426968574524
0.3214738667011261 0.30250579118728638 0.32240051031112671
0.38015633821487427 0.30422124266624451 0.32202437520027161
0.50021970272064209 0.3084256649017334 0.32618966698646545
0.64345026016235352 0.31204098463058472 0.33456948399543762
0.79791295528411865 0.31795135140419006 0.33080950379371643
0.94523102045059204 0.34290358424186707 0.32091438770294189
0.28281238675117493 0.37442877888679504 0.33115699887275696
0.32274287939071655 0.38115251064300537 0.33583411574363708
0.39788836240768433 0.38404548168182373 0.32837373018264771
0.53203809261322021 0.40523365139961243 0.3251972496509552
0.68893992900848389 0.41735172271728516 0.33809211850166321
0.82891833782196045 0.42088848352432251 0.32468026876449585
0.95638799667358398 0.4430077075958252 0.32741621136665344
0.25573378801345825 0.48219257593154907 0.33837392926216125
0.30811470746994019 0.47458842396736145 0.33654984831809998
0.39184111356735229 0.47805330157279968 0.32965272665023804
0.52159589529037476 0.49477523565292358 0.31329169869422913
0.68380600214004517 0.51923060417175293 0.3143250048160553
0.84717363119125366 0.54846060276031494 0.32937270402908325
0.96418082714080811 0.56181305646896362 0.33693283796310425
0.23488937318325043 0.60194545984268188 0.34564825892448425
0.29247626662254333 0.59305888414382935 0.34046536684036255
0.38191533088684082 0.5839354395866394 0.33370384573936462
0.50643503665924072 0.60221487283706665 0.32054144144058228
0.65968805551528931 0.62725484371185303 0.29724711179733276
0.8190683126449585 0.65053820610046387 0.27463036775588989
0.96299868822097778 0.67792117595672607 0.32198533415794373
0.24224159121513367 0.73217892646789551 0.35082131624221802
0.30202382802963257 0.72726774215698242 0.35250496864318848
0.40222623944282532 0.72452449798583984 0.35452377796173096
0.52320766448974609 0.73049837350845337 0.34558373689651489
0.65801990032196045 0.74783539772033691 0.31861051917076111
0.80956077575683594 0.76513123512268066 0.27669399976730347
0.95300352573394775 0.77840173244476318 0.24202950298786163
0.42491728067398071 0.88008874654769897 0.47643235325813293
0.45700985193252563 0.87671351432800293 0.47399720549583435
0.53437411785125732 0.87514382600784302 0.47877490520477295
0.63570761680603027 0.87243056297302246 0.49040725827217102
0.73692244291305542 0.87960046529769897 0.47859707474708557
0.84956580400466919 0.88911986351013184 0.44913041591644287
0.96347105503082275 0.89788621664047241 0.40753641724586487
0.29751858115196228 0.27247345447540283 0.37930780649185181
0.33187961578369141 0.26797372102737427 0.38605719804763794
0.41119617223739624 0.25990799069404602 0.40331569314002991
0.46455147862434387 0.27852550148963928 0.3910592794418335
0.59961897134780884 0.2701018750667572 0.39402884244918823
0.77418649196624756 0.22952647507190704 0.37992063164710999
0.931907057762146 0.21984179317951202 0.37177944183349609
0.29356104135513306 0.30306708812713623 0.3829001784324646
0.32379084825515747 0.30027663707733154 0.39555844664573669
0.41958469152450562 0.29986459016799927 0.4211239218711853
0.49223548173904419 0.31319761276245117 0.40709325671195984
0.64016473293304443 0.29670298099517822 0.39932209253311157
0.79741084575653076 0.27301168441772461 0.38512536883354187
0.94240617752075195 0.29083898663520813 0.38584300875663757
0.27839174866676331 0.37821021676063538 0.41014111042022705
0.30958977341651917 0.39601925015449524 0.42510628700256348
0.41237765550613403 0.40129479765892029 0.42911961674690247
0.54757893085479736 0.40931469202041626 0.42766830325126648
0.6883360743522644 0.39706042408943176 0.4156646728515625
0.82603675127029419 0.39508244395256042 0.40578725934028625
0.95651566982269287 0.40955182909965515 0.40233376622200012
0.22671060264110565 0.52293848991394043 0.45177349448204041
0.2878054678440094 0.52234691381454468 0.44024103879928589
0.40073731541633606 0.51742774248123169 0.43059033155441284
0.55117875337600708 0.52475535869598389 0.41326552629470825
0.70868885517120361 0.53973746299743652 0.41925725340843201
0.8544120192527771 0.55147969722747803 0.43681842088699341
0.96756607294082642 0.55736863613128662 0.43345892429351807
0.19937007129192352 0.63851737976074219 0.43509891629219055
0.26000073552131653 0.63584268093109131 0.42891988158226013
0.37956225872039795 0.62450695037841797 0.42401295900344849
0.51413780450820923 0.62893575429916382 0.41424393653869629
0.67424184083938599 0.64526236057281494 0.38933917880058289
0.83462899923324585 0.66514843702316284 0.38072159886360168
0.96526581048965454 0.68896883726119995 0.44420406222343445
0.18298812210559845 0.75871217250823975 0.43608936667442322
0.26685816049575806 0.75222945213317871 0.4340628981590271
0.38994899392127991 0.74548083543777466 0.43518885970115662
0.52450728416442871 0.74262398481369019 0.43063756823539734
0.66554635763168335 0.75454795360565186 0.40818756818771362
0.81893074512481689 0.77110475301742554 0.3717917799949646
0.95878732204437256 0.78429371118545532 0.34680968523025513
0.40362250804901123 0.88555365800857544 0.53825211524963379
0.44040027260780334 0.88454240560531616 0.53736746311187744
0.52571529150009155 0.88197988271713257 0.54094713926315308
0.62970519065856934 0.8753017783164978 0.55104249715805054
0.73501110076904297 0.88000023365020752 0.54300069808959961
0.84804195165634155 0.88879334926605225 0.52343779802322388
0.9616847038269043 0.89861440658569336 0.48299989104270935
0.30614137649536133 0.2713618278503418 0.49466457962989807
0.35339251160621643 0.26321759819984436 0.51657992601394653
0.47473710775375366 0.23872263729572296 0.56233304738998413
0.62324297428131104 0.20611685514450073 0.5915340781211853
0.64460676908493042 0.26193833351135254 0.53298699855804443
0.74509155750274658 0.28978720307350159 0.52398502826690674
0.91308140754699707 0.25893530249595642 0.524924635887146
0.28908208012580872 0.30609071254730225 0.49885103106498718
0.33211433887481689 0.29727694392204285 0.51856821775436401
0.46702298521995544 0.27968168258666992 0.56981033086776733
0.63256335258483887 0.25727802515029907 0.60315811634063721
0.65628659725189209 0.311216801404953 0.54551833868026733
0.76747232675552368 0.32370814681053162 0.52810961008071899
0.92988860607147217 0.29187303781509399 0.51972538232803345
0.26303598284721375 0.37463414669036865 0.49781891703605652
0.29837346076965332 0.37853062152862549 0.51734364032745361
0.42910954356193542 0.38767024874687195 0.56259328126907349
0.6189873218536377 0.39501014351844788 0.61010825634002686
0.6709219217300415 0.41994550824165344 0.56563550233840942
0.80710017681121826 0.39819726347923279 0.5367969274520874
0.95038318634033203 0.37412089109420776 0.51028257608413696
0.23750165104866028 0.51156526803970337 0.56170463562011719
0.29687982797622681 0.52127611637115479 0.5696791410446167
0.41069832444190979 0.54176849126815796 0.58504229784011841
0.58647257089614868 0.56581491231918335 0.60847824811935425
0.71586155891418457 0.56235092878341675 0.59241938591003418
0.84108477830886841 0.53917205333709717 0.56670564413070679
0.9607853889465332 0.53100931644439697 0.54568994045257568
0.19043932855129242 0.67348563671112061 0.61320275068283081
0.27733242511749268 0.67460978031158447 0.60684561729431152
0.40610823035240173 0.67376118898391724 0.60045403242111206
0.55280524492263794 0.67443597316741943 0.58720153570175171
0.70931458473205566 0.67785745859146118 0.56499838829040527
0.8505968451499939 0.6902351975440979 0.57004863023757935
0.9626200795173645 0.69947344064712524 0.60668957233428955
0.26265761256217957 0.7874724268913269 0.60707038640975952
0.30551841855049133 0.783558189868927 0.59320849180221558
0.39185354113578796 0.78059804439544678 0.57427406311035156
0.53351789712905884 0.77202039957046509 0.56644070148468018
0.67086660861968994 0.76941293478012085 0.5455402135848999
0.82829540967941284 0.78246581554412842 0.52284377813339233
0.95986819267272949 0.79375571012496948 0.51810061931610107
0.39659059047698975 0.89668065309524536 0.64088916778564453
0.42719158530235291 0.89473992586135864 0.63477104902267456
0.50808578729629517 0.89006686210632324 0.63582801818847656
0.618072509765625 0.885048508644104 0.63815689086914062
0.73063153028488159 0.88304442167282104 0.63962644338607788
0.84425622224807739 0.88999825716018677 0.6255306601524353
0.95802783966064453 0.89882767200469971 0.5928192138671875
0.32167550921440125 0.26606136560440063 0.6526063084602356
0.38083621859550476 0.2556430995464325 0.66783344745635986
0.50763189792633057 0.22661145031452179 0.70463311672210693
0.69445210695266724 0.14091375470161438 0.76256829500198364
0.8362852931022644 0.077901951968669891 0.77040797472000122
0.83685183525085449 0.24078083038330078 0.69608789682388306
0.90206748247146606 0.34882402420043945 0.69361084699630737
0.28706115484237671 0.30561214685440063 0.65899622440338135
0.35966554284095764 0.29638078808784485 0.67944508790969849
0.48556631803512573 0.27003675699234009 0.70997512340545654
0.68724530935287476 0.21429488062858582 0.76348066329956055
0.83550941944122314 0.19440382719039917 0.77363955974578857
0.83851730823516846 0.30911317467689514 0.70388734340667725
0.90956640243530273 0.39516615867614746 0.70104134082794189
0.22014211118221283 0.36367493867874146 0.64266473054885864
0.28095656633377075 0.36809068918228149 0.66421657800674438
0.42737457156181335 0.36538869142532349 0.69663691520690918
0.65202206373214722 0.36202669143676758 0.75350350141525269
0.81771987676620483 0.37831565737724304 0.77240592241287231
0.8337700366973877 0.43485447764396667 0.71447879076004028
0.91245341300964355 0.47481778264045715 0.70221143960952759
0.208692267537117 0.48199373483657837 0.63533669710159302
0.25431889295578003 0.48522064089775085 0.64212793111801147
0.3648172914981842 0.49491649866104126 0.66375809907913208
0.5701521635055542 0.52942198514938354 0.72463822364807129
0.7812458872795105 0.56522542238235474 0.77043253183364868
0.82602643966674805 0.57891803979873657 0.72790008783340454
0.93543165922164917 0.5600515604019165 0.69501000642776489
0.23498290777206421 0.64300954341888428 0.70464730262756348
0.30047839879989624 0.64850997924804688 0.7085951566696167
0.41684585809707642 0.66231709718704224 0.71998268365859985
0.57220828533172607 0.69072586297988892 0.74161314964294434
0.74831116199493408 0.7208482027053833 0.76668411493301392
0.84949356317520142 0.7146715521812439 0.75052088499069214
0.94347470998764038 0.68640273809432983 0.72515279054641724
0.30173382163047791 0.80736112594604492 0.76617622375488281
0.35425707697868347 0.80424237251281738 0.76050639152526855
0.46349722146987915 0.80560207366943359 0.75845086574554443
0.59135186672210693 0.80585533380508423 0.74795085191726685
0.71296298503875732 0.80176752805709839 0.73200869560241699
0.84031420946121216 0.80475354194641113 0.72080826759338379
0.94758260250091553 0.8173176646232605 0.72841686010360718
0.48565539717674255 0.90097159147262573 0.79016882181167603
0.50945079326629639 0.89891386032104492 0.78279012441635132
0.56830763816833496 0.89914613962173462 0.77753597497940063
0.63340747356414795 0.89748483896255493 0.76038628816604614
0.7349281907081604 0.89200079441070557 0.75177443027496338
0.84348660707473755 0.88979363441467285 0.74430263042449951
0.9501146674156189 0.90164566040039062 0.72730171680450439
0.38100939989089966 0.25539663434028625 0.81482934951782227
0.43157872557640076 0.24528241157531738 0.82288879156112671
0.550312340259552 0.21748170256614685 0.84227907657623291
0.69846129417419434 0.15294356644153595 0.86965310573577881
0.88569098711013794 0.0065152635797858238 0.90124738216400146
0.98486906290054321 0.03925984725356102 0.89705586433410645
0.98036187887191772 0.29594171047210693 0.83817702531814575
0.34352409839630127 0.29214763641357422 0.81508368253707886
0.40731406211853027 0.28762108087539673 0.82491528987884521
0.51722103357315063 0.26642760634422302 0.83997201919555664
0.68941479921340942 0.21677659451961517 0.86952954530715942
0.87929075956344604 0.13120654225349426 0.89991527795791626
0.98066514730453491 0.18594633042812347 0.8953930139541626
0.98333489894866943 0.36387470364570618 0.84622925519943237
0.22550970315933228 0.35717105865478516 0.79968279600143433
0.30974307656288147 0.3620334267616272 0.8086848258972168
0.45175963640213013 0.3609296977519989 0.82487815618515015
0.6390567421913147 0.3414081335067749 0.85903078317642212
0.85021448135375977 0.34804296493530273 0.89331573247909546
0.96505880355834961 0.39073354005813599 0.89327466487884521
0.97167253494262695 0.47919347882270813 0.8507387638092041
0.050941735506057739 0.4635021984577179 0.75792944431304932
0.16761501133441925 0.46270018815994263 0.76966297626495361
0.3292432427406311 0.46804904937744141 0.79565465450286865
0.55163669586181641 0.49151358008384705 0.831512451171875
0.79255324602127075 0.53095924854278564 0.877765953540802
0.93345564603805542 0.57540607452392578 0.88640379905700684
0.94772225618362427 0.61184060573577881 0.8487735390663147
0.050001826137304306 0.60134947299957275 0.77527415752410889
0.14123232662677765 0.60346692800521851 0.77844834327697754
0.29325312376022339 0.60755276679992676 0.78193050622940063
0.46742969751358032 0.62164342403411865 0.79714429378509521
0.71980971097946167 0.67636740207672119 0.84820204973220825
0.89079928398132324 0.72737544775009155 0.88115042448043823
0.92754751443862915 0.72956126928329468 0.85612946748733521
0.30378168821334839 0.76725924015045166 0.83210951089859009
0.35751372575759888 0.76863175630569458 0.83404475450515747
0.46396490931510925 0.77540510892868042 0.83832782506942749
0.58843326568603516 0.78540229797363281 0.84923046827316284
0.72636508941650391 0.80843794345855713 0.8633192777633667
0.86765921115875244 0.83472073078155518 0.87960141897201538
0.93886780738830566 0.82939702272415161 0.86953014135360718
0.53407013416290283 0.90529114007949829 0.89458799362182617
0.55528718233108521 0.90559870004653931 0.89359211921691895
0.61052674055099487 0.90224760770797729 0.88896048069000244
0.69267851114273071 0.90473031997680664 0.8887639045715332
0.77628636360168457 0.90444135665893555 0.87973201274871826
0.861064612865448 0.9004400372505188 0.86941999197006226
0.94510340690612793 0.90535449981689453 0.85535436868667603
0.48866742849349976 0.27367031574249268 0.95306843519210815
0.52890431880950928 0.26136711239814758 0.95505833625793457
0.61870527267456055 0.23936739563941956 0.95417296886444092
0.73879766464233398 0.19714367389678955 0.96525847911834717
0.88107264041900635 0.10040421038866043 0.97571438550949097
0.99667799472808838 0.012962625361979008 0.98553586006164551
1 0.22974494099617004 0.97708946466445923
0.46523293852806091 0.31494870781898499 0.95263153314590454
0.50466859340667725 0.31158420443534851 0.95116418600082397
0.59647411108016968 0.29563984274864197 0.9571492075920105
0.7207026481628418 0.26512318849563599 0.96389496326446533
0.86970305442810059 0.21626216173171997 0.97525906562805176
0.98931789398193359 0.16629546880722046 0.98351025581359863
1 0.3247380256652832 0.97410887479782104
0.40151146054267883 0.40523698925971985 0.94394052028656006
0.45191675424575806 0.39844796061515808 0.94727462530136108
0.5495532751083374 0.38981455564498901 0.94811052083969116
0.69158607721328735 0.38086137175559998 0.96051031351089478
0.8474763035774231 0.37053760886192322 0.96875345706939697
0.98351806402206421 0.37907809019088745 0.97697991132736206
0.99816477298736572 0.46886011958122253 0.96700745820999146
0.23292958736419678 0.512642502784729 0.93336617946624756
0.31085366010665894 0.50498783588409424 0.93475848436355591
0.4574432373046875 0.50520884990692139 0.9412962794303894
0.6288110613822937 0.5122605562210083 0.949482262134552
0.80514687299728394 0.52746379375457764 0.95859038829803467
0.95610952377319336 0.56438297033309937 0.96997916698455811
0.99315595626831055 0.6177067756652832 0.95870488882064819
0.097528688609600067 0.64951235055923462 0.91577672958374023
0.13862289488315582 0.64395749568939209 0.9139564037322998
0.31584209203720093 0.63651388883590698 0.91841602325439453
0.51645773649215698 0.63765054941177368 0.92810505628585815
0.73740065097808838 0.66297644376754761 0.94431167840957642
0.90759736299514771 0.70871627330780029 0.95935428142547607
0.98437947034835815 0.74255597591400146 0.95780795812606812
0.32187262177467346 0.77908676862716675 0.92636430263519287
0.35998943448066711 0.77763634920120239 0.92530745267868042
0.43356788158416748 0.77561646699905396 0.92497950792312622
0.53473758697509766 0.77478528022766113 0.92472052574157715
0.66167706251144409 0.77788627147674561 0.92752170562744141
0.85400551557540894 0.81258881092071533 0.94619441032409668
0.95988482236862183 0.84602069854736328 0.95457249879837036
0.58645129203796387 0.88981282711029053 0.94571113586425781
0.60092252492904663 0.88973724842071533 0.94478660821914673
0.64771455526351929 0.89396858215332031 0.9468684196472168
0.71146094799041748 0.89445161819458008 0.94821405410766602
0.78732627630233765 0.8987700343132019 0.95038741827011108
0.86758339405059814 0.90648168325424194 0.95199865102767944
0.94787108898162842 0.91914761066436768 0.9558221697807312
