luts/instant_pro/fuji_fp-3000b_+.cube
# Created by: G'MIC (https://gmic.eu)
TITLE "fuji_fp-3000b_+"
# LUT size
LUT_3D_SIZE 5
# Data domain
DOMAIN_MIN 0.0 0.0 0.0
DOMAIN_MAX 1.0 1.0 1.0
# LUT data points
0.096412628889083862 0.096412628889083862 0.096412628889083862
0.1112106591463089 0.1112106591463089 0.1112106591463089
0.22524327039718628 0.22524327039718628 0.22524327039718628
0.41545009613037109 0.41545009613037109 0.41545009613037109
0.6410067081451416 0.6410067081451416 0.6410067081451416
0.12499453872442245 0.12499453872442245 0.12499453872442245
0.18394427001476288 0.18394427001476288 0.18394427001476288
0.34531286358833313 0.34531286358833313 0.34531286358833313
0.48057836294174194 0.48057836294174194 0.48057836294174194
0.69141131639480591 0.69141131639480591 0.69141131639480591
0.25403973460197449 0.25403973460197449 0.25403973460197449
0.25791022181510925 0.25791022181510925 0.25791022181510925
0.45996513962745667 0.45996513962745667 0.45996513962745667
0.64486420154571533 0.64486420154571533 0.64486420154571533
0.79090112447738647 0.79090112447738647 0.79090112447738647
0.47621923685073853 0.47621923685073853 0.47621923685073853
0.44439199566841125 0.44439199566841125 0.44439199566841125
0.5212891697883606 0.5212891697883606 0.5212891697883606
0.76022672653198242 0.76022672653198242 0.76022672653198242
0.88397860527038574 0.88397860527038574 0.88397860527038574
0.76987981796264648 0.76987981796264648 0.76987981796264648
0.74895435571670532 0.74895435571670532 0.74895435571670532
0.7591211199760437 0.7591211199760437 0.7591211199760437
0.8603096604347229 0.8603096604347229 0.8603096604347229
0.93615871667861938 0.93615871667861938 0.93615871667861938
0.14914412796497345 0.14914412796497345 0.14914412796497345
0.17739355564117432 0.17739355564117432 0.17739355564117432
0.29239967465400696 0.29239967465400696 0.29239967465400696
0.47905680537223816 0.47905680537223816 0.47905680537223816
0.65740621089935303 0.65740621089935303 0.65740621089935303
0.20531325042247772 0.20531325042247772 0.20531325042247772
0.24909107387065887 0.24909107387065887 0.24909107387065887
0.36378213763237 0.36378213763237 0.36378213763237
0.5145612359046936 0.5145612359046936 0.5145612359046936
0.70542734861373901 0.70542734861373901 0.70542734861373901
0.39830282330513 0.39830282330513 0.39830282330513
0.36293119192123413 0.36293119192123413 0.36293119192123413
0.49510091543197632 0.49510091543197632 0.49510091543197632
0.65219640731811523 0.65219640731811523 0.65219640731811523
0.78980916738510132 0.78980916738510132 0.78980916738510132
0.58013993501663208 0.58013993501663208 0.58013993501663208
0.53969204425811768 0.53969204425811768 0.53969204425811768
0.56462883949279785 0.56462883949279785 0.56462883949279785
0.76645320653915405 0.76645320653915405 0.76645320653915405
0.88520604372024536 0.88520604372024536 0.88520604372024536
0.80834931135177612 0.80834931135177612 0.80834931135177612
0.78428542613983154 0.78428542613983154 0.78428542613983154
0.78217869997024536 0.78217869997024536 0.78217869997024536
0.87111830711364746 0.87111830711364746 0.87111830711364746
0.94609314203262329 0.94609314203262329 0.94609314203262329
0.31919515132904053 0.31919515132904053 0.31919515132904053
0.3535906970500946 0.3535906970500946 0.3535906970500946
0.43146300315856934 0.43146300315856934 0.43146300315856934
0.5952257513999939 0.5952257513999939 0.5952257513999939
0.7587435245513916 0.7587435245513916 0.7587435245513916
0.36054691672325134 0.36054691672325134 0.36054691672325134
0.40145266056060791 0.40145266056060791 0.40145266056060791
0.4888598620891571 0.4888598620891571 0.4888598620891571
0.63421213626861572 0.63421213626861572 0.63421213626861572
0.76770919561386108 0.76770919561386108 0.76770919561386108
0.49251621961593628 0.49251621961593628 0.49251621961593628
0.52275389432907104 0.52275389432907104 0.52275389432907104
0.59324467182159424 0.59324467182159424 0.59324467182159424
0.70562911033630371 0.70562911033630371 0.70562911033630371
0.80543762445449829 0.80543762445449829 0.80543762445449829
0.71364563703536987 0.71364563703536987 0.71364563703536987
0.71515482664108276 0.71515482664108276 0.71515482664108276
0.68292069435119629 0.68292069435119629 0.68292069435119629
0.78907889127731323 0.78907889127731323 0.78907889127731323
0.88389736413955688 0.88389736413955688 0.88389736413955688
0.88054317235946655 0.88054317235946655 0.88054317235946655
0.87002110481262207 0.87002110481262207 0.87002110481262207
0.84276652336120605 0.84276652336120605 0.84276652336120605
0.87458717823028564 0.87458717823028564 0.87458717823028564
0.94242686033248901 0.94242686033248901 0.94242686033248901
0.57268112897872925 0.57268112897872925 0.57268112897872925
0.59797298908233643 0.59797298908233643 0.59797298908233643
0.68520581722259521 0.68520581722259521 0.68520581722259521
0.72438997030258179 0.72438997030258179 0.72438997030258179
0.80446666479110718 0.80446666479110718 0.80446666479110718
0.62688231468200684 0.62688231468200684 0.62688231468200684
0.64694643020629883 0.64694643020629883 0.64694643020629883
0.70794504880905151 0.70794504880905151 0.70794504880905151
0.74552959203720093 0.74552959203720093 0.74552959203720093
0.83219987154006958 0.83219987154006958 0.83219987154006958
0.65016335248947144 0.65016335248947144 0.65016335248947144
0.68204391002655029 0.68204391002655029 0.68204391002655029
0.73267894983291626 0.73267894983291626 0.73267894983291626
0.79210442304611206 0.79210442304611206 0.79210442304611206
0.8532903790473938 0.8532903790473938 0.8532903790473938
0.778373122215271 0.778373122215271 0.778373122215271
0.78550112247467041 0.78550112247467041 0.78550112247467041
0.80122137069702148 0.80122137069702148 0.80122137069702148
0.84142214059829712 0.84142214059829712 0.84142214059829712
0.89359152317047119 0.89359152317047119 0.89359152317047119
0.91728395223617554 0.91728395223617554 0.91728395223617554
0.91333281993865967 0.91333281993865967 0.91333281993865967
0.91239434480667114 0.91239434480667114 0.91239434480667114
0.91884273290634155 0.91884273290634155 0.91884273290634155
0.94277548789978027 0.94277548789978027 0.94277548789978027
0.85204213857650757 0.85204213857650757 0.85204213857650757
0.85767406225204468 0.85767406225204468 0.85767406225204468
0.88918101787567139 0.88918101787567139 0.88918101787567139
0.91662925481796265 0.91662925481796265 0.91662925481796265
0.92341023683547974 0.92341023683547974 0.92341023683547974
0.86938619613647461 0.86938619613647461 0.86938619613647461
0.87565368413925171 0.87565368413925171 0.87565368413925171
0.88674032688140869 0.88674032688140869 0.88674032688140869
0.91223609447479248 0.91223609447479248 0.91223609447479248
0.91189587116241455 0.91189587116241455 0.91189587116241455
0.86566692590713501 0.86566692590713501 0.86566692590713501
0.87509059906005859 0.87509059906005859 0.87509059906005859
0.88969296216964722 0.88969296216964722 0.88969296216964722
0.91347008943557739 0.91347008943557739 0.91347008943557739
0.92517030239105225 0.92517030239105225 0.92517030239105225
0.88171279430389404 0.88171279430389404 0.88171279430389404
0.88434618711471558 0.88434618711471558 0.88434618711471558
0.90150845050811768 0.90150845050811768 0.90150845050811768
0.9224696159362793 0.9224696159362793 0.9224696159362793
0.93712252378463745 0.93712252378463745 0.93712252378463745
0.93584245443344116 0.93584245443344116 0.93584245443344116
0.93715947866439819 0.93715947866439819 0.93715947866439819
0.94051849842071533 0.94051849842071533 0.94051849842071533
0.95194125175476074 0.95194125175476074 0.95194125175476074
0.9610326886177063 0.9610326886177063 0.9610326886177063
