luts/instant_pro/fuji_fp-100c_+.cube
# Created by: G'MIC (https://gmic.eu)
TITLE "fuji_fp-100c_+"
# LUT size
LUT_3D_SIZE 5
# Data domain
DOMAIN_MIN 0.0 0.0 0.0
DOMAIN_MAX 1.0 1.0 1.0
# LUT data points
0.097421340644359589 0.069000527262687683 0.032087977975606918
0.2190060168504715 0.069494210183620453 0.033906120806932449
0.4814734160900116 0.011352958157658577 0.0224470105022192
0.78463494777679443 0.0060066673904657364 0.0076876920647919178
0.97914832830429077 0.084919840097427368 0.002510265214368701
0.099274896085262299 0.20628735423088074 0.026892509311437607
0.26069897413253784 0.22191351652145386 0.012184711173176765
0.55676448345184326 0.24298672378063202 0.0064012715592980385
0.8124929666519165 0.25509157776832581 0.0040790485218167305
0.98490250110626221 0.30379238724708557 0.0076585807837545872
0.015165815129876137 0.47178524732589722 0.0031138102058321238
0.24738942086696625 0.45769694447517395 0.0036073422525078058
0.53067231178283691 0.48880448937416077 0.0033463123254477978
0.81417226791381836 0.53006017208099365 0.0078431377187371254
0.99035912752151489 0.56348294019699097 0.045714255422353745
0.048063434660434723 0.68846899271011353 0.010372670367360115
0.28162148594856262 0.67674368619918823 0.018472319468855858
0.51031255722045898 0.6861305832862854 0.008637821301817894
0.76912128925323486 0.72463196516036987 0.0067882910370826721
0.96542805433273315 0.75186735391616821 0.0081082815304398537
0.46099233627319336 0.9064180850982666 0.39342465996742249
0.5248839259147644 0.90191525220870972 0.39116784930229187
0.66395998001098633 0.90069830417633057 0.40611475706100464
0.81346482038497925 0.91895681619644165 0.36626929044723511
0.97855877876281738 0.93770557641983032 0.23864233493804932
0.11769169569015503 0.06971246749162674 0.16132666170597076
0.28405448794364929 0.029968246817588806 0.19464337825775146
0.48134729266166687 0.045414689928293228 0.18603761494159698
0.77832281589508057 0.0037397497799247503 0.17252612113952637
0.97885560989379883 0.078738100826740265 0.17766366899013519
0.12286324799060822 0.23351936042308807 0.20873236656188965
0.30445238947868347 0.25743508338928223 0.23030029237270355
0.58115905523300171 0.25903236865997314 0.22023637592792511
0.81588602066040039 0.26102355122566223 0.20036044716835022
0.97702658176422119 0.30852600932121277 0.20457218587398529
0.050588615238666534 0.52829998731613159 0.25033748149871826
0.29113760590553284 0.52009689807891846 0.23688246309757233
0.57739198207855225 0.5289880633354187 0.16559882462024689
0.83131891489028931 0.55194604396820068 0.20768770575523376
0.98067569732666016 0.56810659170150757 0.28142771124839783
0.078409664332866669 0.71705585718154907 0.25094020366668701
0.30384495854377747 0.70811522006988525 0.25003471970558167
0.53781807422637939 0.71002334356307983 0.21237120032310486
0.76992928981781006 0.73587983846664429 0.088217012584209442
0.9778515100479126 0.7589104175567627 0.16244852542877197
0.45541340112686157 0.91255182027816772 0.46917939186096191
0.52165204286575317 0.90882474184036255 0.46908926963806152
0.65938133001327515 0.90468472242355347 0.4849834144115448
0.81478065252304077 0.91891556978225708 0.46262785792350769
0.9768100380897522 0.93699222803115845 0.37962856888771057
0.1063489094376564 0.054733678698539734 0.45221799612045288
0.34278601408004761 0.0058969534002244473 0.50680446624755859
0.69724613428115845 0.0011115579400211573 0.58396553993225098
0.7549203634262085 0.14533722400665283 0.48856955766677856
0.96025460958480835 0.16803412139415741 0.4764731228351593
0.087692305445671082 0.22859793901443481 0.45972663164138794
0.3301318883895874 0.22966682910919189 0.52466058731079102
0.69167870283126831 0.22167289257049561 0.59618806838989258
0.77623289823532104 0.33819308876991272 0.51754164695739746
0.97119712829589844 0.31041562557220459 0.47212371230125427
0.1547400951385498 0.53058671951293945 0.54308569431304932
0.35174509882926941 0.55389106273651123 0.56011003255844116
0.63678419589996338 0.59683579206466675 0.59675449132919312
0.81505703926086426 0.58617013692855835 0.5621764063835144
0.97108572721481323 0.55513399839401245 0.52395987510681152
0.2870003879070282 0.76629674434661865 0.59045112133026123
0.40605023503303528 0.76320755481719971 0.57675057649612427
0.58317428827285767 0.75807219743728638 0.55059707164764404
0.79104173183441162 0.76183277368545532 0.51436448097229004
0.96514320373535156 0.78543233871459961 0.55796235799789429
0.45407527685165405 0.92456680536270142 0.62685579061508179
0.51090425252914429 0.92186194658279419 0.6189504861831665
0.64953595399856567 0.91626459360122681 0.62587529420852661
0.80983757972717285 0.92245686054229736 0.62446421384811401
0.96951782703399658 0.94051975011825562 0.57255584001541138
0.20443865656852722 0.012884058058261871 0.73877876996994019
0.39608404040336609 0.0079250112175941467 0.75853687524795532
0.72043973207473755 0.00015725528646726161 0.81352311372756958
0.95595425367355347 0.0029308842495083809 0.83246970176696777
0.97036701440811157 0.33162477612495422 0.75393015146255493
0.1462637335062027 0.22014795243740082 0.73453754186630249
0.36357289552688599 0.20210883021354675 0.75107842683792114
0.69404470920562744 0.15594503283500671 0.80947858095169067
0.94230055809020996 0.24954614043235779 0.83403342962265015
0.95660215616226196 0.46819818019866943 0.76866286993026733
0.017168097198009491 0.45658642053604126 0.67700684070587158
0.2540346086025238 0.47092011570930481 0.69606077671051025
0.61094087362289429 0.52847838401794434 0.76434481143951416
0.87711560726165771 0.60837548971176147 0.81970787048339844
0.93336081504821777 0.64431685209274292 0.7761542797088623
0.33045157790184021 0.73404330015182495 0.76082354784011841
0.43450620770454407 0.74154603481292725 0.76553469896316528
0.62591028213500977 0.77226096391677856 0.78889864683151245
0.82458877563476562 0.81312465667724609 0.81637388467788696
0.94992071390151978 0.79788327217102051 0.78874832391738892
0.54245954751968384 0.93810784816741943 0.84253817796707153
0.58354395627975464 0.93531864881515503 0.8336368203163147
0.68099051713943481 0.93688517808914185 0.82078713178634644
0.81216698884963989 0.93465030193328857 0.8017265796661377
0.96180194616317749 0.9464954137802124 0.78055417537689209
0.48638612031936646 0.13323915004730225 0.95707988739013672
0.57448321580886841 0.075241819024085999 0.96119242906570435
0.76579898595809937 0.01773548498749733 0.97098684310913086
0.97007530927658081 0.0041342643089592457 0.97938644886016846
1 0.2393488883972168 0.98238092660903931
0.46297290921211243 0.31183508038520813 0.95134449005126953
0.55565345287322998 0.30300796031951904 0.95224547386169434
0.74571484327316284 0.26871830224990845 0.96486347913742065
0.96732097864151001 0.26305854320526123 0.98146623373031616
1 0.43432265520095825 0.96864926815032959
0.30905324220657349 0.53253394365310669 0.92913514375686646
0.44076445698738098 0.52758330106735229 0.93227392435073853
0.67669153213500977 0.55212867259979248 0.94687455892562866
0.9131627082824707 0.59030169248580933 0.96983695030212402
0.99564999341964722 0.65676355361938477 0.96221613883972168
0.28381645679473877 0.74587875604629517 0.91176974773406982
0.36661964654922485 0.74107980728149414 0.9105338454246521
0.53121680021286011 0.73610049486160278 0.91169387102127075
0.81141459941864014 0.77460002899169922 0.9441109299659729
0.98440515995025635 0.82718515396118164 0.96114331483840942
0.59562438726425171 0.93380522727966309 0.95044267177581787
0.6278984546661377 0.93372994661331177 0.95050817728042603
0.70476359128952026 0.93709051609039307 0.95283174514770508
0.82084232568740845 0.94181430339813232 0.95615220069885254
0.96440356969833374 0.96324270963668823 0.96434670686721802
