luts/instant_pro/fuji_fp-3000b_negative_early.cube
# Created by: G'MIC (https://gmic.eu)
TITLE "fuji_fp-3000b_negative_early"
# LUT size
LUT_3D_SIZE 7
# Data domain
DOMAIN_MIN 0.0 0.0 0.0
DOMAIN_MAX 1.0 1.0 1.0
# LUT data points
0.19169561564922333 0.19169561564922333 0.19169561564922333
0.18265356123447418 0.18265356123447418 0.18265356123447418
0.17035871744155884 0.17035871744155884 0.17035871744155884
0.22093060612678528 0.22093060612678528 0.22093060612678528
0.35073348879814148 0.35073348879814148 0.35073348879814148
0.50250887870788574 0.50250887870788574 0.50250887870788574
0.64901840686798096 0.64901840686798096 0.64901840686798096
0.16045086085796356 0.16045086085796356 0.16045086085796356
0.16593010723590851 0.16593010723590851 0.16593010723590851
0.19108478724956512 0.19108478724956512 0.19108478724956512
0.27434578537940979 0.27434578537940979 0.27434578537940979
0.40138879418373108 0.40138879418373108 0.40138879418373108
0.5405268669128418 0.5405268669128418 0.5405268669128418
0.66987931728363037 0.66987931728363037 0.66987931728363037
0.19388465583324432 0.19388465583324432 0.19388465583324432
0.20171695947647095 0.20171695947647095 0.20171695947647095
0.24743065237998962 0.24743065237998962 0.24743065237998962
0.35229972004890442 0.35229972004890442 0.35229972004890442
0.4763302206993103 0.4763302206993103 0.4763302206993103
0.59822547435760498 0.59822547435760498 0.59822547435760498
0.70192646980285645 0.70192646980285645 0.70192646980285645
0.33880937099456787 0.33880937099456787 0.33880937099456787
0.32264116406440735 0.32264116406440735 0.32264116406440735
0.34684813022613525 0.34684813022613525 0.34684813022613525
0.43630427122116089 0.43630427122116089 0.43630427122116089
0.54623854160308838 0.54623854160308838 0.54623854160308838
0.6488916277885437 0.6488916277885437 0.6488916277885437
0.7331206202507019 0.7331206202507019 0.7331206202507019
0.52600014209747314 0.52600014209747314 0.52600014209747314
0.50602322816848755 0.50602322816848755 0.50602322816848755
0.50039774179458618 0.50039774179458618 0.50039774179458618
0.54622346162796021 0.54622346162796021 0.54622346162796021
0.61907923221588135 0.61907923221588135 0.61907923221588135
0.69400054216384888 0.69400054216384888 0.69400054216384888
0.76138651371002197 0.76138651371002197 0.76138651371002197
0.68576806783676147 0.68576806783676147 0.68576806783676147
0.6722140908241272 0.6722140908241272 0.6722140908241272
0.6532207727432251 0.6532207727432251 0.6532207727432251
0.66335892677307129 0.66335892677307129 0.66335892677307129
0.69829267263412476 0.69829267263412476 0.69829267263412476
0.7439039945602417 0.7439039945602417 0.7439039945602417
0.79280835390090942 0.79280835390090942 0.79280835390090942
0.79479104280471802 0.79479104280471802 0.79479104280471802
0.78579926490783691 0.78579926490783691 0.78579926490783691
0.76900863647460938 0.76900863647460938 0.76900863647460938
0.7638586163520813 0.7638586163520813 0.7638586163520813
0.77505427598953247 0.77505427598953247 0.77505427598953247
0.79860758781433105 0.79860758781433105 0.79860758781433105
0.83161765336990356 0.83161765336990356 0.83161765336990356
0.16099674999713898 0.16099674999713898 0.16099674999713898
0.17605970799922943 0.17605970799922943 0.17605970799922943
0.18724636733531952 0.18724636733531952 0.18724636733531952
0.27085185050964355 0.27085185050964355 0.27085185050964355
0.39522436261177063 0.39522436261177063 0.39522436261177063
0.52440565824508667 0.52440565824508667 0.52440565824508667
0.65640735626220703 0.65640735626220703 0.65640735626220703
0.15376952290534973 0.15376952290534973 0.15376952290534973
0.16820994019508362 0.16820994019508362 0.16820994019508362
0.20583890378475189 0.20583890378475189 0.20583890378475189
0.30519035458564758 0.30519035458564758 0.30519035458564758
0.43272817134857178 0.43272817134857178 0.43272817134857178
0.55929267406463623 0.55929267406463623 0.55929267406463623
0.6791757345199585 0.6791757345199585 0.6791757345199585
0.23697181046009064 0.23697181046009064 0.23697181046009064
0.24227036535739899 0.24227036535739899 0.24227036535739899
0.27545362710952759 0.27545362710952759 0.27545362710952759
0.38332843780517578 0.38332843780517578 0.38332843780517578
0.50461882352828979 0.50461882352828979 0.50461882352828979
0.61847609281539917 0.61847609281539917 0.61847609281539917
0.7127225399017334 0.7127225399017334 0.7127225399017334
0.41078910231590271 0.41078910231590271 0.41078910231590271
0.38904425501823425 0.38904425501823425 0.38904425501823425
0.38245373964309692 0.38245373964309692 0.38245373964309692
0.46540561318397522 0.46540561318397522 0.46540561318397522
0.57101583480834961 0.57101583480834961 0.57101583480834961
0.66675758361816406 0.66675758361816406 0.66675758361816406
0.7428586483001709 0.7428586483001709 0.7428586483001709
0.58080065250396729 0.58080065250396729 0.58080065250396729
0.55683928728103638 0.55683928728103638 0.55683928728103638
0.54006493091583252 0.54006493091583252 0.54006493091583252
0.57679945230484009 0.57679945230484009 0.57679945230484009
0.64153778553009033 0.64153778553009033 0.64153778553009033
0.70857232809066772 0.70857232809066772 0.70857232809066772
0.76866757869720459 0.76866757869720459 0.76866757869720459
0.71692872047424316 0.71692872047424316 0.71692872047424316
0.70307326316833496 0.70307326316833496 0.70307326316833496
0.68412739038467407 0.68412739038467407 0.68412739038467407
0.68870055675506592 0.68870055675506592 0.68870055675506592
0.71624314785003662 0.71624314785003662 0.71624314785003662
0.75484317541122437 0.75484317541122437 0.75484317541122437
0.79768216609954834 0.79768216609954834 0.79768216609954834
0.81453150510787964 0.81453150510787964 0.81453150510787964
0.80541551113128662 0.80541551113128662 0.80541551113128662
0.78845477104187012 0.78845477104187012 0.78845477104187012
0.780120849609375 0.780120849609375 0.780120849609375
0.78637313842773438 0.78637313842773438 0.78637313842773438
0.80506199598312378 0.80506199598312378 0.80506199598312378
0.83308857679367065 0.83308857679367065 0.83308857679367065
0.19561636447906494 0.19561636447906494 0.19561636447906494
0.24234001338481903 0.24234001338481903 0.24234001338481903
0.27818626165390015 0.27818626165390015 0.27818626165390015
0.33851751685142517 0.33851751685142517 0.33851751685142517
0.47235321998596191 0.47235321998596191 0.47235321998596191
0.57420986890792847 0.57420986890792847 0.57420986890792847
0.67720228433609009 0.67720228433609009 0.67720228433609009
0.20370842516422272 0.20370842516422272 0.20370842516422272
0.24270617961883545 0.24270617961883545 0.24270617961883545
0.29593157768249512 0.29593157768249512 0.29593157768249512
0.36703842878341675 0.36703842878341675 0.36703842878341675
0.48869037628173828 0.48869037628173828 0.48869037628173828
0.5996209979057312 0.5996209979057312 0.5996209979057312
0.69508159160614014 0.69508159160614014 0.69508159160614014
0.30186653137207031 0.30186653137207031 0.30186653137207031
0.32663789391517639 0.32663789391517639 0.32663789391517639
0.35028770565986633 0.35028770565986633 0.35028770565986633
0.43083810806274414 0.43083810806274414 0.43083810806274414
0.5427054762840271 0.5427054762840271 0.5427054762840271
0.64316427707672119 0.64316427707672119 0.64316427707672119
0.72239035367965698 0.72239035367965698 0.72239035367965698
0.49659916758537292 0.49659916758537292 0.49659916758537292
0.48803898692131042 0.48803898692131042 0.48803898692131042
0.47392681241035461 0.47392681241035461 0.47392681241035461
0.52066576480865479 0.52066576480865479 0.52066576480865479
0.60174107551574707 0.60174107551574707 0.60174107551574707
0.68192321062088013 0.68192321062088013 0.68192321062088013
0.74834847450256348 0.74834847450256348 0.74834847450256348
0.6380038857460022 0.6380038857460022 0.6380038857460022
0.62545603513717651 0.62545603513717651 0.62545603513717651
0.61338222026824951 0.61338222026824951 0.61338222026824951
0.62940233945846558 0.62940233945846558 0.62940233945846558
0.67119252681732178 0.67119252681732178 0.67119252681732178
0.723064124584198 0.723064124584198 0.723064124584198
0.77364182472229004 0.77364182472229004 0.77364182472229004
0.74320083856582642 0.74320083856582642 0.74320083856582642
0.73538893461227417 0.73538893461227417 0.73538893461227417
0.72223532199859619 0.72223532199859619 0.72223532199859619
0.72149032354354858 0.72149032354354858 0.72149032354354858
0.73802191019058228 0.73802191019058228 0.73802191019058228
0.76641607284545898 0.76641607284545898 0.76641607284545898
0.80188441276550293 0.80188441276550293 0.80188441276550293
0.82429563999176025 0.82429563999176025 0.82429563999176025
0.81775510311126709 0.81775510311126709 0.81775510311126709
0.80439209938049316 0.80439209938049316 0.80439209938049316
0.79589134454727173 0.79589134454727173 0.79589134454727173
0.79805934429168701 0.79805934429168701 0.79805934429168701
0.81160628795623779 0.81160628795623779 0.81160628795623779
0.8356519341468811 0.8356519341468811 0.8356519341468811
0.35784667730331421 0.35784667730331421 0.35784667730331421
0.39439812302589417 0.39439812302589417 0.39439812302589417
0.47519195079803467 0.47519195079803467 0.47519195079803467
0.49338376522064209 0.49338376522064209 0.49338376522064209
0.55064636468887329 0.55064636468887329 0.55064636468887329
0.63447839021682739 0.63447839021682739 0.63447839021682739
0.70916873216629028 0.70916873216629028 0.70916873216629028
0.3891717791557312 0.3891717791557312 0.3891717791557312
0.41564589738845825 0.41564589738845825 0.41564589738845825
0.48632141947746277 0.48632141947746277 0.48632141947746277
0.52052181959152222 0.52052181959152222 0.52052181959152222
0.56422537565231323 0.56422537565231323 0.56422537565231323
0.64884346723556519 0.64884346723556519 0.64884346723556519
0.71803724765777588 0.71803724765777588 0.71803724765777588
0.40307655930519104 0.40307655930519104 0.40307655930519104
0.43956068158149719 0.43956068158149719 0.43956068158149719
0.48629817366600037 0.48629817366600037 0.48629817366600037
0.5368049144744873 0.5368049144744873 0.5368049144744873
0.60809791088104248 0.60809791088104248 0.60809791088104248
0.67456150054931641 0.67456150054931641 0.67456150054931641
0.73511046171188354 0.73511046171188354 0.73511046171188354
0.53802919387817383 0.53802919387817383 0.53802919387817383
0.53825348615646362 0.53825348615646362 0.53825348615646362
0.56181818246841431 0.56181818246841431 0.56181818246841431
0.59664750099182129 0.59664750099182129 0.59664750099182129
0.64868831634521484 0.64868831634521484 0.64868831634521484
0.70373839139938354 0.70373839139938354 0.70373839139938354
0.75585949420928955 0.75585949420928955 0.75585949420928955
0.66356587409973145 0.66356587409973145 0.66356587409973145
0.66209429502487183 0.66209429502487183 0.66209429502487183
0.66943877935409546 0.66943877935409546 0.66943877935409546
0.68012779951095581 0.68012779951095581 0.68012779951095581
0.70570743083953857 0.70570743083953857 0.70570743083953857
0.74080967903137207 0.74080967903137207 0.74080967903137207
0.77953457832336426 0.77953457832336426 0.77953457832336426
0.75425821542739868 0.75425821542739868 0.75425821542739868
0.75202494859695435 0.75202494859695435 0.75202494859695435
0.74786919355392456 0.74786919355392456 0.74786919355392456
0.74841111898422241 0.74841111898422241 0.74841111898422241
0.75848615169525146 0.75848615169525146 0.75848615169525146
0.77810359001159668 0.77810359001159668 0.77810359001159668
0.80564552545547485 0.80564552545547485 0.80564552545547485
0.82435423135757446 0.82435423135757446 0.82435423135757446
0.8200874924659729 0.8200874924659729 0.8200874924659729
0.81193405389785767 0.81193405389785767 0.81193405389785767
0.80613094568252563 0.80613094568252563 0.80613094568252563
0.80693209171295166 0.80693209171295166 0.80693209171295166
0.81671541929244995 0.81671541929244995 0.81671541929244995
0.83642274141311646 0.83642274141311646 0.83642274141311646
0.54580235481262207 0.54580235481262207 0.54580235481262207
0.56628596782684326 0.56628596782684326 0.56628596782684326
0.62075221538543701 0.62075221538543701 0.62075221538543701
0.67219316959381104 0.67219316959381104 0.67219316959381104
0.67357462644577026 0.67357462644577026 0.67357462644577026
0.70100146532058716 0.70100146532058716 0.70100146532058716
0.74700182676315308 0.74700182676315308 0.74700182676315308
0.58078473806381226 0.58078473806381226 0.58078473806381226
0.59852373600006104 0.59852373600006104 0.59852373600006104
0.63883316516876221 0.63883316516876221 0.63883316516876221
0.67898076772689819 0.67898076772689819 0.67898076772689819
0.67483806610107422 0.67483806610107422 0.67483806610107422
0.6999441385269165 0.6999441385269165 0.6999441385269165
0.74651104211807251 0.74651104211807251 0.74651104211807251
0.5692782998085022 0.5692782998085022 0.5692782998085022
0.60379636287689209 0.60379636287689209 0.60379636287689209
0.63652122020721436 0.63652122020721436 0.63652122020721436
0.67506927251815796 0.67506927251815796 0.67506927251815796
0.68885749578475952 0.68885749578475952 0.68885749578475952
0.71032810211181641 0.71032810211181641 0.71032810211181641
0.75483304262161255 0.75483304262161255 0.75483304262161255
0.60415738821029663 0.60415738821029663 0.60415738821029663
0.61185383796691895 0.61185383796691895 0.61185383796691895
0.63746398687362671 0.63746398687362671 0.63746398687362671
0.67936432361602783 0.67936432361602783 0.67936432361602783
0.71379029750823975 0.71379029750823975 0.71379029750823975
0.73667114973068237 0.73667114973068237 0.73667114973068237
0.77130085229873657 0.77130085229873657 0.77130085229873657
0.68630915880203247 0.68630915880203247 0.68630915880203247
0.68625777959823608 0.68625777959823608 0.68625777959823608
0.69508892297744751 0.69508892297744751 0.69508892297744751
0.7188306450843811 0.7188306450843811 0.7188306450843811
0.74444288015365601 0.74444288015365601 0.74444288015365601
0.76456981897354126 0.76456981897354126 0.76456981897354126
0.79063200950622559 0.79063200950622559 0.79063200950622559
0.75995856523513794 0.75995856523513794 0.75995856523513794
0.75843173265457153 0.75843173265457153 0.75843173265457153
0.7597309947013855 0.7597309947013855 0.7597309947013855
0.76682007312774658 0.76682007312774658 0.76682007312774658
0.7776716947555542 0.7776716947555542 0.7776716947555542
0.79103374481201172 0.79103374481201172 0.79103374481201172
0.81135064363479614 0.81135064363479614 0.81135064363479614
0.82053768634796143 0.82053768634796143 0.82053768634796143
0.81715714931488037 0.81715714931488037 0.81715714931488037
0.81376743316650391 0.81376743316650391 0.81376743316650391
0.81200289726257324 0.81200289726257324 0.81200289726257324
0.81410813331604004 0.81410813331604004 0.81410813331604004
0.82142537832260132 0.82142537832260132 0.82142537832260132
0.83734256029129028 0.83734256029129028 0.83734256029129028
0.70087927579879761 0.70087927579879761 0.70087927579879761
0.71409791707992554 0.71409791707992554 0.71409791707992554
0.73053687810897827 0.73053687810897827 0.73053687810897827
0.75678408145904541 0.75678408145904541 0.75678408145904541
0.76239228248596191 0.76239228248596191 0.76239228248596191
0.76703429222106934 0.76703429222106934 0.76703429222106934
0.78885883092880249 0.78885883092880249 0.78885883092880249
0.73015010356903076 0.73015010356903076 0.73015010356903076
0.74102723598480225 0.74102723598480225 0.74102723598480225
0.74787384271621704 0.74787384271621704 0.74787384271621704
0.76416301727294922 0.76416301727294922 0.76416301727294922
0.76304405927658081 0.76304405927658081 0.76304405927658081
0.7631726861000061 0.7631726861000061 0.7631726861000061
0.78538471460342407 0.78538471460342407 0.78538471460342407
0.72395354509353638 0.72395354509353638 0.72395354509353638
0.7428554892539978 0.7428554892539978 0.7428554892539978
0.7491447925567627 0.7491447925567627 0.7491447925567627
0.7645798921585083 0.7645798921585083 0.7645798921585083
0.76750558614730835 0.76750558614730835 0.76750558614730835
0.76746505498886108 0.76746505498886108 0.76746505498886108
0.78802287578582764 0.78802287578582764 0.78802287578582764
0.71523219347000122 0.71523219347000122 0.71523219347000122
0.72379052639007568 0.72379052639007568 0.72379052639007568
0.73326176404953003 0.73326176404953003 0.73326176404953003
0.75927919149398804 0.75927919149398804 0.75927919149398804
0.77759277820587158 0.77759277820587158 0.77759277820587158
0.78076064586639404 0.78076064586639404 0.78076064586639404
0.79766130447387695 0.79766130447387695 0.79766130447387695
0.7392812967300415 0.7392812967300415 0.7392812967300415
0.7395361065864563 0.7395361065864563 0.7395361065864563
0.7463608980178833 0.7463608980178833 0.7463608980178833
0.7665480375289917 0.7665480375289917 0.7665480375289917
0.78469467163085938 0.78469467163085938 0.78469467163085938
0.79358917474746704 0.79358917474746704 0.79358917474746704
0.80896240472793579 0.80896240472793579 0.80896240472793579
0.77991706132888794 0.77991706132888794 0.77991706132888794
0.77863246202468872 0.77863246202468872 0.77863246202468872
0.78147941827774048 0.78147941827774048 0.78147941827774048
0.79023450613021851 0.79023450613021851 0.79023450613021851
0.79938668012619019 0.79938668012619019 0.79938668012619019
0.80747753381729126 0.80747753381729126 0.80747753381729126
0.821849524974823 0.821849524974823 0.821849524974823
0.82436341047286987 0.82436341047286987 0.82436341047286987
0.82127469778060913 0.82127469778060913 0.82127469778060913
0.82094025611877441 0.82094025611877441 0.82094025611877441
0.82198655605316162 0.82198655605316162 0.82198655605316162
0.82428896427154541 0.82428896427154541 0.82428896427154541
0.82898646593093872 0.82898646593093872 0.82898646593093872
0.84181767702102661 0.84181767702102661 0.84181767702102661
0.81205219030380249 0.81205219030380249 0.81205219030380249
0.81867796182632446 0.81867796182632446 0.81867796182632446
0.81978303194046021 0.81978303194046021 0.81978303194046021
0.82465624809265137 0.82465624809265137 0.82465624809265137
0.82455956935882568 0.82455956935882568 0.82455956935882568
0.82341587543487549 0.82341587543487549 0.82341587543487549
0.83259505033493042 0.83259505033493042 0.83259505033493042
0.82601523399353027 0.82601523399353027 0.82601523399353027
0.83219170570373535 0.83219170570373535 0.83219170570373535
0.82894420623779297 0.82894420623779297 0.82894420623779297
0.82839065790176392 0.82839065790176392 0.82839065790176392
0.82425320148468018 0.82425320148468018 0.82425320148468018
0.8198472261428833 0.8198472261428833 0.8198472261428833
0.82827156782150269 0.82827156782150269 0.82827156782150269
0.8195917010307312 0.8195917010307312 0.8195917010307312
0.82764190435409546 0.82764190435409546 0.82764190435409546
0.82682168483734131 0.82682168483734131 0.82682168483734131
0.82750034332275391 0.82750034332275391 0.82750034332275391
0.8244737982749939 0.8244737982749939 0.8244737982749939
0.82032805681228638 0.82032805681228638 0.82032805681228638
0.8285260796546936 0.8285260796546936 0.8285260796546936
0.80463171005249023 0.80463171005249023 0.80463171005249023
0.80945730209350586 0.80945730209350586 0.80945730209350586
0.81239789724349976 0.81239789724349976 0.81239789724349976
0.81965416669845581 0.81965416669845581 0.81965416669845581
0.82365268468856812 0.82365268468856812 0.82365268468856812
0.82345914840698242 0.82345914840698242 0.82345914840698242
0.83124065399169922 0.83124065399169922 0.83124065399169922
0.8024258017539978 0.8024258017539978 0.8024258017539978
0.80279958248138428 0.80279958248138428 0.80279958248138428
0.8063054084777832 0.8063054084777832 0.8063054084777832
0.81477773189544678 0.81477773189544678 0.81477773189544678
0.82139104604721069 0.82139104604721069 0.82139104604721069
0.82467079162597656 0.82467079162597656 0.82467079162597656
0.8348734974861145 0.8348734974861145 0.8348734974861145
0.8160400390625 0.8160400390625 0.8160400390625
0.81466448307037354 0.81466448307037354 0.81466448307037354
0.81680619716644287 0.81680619716644287 0.81680619716644287
0.82189762592315674 0.82189762592315674 0.82189762592315674
0.82624262571334839 0.82624262571334839 0.82624262571334839
0.83010554313659668 0.83010554313659668 0.83010554313659668
0.84076493978500366 0.84076493978500366 0.84076493978500366
0.84201985597610474 0.84201985597610474 0.84201985597610474
0.83986502885818481 0.83986502885818481 0.83986502885818481
0.84032642841339111 0.84032642841339111 0.84032642841339111
0.84161168336868286 0.84161168336868286 0.84161168336868286
0.84254109859466553 0.84254109859466553 0.84254109859466553
0.84495812654495239 0.84495812654495239 0.84495812654495239
0.85450661182403564 0.85450661182403564 0.85450661182403564
