luts/instant_pro/fuji_fp-100c_negative_++_alt.cube
# Created by: G'MIC (https://gmic.eu)
TITLE "fuji_fp-100c_negative_++_alt"
# LUT size
LUT_3D_SIZE 7
# Data domain
DOMAIN_MIN 0.0 0.0 0.0
DOMAIN_MAX 1.0 1.0 1.0
# LUT data points
0.10367526113986969 0.17027579247951508 0.2263883501291275
0.14594979584217072 0.1774010956287384 0.2270200103521347
0.23422370851039886 0.17884935438632965 0.2262028306722641
0.42689472436904907 0.17809246480464935 0.22757202386856079
0.68469470739364624 0.17788994312286377 0.23163098096847534
0.88500046730041504 0.26662948727607727 0.23112067580223083
0.9822039008140564 0.41378089785575867 0.2351013571023941
0.089758522808551788 0.20285074412822723 0.23245745897293091
0.13105396926403046 0.21915076673030853 0.23327289521694183
0.25673303008079529 0.22436517477035522 0.23160624504089355
0.46925395727157593 0.232197105884552 0.22837917506694794
0.71342307329177856 0.25354936718940735 0.23070785403251648
0.88237398862838745 0.33729302883148193 0.23019368946552277
0.97879403829574585 0.46216300129890442 0.23801273107528687
0.059792879968881607 0.28857439756393433 0.25092494487762451
0.1195194199681282 0.2988339364528656 0.24933138489723206
0.26929238438606262 0.3282325267791748 0.24221953749656677
0.5317113995552063 0.36619365215301514 0.22267645597457886
0.74160641431808472 0.38573968410491943 0.21681180596351624
0.89398962259292603 0.46651875972747803 0.2139071524143219
0.98536562919616699 0.54868090152740479 0.22940607368946075
0.025195252150297165 0.4145514965057373 0.27873200178146362
0.15122321248054504 0.43354803323745728 0.28275763988494873
0.29587933421134949 0.45978128910064697 0.27449670433998108
0.55490487813949585 0.51561975479125977 0.23853164911270142
0.77683806419372559 0.56648021936416626 0.20374277234077454
0.8992912769317627 0.60305309295654297 0.21299007534980774
0.98834532499313354 0.64554494619369507 0.23786602914333344
0.19510678946971893 0.57354569435119629 0.33752593398094177
0.29610279202461243 0.58285140991210938 0.34243732690811157
0.43193137645721436 0.60725319385528564 0.34639954566955566
0.59456127882003784 0.6469910740852356 0.32353287935256958
0.77338635921478271 0.69402164220809937 0.29366174340248108
0.91280937194824219 0.73470157384872437 0.27423146367073059
0.99364972114562988 0.74777060747146606 0.30799183249473572
0.47862681746482849 0.7359498143196106 0.43763625621795654
0.52444255352020264 0.73291534185409546 0.45570296049118042
0.60407787561416626 0.7432558536529541 0.46908044815063477
0.70522159337997437 0.76357585191726685 0.47003647685050964
0.78749752044677734 0.79550498723983765 0.45337435603141785
0.90956813097000122 0.82537382841110229 0.43841066956520081
0.9947584867477417 0.84229028224945068 0.43985989689826965
0.73606395721435547 0.86779510974884033 0.6060413122177124
0.75485289096832275 0.86637413501739502 0.613944411277771
0.79331374168395996 0.86967235803604126 0.62522917985916138
0.83826428651809692 0.8751988410949707 0.63631129264831543
0.88289588689804077 0.88582736253738403 0.63250821828842163
0.94546836614608765 0.90141189098358154 0.63143032789230347
0.99198383092880249 0.91120231151580811 0.63088089227676392
0.11333164572715759 0.17173181474208832 0.25601226091384888
0.13437110185623169 0.17426459491252899 0.2434396892786026
0.24913051724433899 0.18583226203918457 0.25192201137542725
0.44481745362281799 0.18248182535171509 0.26096513867378235
0.70224946737289429 0.18579988181591034 0.27254179120063782
0.88507992029190063 0.27188432216644287 0.28203663229942322
0.98411887884140015 0.42549839615821838 0.29954695701599121
0.092700570821762085 0.21153327822685242 0.26672223210334778
0.1341882050037384 0.21745344996452332 0.25960704684257507
0.26932141184806824 0.23380118608474731 0.2622063159942627
0.48926573991775513 0.23942755162715912 0.26703596115112305
0.73846155405044556 0.25296756625175476 0.2758619487285614
0.89255768060684204 0.34910184144973755 0.28109261393547058
0.98840069770812988 0.46365523338317871 0.29509642720222473
0.10452274978160858 0.29644984006881714 0.27965459227561951
0.16091488301753998 0.31582179665565491 0.28246578574180603
0.2942236065864563 0.33623215556144714 0.2777974009513855
0.53705328702926636 0.36317643523216248 0.26585566997528076
0.75427788496017456 0.39163902401924133 0.2594054639339447
0.89515477418899536 0.46992236375808716 0.27329128980636597
0.99094289541244507 0.54671365022659302 0.29251256585121155
0.10137297958135605 0.43493089079856873 0.30783933401107788
0.19220179319381714 0.44743099808692932 0.31049564480781555
0.33500733971595764 0.47373324632644653 0.31102493405342102
0.57034981250762939 0.52458482980728149 0.28550168871879578
0.77639174461364746 0.5615735650062561 0.26685360074043274
0.9016374945640564 0.59609156847000122 0.27503123879432678
0.99125242233276367 0.64405161142349243 0.29794138669967651
0.25272420048713684 0.59063565731048584 0.36175978183746338
0.33376500010490417 0.60065996646881104 0.37404045462608337
0.46503478288650513 0.61947447061538696 0.38238576054573059
0.60311293601989746 0.65194886922836304 0.36631795763969421
0.78452074527740479 0.70052468776702881 0.34079310297966003
0.91271513700485229 0.73614144325256348 0.33386597037315369
0.99004298448562622 0.74346327781677246 0.36278071999549866
0.49762943387031555 0.74226921796798706 0.47013968229293823
0.53793340921401978 0.73923546075820923 0.48292255401611328
0.63521414995193481 0.75496482849121094 0.4924551248550415
0.69928961992263794 0.76728242635726929 0.49374029040336609
0.79865193367004395 0.79768747091293335 0.48456847667694092
0.90156751871109009 0.82621932029724121 0.47291326522827148
0.99314045906066895 0.84460711479187012 0.47182881832122803
0.73693430423736572 0.86686509847640991 0.61231702566146851
0.75509953498840332 0.86750715970993042 0.62046962976455688
0.79527205228805542 0.87166017293930054 0.63081353902816772
0.8378291130065918 0.87778550386428833 0.64429366588592529
0.8858221173286438 0.88766312599182129 0.64568072557449341
0.94872581958770752 0.90392327308654785 0.64803630113601685
0.9915587306022644 0.91245543956756592 0.64546531438827515
0.13308931887149811 0.16980341076850891 0.30168259143829346
0.19033142924308777 0.17761750519275665 0.3090893030166626
0.2870333194732666 0.19575037062168121 0.30970728397369385
0.51839721202850342 0.18742334842681885 0.32809701561927795
0.78212743997573853 0.14940743148326874 0.35116857290267944
0.92628383636474609 0.22555091977119446 0.36225080490112305
0.99158793687820435 0.40906402468681335 0.40758833289146423
0.067983515560626984 0.20766691863536835 0.31277298927307129
0.17706632614135742 0.2219439297914505 0.3194308876991272
0.31323066353797913 0.24802717566490173 0.32484903931617737
0.54416823387145996 0.24759218096733093 0.34135535359382629
0.77926075458526611 0.25118422508239746 0.35937768220901489
0.92441451549530029 0.32695949077606201 0.37255215644836426
0.98814129829406738 0.47246894240379333 0.41729292273521423
0.044595859944820404 0.29827079176902771 0.33524224162101746
0.1603056788444519 0.32114493846893311 0.34478539228439331
0.33631646633148193 0.35297462344169617 0.35500261187553406
0.58217048645019531 0.38054826855659485 0.36582079529762268
0.77871882915496826 0.40648195147514343 0.36272379755973816
0.908622145652771 0.46677270531654358 0.3791162371635437
0.98260986804962158 0.56262016296386719 0.42063331604003906
0.18536628782749176 0.45136347413063049 0.37547260522842407
0.28898352384567261 0.47044840455055237 0.3837120532989502
0.42287543416023254 0.49734783172607422 0.39152431488037109
0.60885769128799438 0.53474897146224976 0.38591045141220093
0.77563893795013428 0.56507587432861328 0.37685352563858032
0.90095198154449463 0.6065794825553894 0.39036226272583008
0.98223686218261719 0.65592950582504272 0.42213320732116699
0.39296635985374451 0.61236840486526489 0.43488648533821106
0.42184749245643616 0.61589419841766357 0.43390610814094543
0.51455807685852051 0.63413417339324951 0.43580985069274902
0.63841086626052856 0.65698391199111938 0.44404435157775879
0.77904367446899414 0.6977694034576416 0.4376986026763916
0.90880197286605835 0.73431205749511719 0.43617057800292969
0.9895249605178833 0.74433797597885132 0.45513951778411865
0.55042427778244019 0.74886775016784668 0.50411248207092285
0.57053858041763306 0.75114446878433228 0.50093603134155273
0.63534367084503174 0.75889164209365845 0.51561856269836426
0.71683520078659058 0.77435195446014404 0.52455240488052368
0.79896724224090576 0.79821562767028809 0.53060740232467651
0.91226226091384888 0.82632094621658325 0.53103506565093994
0.99741137027740479 0.84614193439483643 0.53115129470825195
0.7478068470954895 0.87087219953536987 0.62477856874465942
0.76128906011581421 0.87127208709716797 0.63046032190322876
0.79236894845962524 0.87252730131149292 0.64054220914840698
0.83856874704360962 0.87404048442840576 0.65762603282928467
0.89326411485671997 0.8872978687286377 0.66813504695892334
0.95035403966903687 0.89725857973098755 0.66438132524490356
0.99197262525558472 0.91207039356231689 0.67746871709823608
0.20551271736621857 0.16562902927398682 0.40523269772529602
0.30706709623336792 0.1674615889787674 0.42024147510528564
0.48163869976997375 0.19276328384876251 0.4419521689414978
0.63753604888916016 0.24192799627780914 0.45316585898399353
0.80097347497940063 0.26611095666885376 0.47593864798545837
0.95529043674468994 0.35474163293838501 0.5148807168006897
0.99748444557189941 0.44484856724739075 0.51828598976135254
0.15680857002735138 0.20842911303043365 0.42239728569984436
0.27271813154220581 0.22112886607646942 0.43375104665756226
0.48326236009597778 0.24638108909130096 0.45486727356910706
0.64818412065505981 0.30479836463928223 0.46508041024208069
0.81520384550094604 0.34850022196769714 0.49154806137084961
0.9487261176109314 0.42825162410736084 0.51946091651916504
0.99641138315200806 0.50483942031860352 0.52923119068145752
0.011675337329506874 0.29205402731895447 0.43104195594787598
0.083488047122955322 0.30482533574104309 0.43923234939575195
0.42584425210952759 0.34902378916740417 0.46747934818267822
0.66121286153793335 0.43784207105636597 0.48779064416885376
0.81929546594619751 0.4847055971622467 0.51219582557678223
0.92774432897567749 0.53867244720458984 0.52210861444473267
0.98813647031784058 0.59949725866317749 0.54680955410003662
0.097191199660301208 0.4432106614112854 0.44198402762413025
0.21872526407241821 0.45910102128982544 0.45462200045585632
0.42139974236488342 0.49304619431495667 0.48144423961639404
0.6552128791809082 0.55856209993362427 0.50359100103378296
0.80743259191513062 0.60755693912506104 0.51735550165176392
0.90489739179611206 0.63484662771224976 0.52574485540390015
0.97967088222503662 0.68070584535598755 0.54783099889755249
0.3605254590511322 0.60317909717559814 0.49492979049682617
0.43592560291290283 0.61523020267486572 0.5025404691696167
0.56666105985641479 0.64333617687225342 0.51607042551040649
0.68300479650497437 0.67328131198883057 0.52514690160751343
0.8020709753036499 0.71457785367965698 0.53869271278381348
0.91218709945678711 0.74067991971969604 0.55069977045059204
0.993480384349823 0.75430244207382202 0.5499340295791626
0.58253461122512817 0.74855154752731323 0.56391245126724243
0.61640697717666626 0.75296562910079956 0.57047486305236816
0.67052245140075684 0.76557648181915283 0.5658409595489502
0.74023640155792236 0.78021323680877686 0.58070045709609985
0.81346005201339722 0.80088424682617188 0.58940118551254272
0.9190557599067688 0.82755303382873535 0.59537076950073242
0.99460363388061523 0.84319853782653809 0.60375678539276123
0.75751572847366333 0.86913776397705078 0.6594548225402832
0.77221536636352539 0.87296438217163086 0.66425585746765137
0.79868489503860474 0.873465895652771 0.66584551334381104
0.84212338924407959 0.87569832801818848 0.67792850732803345
0.90241038799285889 0.88553065061569214 0.6984630823135376
0.96001249551773071 0.89767938852310181 0.7008976936340332
0.99140256643295288 0.90997874736785889 0.70652908086776733
0.40349549055099487 0.12583120167255402 0.54629075527191162
0.49381661415100098 0.10288287699222565 0.55408245325088501
0.66304939985275269 0.11958848685026169 0.57614171504974365
0.80709874629974365 0.27220433950424194 0.59665119647979736
0.86799001693725586 0.42713919281959534 0.60103064775466919
0.93918836116790771 0.47870498895645142 0.60986810922622681
0.99432146549224854 0.59765708446502686 0.64506047964096069
0.37034875154495239 0.18521486222743988 0.55396795272827148
0.46989601850509644 0.19378945231437683 0.56100630760192871
0.64796489477157593 0.21146607398986816 0.58090692758560181
0.80549025535583496 0.34127220511436462 0.6026531457901001
0.86539900302886963 0.48315858840942383 0.60464602708816528
0.93383312225341797 0.53870230913162231 0.61597144603729248
0.99239838123321533 0.62779116630554199 0.65025484561920166
0.12388242781162262 0.27410763502120972 0.55176693201065063
0.30206730961799622 0.29339468479156494 0.56244421005249023
0.57251566648483276 0.33374267816543579 0.58253461122512817
0.77446544170379639 0.45515769720077515 0.6068422794342041
0.86285108327865601 0.57288849353790283 0.61799275875091553
0.93445658683776855 0.62219345569610596 0.63030141592025757
0.99325639009475708 0.68828588724136353 0.6626247763633728
0.01355393324047327 0.42299631237983704 0.54589056968688965
0.025953181087970734 0.43374788761138916 0.54875916242599487
0.32944479584693909 0.45632323622703552 0.56684184074401855
0.69238829612731934 0.54909443855285645 0.60083383321762085
0.85210174322128296 0.66643846035003662 0.63002759218215942
0.93150097131729126 0.69984692335128784 0.64398455619812012
0.9900740385055542 0.7439759373664856 0.66911774873733521
0.25764825940132141 0.5923469066619873 0.54945749044418335
0.34217193722724915 0.60150492191314697 0.55691021680831909
0.48582354187965393 0.62259870767593384 0.57003217935562134
0.66344636678695679 0.66220813989639282 0.59735077619552612
0.82670360803604126 0.73084646463394165 0.63510864973068237
0.93322372436523438 0.76753705739974976 0.65647447109222412
0.99018651247024536 0.80138838291168213 0.67270630598068237
0.47522422671318054 0.73357915878295898 0.59687322378158569
0.52930742502212524 0.74091815948486328 0.60423314571380615
0.62715178728103638 0.7493293285369873 0.61243736743927002
0.73329734802246094 0.7758941650390625 0.63156801462173462
0.8343346118927002 0.80970591306686401 0.65838748216629028
0.93596363067626953 0.83449852466583252 0.67015683650970459
0.99607592821121216 0.85449117422103882 0.67733442783355713
0.71244281530380249 0.86769157648086548 0.6901213526725769
0.73642969131469727 0.86783623695373535 0.6931990385055542
0.7874751091003418 0.87340152263641357 0.69972711801528931
0.84082728624343872 0.87984007596969604 0.70622444152832031
0.90132248401641846 0.88566893339157104 0.72781318426132202
0.96370673179626465 0.89570915699005127 0.73772495985031128
0.99519360065460205 0.91211962699890137 0.7502439022064209
0.67368954420089722 0.013841696083545685 0.68418258428573608
0.71897310018539429 0.0091422433033585548 0.68831533193588257
0.81268954277038574 0.060370545834302902 0.69910132884979248
0.89789211750030518 0.30542975664138794 0.71007484197616577
0.9500243067741394 0.53952121734619141 0.71612036228179932
0.98098623752593994 0.63723540306091309 0.71174484491348267
0.99924612045288086 0.66576814651489258 0.70758897066116333
0.64045655727386475 0.11057625710964203 0.68472391366958618
0.69928514957427979 0.12541820108890533 0.68967443704605103
0.79759508371353149 0.21187254786491394 0.70026421546936035
0.88528299331665039 0.36911413073539734 0.71120476722717285
0.94187557697296143 0.58754754066467285 0.71687787771224976
0.9756893515586853 0.66822916269302368 0.71560436487197876
0.99483418464660645 0.70481389760971069 0.72311222553253174
0.51086187362670898 0.2632395327091217 0.67798733711242676
0.58717095851898193 0.27927514910697937 0.68353962898254395
0.73710304498672485 0.33086133003234863 0.69540214538574219
0.84928280115127563 0.4745364785194397 0.71074014902114868
0.92746341228485107 0.64261233806610107 0.72049558162689209
0.97011488676071167 0.71599411964416504 0.72279506921768188
0.98768967390060425 0.74690264463424683 0.73367035388946533
0.020121615380048752 0.37795555591583252 0.65699487924575806
0.10096369683742523 0.38197195529937744 0.66487377882003784
0.50090247392654419 0.42754265666007996 0.6798020601272583
0.7700120210647583 0.54058367013931274 0.69972211122512817
0.89696425199508667 0.68168526887893677 0.72024703025817871
0.97217434644699097 0.76266396045684814 0.73502242565155029
0.99485200643539429 0.7900426983833313 0.7480158805847168
0.0073737199418246746 0.57604199647903442 0.6427314281463623
0.01662890799343586 0.57898032665252686 0.64621818065643311
0.16521361470222473 0.58509129285812378 0.65183752775192261
0.527485191822052 0.60296893119812012 0.67318522930145264
0.82397782802581787 0.71586078405380249 0.71283578872680664
0.96539443731307983 0.80236983299255371 0.74610966444015503
0.99503141641616821 0.82546877861022949 0.75814676284790039
0.34072619676589966 0.72191864252090454 0.64640283584594727
0.39823147654533386 0.72632229328155518 0.65004462003707886
0.51160460710525513 0.7358633279800415 0.66014522314071655
0.64454931020736694 0.75625085830688477 0.68175816535949707
0.78840148448944092 0.78628271818161011 0.71446293592453003
0.95010411739349365 0.84762001037597656 0.75178223848342896
0.99593603610992432 0.86940193176269531 0.76554423570632935
0.62313133478164673 0.86316287517547607 0.72549152374267578
0.64650756120681763 0.86627602577209473 0.72630137205123901
0.69660490751266479 0.87035465240478516 0.73038941621780396
0.77512431144714355 0.87584149837493896 0.73838788270950317
0.88072162866592407 0.88946831226348877 0.76197713613510132
0.96976882219314575 0.90178161859512329 0.78022086620330811
0.99457615613937378 0.90583294630050659 0.79075449705123901
0.85680276155471802 0.10448319464921951 0.8152814507484436
0.87438571453094482 0.15722011029720306 0.81513172388076782
0.90533316135406494 0.29489770531654358 0.81250154972076416
0.95190942287445068 0.46328741312026978 0.81541967391967773
0.98823440074920654 0.62390339374542236 0.81009572744369507
0.99952864646911621 0.74022704362869263 0.8032720685005188
1 0.78225398063659668 0.79671519994735718
0.83213359117507935 0.21695703268051147 0.8142087459564209
0.85440981388092041 0.26649415493011475 0.81529319286346436
0.89237934350967407 0.36239781975746155 0.81074529886245728
0.9414985179901123 0.50462454557418823 0.81184631586074829
0.98924189805984497 0.65051853656768799 0.80995827913284302
0.99790215492248535 0.74791264533996582 0.80575042963027954
0.99971789121627808 0.78896123170852661 0.79969137907028198
0.76244580745697021 0.32531774044036865 0.80979126691818237
0.79729682207107544 0.3494737446308136 0.80794376134872437
0.85290718078613281 0.43780839443206787 0.81222927570343018
0.91318720579147339 0.55994498729705811 0.81088477373123169
0.97742170095443726 0.68411695957183838 0.81042659282684326
0.9962923526763916 0.7711557149887085 0.80416887998580933
0.99799519777297974 0.81262528896331787 0.80538833141326904
0.50250256061553955 0.3802928626537323 0.8102107048034668
0.61223006248474121 0.40887415409088135 0.81077969074249268
0.7491108775138855 0.48008069396018982 0.81072908639907837
0.85584104061126709 0.59711015224456787 0.80899292230606079
0.94914937019348145 0.71279263496398926 0.8099789023399353
0.99557578563690186 0.79222327470779419 0.80574315786361694
0.99753099679946899 0.83813148736953735 0.80856060981750488
0.0049131955020129681 0.58108365535736084 0.79366022348403931
0.0054240357130765915 0.57299572229385376 0.79598420858383179
0.11691916733980179 0.54940122365951538 0.80243951082229614
0.64000612497329712 0.59113514423370361 0.80856591463088989
0.88478583097457886 0.72569829225540161 0.8118700385093689
0.98770439624786377 0.81553846597671509 0.81058168411254883
0.99698346853256226 0.86138254404067993 0.81527400016784668
0.023923028260469437 0.75428265333175659 0.78984928131103516
0.045877672731876373 0.7554900050163269 0.79017722606658936
0.15553990006446838 0.75173670053482056 0.79348641633987427
0.41119629144668579 0.74124813079833984 0.7995343804359436
0.66828185319900513 0.7442086935043335 0.8077772855758667
0.95043903589248657 0.83488810062408447 0.8214002251625061
0.99640458822250366 0.8929709792137146 0.82668346166610718
0.58741509914398193 0.86652249097824097 0.80519950389862061
0.60358345508575439 0.86892032623291016 0.81089949607849121
0.64398074150085449 0.8693472146987915 0.81023025512695312
0.72027713060379028 0.87277513742446899 0.81198287010192871
0.81251627206802368 0.87904006242752075 0.81754446029663086
0.92932158708572388 0.89098930358886719 0.83081793785095215
0.99582761526107788 0.91285818815231323 0.83254587650299072
