luts/instant_pro/fuji_fp-100c_negative_--.cube
# Created by: G'MIC (https://gmic.eu)
TITLE "fuji_fp-100c_negative_--"
# LUT size
LUT_3D_SIZE 7
# Data domain
DOMAIN_MIN 0.0 0.0 0.0
DOMAIN_MAX 1.0 1.0 1.0
# LUT data points
0.0018908631755039096 0.085848577320575714 0.046099420636892319
0.08131244033575058 0.08475290983915329 0.041579496115446091
0.37936258316040039 0.031591933220624924 0.033630609512329102
0.65560066699981689 0.0069293002597987652 0.041626904159784317
0.83787548542022705 0.021810239180922508 0.031979415565729141
0.95898616313934326 0.24310845136642456 0.028693359345197678
0.99932754039764404 0.41190460324287415 0.081853874027729034
0.0015814088983461261 0.14747117459774017 0.069661475718021393
0.087340019643306732 0.16348575055599213 0.042094435542821884
0.41783681511878967 0.16733254492282867 0.017214113846421242
0.66113877296447754 0.12648802995681763 0.014610694721341133
0.83148342370986938 0.22527825832366943 0.017773168161511421
0.95594912767410278 0.35364493727684021 0.01607297919690609
0.99959796667098999 0.46649461984634399 0.068866372108459473
0.003243554849177599 0.3184763491153717 0.14285482466220856
0.070185989141464233 0.33538082242012024 0.1311604380607605
0.37904244661331177 0.40957832336425781 0.025371013209223747
0.66306072473526001 0.42833676934242249 0.0058918674476444721
0.82344567775726318 0.44988486170768738 0.0080817723646759987
0.94528782367706299 0.49485048651695251 0.011401352472603321
0.99821007251739502 0.55391079187393188 0.054416101425886154
0.012798698619008064 0.49258407950401306 0.24205553531646729
0.11843620985746384 0.51287472248077393 0.24941124022006989
0.34875893592834473 0.5430833101272583 0.21517299115657806
0.58534878492355347 0.5896306037902832 0.085989601910114288
0.80038756132125854 0.62163996696472168 0.0087599661201238632
0.93290549516677856 0.62719881534576416 0.011623247526586056
0.99759072065353394 0.64696592092514038 0.025315960869193077
0.17527078092098236 0.6275370717048645 0.35313621163368225
0.26516550779342651 0.63940495252609253 0.36906617879867554
0.4179670512676239 0.6510004997253418 0.36137542128562927
0.5560956597328186 0.67570912837982178 0.32676765322685242
0.74124628305435181 0.71811980009078979 0.22511570155620575
0.92462891340255737 0.76002848148345947 0.071394257247447968
0.99422049522399902 0.76319366693496704 0.12728981673717499
0.40277603268623352 0.76189595460891724 0.48227515816688538
0.4396565854549408 0.75633817911148071 0.48367753624916077
0.5268673300743103 0.75987255573272705 0.49591931700706482
0.61802071332931519 0.77703672647476196 0.48783639073371887
0.74166887998580933 0.81195914745330811 0.45268285274505615
0.89267528057098389 0.84480798244476318 0.37533167004585266
0.99309718608856201 0.87105244398117065 0.30400475859642029
0.63519203662872314 0.89161771535873413 0.63937914371490479
0.66309744119644165 0.88979035615921021 0.64759159088134766
0.71158832311630249 0.88776028156280518 0.65771597623825073
0.76986241340637207 0.89638000726699829 0.66978836059570312
0.81704652309417725 0.90996634960174561 0.65470314025878906
0.90131878852844238 0.92708504199981689 0.63035589456558228
0.98053771257400513 0.93676203489303589 0.58905476331710815
0.0070090051740407944 0.077913545072078705 0.16434760391712189
0.12824496626853943 0.079538427293300629 0.15201970934867859
0.41525539755821228 0.015788942575454712 0.16807128489017487
0.66553330421447754 0.012344165705144405 0.20305080711841583
0.83112740516662598 0.1378742903470993 0.22938694059848785
0.94500863552093506 0.310985267162323 0.24572493135929108
0.99465262889862061 0.43381747603416443 0.27936205267906189
0.0036452647764235735 0.15862841904163361 0.18447045981884003
0.14180870354175568 0.18111547827720642 0.19928364455699921
0.4301755428314209 0.1883646696805954 0.18488794565200806
0.6649242639541626 0.20607833564281464 0.20951226353645325
0.82723015546798706 0.29166445136070251 0.21062344312667847
0.94530856609344482 0.39255279302597046 0.22774074971675873
0.99446219205856323 0.48399823904037476 0.26703748106956482
0.046131763607263565 0.34595128893852234 0.25929936766624451
0.19630549848079681 0.36798608303070068 0.26361256837844849
0.42515078186988831 0.41876369714736938 0.22378681600093842
0.66463851928710938 0.44254332780838013 0.17618341743946075
0.81787168979644775 0.46267196536064148 0.17111337184906006
0.9377015233039856 0.50307846069335938 0.20331588387489319
0.99073308706283569 0.56382006406784058 0.25838983058929443
0.079795688390731812 0.51068460941314697 0.32279664278030396
0.2357814610004425 0.52519673109054565 0.33707436919212341
0.39721035957336426 0.54924601316452026 0.32858273386955261
0.61090052127838135 0.5964544415473938 0.25758510828018188
0.80417478084564209 0.62330347299575806 0.17871998250484467
0.9300694465637207 0.62738931179046631 0.17630493640899658
0.99441021680831909 0.65210223197937012 0.23211373388767242
0.22839853167533875 0.63274544477462769 0.39664241671562195
0.32998061180114746 0.64344161748886108 0.42013067007064819
0.4536745548248291 0.65536564588546753 0.41979402303695679
0.57618230581283569 0.68068438768386841 0.39142704010009766
0.75227713584899902 0.7219773530960083 0.32982248067855835
0.91745090484619141 0.75658130645751953 0.2678074836730957
0.98304051160812378 0.76044583320617676 0.25864490866661072
0.41194173693656921 0.76245355606079102 0.50678133964538574
0.45956644415855408 0.76371490955352783 0.51337462663650513
0.54620373249053955 0.76688510179519653 0.52704340219497681
0.62990283966064453 0.78188276290893555 0.51674562692642212
0.75146174430847168 0.80899101495742798 0.48392102122306824
0.89145869016647339 0.84427028894424438 0.44587361812591553
0.9851994514465332 0.86920380592346191 0.38727468252182007
0.6373826265335083 0.8918149471282959 0.64982336759567261
0.66433942317962646 0.89325034618377686 0.6563345193862915
0.71372121572494507 0.89238882064819336 0.6671329140663147
0.7748228907585144 0.89603400230407715 0.68228638172149658
0.82435101270675659 0.90379565954208374 0.66330081224441528
0.90321248769760132 0.9221726655960083 0.64252233505249023
0.97635209560394287 0.93487018346786499 0.61308389902114868
0.050735428929328918 0.056747749447822571 0.37976557016372681
0.30435043573379517 0.036327525973320007 0.39438876509666443
0.50021785497665405 0.11152080446481705 0.39100965857505798
0.71301931142807007 0.10178648680448532 0.41527557373046875
0.87151038646697998 0.18465122580528259 0.42301419377326965
0.96648681163787842 0.32430264353752136 0.43485650420188904
0.99532896280288696 0.45035523176193237 0.46604925394058228
0.012023910880088806 0.15187184512615204 0.38978737592697144
0.22957751154899597 0.17230582237243652 0.40645489096641541
0.50059044361114502 0.26515695452690125 0.41839900612831116
0.70623886585235596 0.30448505282402039 0.44570952653884888
0.84191775321960449 0.34242734313011169 0.43750220537185669
0.9392809271812439 0.4210599958896637 0.45200702548027039
0.99150711297988892 0.50238549709320068 0.47167220711708069
0.013528577052056789 0.34729787707328796 0.40787073969841003
0.18458913266658783 0.37123101949691772 0.41938328742980957
0.47354903817176819 0.4344475269317627 0.44754016399383545
0.67177081108093262 0.4758678674697876 0.44486531615257263
0.80956858396530151 0.48856079578399658 0.43568503856658936
0.93587470054626465 0.52408170700073242 0.43094775080680847
0.99001216888427734 0.57897758483886719 0.46339458227157593
0.2247379869222641 0.52725619077682495 0.45286020636558533
0.34937277436256409 0.5395125150680542 0.46579039096832275
0.48016771674156189 0.56679433584213257 0.47246327996253967
0.62226921319961548 0.59563839435577393 0.46156477928161621
0.79270797967910767 0.62648516893386841 0.43298172950744629
0.92396128177642822 0.63648420572280884 0.42657220363616943
0.99223208427429199 0.66054809093475342 0.43686079978942871
0.38198703527450562 0.64872473478317261 0.50504249334335327
0.42004114389419556 0.65436756610870361 0.50350308418273926
0.50247043371200562 0.66776520013809204 0.5070604681968689
0.61665338277816772 0.69020438194274902 0.50051778554916382
0.75711530447006226 0.72668641805648804 0.47600746154785156
0.91643208265304565 0.76047664880752563 0.44445556402206421
0.98619258403778076 0.76091521978378296 0.43435478210449219
0.44836705923080444 0.76268684864044189 0.55031704902648926
0.47747319936752319 0.76529765129089355 0.55363768339157104
0.55931270122528076 0.77703028917312622 0.56561779975891113
0.64650768041610718 0.78795212507247925 0.56775856018066406
0.75050228834152222 0.81072878837585449 0.56088626384735107
0.8934139609336853 0.84905439615249634 0.5341869592666626
0.98073351383209229 0.86639398336410522 0.49895107746124268
0.64004248380661011 0.89522498846054077 0.6673511266708374
0.66341793537139893 0.89281606674194336 0.67459166049957275
0.70451885461807251 0.89395612478256226 0.67832076549530029
0.77223414182662964 0.89592498540878296 0.69226562976837158
0.83707505464553833 0.906452476978302 0.69484847784042358
0.8988347053527832 0.92008262872695923 0.673115074634552
0.97712260484695435 0.93139511346817017 0.65208256244659424
0.27587676048278809 0.01233011856675148 0.56492239236831665
0.44064906239509583 0.018366031348705292 0.57825219631195068
0.64287805557250977 0.10971833765506744 0.59635406732559204
0.75628578662872314 0.34009832143783569 0.59760576486587524
0.85492610931396484 0.369649738073349 0.59695112705230713
0.99121683835983276 0.44134488701820374 0.61764967441558838
0.99995905160903931 0.49085903167724609 0.60394954681396484
0.19493292272090912 0.13180921971797943 0.56870603561401367
0.37837469577789307 0.15404801070690155 0.58046126365661621
0.61084353923797607 0.28599563241004944 0.59916418790817261
0.74399030208587646 0.43322685360908508 0.60657590627670288
0.85722404718399048 0.45723733305931091 0.61049842834472656
0.98021596670150757 0.5024523138999939 0.62205016613006592
0.99925929307937622 0.5320127010345459 0.60820084810256958
0.016295503824949265 0.3047100305557251 0.55746889114379883
0.09157688170671463 0.33012935519218445 0.56608873605728149
0.52192169427871704 0.42987731099128723 0.59355443716049194
0.71121335029602051 0.53098601102828979 0.60755127668380737
0.84152394533157349 0.5603938102722168 0.62195479869842529
0.95768827199935913 0.57109779119491577 0.61711812019348145
0.98968708515167236 0.59212827682495117 0.61387306451797485
0.1035243347287178 0.50196391344070435 0.53845202922821045
0.25398841500282288 0.51880747079849243 0.55128246545791626
0.45704397559165955 0.546234130859375 0.57932978868484497
0.6700252890586853 0.61604994535446167 0.60298532247543335
0.81017696857452393 0.64176422357559204 0.60223400592803955
0.92426878213882446 0.65684980154037476 0.60066276788711548
0.97781407833099365 0.67040431499481201 0.59315651655197144
0.34225389361381531 0.63226443529129028 0.57467544078826904
0.41774711012840271 0.6451384425163269 0.5810924768447876
0.52898281812667847 0.66580235958099365 0.59434741735458374
0.64430826902389526 0.69390869140625 0.60390293598175049
0.78826868534088135 0.73710840940475464 0.59575635194778442
0.91211354732513428 0.76175612211227417 0.58985608816146851
0.98667770624160767 0.76366686820983887 0.57721614837646484
0.48301607370376587 0.76058924198150635 0.62616229057312012
0.51834356784820557 0.7654450535774231 0.62620788812637329
0.59189260005950928 0.77868384122848511 0.63083750009536743
0.67033803462982178 0.79538756608963013 0.63638365268707275
0.76550078392028809 0.81500232219696045 0.64176428318023682
0.89599108695983887 0.84451985359191895 0.63070785999298096
0.99197399616241455 0.86393910646438599 0.60756140947341919
0.67129367589950562 0.89165592193603516 0.70896410942077637
0.67660331726074219 0.89333963394165039 0.70498353242874146
0.708901047706604 0.89403814077377319 0.70436388254165649
0.7689778208732605 0.90005314350128174 0.71327108144760132
0.83978104591369629 0.90576159954071045 0.719573974609375
0.90877950191497803 0.92005783319473267 0.71844124794006348
0.98614025115966797 0.93080931901931763 0.70331054925918579
0.5022118091583252 0.01013870257884264 0.69665849208831787
0.60702121257781982 0.015912747010588646 0.70981353521347046
0.74203681945800781 0.11273545026779175 0.72069185972213745
0.84391999244689941 0.40140685439109802 0.72482961416244507
0.90434408187866211 0.51727116107940674 0.71685361862182617
0.97941410541534424 0.54372584819793701 0.72295928001403809
0.99994397163391113 0.61599266529083252 0.73752719163894653
0.46057307720184326 0.10081575810909271 0.6979975700378418
0.56261515617370605 0.13178986310958862 0.70551151037216187
0.70449537038803101 0.27065801620483398 0.71285170316696167
0.82354021072387695 0.46851223707199097 0.72366529703140259
0.89749979972839355 0.56494510173797607 0.723105788230896
0.95950371026992798 0.58492946624755859 0.72335672378540039
0.99765634536743164 0.6477358341217041 0.73553657531738281
0.1775490939617157 0.27983346581459045 0.68015414476394653
0.38643157482147217 0.32533136010169983 0.68812352418899536
0.62071108818054199 0.41349303722381592 0.7025722861289978
0.78039616346359253 0.54278379678726196 0.71830737590789795
0.87903928756713867 0.63511073589324951 0.72724533081054688
0.95539402961730957 0.66074961423873901 0.73561060428619385
0.99344581365585327 0.7001226544380188 0.7423972487449646
0.017803819850087166 0.45015916228294373 0.64615082740783691
0.029644116759300232 0.4697985053062439 0.64938640594482422
0.35485655069351196 0.50594258308410645 0.6648133397102356
0.67896473407745361 0.59579074382781982 0.70289552211761475
0.85797929763793945 0.68147861957550049 0.72405040264129639
0.96310663223266602 0.72205328941345215 0.73776412010192871
0.98863565921783447 0.74125903844833374 0.72891414165496826
0.19873012602329254 0.61136871576309204 0.6295548677444458
0.29476073384284973 0.62271350622177124 0.63805484771728516
0.43562453985214233 0.64002466201782227 0.65562933683395386
0.6153598427772522 0.67822659015655518 0.68411177396774292
0.80229973793029785 0.74216544628143311 0.71192800998687744
0.93425858020782471 0.77207863330841064 0.71340847015380859
0.99494391679763794 0.78194177150726318 0.71227848529815674
0.3495851457118988 0.73605799674987793 0.66721105575561523
0.40790930390357971 0.742836594581604 0.67042756080627441
0.52396786212921143 0.75980567932128906 0.68546676635742188
0.6739424467086792 0.79168111085891724 0.70625221729278564
0.80457222461700439 0.82328438758850098 0.72449558973312378
0.90882414579391479 0.84155142307281494 0.72778791189193726
0.98895138502120972 0.85290133953094482 0.71908277273178101
0.61444252729415894 0.88879555463790894 0.74263870716094971
0.64531320333480835 0.88977211713790894 0.74292927980422974
0.70520490407943726 0.89375823736190796 0.74699479341506958
0.77797764539718628 0.90012133121490479 0.75017356872558594
0.85740435123443604 0.90917283296585083 0.76060676574707031
0.92426037788391113 0.91754603385925293 0.76963835954666138
0.98666477203369141 0.92991048097610474 0.76519691944122314
0.71507716178894043 0.011224874295294285 0.80277222394943237
0.76284205913543701 0.035232678055763245 0.80811887979507446
0.82733649015426636 0.20799292623996735 0.8088071346282959
0.91130298376083374 0.42224335670471191 0.80822068452835083
0.96906405687332153 0.59513181447982788 0.80859792232513428
0.98966377973556519 0.65969866514205933 0.80224817991256714
1 0.68897688388824463 0.79803752899169922
0.68503940105438232 0.15151700377464294 0.80236083269119263
0.71965891122817993 0.1955333948135376 0.80133956670761108
0.79847818613052368 0.33515551686286926 0.80394846200942993
0.89626139402389526 0.47437122464179993 0.81231343746185303
0.96153867244720459 0.63118958473205566 0.80931371450424194
0.98678970336914062 0.68038439750671387 0.80408233404159546
0.99998205900192261 0.69858592748641968 0.80327785015106201
0.54762524366378784 0.31657004356384277 0.79065006971359253
0.61802583932876587 0.35206031799316406 0.7917788028717041
0.72950965166091919 0.4335082471370697 0.79709124565124512
0.84877687692642212 0.55085116624832153 0.80714833736419678
0.9530443549156189 0.66991829872131348 0.80944705009460449
0.97836661338806152 0.73939698934555054 0.81400871276855469
0.99823963642120361 0.77167564630508423 0.82231813669204712
0.028396306559443474 0.39148041605949402 0.76701134443283081
0.1234930157661438 0.41260308027267456 0.76934266090393066
0.49494010210037231 0.47874253988265991 0.77870655059814453
0.76081424951553345 0.58410269021987915 0.79274648427963257
0.91184478998184204 0.7042536735534668 0.80505049228668213
0.98992753028869629 0.78995531797409058 0.81504350900650024
0.99830955266952515 0.81276172399520874 0.82389259338378906
0.021878127008676529 0.58625650405883789 0.73583012819290161
0.013143906369805336 0.58522635698318481 0.73990511894226074
0.083171948790550232 0.59984546899795532 0.74289119243621826
0.44968315958976746 0.62493979930877686 0.76054483652114868
0.81573474407196045 0.72399890422821045 0.78865450620651245
0.96983128786087036 0.83071631193161011 0.81260174512863159
0.99141281843185425 0.84060525894165039 0.81400167942047119
0.12668105959892273 0.72235918045043945 0.72500497102737427
0.19530574977397919 0.72717815637588501 0.728615403175354
0.3547799289226532 0.73742532730102539 0.73642468452453613
0.53268271684646606 0.76229989528656006 0.75180113315582275
0.73650598526000977 0.78979313373565674 0.77658569812774658
0.93613791465759277 0.85696935653686523 0.80095022916793823
0.99284845590591431 0.87376904487609863 0.80484193563461304
0.4261244535446167 0.88700944185256958 0.78170883655548096
0.47010824084281921 0.8900831937789917 0.78252267837524414
0.55103439092636108 0.89186108112335205 0.78440183401107788
0.6771010160446167 0.89761024713516235 0.78811001777648926
0.81999850273132324 0.90278774499893188 0.80430811643600464
0.93814444541931152 0.91810852289199829 0.81972259283065796
0.99025928974151611 0.93145906925201416 0.82917129993438721
0.84197545051574707 0.29572287201881409 0.90191555023193359
0.86224675178527832 0.33806249499320984 0.89991968870162964
0.90548622608184814 0.43722516298294067 0.89514374732971191
0.95584440231323242 0.53840774297714233 0.88988375663757324
0.99286758899688721 0.65478360652923584 0.88992047309875488
0.99803042411804199 0.75158500671386719 0.88481497764587402
1 0.79213535785675049 0.86943858861923218
0.8193170428276062 0.36725598573684692 0.90155953168869019
0.83727163076400757 0.39069017767906189 0.89536535739898682
0.89056134223937988 0.46409216523170471 0.89596098661422729
0.94055992364883423 0.55995422601699829 0.88930362462997437
0.98125427961349487 0.67470079660415649 0.88426429033279419
0.9950072169303894 0.76839035749435425 0.88479024171829224
1 0.797199547290802 0.87863552570343018
0.75209164619445801 0.42827513813972473 0.89305287599563599
0.78411394357681274 0.46143990755081177 0.89406800270080566
0.8314705491065979 0.52265310287475586 0.8924788236618042
0.91865134239196777 0.61009013652801514 0.89463585615158081
0.98314714431762695 0.70490497350692749 0.89207053184509277
0.99358183145523071 0.79146313667297363 0.88805145025253296
1 0.82550448179244995 0.88623142242431641
0.50266784429550171 0.4493306577205658 0.88926035165786743
0.59685099124908447 0.48036602139472961 0.88965392112731934
0.72115904092788696 0.54097241163253784 0.88812941312789917
0.85162913799285889 0.62882536649703979 0.88828879594802856
0.95576697587966919 0.73090308904647827 0.89235609769821167
0.99768716096878052 0.815227210521698 0.89343583583831787
1 0.85369908809661865 0.88848817348480225
0.0053431643173098564 0.60567313432693481 0.87417060136795044
0.0086200488731265068 0.58512634038925171 0.87952518463134766
0.10400351881980896 0.57491803169250488 0.8779568076133728
0.59386855363845825 0.61182355880737305 0.88341724872589111
0.8769841194152832 0.73470473289489746 0.88820552825927734
0.98658072948455811 0.83592259883880615 0.89426040649414062
0.99690335988998413 0.88839530944824219 0.89339327812194824
0.0027537476271390915 0.7593417763710022 0.85964334011077881
0.008720817044377327 0.763053297996521 0.86928516626358032
0.0111197829246521 0.75853234529495239 0.86182451248168945
0.19410938024520874 0.75039452314376831 0.86924827098846436
0.5748106837272644 0.74569582939147949 0.88046765327453613
0.93660491704940796 0.84913629293441772 0.89473205804824829
0.99431759119033813 0.9089360237121582 0.90298557281494141
0.30974474549293518 0.88849103450775146 0.87921607494354248
0.36620268225669861 0.88759595155715942 0.8798832893371582
0.45406138896942139 0.88822275400161743 0.8810691237449646
0.58308631181716919 0.88961297273635864 0.88306260108947754
0.72659438848495483 0.89024990797042847 0.88543373346328735
0.88258445262908936 0.90590202808380127 0.90551519393920898
0.98696273565292358 0.93529480695724487 0.91528290510177612
