luts/instant_pro/fuji_fp-100c_cool_--.cube
# Created by: G'MIC (https://gmic.eu)
TITLE "fuji_fp-100c_cool_--"
# LUT size
LUT_3D_SIZE 13
# Data domain
DOMAIN_MIN 0.0 0.0 0.0
DOMAIN_MAX 1.0 1.0 1.0
# LUT data points
0.0095015885308384895 0.02092183381319046 0.022480159997940063
0.037040799856185913 0.026204321533441544 0.023724021390080452
0.10487609356641769 0.027082242071628571 0.024428557604551315
0.19854597747325897 0.021399179473519325 0.024895193055272102
0.30169463157653809 0.014618233777582645 0.024072056636214256
0.41165885329246521 0.0049245497211813927 0.024945801123976707
0.53378033638000488 0.0063856537453830242 0.029695143923163414
0.6523665189743042 0.01125468872487545 0.028516717255115509
0.74907821416854858 0.01238663587719202 0.021720707416534424
0.82450485229492188 0.011727366596460342 0.016992231830954552
0.88891100883483887 0.010250301100313663 0.010133945383131504
0.94905859231948853 0.0082330591976642609 0.0063969781622290611
0.99348151683807373 0.036613345146179199 0.003335616085678339
0.0068740695714950562 0.068142443895339966 0.031891737133264542
0.035314746201038361 0.075006343424320221 0.027394119650125504
0.11259381473064423 0.078623481094837189 0.026284759864211082
0.20805013179779053 0.065516889095306396 0.021799707785248756
0.31357195973396301 0.050170525908470154 0.019747775048017502
0.42889535427093506 0.024488052353262901 0.020122498273849487
0.54507005214691162 0.012786969542503357 0.021325234323740005
0.65786439180374146 0.012317013926804066 0.018838994204998016
0.75022798776626587 0.012388655915856361 0.015353064052760601
0.82412028312683105 0.013262520544230938 0.012596609070897102
0.89005410671234131 0.01166172418743372 0.0061255809850990772
0.94869518280029297 0.035290349274873734 0.0043641184456646442
0.98979681730270386 0.10808687657117844 0.0061021544970571995
0.0044521107338368893 0.13299241662025452 0.031225435435771942
0.022200759500265121 0.1324273943901062 0.026576412841677666
0.10966264456510544 0.1409716010093689 0.023390885442495346
0.22257536649703979 0.14545980095863342 0.019856022670865059
0.3353726863861084 0.14309932291507721 0.014229134656488895
0.45534995198249817 0.120542012155056 0.012092904187738895
0.5674934983253479 0.10328780859708786 0.011874254792928696
0.67091095447540283 0.080180689692497253 0.010305367410182953
0.75472885370254517 0.074447229504585266 0.0099844690412282944
0.8277326226234436 0.079155519604682922 0.0082378014922142029
0.89284896850585938 0.099227458238601685 0.0040292628109455109
0.94989138841629028 0.14993809163570404 0.003897049929946661
0.98841315507888794 0.20322711765766144 0.0071988725103437901
0.0054827970452606678 0.22455610334873199 0.028189385309815407
0.0098263463005423546 0.22005587816238403 0.024287668988108635
0.061417762190103531 0.22263993322849274 0.016550326719880104
0.21044614911079407 0.23975910246372223 0.013062002137303352
0.35397741198539734 0.25014954805374146 0.0095669766888022423
0.48307016491889954 0.24890777468681335 0.0055525684729218483
0.59340149164199829 0.2424473762512207 0.0055988985113799572
0.68727701902389526 0.23208253085613251 0.0067636226303875446
0.76767832040786743 0.22890280187129974 0.0073279137723147869
0.83545094728469849 0.23408542573451996 0.0059825223870575428
0.89813858270645142 0.24187687039375305 0.0044398438185453415
0.95172905921936035 0.26108086109161377 0.0080010956153273582
0.99046933650970459 0.29064443707466125 0.010474709793925285
0.0048574409447610378 0.3222215473651886 0.020886918529868126
0.0071130041033029556 0.31737047433853149 0.018234401941299438
0.021412942558526993 0.31979608535766602 0.01234035100787878
0.14864529669284821 0.33243107795715332 0.0065773609094321728
0.32401543855667114 0.34627479314804077 0.0055313860066235065
0.46974200010299683 0.35586220026016235 0.0035086388234049082
0.58563476800918579 0.35916262865066528 0.0038641537539660931
0.69091176986694336 0.36117944121360779 0.0034501617774367332
0.77571696043014526 0.35926425457000732 0.0042778612114489079
0.83958113193511963 0.3533606231212616 0.0050945505499839783
0.9007943868637085 0.35504233837127686 0.0069239148870110512
0.95404982566833496 0.36892080307006836 0.011729850433766842
0.99218142032623291 0.38079959154129028 0.015214927494525909
0.0028511795680969954 0.41697561740875244 0.0092981969937682152
0.0068983640521764755 0.41508740186691284 0.013398892246186733
0.0083800218999385834 0.41378745436668396 0.010859575122594833
0.082836955785751343 0.4167822003364563 0.0031171611044555902
0.26341444253921509 0.42802244424819946 0.0022771947551518679
0.42828476428985596 0.44253486394882202 0.0033223619684576988
0.5551607608795166 0.4470331072807312 0.0055683208629488945
0.66331714391708374 0.44529899954795837 0.0064942901954054832
0.7641223669052124 0.45028045773506165 0.0058543635532259941
0.83917993307113647 0.453743577003479 0.0082690371200442314
0.90248322486877441 0.46141618490219116 0.0084784263744950294
0.95527523756027222 0.46982145309448242 0.012010731734335423
0.99159997701644897 0.47751009464263916 0.015027184970676899
0.001906226621940732 0.49656367301940918 0.0061880224384367466
0.0058812610805034637 0.49407947063446045 0.012085409834980965
0.0090083852410316467 0.49131253361701965 0.011294017545878887
0.034480586647987366 0.49029868841171265 0.0056774215772747993
0.21081815659999847 0.49776104092597961 0.0043726004660129547
0.37809404730796814 0.50888937711715698 0.0046084383502602577
0.51495683193206787 0.51753658056259155 0.006451326422393322
0.63229107856750488 0.52039951086044312 0.0089779868721961975
0.73570406436920166 0.52451449632644653 0.010110248811542988
0.81728428602218628 0.53287172317504883 0.016162872314453125
0.88822847604751587 0.54760825634002686 0.013185029849410057
0.95065391063690186 0.5604674220085144 0.012577864341437817
0.99173170328140259 0.56944775581359863 0.023868367075920105
0.002244612667709589 0.56286978721618652 0.0083203334361314774
0.0045570824295282364 0.56143569946289062 0.014421320520341396
0.0065819984301924706 0.56042063236236572 0.015969773754477501
0.017501082271337509 0.55898946523666382 0.013309762813150883
0.17417573928833008 0.56418639421463013 0.0060463100671768188
0.33823761343955994 0.57449334859848022 0.0041554919444024563
0.47211280465126038 0.58413791656494141 0.0061731822788715363
0.59432190656661987 0.59055209159851074 0.0085944682359695435
0.70087337493896484 0.59421306848526001 0.01218649186193943
0.786842942237854 0.60381817817687988 0.015570711344480515
0.86209994554519653 0.6169053316116333 0.011916620656847954
0.93038898706436157 0.62937021255493164 0.014786933548748493
0.98474699258804321 0.64424514770507812 0.021300356835126877
0.00039918188122101128 0.63332808017730713 0.008130660280585289
0.0033009098842740059 0.63348561525344849 0.015345419757068157
0.0070818285457789898 0.63148331642150879 0.017040656879544258
0.014232021756470203 0.6273730993270874 0.012937463819980621
0.15012194216251373 0.63042795658111572 0.0051648006774485111
0.32089030742645264 0.63925915956497192 0.0044231489300727844
0.44628909230232239 0.64788097143173218 0.0048693935386836529
0.55820077657699585 0.6560559868812561 0.0058568618260324001
0.66631507873535156 0.66136598587036133 0.0082834428176283836
0.7538379430770874 0.6705365777015686 0.0082572484388947487
0.8350142240524292 0.68193560838699341 0.0066021340899169445
0.91325545310974121 0.69296354055404663 0.0062664104625582695
0.9744800329208374 0.70382416248321533 0.0088666575029492378
0 0.70712238550186157 0.010895597748458385
0.00035527546424418688 0.7077518105506897 0.017675526440143585
0.0053810868412256241 0.70530474185943604 0.018632268533110619
0.017172615975141525 0.70108669996261597 0.012177621014416218
0.16081912815570831 0.69895327091217041 0.0083394665271043777
0.31834501028060913 0.70183014869689941 0.0051101087592542171
0.43715560436248779 0.71149134635925293 0.0052422615699470043
0.54068213701248169 0.71919804811477661 0.0051133548840880394
0.64130330085754395 0.72553145885467529 0.003957665991038084
0.7315673828125 0.73669373989105225 0.0032579610124230385
0.81957703828811646 0.748005211353302 0.0039215688593685627
0.90307420492172241 0.75693094730377197 0.0043500564061105251
0.96807754039764404 0.76402682065963745 0.0063847261480987072
0.00024312337336596102 0.78508514165878296 0.063108555972576141
0.0015534644480794668 0.78427082300186157 0.065310277044773102
0.0056313457898795605 0.7825590968132019 0.065420232713222504
0.048513062298297882 0.77841627597808838 0.06059805303812027
0.21938453614711761 0.77373200654983521 0.057908374816179276
0.3453211784362793 0.77311718463897705 0.040450870990753174
0.45185312628746033 0.77934587001800537 0.013844523578882217
0.54825258255004883 0.7863355278968811 0.011333569884300232
0.64160990715026855 0.79493772983551025 0.010527771897614002
0.72988814115524292 0.80644088983535767 0.0029224171303212643
0.81865257024765015 0.81639879941940308 0.0038982315454632044
0.89758771657943726 0.82218760251998901 0.0036119648721069098
0.96630954742431641 0.82811009883880615 0.0026847091503441334
0.022626301273703575 0.86583101749420166 0.17385996878147125
0.033332377672195435 0.86494719982147217 0.17382706701755524
0.088754095137119293 0.86479902267456055 0.17678220570087433
0.21732492744922638 0.8610079288482666 0.17957618832588196
0.32494747638702393 0.85598087310791016 0.17405496537685394
0.42597666382789612 0.85516607761383057 0.16304066777229309
0.51235592365264893 0.8548429012298584 0.1408458948135376
0.58524435758590698 0.85976153612136841 0.089564964175224304
0.65981626510620117 0.86812704801559448 0.046767037361860275
0.73908323049545288 0.87702852487564087 0.018040930852293968
0.8219292163848877 0.8848949670791626 0.0059171039611101151
0.89812558889389038 0.89009886980056763 0.0032215341925621033
0.96520757675170898 0.89454144239425659 0.00043892953544855118
0.28118526935577393 0.94416970014572144 0.33846303820610046
0.30840909481048584 0.94287276268005371 0.33787140250205994
0.35409420728683472 0.94219434261322021 0.33836016058921814
0.41126793622970581 0.93880796432495117 0.34034106135368347
0.46547698974609375 0.93588733673095703 0.34232813119888306
0.53661453723907471 0.93432486057281494 0.3454805314540863
0.59916645288467407 0.93337702751159668 0.34325981140136719
0.655936598777771 0.93548929691314697 0.31232663989067078
0.71299469470977783 0.94230097532272339 0.28654462099075317
0.77605199813842773 0.94657391309738159 0.23983623087406158
0.84142208099365234 0.95151644945144653 0.17392845451831818
0.90926492214202881 0.95681369304656982 0.11098607629537582
0.97287464141845703 0.96007007360458374 0.046065986156463623
0.01752999983727932 0.017721977084875107 0.069980338215827942
0.053150955587625504 0.019774224609136581 0.073280841112136841
0.10941963642835617 0.021792961284518242 0.072686135768890381
0.19617046415805817 0.014515581540763378 0.074477024376392365
0.30041712522506714 0.005715059582144022 0.074656210839748383
0.41563504934310913 0.0063969329930841923 0.084382854402065277
0.53608620166778564 0.0053660073317587376 0.085761338472366333
0.65058451890945435 0.0081621957942843437 0.079594902694225311
0.74349451065063477 0.0097462823614478111 0.070933140814304352
0.82203346490859985 0.011126753874123096 0.066186286509037018
0.88666093349456787 0.01042493898421526 0.058953125029802322
0.9464537501335144 0.0082671521231532097 0.051983404904603958
0.99179309606552124 0.039416637271642685 0.045422662049531937
0.011084148660302162 0.058738395571708679 0.074987001717090607
0.046588342636823654 0.06660151481628418 0.080586709082126617
0.11766088008880615 0.071487590670585632 0.075097642838954926
0.20882222056388855 0.065435953438282013 0.072293855249881744
0.31564611196517944 0.051609743386507034 0.07054544985294342
0.43132928013801575 0.029622619971632957 0.080701835453510284
0.54971557855606079 0.015976864844560623 0.082692332565784454
0.65777105093002319 0.011270350776612759 0.071543842554092407
0.7466202974319458 0.012708417139947414 0.064233176410198212
0.82181531190872192 0.013308940455317497 0.058134473860263824
0.88708233833312988 0.016778174787759781 0.051341276615858078
0.94661831855773926 0.03646513819694519 0.046616543084383011
0.98618173599243164 0.11090254038572311 0.048970989882946014
0.0062396330758929253 0.13606621325016022 0.080477409064769745
0.026463991031050682 0.14074888825416565 0.083994142711162567
0.11510802805423737 0.14670467376708984 0.075622573494911194
0.22632898390293121 0.15337464213371277 0.065052956342697144
0.33719107508659363 0.15158954262733459 0.058325391262769699
0.46031835675239563 0.13346239924430847 0.06831233948469162
0.57330882549285889 0.11014733463525772 0.069533437490463257
0.67107522487640381 0.089340820908546448 0.063051722943782806
0.75221139192581177 0.083444587886333466 0.058928158134222031
0.8254815936088562 0.084720790386199951 0.051972720772027969
0.8905753493309021 0.10873263329267502 0.047928005456924438
0.94830614328384399 0.15372790396213531 0.044769346714019775
0.98581492900848389 0.20234759151935577 0.047569289803504944
0.0078368093818426132 0.2338683158159256 0.083914361894130707
0.011868376284837723 0.23234172165393829 0.08429291844367981
0.073151275515556335 0.23803327977657318 0.079669460654258728
0.21977730095386505 0.25200706720352173 0.055856876075267792
0.35705578327178955 0.25786465406417847 0.034595414996147156
0.48918521404266357 0.25595322251319885 0.045919574797153473
0.59965568780899048 0.24647977948188782 0.05332883819937706
0.68868148326873779 0.23896710574626923 0.05688801035284996
0.76558196544647217 0.23261827230453491 0.05545106902718544
0.83422595262527466 0.2355821430683136 0.052245046943426132
0.89656674861907959 0.24530428647994995 0.045337557792663574
0.94986104965209961 0.26369556784629822 0.0451519675552845
0.98982453346252441 0.292398601770401 0.044492460787296295
0.0065021589398384094 0.33310645818710327 0.079484589397907257
0.0095678437501192093 0.33480948209762573 0.08363061398267746
0.033854167908430099 0.33814817667007446 0.082189835608005524
0.167753666639328 0.34553363919258118 0.057310052216053009
0.33399826288223267 0.35460615158081055 0.028102140873670578
0.48074853420257568 0.36255332827568054 0.017683755606412888
0.59675323963165283 0.3634016215801239 0.028060823678970337
0.69751358032226562 0.36491167545318604 0.040418244898319244
0.77667582035064697 0.36035838723182678 0.046618308871984482
0.84017693996429443 0.3556467592716217 0.046070966869592667
0.89940941333770752 0.35761460661888123 0.04261157289147377
0.9521220326423645 0.37176364660263062 0.045156173408031464
0.99231952428817749 0.38970306515693665 0.052760552614927292
0.0042881234548985958 0.42985278367996216 0.071832232177257538
0.01006215438246727 0.43027779459953308 0.07775503396987915
0.014036410488188267 0.42610228061676025 0.077086098492145538
0.10355010628700256 0.42605239152908325 0.058283306658267975
0.28382158279418945 0.43584749102592468 0.02983245812356472
0.44092053174972534 0.44712397456169128 0.012591059319674969
0.56663757562637329 0.45000332593917847 0.01477813720703125
0.67332667112350464 0.45002809166908264 0.016405651345849037
0.76849007606506348 0.45461580157279968 0.017412014305591583
0.8417823314666748 0.45796328783035278 0.029789509251713753
0.90422636270523071 0.46411144733428955 0.040172934532165527
0.95384770631790161 0.47304460406303406 0.056056167930364609
0.98838663101196289 0.48587328195571899 0.073347695171833038
0.0049882177263498306 0.50744032859802246 0.068693973124027252
0.0084615666419267654 0.50256586074829102 0.071902543306350708
0.011350967921316624 0.49792578816413879 0.070373088121414185
0.053536374121904373 0.49751365184783936 0.057216688990592957
0.22860254347324371 0.50335401296615601 0.036987006664276123
0.39388978481292725 0.51244914531707764 0.018296739086508751
0.52544856071472168 0.52097612619400024 0.013821261934936047
0.64082080125808716 0.52341926097869873 0.010373852215707302
0.74070221185684204 0.52753746509552002 0.012306048534810543
0.82244336605072021 0.53564131259918213 0.018392525613307953
0.89546686410903931 0.54842299222946167 0.02541809156537056
0.95522433519363403 0.5628477931022644 0.058736972510814667
0.98868018388748169 0.57308769226074219 0.096291996538639069
0.0047723809257149696 0.57282352447509766 0.064625762403011322
0.0075823464430868626 0.5683097243309021 0.071448668837547302
0.010776803828775883 0.56595098972320557 0.072334408760070801
0.027380939573049545 0.565673828125 0.063006006181240082
0.19094428420066833 0.56894761323928833 0.039232306182384491
0.3512389063835144 0.5775265097618103 0.018282137811183929
0.48092561960220337 0.58772385120391846 0.012680098414421082
0.60265374183654785 0.59447968006134033 0.011546819470822811
0.7052607536315918 0.59832668304443359 0.013398009352385998
0.79233121871948242 0.60544246435165405 0.012619871646165848
0.869404137134552 0.61746400594711304 0.010463549755513668
0.93983107805252075 0.63033580780029297 0.015524441376328468
0.98981928825378418 0.64725989103317261 0.067207783460617065
0.0014530854532495141 0.64081156253814697 0.05957508459687233
0.004911505151540041 0.64022117853164673 0.070957690477371216
0.0089714648202061653 0.63794159889221191 0.072817377746105194
0.020029149949550629 0.63459330797195435 0.065864577889442444
0.1714177131652832 0.63363242149353027 0.048876982182264328
0.32559347152709961 0.641376793384552 0.025545412674546242
0.45087975263595581 0.65090227127075195 0.01292628888040781
0.56729316711425781 0.65932339429855347 0.0093216095119714737
0.67035859823226929 0.66475385427474976 0.010897018946707249
0.76127541065216064 0.67245471477508545 0.008762778714299202
0.84262436628341675 0.68407100439071655 0.0069004283286631107
0.91817492246627808 0.69499003887176514 0.0067157372832298279
0.98001241683959961 0.7066313624382019 0.014911562204360962
0 0.71350258588790894 0.069823980331420898
0.0013908535474911332 0.71377456188201904 0.074132941663265228
0.0065502091310918331 0.71101230382919312 0.076218686997890472
0.020770277827978134 0.70632046461105347 0.074863031506538391
0.1743914783000946 0.70168179273605347 0.072218127548694611
0.32596355676651001 0.70326453447341919 0.04185466468334198
0.43917259573936462 0.71120494604110718 0.014616468921303749
0.54464328289031982 0.71920329332351685 0.0078909331932663918
0.64435142278671265 0.72742968797683716 0.0092124044895172119
0.73640084266662598 0.73796862363815308 0.0067369351163506508
0.82393360137939453 0.74992996454238892 0.0058469134382903576
0.9049069881439209 0.75975459814071655 0.0063145807944238186
0.96965670585632324 0.76672977209091187 0.0060545080341398716
0.0007736505358479917 0.78798168897628784 0.12143696844577789
0.0030393262859433889 0.78887045383453369 0.12658815085887909
0.008356400765478611 0.78580892086029053 0.12174799293279648
0.055800583213567734 0.78094053268432617 0.11691614985466003
0.2306751012802124 0.77646374702453613 0.12241905182600021
0.35823893547058105 0.77490043640136719 0.099212855100631714
0.45643171668052673 0.77870017290115356 0.046446409076452255
0.55044162273406982 0.78609257936477661 0.022194702178239822
0.64190328121185303 0.79422461986541748 0.013755184598267078
0.73116421699523926 0.80518579483032227 0.0085677951574325562
0.81780117750167847 0.81735658645629883 0.0059062731452286243
0.89745783805847168 0.82396876811981201 0.0047917831689119339
0.96510380506515503 0.82904565334320068 0.0046370411291718483
0.023923147469758987 0.86712455749511719 0.20791043341159821
0.030031511560082436 0.86664503812789917 0.2069336324930191
0.084481798112392426 0.86536133289337158 0.20766110718250275
0.20776784420013428 0.86161166429519653 0.20767208933830261
0.3233562707901001 0.85735541582107544 0.20890131592750549
0.4227755069732666 0.85484796762466431 0.19963072240352631
0.51419079303741455 0.85314857959747314 0.17868626117706299
0.59109818935394287 0.85914725065231323 0.13285338878631592
0.66255468130111694 0.86593776941299438 0.081237629055976868
0.73880356550216675 0.87494361400604248 0.029827671125531197
0.81833302974700928 0.88416749238967896 0.011149432510137558
0.89663589000701904 0.89079433679580688 0.0080301025882363319
0.96253097057342529 0.8950994610786438 0.0039279712364077568
0.27796661853790283 0.94498199224472046 0.35324388742446899
0.30483266711235046 0.94356495141983032 0.35445353388786316
0.34891924262046814 0.94263434410095215 0.35554990172386169
0.40503886342048645 0.94002002477645874 0.35867482423782349
0.46644127368927002 0.93684208393096924 0.36255031824111938
0.53126722574234009 0.93312340974807739 0.36294317245483398
0.59647315740585327 0.93218624591827393 0.36220058798789978
0.65763413906097412 0.93520104885101318 0.34223082661628723
0.71558785438537598 0.93980163335800171 0.31108468770980835
0.77703791856765747 0.94534909725189209 0.26449188590049744
0.84093689918518066 0.95060825347900391 0.2000129222869873
0.90826994180679321 0.95666921138763428 0.13393263518810272
0.97246390581130981 0.9603421688079834 0.061634108424186707
0.021650277078151703 0.019169243052601814 0.1477067768573761
0.078581057488918304 0.015761805698275566 0.16409775614738464
0.14793793857097626 0.012321082875132561 0.16662761569023132
0.20198528468608856 0.016303971409797668 0.15357810258865356
0.29011392593383789 0.016959695145487785 0.15228235721588135
0.40827271342277527 0.011231964454054832 0.15674538910388947
0.5313422679901123 0.0053375242277979851 0.15178075432777405
0.643482506275177 0.0041829277761280537 0.14370729029178619
0.73455804586410522 0.0065016504377126694 0.14464101195335388
0.81464099884033203 0.0072197560220956802 0.14080369472503662
0.88009428977966309 0.0070976107381284237 0.13792331516742706
0.94030088186264038 0.0080952513962984085 0.13430412113666534
0.98933440446853638 0.046382710337638855 0.13106150925159454
0.011884666979312897 0.06311633437871933 0.15290190279483795
0.049644097685813904 0.062140908092260361 0.16177046298980713
0.14907480776309967 0.057486440986394882 0.17451769113540649
0.21571777760982513 0.071508936583995819 0.16301146149635315
0.30883651971817017 0.069775089621543884 0.15502254664897919
0.43023863434791565 0.03196755051612854 0.15554651618003845
0.55088359117507935 0.016483621671795845 0.15454119443893433
0.65501773357391357 0.010739644058048725 0.15157727897167206
0.74164152145385742 0.012518175877630711 0.14831578731536865
0.81655418872833252 0.01160196028649807 0.14309991896152496
0.88178437948226929 0.01952006109058857 0.13865998387336731
0.93932199478149414 0.043167397379875183 0.13510558009147644
0.98268502950668335 0.11231999099254608 0.13668167591094971
0.0084891673177480698 0.14260901510715485 0.16090533137321472
0.03212776780128479 0.14969807863235474 0.16791468858718872
0.13148139417171478 0.15455940365791321 0.17973193526268005
0.2356967031955719 0.16340886056423187 0.17122918367385864
0.34194537997245789 0.16675424575805664 0.15819878876209259
0.46357271075248718 0.14722882211208344 0.15978354215621948
0.57764983177185059 0.12542636692523956 0.15837700664997101
0.67030304670333862 0.10863466560840607 0.15463422238826752
0.74903327226638794 0.098348535597324371 0.14879909157752991
0.82137531042098999 0.097678422927856445 0.1442464143037796
0.88374227285385132 0.11835932731628418 0.14133919775485992
0.93877518177032471 0.15027804672718048 0.13828608393669128
0.97904735803604126 0.19961754977703094 0.14043392241001129
0.0094608385115861893 0.24610264599323273 0.17663532495498657
0.019134776666760445 0.25303590297698975 0.18436300754547119
0.090181402862071991 0.26192614436149597 0.18849387764930725
0.23975074291229248 0.27137231826782227 0.17502224445343018
0.36929124593734741 0.27301791310310364 0.15772785246372223
0.49785143136978149 0.26969322562217712 0.16628049314022064
0.60454273223876953 0.26063951849937439 0.16749058663845062
0.68720996379852295 0.25286924839019775 0.16248835623264313
0.76042008399963379 0.23926527798175812 0.15387682616710663
0.82946938276290894 0.23825255036354065 0.14810307323932648
0.88907527923583984 0.24764901399612427 0.14328251779079437
0.94180583953857422 0.26642665266990662 0.13916446268558502
