luts/instant_pro/fuji_fp-100c_negative_++.cube
# Created by: G'MIC (https://gmic.eu)
TITLE "fuji_fp-100c_negative_++"
# LUT size
LUT_3D_SIZE 5
# Data domain
DOMAIN_MIN 0.0 0.0 0.0
DOMAIN_MAX 1.0 1.0 1.0
# LUT data points
0.27212008833885193 0.15134045481681824 0.17167292535305023
0.31151497364044189 0.1487613320350647 0.16499583423137665
0.47474253177642822 0.14643958210945129 0.16560986638069153
0.77781057357788086 0.21166735887527466 0.1718946099281311
0.99409580230712891 0.40916138887405396 0.19595181941986084
0.27072939276695251 0.19930410385131836 0.18260902166366577
0.31368303298950195 0.21441324055194855 0.17338742315769196
0.51204085350036621 0.26187071204185486 0.16787728667259216
0.78794997930526733 0.36039438843727112 0.16916367411613464
0.99263674020767212 0.50261878967285156 0.20889149606227875
0.25763148069381714 0.40208125114440918 0.2528403103351593
0.32319480180740356 0.42790880799293518 0.25596031546592712
0.53634941577911377 0.52792227268218994 0.18647004663944244
0.8145107626914978 0.6059228777885437 0.15832370519638062
0.98648494482040405 0.64756584167480469 0.24345327913761139
0.31124052405357361 0.68311911821365356 0.37811028957366943
0.41696298122406006 0.692138671875 0.39804881811141968
0.57198977470397949 0.72877216339111328 0.40173318982124329
0.80891209840774536 0.78566527366638184 0.35765242576599121
0.99553781747817993 0.81196296215057373 0.40342968702316284
0.73924398422241211 0.87297815084457397 0.59681600332260132
0.77443844079971313 0.8741118311882019 0.60315501689910889
0.84739893674850464 0.88047283887863159 0.61876207590103149
0.9192509651184082 0.89593201875686646 0.6176648736000061
0.99193227291107178 0.91251921653747559 0.61105537414550781
0.27521952986717224 0.14383101463317871 0.21967485547065735
0.31389039754867554 0.14876632392406464 0.22032037377357483
0.51467186212539673 0.12793481349945068 0.24776934087276459
0.80688434839248657 0.15549653768539429 0.28319045901298523
0.98546653985977173 0.40894123911857605 0.35245433449745178
0.27267295122146606 0.2056945264339447 0.24414977431297302
0.32869094610214233 0.23106271028518677 0.26763540506362915
0.54651921987533569 0.26206636428833008 0.27728325128555298
0.81168705224990845 0.35019731521606445 0.30393460392951965
0.98651832342147827 0.51085072755813599 0.35843014717102051
0.29054301977157593 0.43694338202476501 0.33441761136054993
0.35012391209602356 0.46090564131736755 0.33578336238861084
0.55969643592834473 0.54649960994720459 0.31818640232086182
0.81960934400558472 0.60326284170150757 0.32271501421928406
0.99143707752227783 0.65824609994888306 0.38587206602096558
0.35453486442565918 0.69329565763473511 0.4335382878780365
0.44176623225212097 0.70746302604675293 0.45306918025016785
0.60337191820144653 0.73351281881332397 0.47446504235267639
0.82097649574279785 0.79012429714202881 0.45383408665657043
0.99330043792724609 0.80645036697387695 0.47835680842399597
0.73554748296737671 0.87598675489425659 0.60959219932556152
0.7800406813621521 0.87584763765335083 0.6147729754447937
0.8525969386100769 0.88023233413696289 0.62952214479446411
0.93868046998977661 0.8965495228767395 0.62631535530090332
0.99607199430465698 0.90733796358108521 0.62497282028198242
0.32921618223190308 0.12531329691410065 0.40251508355140686
0.4451640248298645 0.12305585294961929 0.42714622616767883
0.62292718887329102 0.21111427247524261 0.46033063530921936
0.88438135385513306 0.28477725386619568 0.52081775665283203
0.99851363897323608 0.46767580509185791 0.54018867015838623
0.25574138760566711 0.20012591779232025 0.42716720700263977
0.40565580129623413 0.23273245990276337 0.45601609349250793
0.62934195995330811 0.358692467212677 0.48945167660713196
0.87471878528594971 0.44921842217445374 0.53727513551712036
0.99682557582855225 0.55532026290893555 0.55686020851135254
0.2333185076713562 0.43637505173683167 0.45906165242195129
0.34517982602119446 0.45910584926605225 0.48991870880126953
0.6195981502532959 0.57081276178359985 0.5258294939994812
0.83964890241622925 0.63487333059310913 0.55084347724914551
0.98774832487106323 0.68886059522628784 0.56872725486755371
0.41708976030349731 0.69523316621780396 0.5473821759223938
0.50818723440170288 0.71470886468887329 0.5547173023223877
0.6615675687789917 0.74556213617324829 0.57540535926818848
0.84536325931549072 0.79368060827255249 0.57445919513702393
0.98951739072799683 0.80894142389297485 0.58998054265975952
0.77008402347564697 0.87329930067062378 0.63451755046844482
0.7899775505065918 0.87734526395797729 0.63633102178573608
0.85954278707504272 0.88139170408248901 0.64620965719223022
0.95186924934387207 0.89526426792144775 0.65911126136779785
0.99803727865219116 0.90962231159210205 0.66203135251998901
0.54602617025375366 0.011191633529961109 0.63273853063583374
0.6487465500831604 0.0098757576197385788 0.64232856035232544
0.83619612455368042 0.24494482576847076 0.6678968071937561
0.93518054485321045 0.5415000319480896 0.65710949897766113
0.9987369179725647 0.64226603507995605 0.66238284111022949
0.47651493549346924 0.17000150680541992 0.64086347818374634
0.59321558475494385 0.19296729564666748 0.64887291193008423
0.80386465787887573 0.41126886010169983 0.66454291343688965
0.93360441923141479 0.62836325168609619 0.65905857086181641
0.99269527196884155 0.70645451545715332 0.6714288592338562
0.012932870537042618 0.39303880929946899 0.61925643682479858
0.21311205625534058 0.40821418166160583 0.63207900524139404
0.68983328342437744 0.55617058277130127 0.65875780582427979
0.92034214735031128 0.73463636636734009 0.66227573156356812
0.99461597204208374 0.77291494607925415 0.67670744657516479
0.2410605251789093 0.67407160997390747 0.61961609125137329
0.36702990531921387 0.68692880868911743 0.62480700016021729
0.61471366882324219 0.72482335567474365 0.64133572578430176
0.90366172790527344 0.80573129653930664 0.661041259765625
0.9982648491859436 0.83394747972488403 0.67993104457855225
0.67184603214263916 0.8719215989112854 0.66470479965209961
0.72186410427093506 0.87557047605514526 0.6662173867225647
0.83937114477157593 0.88249725103378296 0.67442625761032104
0.9676780104637146 0.8952031135559082 0.69647783041000366
0.99799203872680664 0.91243559122085571 0.71108293533325195
0.83170461654663086 0.087991394102573395 0.76506567001342773
0.87439483404159546 0.20177769660949707 0.76482522487640381
0.96525156497955322 0.46841242909431458 0.76249629259109497
0.99968832731246948 0.70371150970458984 0.75138872861862183
1 0.78438735008239746 0.74233788251876831
0.77678006887435913 0.27471697330474854 0.76339250802993774
0.83591991662979126 0.35266637802124023 0.76457512378692627
0.93937581777572632 0.5400959849357605 0.76037716865539551
0.99555587768554688 0.72637420892715454 0.75000196695327759
1 0.8058391809463501 0.74777036905288696
0.50547546148300171 0.37968823313713074 0.75852459669113159
0.64719295501708984 0.44944319128990173 0.75804120302200317
0.85796594619750977 0.61649847030639648 0.75523096323013306
0.99335616827011108 0.76880943775177002 0.75530976057052612
0.99968475103378296 0.83995515108108521 0.75592219829559326
0.0011217753635719419 0.68106317520141602 0.7389407753944397
0.001512430259026587 0.67549341917037964 0.74078655242919922
0.31548389792442322 0.65816062688827515 0.74664878845214844
0.94194000959396362 0.79291582107543945 0.75586432218551636
0.99888938665390015 0.88279491662979126 0.76991182565689087
0.57793444395065308 0.87465673685073853 0.75418102741241455
0.62093967199325562 0.87319004535675049 0.75222516059875488
0.7344890832901001 0.87555748224258423 0.74929130077362061
0.90677118301391602 0.88520151376724243 0.76457732915878296
0.99908113479614258 0.91611719131469727 0.78563159704208374
