luts/instant_pro/fuji_fp-3000b_negative_+++.cube
# Created by: G'MIC (https://gmic.eu)
TITLE "fuji_fp-3000b_negative_+++"
# LUT size
LUT_3D_SIZE 7
# Data domain
DOMAIN_MIN 0.0 0.0 0.0
DOMAIN_MAX 1.0 1.0 1.0
# LUT data points
0.11912251263856888 0.11912251263856888 0.11912251263856888
0.12156215310096741 0.12156215310096741 0.12156215310096741
0.15618917346000671 0.15618917346000671 0.15618917346000671
0.23516787588596344 0.23516787588596344 0.23516787588596344
0.35346585512161255 0.35346585512161255 0.35346585512161255
0.48630812764167786 0.48630812764167786 0.48630812764167786
0.60292011499404907 0.60292011499404907 0.60292011499404907
0.15281201899051666 0.15281201899051666 0.15281201899051666
0.15030486881732941 0.15030486881732941 0.15030486881732941
0.18451236188411713 0.18451236188411713 0.18451236188411713
0.26772329211235046 0.26772329211235046 0.26772329211235046
0.3859003484249115 0.3859003484249115 0.3859003484249115
0.51267367601394653 0.51267367601394653 0.51267367601394653
0.62049776315689087 0.62049776315689087 0.62049776315689087
0.23113031685352325 0.23113031685352325 0.23113031685352325
0.21861211955547333 0.21861211955547333 0.21861211955547333
0.24780787527561188 0.24780787527561188 0.24780787527561188
0.33385616540908813 0.33385616540908813 0.33385616540908813
0.44556650519371033 0.44556650519371033 0.44556650519371033
0.55479717254638672 0.55479717254638672 0.55479717254638672
0.64378517866134644 0.64378517866134644 0.64378517866134644
0.34557059407234192 0.34557059407234192 0.34557059407234192
0.32229757308959961 0.32229757308959961 0.32229757308959961
0.34001368284225464 0.34001368284225464 0.34001368284225464
0.41912305355072021 0.41912305355072021 0.41912305355072021
0.51789408922195435 0.51789408922195435 0.51789408922195435
0.60713231563568115 0.60713231563568115 0.60713231563568115
0.6718941330909729 0.6718941330909729 0.6718941330909729
0.47788390517234802 0.47788390517234802 0.47788390517234802
0.46350780129432678 0.46350780129432678 0.46350780129432678
0.47080731391906738 0.47080731391906738 0.47080731391906738
0.51977723836898804 0.51977723836898804 0.51977723836898804
0.58839583396911621 0.58839583396911621 0.58839583396911621
0.65049690008163452 0.65049690008163452 0.65049690008163452
0.69367098808288574 0.69367098808288574 0.69367098808288574
0.60412824153900146 0.60412824153900146 0.60412824153900146
0.60757821798324585 0.60757821798324585 0.60757821798324585
0.61067193746566772 0.61067193746566772 0.61067193746566772
0.62298840284347534 0.62298840284347534 0.62298840284347534
0.65137100219726562 0.65137100219726562 0.65137100219726562
0.68142598867416382 0.68142598867416382 0.68142598867416382
0.70618563890457153 0.70618563890457153 0.70618563890457153
0.69994419813156128 0.69994419813156128 0.69994419813156128
0.7081531286239624 0.7081531286239624 0.7081531286239624
0.70760667324066162 0.70760667324066162 0.70760667324066162
0.7021220326423645 0.7021220326423645 0.7021220326423645
0.70390099287033081 0.70390099287033081 0.70390099287033081
0.70933932065963745 0.70933932065963745 0.70933932065963745
0.71727287769317627 0.71727287769317627 0.71727287769317627
0.14934474229812622 0.14934474229812622 0.14934474229812622
0.15538635849952698 0.15538635849952698 0.15538635849952698
0.18814153969287872 0.18814153969287872 0.18814153969287872
0.26890978217124939 0.26890978217124939 0.26890978217124939
0.39290952682495117 0.39290952682495117 0.39290952682495117
0.51313132047653198 0.51313132047653198 0.51313132047653198
0.61525315046310425 0.61525315046310425 0.61525315046310425
0.17688125371932983 0.17688125371932983 0.17688125371932983
0.17889922857284546 0.17889922857284546 0.17889922857284546
0.21287406980991364 0.21287406980991364 0.21287406980991364
0.29847124218940735 0.29847124218940735 0.29847124218940735
0.41554805636405945 0.41554805636405945 0.41554805636405945
0.53354930877685547 0.53354930877685547 0.53354930877685547
0.63202017545700073 0.63202017545700073 0.63202017545700073
0.27106264233589172 0.27106264233589172 0.27106264233589172
0.2590082585811615 0.2590082585811615 0.2590082585811615
0.27997496724128723 0.27997496724128723 0.27997496724128723
0.36643478274345398 0.36643478274345398 0.36643478274345398
0.46993488073348999 0.46993488073348999 0.46993488073348999
0.57004189491271973 0.57004189491271973 0.57004189491271973
0.65317672491073608 0.65317672491073608 0.65317672491073608
0.40139436721801758 0.40139436721801758 0.40139436721801758
0.37548759579658508 0.37548759579658508 0.37548759579658508
0.37494403123855591 0.37494403123855591 0.37494403123855591
0.4479936957359314 0.4479936957359314 0.4479936957359314
0.53739452362060547 0.53739452362060547 0.53739452362060547
0.61657977104187012 0.61657977104187012 0.61657977104187012
0.67821717262268066 0.67821717262268066 0.67821717262268066
0.52650827169418335 0.52650827169418335 0.52650827169418335
0.50423336029052734 0.50423336029052734 0.50423336029052734
0.49285894632339478 0.49285894632339478 0.49285894632339478
0.53771811723709106 0.53771811723709106 0.53771811723709106
0.60113191604614258 0.60113191604614258 0.60113191604614258
0.65683186054229736 0.65683186054229736 0.65683186054229736
0.69837427139282227 0.69837427139282227 0.69837427139282227
0.63219118118286133 0.63219118118286133 0.63219118118286133
0.62490689754486084 0.62490689754486084 0.62490689754486084
0.61916434764862061 0.61916434764862061 0.61916434764862061
0.63201498985290527 0.63201498985290527 0.63201498985290527
0.65929234027862549 0.65929234027862549 0.65929234027862549
0.68735355138778687 0.68735355138778687 0.68735355138778687
0.71114730834960938 0.71114730834960938 0.71114730834960938
0.70635867118835449 0.70635867118835449 0.70635867118835449
0.70662581920623779 0.70662581920623779 0.70662581920623779
0.70445215702056885 0.70445215702056885 0.70445215702056885
0.70301496982574463 0.70301496982574463 0.70301496982574463
0.70636415481567383 0.70636415481567383 0.70636415481567383
0.71346545219421387 0.71346545219421387 0.71346545219421387
0.7228618860244751 0.7228618860244751 0.7228618860244751
0.22940598428249359 0.22940598428249359 0.22940598428249359
0.24690514802932739 0.24690514802932739 0.24690514802932739
0.28109508752822876 0.28109508752822876 0.28109508752822876
0.33529895544052124 0.33529895544052124 0.33529895544052124
0.45112046599388123 0.45112046599388123 0.45112046599388123
0.54390668869018555 0.54390668869018555 0.54390668869018555
0.62725895643234253 0.62725895643234253 0.62725895643234253
0.23376542329788208 0.23376542329788208 0.23376542329788208
0.26117700338363647 0.26117700338363647 0.26117700338363647
0.30091473460197449 0.30091473460197449 0.30091473460197449
0.36250936985015869 0.36250936985015869 0.36250936985015869
0.45725524425506592 0.45725524425506592 0.45725524425506592
0.55807662010192871 0.55807662010192871 0.55807662010192871
0.64178961515426636 0.64178961515426636 0.64178961515426636
0.31886553764343262 0.31886553764343262 0.31886553764343262
0.32870703935623169 0.32870703935623169 0.32870703935623169
0.34683561325073242 0.34683561325073242 0.34683561325073242
0.41574132442474365 0.41574132442474365 0.41574132442474365
0.5020369291305542 0.5020369291305542 0.5020369291305542
0.58871984481811523 0.58871984481811523 0.58871984481811523
0.66081202030181885 0.66081202030181885 0.66081202030181885
0.45968425273895264 0.45968425273895264 0.45968425273895264
0.44806745648384094 0.44806745648384094 0.44806745648384094
0.44351306557655334 0.44351306557655334 0.44351306557655334
0.49590790271759033 0.49590790271759033 0.49590790271759033
0.56574654579162598 0.56574654579162598 0.56574654579162598
0.62927234172821045 0.62927234172821045 0.62927234172821045
0.68270266056060791 0.68270266056060791 0.68270266056060791
0.58363986015319824 0.58363986015319824 0.58363986015319824
0.56911933422088623 0.56911933422088623 0.56911933422088623
0.55764281749725342 0.55764281749725342 0.55764281749725342
0.57990372180938721 0.57990372180938721 0.57990372180938721
0.62311959266662598 0.62311959266662598 0.62311959266662598
0.66552335023880005 0.66552335023880005 0.66552335023880005
0.70132923126220703 0.70132923126220703 0.70132923126220703
0.66278988122940063 0.66278988122940063 0.66278988122940063
0.65489953756332397 0.65489953756332397 0.65489953756332397
0.64697623252868652 0.64697623252868652 0.64697623252868652
0.65373849868774414 0.65373849868774414 0.65373849868774414
0.67238467931747437 0.67238467931747437 0.67238467931747437
0.69394016265869141 0.69394016265869141 0.69394016265869141
0.71472668647766113 0.71472668647766113 0.71472668647766113
0.71006953716278076 0.71006953716278076 0.71006953716278076
0.70578151941299438 0.70578151941299438 0.70578151941299438
0.70586621761322021 0.70586621761322021 0.70586621761322021
0.70709747076034546 0.70709747076034546 0.70709747076034546
0.71082812547683716 0.71082812547683716 0.71082812547683716
0.71729373931884766 0.71729373931884766 0.71729373931884766
0.72658568620681763 0.72658568620681763 0.72658568620681763
0.37213605642318726 0.37213605642318726 0.37213605642318726
0.39025002717971802 0.39025002717971802 0.39025002717971802
0.44267648458480835 0.44267648458480835 0.44267648458480835
0.47165960073471069 0.47165960073471069 0.47165960073471069
0.50960797071456909 0.50960797071456909 0.50960797071456909
0.58098632097244263 0.58098632097244263 0.58098632097244263
0.64533352851867676 0.64533352851867676 0.64533352851867676
0.38811266422271729 0.38811266422271729 0.38811266422271729
0.40347698330879211 0.40347698330879211 0.40347698330879211
0.44478780031204224 0.44478780031204224 0.44478780031204224
0.48302954435348511 0.48302954435348511 0.48302954435348511
0.52726185321807861 0.52726185321807861 0.52726185321807861
0.5957525372505188 0.5957525372505188 0.5957525372505188
0.65794867277145386 0.65794867277145386 0.65794867277145386
0.3917635977268219 0.3917635977268219 0.3917635977268219
0.42090174555778503 0.42090174555778503 0.42090174555778503
0.45070129632949829 0.45070129632949829 0.45070129632949829
0.52010041475296021 0.52010041475296021 0.52010041475296021
0.56564617156982422 0.56564617156982422 0.56564617156982422
0.62155789136886597 0.62155789136886597 0.62155789136886597
0.67409509420394897 0.67409509420394897 0.67409509420394897
0.4941820502281189 0.4941820502281189 0.4941820502281189
0.5066453218460083 0.5066453218460083 0.5066453218460083
0.52240407466888428 0.52240407466888428 0.52240407466888428
0.56599903106689453 0.56599903106689453 0.56599903106689453
0.61193960905075073 0.61193960905075073 0.61193960905075073
0.65294581651687622 0.65294581651687622 0.65294581651687622
0.69140052795410156 0.69140052795410156 0.69140052795410156
0.61419969797134399 0.61419969797134399 0.61419969797134399
0.62117689847946167 0.62117689847946167 0.62117689847946167
0.62620747089385986 0.62620747089385986 0.62620747089385986
0.63179045915603638 0.63179045915603638 0.63179045915603638
0.65396535396575928 0.65396535396575928 0.65396535396575928
0.68021291494369507 0.68021291494369507 0.68021291494369507
0.70613676309585571 0.70613676309585571 0.70613676309585571
0.68211984634399414 0.68211984634399414 0.68211984634399414
0.68323147296905518 0.68323147296905518 0.68323147296905518
0.68131369352340698 0.68131369352340698 0.68131369352340698
0.68143266439437866 0.68143266439437866 0.68143266439437866
0.68922930955886841 0.68922930955886841 0.68922930955886841
0.70202827453613281 0.70202827453613281 0.70202827453613281
0.71719038486480713 0.71719038486480713 0.71719038486480713
0.71670091152191162 0.71670091152191162 0.71670091152191162
0.71609383821487427 0.71609383821487427 0.71609383821487427
0.71567785739898682 0.71567785739898682 0.71567785739898682
0.71522241830825806 0.71522241830825806 0.71522241830825806
0.71621358394622803 0.71621358394622803 0.71621358394622803
0.71986299753189087 0.71986299753189087 0.71986299753189087
0.72721576690673828 0.72721576690673828 0.72721576690673828
0.5275687575340271 0.5275687575340271 0.5275687575340271
0.54026377201080322 0.54026377201080322 0.54026377201080322
0.57695609331130981 0.57695609331130981 0.57695609331130981
0.61604225635528564 0.61604225635528564 0.61604225635528564
0.61486160755157471 0.61486160755157471 0.61486160755157471
0.63663321733474731 0.63663321733474731 0.63663321733474731
0.67182904481887817 0.67182904481887817 0.67182904481887817
0.55653631687164307 0.55653631687164307 0.55653631687164307
0.55399119853973389 0.55399119853973389 0.55399119853973389
0.57880252599716187 0.57880252599716187 0.57880252599716187
0.61535382270812988 0.61535382270812988 0.61535382270812988
0.62637889385223389 0.62637889385223389 0.62637889385223389
0.64883273839950562 0.64883273839950562 0.64883273839950562
0.68174076080322266 0.68174076080322266 0.68174076080322266
0.5552753210067749 0.5552753210067749 0.5552753210067749
0.54651337862014771 0.54651337862014771 0.54651337862014771
0.57573926448822021 0.57573926448822021 0.57573926448822021
0.62402963638305664 0.62402963638305664 0.62402963638305664
0.6438634991645813 0.6438634991645813 0.6438634991645813
0.66475111246109009 0.66475111246109009 0.66475111246109009
0.69295156002044678 0.69295156002044678 0.69295156002044678
0.57064557075500488 0.57064557075500488 0.57064557075500488
0.57474768161773682 0.57474768161773682 0.57474768161773682
0.60377979278564453 0.60377979278564453 0.60377979278564453
0.6383935809135437 0.6383935809135437 0.6383935809135437
0.66219121217727661 0.66219121217727661 0.66219121217727661
0.68146985769271851 0.68146985769271851 0.68146985769271851
0.70372158288955688 0.70372158288955688 0.70372158288955688
0.63883030414581299 0.63883030414581299 0.63883030414581299
0.64870280027389526 0.64870280027389526 0.64870280027389526
0.66159641742706299 0.66159641742706299 0.66159641742706299
0.67161864042282104 0.67161864042282104 0.67161864042282104
0.68311470746994019 0.68311470746994019 0.68311470746994019
0.69626724720001221 0.69626724720001221 0.69626724720001221
0.71209418773651123 0.71209418773651123 0.71209418773651123
0.69036930799484253 0.69036930799484253 0.69036930799484253
0.69650739431381226 0.69650739431381226 0.69650739431381226
0.69985544681549072 0.69985544681549072 0.69985544681549072
0.70068413019180298 0.70068413019180298 0.70068413019180298
0.70325201749801636 0.70325201749801636 0.70325201749801636
0.70892620086669922 0.70892620086669922 0.70892620086669922
0.71848708391189575 0.71848708391189575 0.71848708391189575
0.71913725137710571 0.71913725137710571 0.71913725137710571
0.72157949209213257 0.72157949209213257 0.72157949209213257
0.7221868634223938 0.7221868634223938 0.7221868634223938
0.72110778093338013 0.72110778093338013 0.72110778093338013
0.71963202953338623 0.71963202953338623 0.71963202953338623
0.72024679183959961 0.72024679183959961 0.72024679183959961
0.72525233030319214 0.72525233030319214 0.72525233030319214
0.64274019002914429 0.64274019002914429 0.64274019002914429
0.65314066410064697 0.65314066410064697 0.65314066410064697
0.66966187953948975 0.66966187953948975 0.66966187953948975
0.68863594532012939 0.68863594532012939 0.68863594532012939
0.68681889772415161 0.68681889772415161 0.68681889772415161
0.68610191345214844 0.68610191345214844 0.68610191345214844
0.69801038503646851 0.69801038503646851 0.69801038503646851
0.66370201110839844 0.66370201110839844 0.66370201110839844
0.66229861974716187 0.66229861974716187 0.66229861974716187
0.66878455877304077 0.66878455877304077 0.66878455877304077
0.68538069725036621 0.68538069725036621 0.68538069725036621
0.69040429592132568 0.69040429592132568 0.69040429592132568
0.6924591064453125 0.6924591064453125 0.6924591064453125
0.70469808578491211 0.70469808578491211 0.70469808578491211
0.65996575355529785 0.65996575355529785 0.65996575355529785
0.65418392419815063 0.65418392419815063 0.65418392419815063
0.66227298974990845 0.66227298974990845 0.66227298974990845
0.68170523643493652 0.68170523643493652 0.68170523643493652
0.69162911176681519 0.69162911176681519 0.69162911176681519
0.69849270582199097 0.69849270582199097 0.69849270582199097
0.71090161800384521 0.71090161800384521 0.71090161800384521
0.65482395887374878 0.65482395887374878 0.65482395887374878
0.65549337863922119 0.65549337863922119 0.65549337863922119
0.66792827844619751 0.66792827844619751 0.66792827844619751
0.68485909700393677 0.68485909700393677 0.68485909700393677
0.69587039947509766 0.69587039947509766 0.69587039947509766
0.70397865772247314 0.70397865772247314 0.70397865772247314
0.71515804529190063 0.71515804529190063 0.71515804529190063
0.67555207014083862 0.67555207014083862 0.67555207014083862
0.68077570199966431 0.68077570199966431 0.68077570199966431
0.68939077854156494 0.68939077854156494 0.68939077854156494
0.69763052463531494 0.69763052463531494 0.69763052463531494
0.70336192846298218 0.70336192846298218 0.70336192846298218
0.70874977111816406 0.70874977111816406 0.70874977111816406
0.71742480993270874 0.71742480993270874 0.71742480993270874
0.70029598474502563 0.70029598474502563 0.70029598474502563
0.705547034740448 0.705547034740448 0.705547034740448
0.70968902111053467 0.70968902111053467 0.70968902111053467
0.71156096458435059 0.71156096458435059 0.71156096458435059
0.71209222078323364 0.71209222078323364 0.71209222078323364
0.71347492933273315 0.71347492933273315 0.71347492933273315
0.71875417232513428 0.71875417232513428 0.71875417232513428
0.71836018562316895 0.71836018562316895 0.71836018562316895
0.72183674573898315 0.72183674573898315 0.72183674573898315
0.72383677959442139 0.72383677959442139 0.72383677959442139
0.72318786382675171 0.72318786382675171 0.72318786382675171
0.72062772512435913 0.72062772512435913 0.72062772512435913
0.71926355361938477 0.71926355361938477 0.71926355361938477
0.72191357612609863 0.72191357612609863 0.72191357612609863
0.71336883306503296 0.71336883306503296 0.71336883306503296
0.71672159433364868 0.71672159433364868 0.71672159433364868
0.71588903665542603 0.71588903665542603 0.71588903665542603
0.71903723478317261 0.71903723478317261 0.71903723478317261
0.7188228964805603 0.7188228964805603 0.7188228964805603
0.71554088592529297 0.71554088592529297 0.71554088592529297
0.71764254570007324 0.71764254570007324 0.71764254570007324
0.72314584255218506 0.72314584255218506 0.72314584255218506
0.72036451101303101 0.72036451101303101 0.72036451101303101
0.71297240257263184 0.71297240257263184 0.71297240257263184
0.71527445316314697 0.71527445316314697 0.71527445316314697
0.71850490570068359 0.71850490570068359 0.71850490570068359
0.71846407651901245 0.71846407651901245 0.71846407651901245
0.72192740440368652 0.72192740440368652 0.72192740440368652
0.71784788370132446 0.71784788370132446 0.71784788370132446
0.71426355838775635 0.71426355838775635 0.71426355838775635
0.70995712280273438 0.70995712280273438 0.70995712280273438
0.7133147120475769 0.7133147120475769 0.7133147120475769
0.71697866916656494 0.71697866916656494 0.71697866916656494
0.71900999546051025 0.71900999546051025 0.71900999546051025
0.72448897361755371 0.72448897361755371 0.72448897361755371
0.7097771167755127 0.7097771167755127 0.7097771167755127
0.70935112237930298 0.70935112237930298 0.70935112237930298
0.70918053388595581 0.70918053388595581 0.70918053388595581
0.71305388212203979 0.71305388212203979 0.71305388212203979
0.71633440256118774 0.71633440256118774 0.71633440256118774
0.71915364265441895 0.71915364265441895 0.71915364265441895
0.72459930181503296 0.72459930181503296 0.72459930181503296
0.70878571271896362 0.70878571271896362 0.70878571271896362
0.71070653200149536 0.71070653200149536 0.71070653200149536
0.71315062046051025 0.71315062046051025 0.71315062046051025
0.71537846326828003 0.71537846326828003 0.71537846326828003
0.71633690595626831 0.71633690595626831 0.71633690595626831
0.71806949377059937 0.71806949377059937 0.71806949377059937
0.72263294458389282 0.72263294458389282 0.72263294458389282
0.71360945701599121 0.71360945701599121 0.71360945701599121
0.71648883819580078 0.71648883819580078 0.71648883819580078
0.71917039155960083 0.71917039155960083 0.71917039155960083
0.7196190357208252 0.7196190357208252 0.7196190357208252
0.71812891960144043 0.71812891960144043 0.71812891960144043
0.71764707565307617 0.71764707565307617 0.71764707565307617
0.7202455997467041 0.7202455997467041 0.7202455997467041
0.71958929300308228 0.71958929300308228 0.71958929300308228
0.72326189279556274 0.72326189279556274 0.72326189279556274
0.72536826133728027 0.72536826133728027 0.72536826133728027
0.72503840923309326 0.72503840923309326 0.72503840923309326
0.72187298536300659 0.72187298536300659 0.72187298536300659
0.71912211179733276 0.71912211179733276 0.71912211179733276
0.72029203176498413 0.72029203176498413 0.72029203176498413
