luts/instant_pro/fuji_fp-3000b_negative_+.cube
# Created by: G'MIC (https://gmic.eu)
TITLE "fuji_fp-3000b_negative_+"
# LUT size
LUT_3D_SIZE 5
# Data domain
DOMAIN_MIN 0.0 0.0 0.0
DOMAIN_MAX 1.0 1.0 1.0
# LUT data points
0.037950240075588226 0.037950240075588226 0.037950240075588226
0.057359881699085236 0.057359881699085236 0.057359881699085236
0.18741348385810852 0.18741348385810852 0.18741348385810852
0.4326876699924469 0.4326876699924469 0.4326876699924469
0.66572475433349609 0.66572475433349609 0.66572475433349609
0.085014253854751587 0.085014253854751587 0.085014253854751587
0.1322711855173111 0.1322711855173111 0.1322711855173111
0.30914443731307983 0.30914443731307983 0.30914443731307983
0.51586616039276123 0.51586616039276123 0.51586616039276123
0.70522177219390869 0.70522177219390869 0.70522177219390869
0.33645731210708618 0.33645731210708618 0.33645731210708618
0.33523103594779968 0.33523103594779968 0.33523103594779968
0.45734709501266479 0.45734709501266479 0.45734709501266479
0.62517881393432617 0.62517881393432617 0.62517881393432617
0.76760226488113403 0.76760226488113403 0.76760226488113403
0.62558937072753906 0.62558937072753906 0.62558937072753906
0.60089868307113647 0.60089868307113647 0.60089868307113647
0.63809549808502197 0.63809549808502197 0.63809549808502197
0.73330879211425781 0.73330879211425781 0.73330879211425781
0.83869785070419312 0.83869785070419312 0.83869785070419312
0.84769231081008911 0.84769231081008911 0.84769231081008911
0.82931715250015259 0.82931715250015259 0.82931715250015259
0.82813370227813721 0.82813370227813721 0.82813370227813721
0.86351668834686279 0.86351668834686279 0.86351668834686279
0.92730128765106201 0.92730128765106201 0.92730128765106201
0.081523910164833069 0.081523910164833069 0.081523910164833069
0.13914158940315247 0.13914158940315247 0.13914158940315247
0.29692736268043518 0.29692736268043518 0.29692736268043518
0.50692504644393921 0.50692504644393921 0.50692504644393921
0.69387990236282349 0.69387990236282349 0.69387990236282349
0.16535617411136627 0.16535617411136627 0.16535617411136627
0.20443616807460785 0.20443616807460785 0.20443616807460785
0.37099829316139221 0.37099829316139221 0.37099829316139221
0.54450291395187378 0.54450291395187378 0.54450291395187378
0.71183204650878906 0.71183204650878906 0.71183204650878906
0.46317115426063538 0.46317115426063538 0.46317115426063538
0.43299651145935059 0.43299651145935059 0.43299651145935059
0.5014452338218689 0.5014452338218689 0.5014452338218689
0.63555067777633667 0.63555067777633667 0.63555067777633667
0.76948720216751099 0.76948720216751099 0.76948720216751099
0.67601162195205688 0.67601162195205688 0.67601162195205688
0.66153818368911743 0.66153818368911743 0.66153818368911743
0.67246901988983154 0.67246901988983154 0.67246901988983154
0.74115574359893799 0.74115574359893799 0.74115574359893799
0.84130042791366577 0.84130042791366577 0.84130042791366577
0.85498595237731934 0.85498595237731934 0.85498595237731934
0.85198312997817993 0.85198312997817993 0.85198312997817993
0.84546571969985962 0.84546571969985962 0.84546571969985962
0.86650758981704712 0.86650758981704712 0.86650758981704712
0.92444926500320435 0.92444926500320435 0.92444926500320435
0.35370489954948425 0.35370489954948425 0.35370489954948425
0.4303244948387146 0.4303244948387146 0.4303244948387146
0.51507866382598877 0.51507866382598877 0.51507866382598877
0.61676180362701416 0.61676180362701416 0.61676180362701416
0.75076740980148315 0.75076740980148315 0.75076740980148315
0.40830227732658386 0.40830227732658386 0.40830227732658386
0.46539720892906189 0.46539720892906189 0.46539720892906189
0.54785013198852539 0.54785013198852539 0.54785013198852539
0.64751839637756348 0.64751839637756348 0.64751839637756348
0.75300008058547974 0.75300008058547974 0.75300008058547974
0.55752503871917725 0.55752503871917725 0.55752503871917725
0.57024866342544556 0.57024866342544556 0.57024866342544556
0.6098555326461792 0.6098555326461792 0.6098555326461792
0.68981063365936279 0.68981063365936279 0.68981063365936279
0.79483199119567871 0.79483199119567871 0.79483199119567871
0.7466621994972229 0.7466621994972229 0.7466621994972229
0.7449944019317627 0.7449944019317627 0.7449944019317627
0.7303357720375061 0.7303357720375061 0.7303357720375061
0.7661210298538208 0.7661210298538208 0.7661210298538208
0.85615837574005127 0.85615837574005127 0.85615837574005127
0.88457423448562622 0.88457423448562622 0.88457423448562622
0.89182007312774658 0.89182007312774658 0.89182007312774658
0.87993162870407104 0.87993162870407104 0.87993162870407104
0.88002800941467285 0.88002800941467285 0.88002800941467285
0.9267803430557251 0.9267803430557251 0.9267803430557251
0.65466594696044922 0.65466594696044922 0.65466594696044922
0.68937498331069946 0.68937498331069946 0.68937498331069946
0.73246204853057861 0.73246204853057861 0.73246204853057861
0.75573259592056274 0.75573259592056274 0.75573259592056274
0.81880158185958862 0.81880158185958862 0.81880158185958862
0.69279956817626953 0.69279956817626953 0.69279956817626953
0.69804078340530396 0.69804078340530396 0.69804078340530396
0.74528211355209351 0.74528211355209351 0.74528211355209351
0.76998937129974365 0.76998937129974365 0.76998937129974365
0.81525790691375732 0.81525790691375732 0.81525790691375732
0.6789059042930603 0.6789059042930603 0.6789059042930603
0.69631361961364746 0.69631361961364746 0.69631361961364746
0.74697458744049072 0.74697458744049072 0.74697458744049072
0.78866732120513916 0.78866732120513916 0.78866732120513916
0.84912699460983276 0.84912699460983276 0.84912699460983276
0.78370118141174316 0.78370118141174316 0.78370118141174316
0.79191356897354126 0.79191356897354126 0.79191356897354126
0.79518157243728638 0.79518157243728638 0.79518157243728638
0.82250779867172241 0.82250779867172241 0.82250779867172241
0.88526064157485962 0.88526064157485962 0.88526064157485962
0.90618324279785156 0.90618324279785156 0.90618324279785156
0.91963380575180054 0.91963380575180054 0.91963380575180054
0.91366434097290039 0.91366434097290039 0.91366434097290039
0.90393173694610596 0.90393173694610596 0.90393173694610596
0.93642055988311768 0.93642055988311768 0.93642055988311768
0.88572794198989868 0.88572794198989868 0.88572794198989868
0.89449828863143921 0.89449828863143921 0.89449828863143921
0.90890848636627197 0.90890848636627197 0.90890848636627197
0.9292181134223938 0.9292181134223938 0.9292181134223938
0.93220275640487671 0.93220275640487671 0.93220275640487671
0.88710033893585205 0.88710033893585205 0.88710033893585205
0.89665329456329346 0.89665329456329346 0.89665329456329346
0.90348911285400391 0.90348911285400391 0.90348911285400391
0.91213387250900269 0.91213387250900269 0.91213387250900269
0.92448347806930542 0.92448347806930542 0.92448347806930542
0.86293923854827881 0.86293923854827881 0.86293923854827881
0.88775569200515747 0.88775569200515747 0.88775569200515747
0.89271444082260132 0.89271444082260132 0.89271444082260132
0.91399896144866943 0.91399896144866943 0.91399896144866943
0.95371413230895996 0.95371413230895996 0.95371413230895996
0.88284760713577271 0.88284760713577271 0.88284760713577271
0.89410078525543213 0.89410078525543213 0.89410078525543213
0.89507955312728882 0.89507955312728882 0.89507955312728882
0.91517484188079834 0.91517484188079834 0.91517484188079834
0.95752149820327759 0.95752149820327759 0.95752149820327759
0.95122301578521729 0.95122301578521729 0.95122301578521729
0.96061879396438599 0.96061879396438599 0.96061879396438599
0.95886605978012085 0.95886605978012085 0.95886605978012085
0.95500975847244263 0.95500975847244263 0.95500975847244263
0.97468400001525879 0.97468400001525879 0.97468400001525879
