luts/instant_pro/fuji_fp-100c_-.cube
# Created by: G'MIC (https://gmic.eu)
TITLE "fuji_fp-100c_-"
# LUT size
LUT_3D_SIZE 7
# Data domain
DOMAIN_MIN 0.0 0.0 0.0
DOMAIN_MAX 1.0 1.0 1.0
# LUT data points
0.028023872524499893 0.037385243922472 0.047896411269903183
0.11796075850725174 0.03959178552031517 0.037574827671051025
0.29101979732513428 0.016872840002179146 0.042047299444675446
0.5105736255645752 0.0089362645521759987 0.042132716625928879
0.72257328033447266 0.0078431377187371254 0.038468558341264725
0.8854871392250061 0.005646395031362772 0.039142489433288574
0.99135959148406982 0.071739569306373596 0.049199916422367096
0.010610857047140598 0.13825520873069763 0.047216735780239105
0.13476273417472839 0.15150618553161621 0.029663879424333572
0.32966503500938416 0.15090464055538177 0.032862883061170578
0.54784035682678223 0.12921671569347382 0.037695057690143585
0.73748284578323364 0.098290495574474335 0.034689497202634811
0.89561289548873901 0.13425630331039429 0.033584922552108765
0.99405556917190552 0.22535121440887451 0.056574337184429169
0.0078431377187371254 0.31207868456840515 0.069715611636638641
0.08388209342956543 0.31508901715278625 0.049631334841251373
0.32741570472717285 0.33527904748916626 0.01254532765597105
0.57249516248703003 0.34408724308013916 0.016155736520886421
0.76599603891372681 0.35548561811447144 0.029060289263725281
0.90926730632781982 0.3663465678691864 0.041282430291175842
0.99667137861251831 0.3949572741985321 0.078616529703140259
0.0035047193523496389 0.47088518738746643 0.078657574951648712
0.028209296986460686 0.47045305371284485 0.068295858800411224
0.28594383597373962 0.48060354590415955 0.023614890873432159
0.53830409049987793 0.50085794925689697 0.0046638189814984798
0.74711298942565918 0.51486021280288696 0.0061041438020765781
0.90755146741867065 0.53996556997299194 0.021064594388008118
0.99422001838684082 0.56811660528182983 0.1385742574930191
0.0033659541513770819 0.61969292163848877 0.089898340404033661
0.026197232306003571 0.61899739503860474 0.08503645658493042
0.29547330737113953 0.61659419536590576 0.068902604281902313
0.51192164421081543 0.62739723920822144 0.010440212674438953
0.70414286851882935 0.65062999725341797 0.011659390293061733
0.86815947294235229 0.66969794034957886 0.012171472422778606
0.98737019300460815 0.69283407926559448 0.025470299646258354
0.054221644997596741 0.76872748136520386 0.15155370533466339
0.19564250111579895 0.76175069808959961 0.15260714292526245
0.37936300039291382 0.75924420356750488 0.14846009016036987
0.53739136457443237 0.75966686010360718 0.10743951052427292
0.69184792041778564 0.77576380968093872 0.016388043761253357
0.850272536277771 0.79635286331176758 0.011231949552893639
0.96892076730728149 0.81483417749404907 0.0039337608031928539
0.45428264141082764 0.91540199518203735 0.38532537221908569
0.49464395642280579 0.91229099035263062 0.38469591736793518
0.57607156038284302 0.90971165895462036 0.38784760236740112
0.67169898748397827 0.90989381074905396 0.39011028409004211
0.77247846126556396 0.91719716787338257 0.35999104380607605
0.87466329336166382 0.92999094724655151 0.2967667281627655
0.98044222593307495 0.94263178110122681 0.17879371345043182
0.029998764395713806 0.029635291546583176 0.14363674819469452
0.15359173715114594 0.019139682874083519 0.16227880120277405
0.27643421292304993 0.047557275742292404 0.15274906158447266
0.50298136472702026 0.01279138308018446 0.16207866370677948
0.72242265939712524 0.007326043676584959 0.16339458525180817
0.8793489933013916 0.0060398625209927559 0.15716296434402466
0.98604518175125122 0.077453106641769409 0.16220995783805847
0.0063479254022240639 0.1535869687795639 0.17378424108028412
0.14795352518558502 0.16395151615142822 0.17863087356090546
0.33336815237998962 0.17703738808631897 0.17733889818191528
0.55315905809402466 0.14771020412445068 0.17501883208751678
0.73758161067962646 0.12659819424152374 0.17084315419197083
0.88780152797698975 0.13417574763298035 0.17047560214996338
0.98481988906860352 0.22584047913551331 0.17817868292331696
0.0049924063496291637 0.34491422772407532 0.21267381310462952
0.10459674149751663 0.34924265742301941 0.1930243968963623
0.36511614918708801 0.35954809188842773 0.16288959980010986
0.59769910573959351 0.36392554640769958 0.16434058547019958
0.77611476182937622 0.35795831680297852 0.18058109283447266
0.9044116735458374 0.36278605461120605 0.18093791604042053
0.99375718832015991 0.39230531454086304 0.18947294354438782
0.0016475751763209701 0.51117736101150513 0.20056574046611786
0.036899924278259277 0.50456184148788452 0.19373801350593567
0.32287883758544922 0.50575429201126099 0.1653800904750824
0.55516582727432251 0.51942920684814453 0.095398411154747009
0.75624781847000122 0.53161132335662842 0.079272568225860596
0.90681105852127075 0.54852497577667236 0.17244072258472443
0.99161386489868164 0.56909972429275513 0.24815946817398071
0.0039622737094759941 0.64214783906936646 0.20446589589118958
0.040822528302669525 0.63962268829345703 0.19644530117511749
0.30655813217163086 0.64192181825637817 0.17873752117156982
0.51724207401275635 0.64443600177764893 0.12813675403594971
0.7068101167678833 0.65975755453109741 0.033030670136213303
0.87391608953475952 0.67225396633148193 0.022158289328217506
0.98844367265701294 0.6978943943977356 0.16448293626308441
0.056017648428678513 0.77761805057525635 0.23525185883045197
0.21306866407394409 0.77347004413604736 0.24019265174865723
0.38341477513313293 0.76823604106903076 0.23591108620166779
0.54139584302902222 0.76757574081420898 0.2121225893497467
0.69943082332611084 0.78287726640701294 0.11744320392608643
0.84434729814529419 0.79747378826141357 0.025857709348201752
0.97390073537826538 0.81443947553634644 0.011583141051232815
0.44684323668479919 0.917449951171875 0.41861322522163391
0.49255836009979248 0.9161231517791748 0.42111355066299438
0.57117307186126709 0.91095817089080811 0.42758581042289734
0.67078584432601929 0.91078644990921021 0.43122813105583191
0.77002418041229248 0.91766119003295898 0.41013109683990479
0.87532240152359009 0.93011635541915894 0.35925799608230591
0.98007094860076904 0.9418829083442688 0.24915100634098053
0.014583004638552666 0.02911560982465744 0.32442975044250488
0.18181723356246948 0.011400245130062103 0.35436299443244934
0.41015845537185669 0.0050269481725990772 0.37547338008880615
0.49297523498535156 0.067282766103744507 0.33509719371795654
0.68467253446578979 0.030390242114663124 0.32895258069038391
0.8644721508026123 0.0058750375173985958 0.30536416172981262
0.98694920539855957 0.032224826514720917 0.29524540901184082
0.0045465058647096157 0.14958208799362183 0.32939633727073669
0.16934794187545776 0.15273723006248474 0.35429409146308899
0.42339488863945007 0.13696405291557312 0.39552611112594604
0.5362963080406189 0.19763481616973877 0.35889467597007751
0.72308880090713501 0.14386989176273346 0.33365491032600403
0.88317388296127319 0.11761045455932617 0.31240913271903992
0.98790913820266724 0.19810532033443451 0.31080052256584167
0.0021197600290179253 0.34775903820991516 0.37470230460166931
0.1360219419002533 0.37012770771980286 0.38964742422103882
0.41309484839439392 0.39649322628974915 0.40694987773895264
0.60902410745620728 0.39263015985488892 0.39223423600196838
0.76534396409988403 0.36599186062812805 0.36210054159164429
0.89660829305648804 0.36109015345573425 0.34084346890449524
0.982948899269104 0.38998380303382874 0.34211060404777527
0.0044348770752549171 0.56127232313156128 0.41269642114639282
0.14674848318099976 0.5644037127494812 0.40843656659126282
0.39562976360321045 0.55624818801879883 0.39431118965148926
0.59856832027435303 0.5536879301071167 0.3783411979675293
0.77140074968338013 0.55911558866500854 0.37132781744003296
0.9049648642539978 0.56738793849945068 0.38704898953437805
0.98562729358673096 0.57013332843780518 0.39344105124473572
0.038026474416255951 0.68587452173233032 0.39033865928649902
0.13316203653812408 0.6816706657409668 0.37692990899085999
0.37383574247360229 0.67476516962051392 0.37190330028533936
0.55064058303833008 0.66432851552963257 0.34858870506286621
0.72945278882980347 0.67891418933868408 0.30385681986808777
0.87654238939285278 0.68844687938690186 0.28936108946800232
0.97959953546524048 0.71561294794082642 0.38088151812553406
0.081568308174610138 0.79647254943847656 0.3774573802947998
0.23449890315532684 0.79216152429580688 0.38211950659751892
0.40096631646156311 0.78579813241958618 0.37457829713821411
0.55860555171966553 0.78139567375183105 0.36900633573532104
0.70673561096191406 0.78992378711700439 0.32542097568511963
0.8496745228767395 0.8002888560295105 0.24440333247184753
0.97696799039840698 0.81522506475448608 0.20902147889137268
0.44151833653450012 0.92435246706008911 0.49830299615859985
0.47969341278076172 0.92063146829605103 0.49755626916885376
0.56195586919784546 0.91696441173553467 0.49882659316062927
0.66116178035736084 0.91220378875732422 0.50319933891296387
0.76061713695526123 0.91611224412918091 0.49068930745124817
0.87162107229232788 0.92960131168365479 0.46122279763221741
0.97592991590499878 0.94125676155090332 0.39143639802932739
0.006160316988825798 0.014273953624069691 0.50251317024230957
0.19901104271411896 0.0083883097395300865 0.52958923578262329
0.48482769727706909 0.0010761186713352799 0.58261185884475708
0.71730995178222656 0.00027162139303982258 0.60896551609039307
0.73166936635971069 0.049574803560972214 0.52121579647064209
0.82867419719696045 0.17722585797309875 0.50915694236755371
0.97094237804412842 0.15456414222717285 0.49725815653800964
0.0084992954507470131 0.15004362165927887 0.50376158952713013
0.19884505867958069 0.1344929039478302 0.53204143047332764
0.48022717237472534 0.085876211524009705 0.58738589286804199
0.71974188089370728 0.046121887862682343 0.61321687698364258
0.74088960886001587 0.21156392991542816 0.53815364837646484
0.84295147657394409 0.26316165924072266 0.5123441219329834
0.97042495012283325 0.23560561239719391 0.48612934350967407
0.0039290781132876873 0.31490197777748108 0.49054181575775146
0.13151361048221588 0.33226659893989563 0.51371854543685913
0.43137338757514954 0.34598776698112488 0.56575071811676025
0.68979060649871826 0.38031080365180969 0.61355376243591309
0.74407476186752319 0.42019975185394287 0.5578034520149231
0.86904513835906982 0.39691910147666931 0.51650559902191162
0.97900938987731934 0.36908692121505737 0.48950818181037903
0.048700176179409027 0.53084284067153931 0.55549532175064087
0.2303227037191391 0.54686415195465088 0.56593090295791626
0.43288329243659973 0.57253932952880859 0.58434051275253296
0.64928781986236572 0.60114169120788574 0.6032605767250061
0.77338820695877075 0.59603071212768555 0.58441030979156494
0.88564372062683105 0.56384801864624023 0.54784572124481201
0.9769665002822876 0.55354982614517212 0.52733266353607178
0.19121810793876648 0.71316730976104736 0.59586614370346069
0.3089735209941864 0.71200823783874512 0.59377956390380859
0.46611019968986511 0.71294540166854858 0.58549338579177856
0.6078065037727356 0.70436841249465942 0.56875592470169067
0.756175696849823 0.70985430479049683 0.54341775178909302
0.87947601079940796 0.71494418382644653 0.54582470655441284
0.97464591264724731 0.72609174251556396 0.57887202501296997
0.31752622127532959 0.81858688592910767 0.58016091585159302
0.36514225602149963 0.81706798076629639 0.57204747200012207
0.44608151912689209 0.8114781379699707 0.55001401901245117
0.58361971378326416 0.79918301105499268 0.53558266162872314
0.71292686462402344 0.7965509295463562 0.51211392879486084
0.84829878807067871 0.81002163887023926 0.47375115752220154
0.9671938419342041 0.82614386081695557 0.46534860134124756
0.44411766529083252 0.93304538726806641 0.61023861169815063
0.46929529309272766 0.93109118938446045 0.60382080078125
0.55077898502349854 0.92445772886276245 0.60414314270019531
0.64950186014175415 0.92156839370727539 0.59884536266326904
0.76103150844573975 0.91923123598098755 0.59979170560836792
0.86436170339584351 0.93003970384597778 0.57846271991729736
0.97097170352935791 0.94211459159851074 0.52601087093353271
0.1257280558347702 0.011608976870775223 0.66519361734390259
0.27491503953933716 0.0047696130350232124 0.68288993835449219
0.48762226104736328 0.0027002671267837286 0.70890665054321289
0.76162701845169067 0.00010699103586375713 0.76582455635070801
0.90078139305114746 0.00046277514775283635 0.75992107391357422
0.90582293272018433 0.10972677171230316 0.68370568752288818
0.95116686820983887 0.34406799077987671 0.67782539129257202
0.11558203399181366 0.13483937084674835 0.6610831618309021
0.26743105053901672 0.10300514101982117 0.68034094572067261
0.49173229932785034 0.062091346830129623 0.71406513452529907
0.74870675802230835 0.011713933199644089 0.76129889488220215
0.90254181623458862 0.037526044994592667 0.76675063371658325
0.9039120078086853 0.25664567947387695 0.69430392980575562
0.94871610403060913 0.40385597944259644 0.68218129873275757
0.023460283875465393 0.29802277684211731 0.64272689819335938
0.19640654325485229 0.30703681707382202 0.66128796339035034
0.44740545749664307 0.30835512280464172 0.69511395692825317
0.70481878519058228 0.32214349508285522 0.74291121959686279
0.8663170337677002 0.3774167001247406 0.75841009616851807
0.88846361637115479 0.44222915172576904 0.70398151874542236
0.94251692295074463 0.49854061007499695 0.68516957759857178
0.02021242119371891 0.4634394645690918 0.62966346740722656
0.15347561240196228 0.47727087140083313 0.64106935262680054
0.38699102401733398 0.50099343061447144 0.66176021099090576
0.63324272632598877 0.54334437847137451 0.7125316858291626
0.82298046350479126 0.59225326776504517 0.75378310680389404
0.86793476343154907 0.59956264495849609 0.71181392669677734
0.95761984586715698 0.58729588985443115 0.67249590158462524
0.26882603764533997 0.66651922464370728 0.69176602363586426
0.35178354382514954 0.67155009508132935 0.69625872373580933
0.47939661145210266 0.68909424543380737 0.71037155389785767
0.63405781984329224 0.71474540233612061 0.72502762079238892
0.78154236078262329 0.74697554111480713 0.7435259222984314
0.87348604202270508 0.74374872446060181 0.72930812835693359
0.9648023247718811 0.71222800016403198 0.69276928901672363
0.39178329706192017 0.83569717407226562 0.74432134628295898
0.43832635879516602 0.83339452743530273 0.74248403310775757
0.53189784288406372 0.83309656381607056 0.73628759384155273
0.64018344879150391 0.83162415027618408 0.7193107008934021
0.74835121631622314 0.83074522018432617 0.70267748832702637
0.85537499189376831 0.83368182182312012 0.68203872442245483
0.95994287729263306 0.84913277626037598 0.69386231899261475
0.52557969093322754 0.93707454204559326 0.76346182823181152
0.54993200302124023 0.93787485361099243 0.76098984479904175
0.59969145059585571 0.93478703498840332 0.75139284133911133
0.65063297748565674 0.93232172727584839 0.72360116243362427
0.75147980451583862 0.92792785167694092 0.7184404730796814
0.85944497585296631 0.93392848968505859 0.71287566423416138
0.96389573812484741 0.94199752807617188 0.67834722995758057
0.34939056634902954 0.01186269149184227 0.81688624620437622
0.42212626338005066 0.0035659042187035084 0.82457888126373291
0.57269442081451416 0.0049579543992877007 0.83604800701141357
0.75105464458465576 0.0014123804867267609 0.86025607585906982
0.93969923257827759 0.0016571494052186608 0.88969355821609497
0.99225997924804688 0.0073263132944703102 0.87241989374160767
0.99747735261917114 0.27659520506858826 0.82666170597076416
0.31926456093788147 0.12601631879806519 0.80643600225448608
0.40435102581977844 0.096498258411884308 0.81713783740997314
0.55494976043701172 0.044053170830011368 0.83339482545852661
0.73940366506576538 0.014030994847416878 0.85654550790786743
0.92890065908432007 0.0086000179871916771 0.88773375749588013
0.99580264091491699 0.11384594440460205 0.88287699222564697
0.99257922172546387 0.37079429626464844 0.82436031103134155
0.24008630216121674 0.30159235000610352 0.79183113574981689
0.33924758434295654 0.2994665801525116 0.79985600709915161
0.5081026554107666 0.29530775547027588 0.81512802839279175
0.70454698801040649 0.29202532768249512 0.84383046627044678
0.89555817842483521 0.32040014863014221 0.87698638439178467
0.97766029834747314 0.39883315563201904 0.87388801574707031
0.97626113891601562 0.50179088115692139 0.82646644115447998
0.0082642948254942894 0.43213826417922974 0.75160044431686401
0.11545273661613464 0.44063737988471985 0.75950330495834351
0.39334255456924438 0.46385124325752258 0.78279668092727661
0.63454616069793701 0.49946001172065735 0.82076060771942139
0.83648329973220825 0.55218613147735596 0.86037212610244751
0.94877535104751587 0.59332799911499023 0.86612391471862793
0.95986747741699219 0.64256006479263306 0.83463650941848755
0.07873217761516571 0.60501879453659058 0.7606048583984375
0.18947340548038483 0.60668528079986572 0.76198768615722656
0.3664766252040863 0.61662429571151733 0.77308380603790283
0.54343390464782715 0.63484674692153931 0.78358954191207886
0.75592076778411865 0.70018124580383301 0.8289412260055542
0.90960133075714111 0.75597566366195679 0.86149543523788452
0.94005078077316284 0.75578385591506958 0.83502030372619629
0.39497119188308716 0.78730201721191406 0.81246954202651978
0.44232353568077087 0.78733611106872559 0.81196314096450806
0.53124123811721802 0.79668617248535156 0.81734412908554077
0.6358344554901123 0.81681281328201294 0.832145094871521
0.75847476720809937 0.83852440118789673 0.84206855297088623
0.87791705131530762 0.86067324876785278 0.85382401943206787
0.95420962572097778 0.86391931772232056 0.85139304399490356
0.55441367626190186 0.93904274702072144 0.87661588191986084
0.57339739799499512 0.94243103265762329 0.8787841796875
0.61944520473480225 0.93358755111694336 0.87150603532791138
0.68996256589889526 0.93871760368347168 0.86610555648803711
0.77199673652648926 0.94444513320922852 0.85433083772659302
0.85898184776306152 0.93810099363327026 0.83864802122116089
0.95526808500289917 0.94461321830749512 0.82510292530059814
0.56403899192810059 0.080635353922843933 0.9513775110244751
0.60551470518112183 0.062993310391902924 0.9534948468208313
0.69472116231918335 0.028779961168766022 0.95767700672149658
0.8120044469833374 0.0056787231005728245 0.96365821361541748
0.93739187717437744 0.0039028991013765335 0.96866106986999512
0.98670679330825806 0.0086595723405480385 0.96847039461135864
1 0.17268012464046478 0.9752238392829895
0.55045074224472046 0.22369332611560822 0.94602149724960327
0.5982966423034668 0.20718072354793549 0.94909626245498657
0.68436461687088013 0.16987688839435577 0.9541168212890625
0.80163931846618652 0.11035139858722687 0.96233212947845459
0.93276262283325195 0.060838062316179276 0.97386068105697632
0.99884474277496338 0.055067040026187897 0.98313397169113159
1 0.30976039171218872 0.97360610961914062
0.50831204652786255 0.37669295072555542 0.93501633405685425
0.55992752313613892 0.37512052059173584 0.93984663486480713
0.65262347459793091 0.36646082997322083 0.94296598434448242
0.77624237537384033 0.3608945906162262 0.95374631881713867
0.90896493196487427 0.36420497298240662 0.96672278642654419
0.99387907981872559 0.38426712155342102 0.97395896911621094
0.99721992015838623 0.48193508386611938 0.96450185775756836
0.38320764899253845 0.51458799839019775 0.92225664854049683
0.45587337017059326 0.51406067609786987 0.92552858591079712
0.56831914186477661 0.51854544878005981 0.92973369359970093
0.71823775768280029 0.53126215934753418 0.94240427017211914
0.86601787805557251 0.55558162927627563 0.95636987686157227
0.97365480661392212 0.579201340675354 0.96467584371566772
0.99270725250244141 0.63532114028930664 0.96314620971679688
0.24036784470081329 0.64626091718673706 0.90052509307861328
0.31114885210990906 0.64553779363632202 0.90228503942489624
0.43279874324798584 0.63882458209991455 0.9034426212310791
0.60305756330490112 0.6501230001449585 0.91903376579284668
0.78770458698272705 0.69245511293411255 0.93691563606262207
0.92641192674636841 0.73338252305984497 0.95403957366943359
0.98481220006942749 0.75415283441543579 0.95737475156784058
0.42181888222694397 0.79522126913070679 0.91611319780349731
0.44986516237258911 0.79380953311920166 0.91345357894897461
0.51204341650009155 0.79272401332855225 0.91308200359344482
0.59964889287948608 0.79488766193389893 0.91549301147460938
0.70784062147140503 0.79739081859588623 0.92060482501983643
0.86138421297073364 0.83664572238922119 0.93806856870651245
0.97706842422485352 0.871063232421875 0.95861482620239258
0.59933161735534668 0.9299933910369873 0.94818460941314697
0.61357688903808594 0.92878419160842896 0.94580495357513428
0.64959543943405151 0.92930012941360474 0.94649660587310791
0.70811086893081665 0.93142062425613403 0.94660496711730957
0.77924042940139771 0.94080281257629395 0.94642150402069092
0.86651843786239624 0.94786632061004639 0.95347493886947632
0.96464407444000244 0.96139830350875854 0.95842272043228149
