luts/instant_pro/fuji_fp-100c_negative_+.cube
# Created by: G'MIC (https://gmic.eu)
TITLE "fuji_fp-100c_negative_+"
# LUT size
LUT_3D_SIZE 13
# Data domain
DOMAIN_MIN 0.0 0.0 0.0
DOMAIN_MAX 1.0 1.0 1.0
# LUT data points
0.0017798180924728513 0.098895862698554993 0.20394957065582275
0.0020477743819355965 0.097724154591560364 0.20380526781082153
0.016428809612989426 0.096027597784996033 0.20207677781581879
0.094284564256668091 0.093726411461830139 0.2006785124540329
0.18895906209945679 0.088421046733856201 0.19958712160587311
0.31638482213020325 0.064555317163467407 0.19869261980056763
0.45873057842254639 0.033512819558382034 0.19701461493968964
0.58652585744857788 0.014859592542052269 0.19515077769756317
0.69833254814147949 0.010497672483325005 0.19369798898696899
0.79069614410400391 0.064197048544883728 0.19405087828636169
0.87104189395904541 0.17453286051750183 0.19297407567501068
0.94540935754776001 0.2879696786403656 0.19567449390888214
0.98708170652389526 0.38543164730072021 0.20978979766368866
0.0034110425040125847 0.11370441317558289 0.206626296043396
0.0068148444406688213 0.11188529431819916 0.20480193197727203
0.033782720565795898 0.11107340455055237 0.20361980795860291
0.11648809164762497 0.10752959549427032 0.20126834511756897
0.21004877984523773 0.10160361230373383 0.20013320446014404
0.3340359628200531 0.083524055778980255 0.19852478802204132
0.46992844343185425 0.057739362120628357 0.19636993110179901
0.59270715713500977 0.042697533965110779 0.19437909126281738
0.70245659351348877 0.062860317528247833 0.19309316575527191
0.79342305660247803 0.12608185410499573 0.19360290467739105
0.87337279319763184 0.23100738227367401 0.19582368433475494
0.94336742162704468 0.32592403888702393 0.19980064034461975
0.98894065618515015 0.40956085920333862 0.21087610721588135
0.0041037765331566334 0.13266296684741974 0.20956672728061676
0.009661027230322361 0.13050283491611481 0.2067558765411377
0.041007112711668015 0.12877874076366425 0.20422011613845825
0.1310659795999527 0.13133686780929565 0.20210187137126923
0.23275080323219299 0.13754191994667053 0.19968244433403015
0.36205750703811646 0.13494513928890228 0.19742752611637115
0.495432049036026 0.12768822908401489 0.19459761679172516
0.61148273944854736 0.13701117038726807 0.19218818843364716
0.71191555261611938 0.16850024461746216 0.19163094460964203
0.79728597402572632 0.21532537043094635 0.18992637097835541
0.87424618005752563 0.29398593306541443 0.19253157079219818
0.94352078437805176 0.37084898352622986 0.20055077970027924
0.99233484268188477 0.43721738457679749 0.2093932032585144
0.0027101703453809023 0.16026559472084045 0.2136891633272171
0.0088797770440578461 0.16198667883872986 0.21056970953941345
0.043996460735797882 0.16400580108165741 0.2066655158996582
0.14792591333389282 0.18741190433502197 0.20284473896026611
0.27282869815826416 0.21274647116661072 0.19471172988414764
0.40199095010757446 0.22182978689670563 0.19025067985057831
0.51843899488449097 0.22567754983901978 0.18828490376472473
0.62703388929367065 0.23456749320030212 0.18709567189216614
0.72030949592590332 0.26915884017944336 0.18714217841625214
0.8011620044708252 0.31380248069763184 0.18542015552520752
0.87808305025100708 0.3685450553894043 0.18679302930831909
0.94403594732284546 0.4313291609287262 0.20051030814647675
0.99264043569564819 0.47813212871551514 0.21431857347488403
0.0041938181966543198 0.23142525553703308 0.22296127676963806
0.011230752803385258 0.23454280197620392 0.21957522630691528
0.063103243708610535 0.24128933250904083 0.21506436169147491
0.15640188753604889 0.25992697477340698 0.20812752842903137
0.28593635559082031 0.29507160186767578 0.1949070543050766
0.42505565285682678 0.33149796724319458 0.17988796532154083
0.54232954978942871 0.34910395741462708 0.17131792008876801
0.64143019914627075 0.35047098994255066 0.17187210917472839
0.72609871625900269 0.37005770206451416 0.17402189970016479
0.80560410022735596 0.40340635180473328 0.17748160660266876
0.87773311138153076 0.44574359059333801 0.1879543662071228
0.94249129295349121 0.49518656730651855 0.20637783408164978
0.99016851186752319 0.53551721572875977 0.22530412673950195
0.0068740695714950562 0.32327869534492493 0.23620294034481049
0.017049079760909081 0.31846758723258972 0.23183509707450867
0.090904012322425842 0.328950434923172 0.23136246204376221
0.18386355042457581 0.34739488363265991 0.22705315053462982
0.28172099590301514 0.37759217619895935 0.21247780323028564
0.4103265106678009 0.42179825901985168 0.19076427817344666
0.5564955472946167 0.46753233671188354 0.15917098522186279
0.6570548415184021 0.48002809286117554 0.14750002324581146
0.73574298620223999 0.48540458083152771 0.15638162195682526
0.8090595006942749 0.49342843890190125 0.1736040860414505
0.87632489204406738 0.52258050441741943 0.19082294404506683
0.9395214319229126 0.56263977289199829 0.21297159790992737
0.98473596572875977 0.59039688110351562 0.2510402500629425
0.0099083846434950829 0.41133326292037964 0.25355607271194458
0.050760157406330109 0.41323652863502502 0.2561071515083313
0.14245161414146423 0.42404443025588989 0.26134103536605835
0.22608010470867157 0.44135874509811401 0.25545325875282288
0.30159991979598999 0.46253380179405212 0.24554705619812012
0.40668976306915283 0.49822938442230225 0.22884771227836609
0.54172384738922119 0.54369783401489258 0.19484873116016388
0.66070055961608887 0.5795590877532959 0.14842028915882111
0.74589169025421143 0.59067219495773315 0.14848227798938751
0.81335294246673584 0.5968393087387085 0.17599940299987793
0.87934654951095581 0.60902959108352661 0.20005296170711517
0.93737304210662842 0.62556147575378418 0.23482035100460052
0.98033112287521362 0.64589011669158936 0.2877352237701416
0.067986041307449341 0.50262957811355591 0.29066199064254761
0.13240243494510651 0.50712907314300537 0.29900217056274414
0.21396185457706451 0.51870739459991455 0.30352231860160828
0.28322753310203552 0.52999168634414673 0.30151769518852234
0.34670653939247131 0.54210972785949707 0.30123069882392883
0.42505529522895813 0.56903558969497681 0.28921577334403992
0.52527636289596558 0.60489225387573242 0.26527422666549683
0.63889998197555542 0.63963973522186279 0.23026753962039948
0.74370408058166504 0.66992294788360596 0.19517046213150024
0.82193672657012939 0.68484562635421753 0.20521175861358643
0.88766193389892578 0.69067829847335815 0.24057191610336304
0.94128680229187012 0.69749629497528076 0.28803843259811401
0.98258191347122192 0.70663636922836304 0.3352082371711731
0.19815357029438019 0.5960039496421814 0.34717175364494324
0.23827564716339111 0.59894132614135742 0.35298573970794678
0.28439828753471375 0.60362690687179565 0.35763174295425415
0.34363225102424622 0.61041939258575439 0.36472934484481812
0.40423703193664551 0.62024867534637451 0.37143146991729736
0.47052264213562012 0.63953942060470581 0.36669033765792847
0.54288434982299805 0.66432982683181763 0.35233867168426514
0.62823599576950073 0.69182610511779785 0.34073725342750549
0.72427809238433838 0.71988511085510254 0.31661328673362732
0.81938838958740234 0.7469865083694458 0.29089534282684326
0.89762365818023682 0.76209175586700439 0.29988288879394531
0.94969600439071655 0.76426899433135986 0.35241639614105225
0.98562610149383545 0.76536041498184204 0.39496403932571411
0.32147851586341858 0.67571085691452026 0.42066892981529236
0.35037228465080261 0.6736067533493042 0.42541646957397461
0.37881067395210266 0.67490470409393311 0.43155893683433533
0.42143699526786804 0.68118125200271606 0.43937939405441284
0.47516179084777832 0.69002622365951538 0.44793030619621277
0.52989184856414795 0.70340758562088013 0.45202240347862244
0.59242928028106689 0.72304987907409668 0.44548451900482178
0.65804761648178101 0.7462802529335022 0.43774011731147766
0.72182542085647583 0.76747298240661621 0.42636126279830933
0.80417269468307495 0.7895466685295105 0.41282463073730469
0.89442849159240723 0.81055104732513428 0.40355381369590759
0.95955675840377808 0.82221269607543945 0.42425674200057983
0.99078559875488281 0.82268041372299194 0.45587480068206787
0.44404712319374084 0.74953490495681763 0.50773417949676514
0.46785742044448853 0.74572741985321045 0.50787138938903809
0.49129012227058411 0.74476474523544312 0.51084494590759277
0.51391482353210449 0.75077837705612183 0.52043300867080688
0.55416512489318848 0.75931286811828613 0.53048127889633179
0.60119450092315674 0.77037656307220459 0.53586959838867188
0.64476054906845093 0.78240835666656494 0.53688281774520874
0.70214831829071045 0.80250012874603271 0.53170937299728394
0.75458353757858276 0.81814199686050415 0.52349615097045898
0.80834764242172241 0.83120971918106079 0.52005594968795776
0.88530850410461426 0.84952008724212646 0.51507276296615601
0.95598053932189941 0.86514532566070557 0.51132404804229736
0.99459618330001831 0.87091565132141113 0.51990407705307007
0.56563615798950195 0.82264906167984009 0.5926055908203125
0.58890438079833984 0.81791555881500244 0.59055930376052856
0.61064958572387695 0.81576651334762573 0.5916401743888855
0.62553501129150391 0.82139682769775391 0.60145246982574463
0.64554816484451294 0.82960903644561768 0.61373275518417358
0.67831957340240479 0.83685392141342163 0.620280921459198
0.71061158180236816 0.84440135955810547 0.62402927875518799
0.74769377708435059 0.85515820980072021 0.62450206279754639
0.79736441373825073 0.86557948589324951 0.61901801824569702
0.84303516149520874 0.87633657455444336 0.61628943681716919
0.88587713241577148 0.88764166831970215 0.61534112691879272
0.94039416313171387 0.89614033699035645 0.60852062702178955
0.98795855045318604 0.90366631746292114 0.60665273666381836
0.7065855860710144 0.88748633861541748 0.66813486814498901
0.71332275867462158 0.88382500410079956 0.66581034660339355
0.72636628150939941 0.88220739364624023 0.66676068305969238
0.74030554294586182 0.88366955518722534 0.6718209981918335
0.7641405463218689 0.8903273344039917 0.68241935968399048
0.79025429487228394 0.8943982720375061 0.69034719467163086
0.81700003147125244 0.89724874496459961 0.69623899459838867
0.83269494771957397 0.90026038885116577 0.69398802518844604
0.85827344655990601 0.90500986576080322 0.69150650501251221
0.89660501480102539 0.91459846496582031 0.69493508338928223
0.92514371871948242 0.92115199565887451 0.69121319055557251
0.94906073808670044 0.92425268888473511 0.68742841482162476
0.98314696550369263 0.9318205714225769 0.69249582290649414
0.0052328822202980518 0.097686067223548889 0.20949243009090424
0.0060572903603315353 0.096096619963645935 0.20656098425388336
0.021117400377988815 0.094479411840438843 0.20426148176193237
0.10334926098585129 0.091355204582214355 0.20462183654308319
0.21134306490421295 0.080945424735546112 0.20629125833511353
0.33248254656791687 0.050983726978302002 0.20647020637989044
0.46682918071746826 0.019871296361088753 0.20707449316978455
0.59153503179550171 0.01102003175765276 0.20875664055347443
0.70071852207183838 0.010780065320432186 0.2081727534532547
0.79435950517654419 0.063507884740829468 0.21301114559173584
0.86853796243667603 0.17223940789699554 0.22240889072418213
0.94099640846252441 0.2892029881477356 0.23054076731204987
0.99079436063766479 0.38999184966087341 0.24491944909095764
0.0064514908008277416 0.11102743446826935 0.21051961183547974
0.0077847796492278576 0.1074274405837059 0.20866341888904572
0.034675642848014832 0.1045101210474968 0.20632396638393402
0.12654712796211243 0.10360331833362579 0.20655602216720581
0.22714813053607941 0.097821086645126343 0.20733757317066193
0.34312045574188232 0.084450364112854004 0.20688815414905548
0.47544571757316589 0.055583670735359192 0.20842486619949341
0.59988093376159668 0.041654098778963089 0.20928545296192169
0.70718896389007568 0.066765233874320984 0.2107812911272049
0.79752880334854126 0.13237398862838745 0.21870909631252289
0.87322157621383667 0.23221109807491302 0.22787334024906158
0.94312119483947754 0.33208078145980835 0.23516909778118134
0.99134159088134766 0.41401281952857971 0.24792523682117462
0.0068842871114611626 0.13231456279754639 0.21429473161697388
0.013108466751873493 0.12790247797966003 0.21176090836524963
0.044316940009593964 0.124777652323246 0.20916441082954407
0.14190669357776642 0.13305282592773438 0.21011465787887573
0.25234794616699219 0.13862511515617371 0.20960919559001923
0.37332093715667725 0.13549661636352539 0.207647904753685
0.50011944770812988 0.12762317061424255 0.20897895097732544
0.61460816860198975 0.14178822934627533 0.20980896055698395
0.71672111749649048 0.17460569739341736 0.21258042752742767
0.80419105291366577 0.22511720657348633 0.21978203952312469
0.87779659032821655 0.29909595847129822 0.23076030611991882
0.94316011667251587 0.37700542807579041 0.24295270442962646
0.99012583494186401 0.44262856245040894 0.25515520572662354
0.0054360930807888508 0.15975156426429749 0.21793398261070251
0.015499144792556763 0.16684424877166748 0.21675287187099457
0.060117069631814957 0.1717594712972641 0.21429404616355896
0.1548006683588028 0.18694783747196198 0.21246054768562317
0.27814924716949463 0.19951532781124115 0.20894905924797058
0.40297642350196838 0.21028479933738708 0.20466738939285278
0.52003175020217896 0.22710856795310974 0.20494465529918671
0.63076871633529663 0.2467229813337326 0.20634473860263824
0.72712749242782593 0.27818641066551208 0.20826283097267151
0.80830866098403931 0.32446536421775818 0.21726475656032562
0.88024425506591797 0.37773507833480835 0.23215755820274353
0.9431954026222229 0.43848693370819092 0.24843741953372955
0.9892839789390564 0.48534867167472839 0.26448750495910645
0.0074954763986170292 0.23258735239505768 0.22815419733524323
0.022541943937540054 0.23608800768852234 0.22599329054355621
0.086995355784893036 0.24645419418811798 0.2253679633140564
0.17249545454978943 0.26218879222869873 0.2201673686504364
0.29735857248306274 0.29643851518630981 0.20916569232940674
0.43230259418487549 0.33083280920982361 0.19640696048736572
0.54632425308227539 0.34947618842124939 0.18948781490325928
0.64524936676025391 0.3534717857837677 0.19276086986064911
0.73226302862167358 0.37331834435462952 0.19936247169971466
0.80879819393157959 0.41332846879959106 0.21602718532085419
0.8798060417175293 0.45432004332542419 0.23382873833179474
0.94218307733535767 0.50459194183349609 0.2535521388053894
0.98528242111206055 0.54374712705612183 0.27977007627487183
0.0090025356039404869 0.3264029324054718 0.24414154887199402
0.039580836892127991 0.32919588685035706 0.24397094547748566
0.12391825765371323 0.34087479114532471 0.24980062246322632
0.20893591642379761 0.35670584440231323 0.24505573511123657
0.30060389637947083 0.3843989372253418 0.22962050139904022
0.42333546280860901 0.42364183068275452 0.20974752306938171
0.56223577260971069 0.46576118469238281 0.18156330287456512
0.65823465585708618 0.47539734840393066 0.17816902697086334
0.73653346300125122 0.47977876663208008 0.19371455907821655
0.80946540832519531 0.49834498763084412 0.21596100926399231
0.87885129451751709 0.5280953049659729 0.23548103868961334
0.93992877006530762 0.57016980648040771 0.26135575771331787
0.98100495338439941 0.59804046154022217 0.29881489276885986
0.025893567129969597 0.41896241903305054 0.26547336578369141
0.085233412683010101 0.42458772659301758 0.27517342567443848
0.17096622288227081 0.43622764945030212 0.28119340538978577
0.25172585248947144 0.45037698745727539 0.27712845802307129
0.32798275351524353 0.46786624193191528 0.26982668042182922
0.41945850849151611 0.49917775392532349 0.25330972671508789
0.54261356592178345 0.54218178987503052 0.22144238650798798
0.66158145666122437 0.57848721742630005 0.18453313410282135
0.74607539176940918 0.58923566341400146 0.19250647723674774
0.81378054618835449 0.5951610803604126 0.22201354801654816
0.88061797618865967 0.6081618070602417 0.24357132613658905
0.93976753950119019 0.63366544246673584 0.27195712924003601
0.97984069585800171 0.65129303932189941 0.32336556911468506
0.10300638526678085 0.50781905651092529 0.31046831607818604
0.15975728631019592 0.5146910548210144 0.32035923004150391
0.23602543771266937 0.52688568830490112 0.32655185461044312
0.30141308903694153 0.53492075204849243 0.32664114236831665
0.36677491664886475 0.54608434438705444 0.32545021176338196
0.44236686825752258 0.57264822721481323 0.31020265817642212
0.52675950527191162 0.60312956571578979 0.29103770852088928
0.63647794723510742 0.63863033056259155 0.26392781734466553
0.74206864833831787 0.6689191460609436 0.23730009794235229
0.82292824983596802 0.68332749605178833 0.24520479142665863
0.88845497369766235 0.6910509467124939 0.27356013655662537
0.94392180442810059 0.69745272397994995 0.3122069239616394
0.98097944259643555 0.70793306827545166 0.36399391293525696
0.21944716572761536 0.59619534015655518 0.37052780389785767
0.2593991756439209 0.60294520854949951 0.37585753202438354
0.30534601211547852 0.60909891128540039 0.38103422522544861
0.35904276371002197 0.61433899402618408 0.38298982381820679
0.41300791501998901 0.62362897396087646 0.38604521751403809
0.47630980610847473 0.64134210348129272 0.38447001576423645
0.55395662784576416 0.66583526134490967 0.37335407733917236
0.63276225328445435 0.6929473876953125 0.36186951398849487
0.72288376092910767 0.71987241506576538 0.34187892079353333
0.82195854187011719 0.74702775478363037 0.31723806262016296
0.89723426103591919 0.75953096151351929 0.33670055866241455
0.95291346311569214 0.76326954364776611 0.37752062082290649
0.98407691717147827 0.76822972297668457 0.4200475811958313
0.32848313450813293 0.67558181285858154 0.43463218212127686
0.3591093122959137 0.67627900838851929 0.44006562232971191
0.39218384027481079 0.67909461259841919 0.44827163219451904
0.43531760573387146 0.68497645854949951 0.45195809006690979
0.48363617062568665 0.69323849678039551 0.4566098153591156
0.52956670522689819 0.70356976985931396 0.46027308702468872
0.5944942831993103 0.72308462858200073 0.45746755599975586
0.66491127014160156 0.74706768989562988 0.45243996381759644
0.7282448410987854 0.76624500751495361 0.44503998756408691
0.80931848287582397 0.7873196005821228 0.43142983317375183
0.89519804716110229 0.81018048524856567 0.4247804582118988
0.96116864681243896 0.82371401786804199 0.43642398715019226
0.98875373601913452 0.82537096738815308 0.47823336720466614
0.44518750905990601 0.7490658164024353 0.51447677612304688
0.47052398324012756 0.74619346857070923 0.51513338088989258
0.49512040615081787 0.74806356430053711 0.52145302295684814
0.52059906721115112 0.75446760654449463 0.5300058126449585
0.56267315149307251 0.76231729984283447 0.5367121696472168
0.60215073823928833 0.77036434412002563 0.54136413335800171
0.64398109912872314 0.78160929679870605 0.54383105039596558
0.70390737056732178 0.80150502920150757 0.54128426313400269
0.7581181526184082 0.81665253639221191 0.53632199764251709
0.81256818771362305 0.82982158660888672 0.53292465209960938
0.88415491580963135 0.84892910718917847 0.52733016014099121
0.95042699575424194 0.86186671257019043 0.52402573823928833
0.98616325855255127 0.86690652370452881 0.54728013277053833
0.57260668277740479 0.82033395767211914 0.59391552209854126
0.59350335597991943 0.81744605302810669 0.59426724910736084
0.61301136016845703 0.81836026906967163 0.59871906042098999
0.62562519311904907 0.82465147972106934 0.60850036144256592
0.64912712574005127 0.83162742853164673 0.61816847324371338
0.68525683879852295 0.83648842573165894 0.62242579460144043
0.71583861112594604 0.84383714199066162 0.6273730993270874
0.75038200616836548 0.85582238435745239 0.63003337383270264
0.80099546909332275 0.8660162091255188 0.6251760721206665
0.84939026832580566 0.87588441371917725 0.62207776308059692
0.88855272531509399 0.88490593433380127 0.62108951807022095
0.93615090847015381 0.89273476600646973 0.61788386106491089
0.98195099830627441 0.89995932579040527 0.62165838479995728
0.70523619651794434 0.88537770509719849 0.66769492626190186
0.71770316362380981 0.88558107614517212 0.66957348585128784
0.73240214586257935 0.88683968782424927 0.67385506629943848
0.74219989776611328 0.88662731647491455 0.67715263366699219
0.76548117399215698 0.89090579748153687 0.68548351526260376
0.79147231578826904 0.89220070838928223 0.69023245573043823
0.81912034749984741 0.89678007364273071 0.69754242897033691
0.83845233917236328 0.90238445997238159 0.698691725730896
0.8719099760055542 0.90913325548171997 0.69618278741836548
0.90061753988265991 0.91490215063095093 0.69571787118911743
0.9267691969871521 0.92012089490890503 0.69331455230712891
0.95222193002700806 0.92426115274429321 0.69174879789352417
0.98158079385757446 0.92996180057525635 0.69481253623962402
0.0078475652262568474 0.095935776829719543 0.21994160115718842
0.013404547236859798 0.094075910747051239 0.21740551292896271
0.032310649752616882 0.092856280505657196 0.2152027040719986
0.11068969219923019 0.090545549988746643 0.2148064523935318
0.22300510108470917 0.077384322881698608 0.21867376565933228
0.3462660014629364 0.037889249622821808 0.21940276026725769
0.48135441541671753 0.0074746077880263329 0.22662593424320221
0.60513949394226074 0.0082920901477336884 0.23547939956188202
0.71025830507278442 0.019430855289101601 0.23965051770210266
0.80141901969909668 0.093108139932155609 0.25005730986595154
0.87499779462814331 0.20103061199188232 0.26581636071205139
0.94302260875701904 0.30482986569404602 0.27498096227645874
0.9937857985496521 0.39895123243331909 0.29333686828613281
0.0092077217996120453 0.11104942858219147 0.22443687915802002
0.013508277013897896 0.10641506314277649 0.22203493118286133
0.049199946224689484 0.10346823185682297 0.21948033571243286
0.13249917328357697 0.1046547070145607 0.21781161427497864
0.23611649870872498 0.096953146159648895 0.21962904930114746
0.36009323596954346 0.0702543705701828 0.22184005379676819
0.4919247031211853 0.040572147816419601 0.22768700122833252
0.61195534467697144 0.039511751383543015 0.23664146661758423
0.71595054864883423 0.081811614334583282 0.24633552134037018
0.8083425760269165 0.1588621586561203 0.2595178484916687
0.88269877433776855 0.24861888587474823 0.27247494459152222
0.94701319932937622 0.33996549248695374 0.28168359398841858
0.99226498603820801 0.42059722542762756 0.29866901040077209
0.008656221441924572 0.13615366816520691 0.23134876787662506
0.015591953881084919 0.13359391689300537 0.22875382006168365
0.06265760213136673 0.12986120581626892 0.22764675319194794
0.15014760196208954 0.13749441504478455 0.22373658418655396
0.26457113027572632 0.14281325042247772 0.22447298467159271
0.39255991578102112 0.13656176626682281 0.22975403070449829
0.51272773742675781 0.13313710689544678 0.23630370199680328
0.62224406003952026 0.14988312125205994 0.24036106467247009
0.72306901216506958 0.18748985230922699 0.24988861382007599
0.81275731325149536 0.24261240661144257 0.26317712664604187
0.883747398853302 0.30967414379119873 0.27834698557853699
0.94626319408416748 0.38310962915420532 0.29243284463882446
0.99209654331207275 0.44999724626541138 0.30558478832244873
0.0099355811253190041 0.17178462445735931 0.23601604998111725
0.022568602114915848 0.1724323183298111 0.23317651450634003
0.08986557275056839 0.18085281550884247 0.2365850955247879
0.17663639783859253 0.19378180801868439 0.23397918045520782
0.29560056328773499 0.2069101482629776 0.23370888829231262
0.42118620872497559 0.21530437469482422 0.23385223746299744
0.53333956003189087 0.23227891325950623 0.23562105000019073
0.63785839080810547 0.25364032387733459 0.23722127079963684
0.73398101329803467 0.28802335262298584 0.24618434906005859
0.81380409002304077 0.33396440744400024 0.26309233903884888
0.88245892524719238 0.3871687650680542 0.28125631809234619
0.94570118188858032 0.44688594341278076 0.29740685224533081
0.99095934629440308 0.49539616703987122 0.31779754161834717
0.038565229624509811 0.24321439862251282 0.24766722321510315
0.068641379475593567 0.24601246416568756 0.24789151549339294
0.12866057455539703 0.25702226161956787 0.2511020302772522
0.20772936940193176 0.27032631635665894 0.25037640333175659
0.32043567299842834 0.29655367136001587 0.24286395311355591
0.44760832190513611 0.32752001285552979 0.23027527332305908
