luts/instant_pro/fuji_fp-100c_cool_++.cube
# Created by: G'MIC (https://gmic.eu)
TITLE "fuji_fp-100c_cool_++"
# LUT size
LUT_3D_SIZE 5
# Data domain
DOMAIN_MIN 0.0 0.0 0.0
DOMAIN_MAX 1.0 1.0 1.0
# LUT data points
0.16954982280731201 0.13088801503181458 0.16680851578712463
0.22380499541759491 0.13217969238758087 0.16530421376228333
0.46168625354766846 0.10118064284324646 0.1629515141248703
0.73617005348205566 0.060697279870510101 0.15412777662277222
0.95793771743774414 0.14003024995326996 0.15465368330478668
0.15931272506713867 0.21107764542102814 0.16747847199440002
0.26092731952667236 0.22458583116531372 0.15869489312171936
0.53237700462341309 0.25820097327232361 0.15421240031719208
0.7752874493598938 0.26835685968399048 0.15443150699138641
0.96869069337844849 0.31440985202789307 0.16402016580104828
0.05001400038599968 0.44232890009880066 0.16996897757053375
0.25411897897720337 0.43602141737937927 0.16381406784057617
0.50484561920166016 0.47481605410575867 0.091395296156406403
0.77880465984344482 0.51456862688064575 0.079022392630577087
0.97525519132614136 0.55347013473510742 0.22099554538726807
0.0078095081262290478 0.66444331407546997 0.20698718726634979
0.24380697309970856 0.65389400720596313 0.20802922546863556
0.47601538896560669 0.66714495420455933 0.17881123721599579
0.73251771926879883 0.70155256986618042 0.035520993173122406
0.95913708209991455 0.72629022598266602 0.063264377415180206
0.42840710282325745 0.87827438116073608 0.44401919841766357
0.49895262718200684 0.87363719940185547 0.44388654828071594
0.64121717214584351 0.87181395292282104 0.45670011639595032
0.79974019527435303 0.88686823844909668 0.42526543140411377
0.97495841979980469 0.90363401174545288 0.34736883640289307
0.16664823889732361 0.12892147898674011 0.24325497448444366
0.2761322557926178 0.10297209769487381 0.26880750060081482
0.45645871758460999 0.085065849125385284 0.26543828845024109
0.73522782325744629 0.011352299712598324 0.26403194665908813
0.95527690649032593 0.11057456582784653 0.27086779475212097
0.13943244516849518 0.2314678281545639 0.28365582227706909
0.29422616958618164 0.24980859458446503 0.3046269416809082
0.54508405923843384 0.25912800431251526 0.29906588792800903
0.77004456520080566 0.261993408203125 0.29631122946739197
0.96013867855072021 0.30509307980537415 0.30480504035949707
0.027253139764070511 0.51101863384246826 0.32851243019104004
0.26408547163009644 0.50128704309463501 0.31960839033126831
0.53482306003570557 0.51102489233016968 0.28020873665809631
0.7890205979347229 0.54050672054290771 0.30686607956886292
0.9726375937461853 0.55725216865539551 0.35876303911209106
0.011322335340082645 0.69568586349487305 0.336832195520401
0.25542637705802917 0.68541419506072998 0.33215463161468506
0.49635183811187744 0.68654680252075195 0.3198094367980957
0.73892050981521606 0.70831871032714844 0.24975542724132538
0.95779836177825928 0.73466509580612183 0.27489495277404785
0.42181193828582764 0.88393980264663696 0.50794810056686401
0.4957633912563324 0.88151675462722778 0.50641775131225586
0.6412883996963501 0.87455636262893677 0.51926887035369873
0.79933911561965942 0.88861346244812012 0.50010555982589722
0.96955782175064087 0.90582811832427979 0.43737027049064636
0.15469743311405182 0.10905342549085617 0.49062839150428772
0.33289647102355957 0.036778200417757034 0.53933179378509521
0.65544474124908447 0.0022791244555264711 0.60402798652648926
0.71339315176010132 0.16317981481552124 0.52074515819549561
0.93045151233673096 0.16648949682712555 0.51511639356613159
0.067334316670894623 0.23190866410732269 0.4993501603603363
0.30848538875579834 0.23615539073944092 0.5516350269317627
0.65035760402679443 0.22582758963108063 0.61452674865722656
0.73666208982467651 0.33088156580924988 0.54256880283355713
0.94553828239440918 0.2962748110294342 0.50313055515289307
0.095082484185695648 0.5147208571434021 0.56590425968170166
0.30961108207702637 0.53674185276031494 0.58158713579177856
0.59426689147949219 0.57809102535247803 0.61558449268341064
0.78489899635314941 0.56681877374649048 0.5837864875793457
0.95833104848861694 0.55053144693374634 0.55482947826385498
0.21844577789306641 0.74338328838348389 0.60933512449264526
0.35170286893844604 0.73895794153213501 0.59949928522109985
0.54964369535446167 0.72895985841751099 0.57517725229263306
0.76888597011566162 0.73440289497375488 0.53665977716445923
0.9534115195274353 0.76114439964294434 0.57617378234863281
0.41991192102432251 0.8978455662727356 0.64434659481048584
0.47630518674850464 0.89308816194534302 0.63791543245315552
0.62664210796356201 0.88460767269134521 0.63959270715713501
0.79799747467041016 0.88987720012664795 0.63765627145767212
0.96615910530090332 0.9068487286567688 0.59209144115447998
0.20563687384128571 0.062027245759963989 0.74539214372634888
0.38378813862800598 0.0065725739113986492 0.77038025856018066
0.69826209545135498 0.00073228724068030715 0.81961178779602051
0.92726504802703857 0.0010171029716730118 0.83346104621887207
0.94688534736633301 0.31875878572463989 0.76218092441558838
0.11778523772954941 0.22038592398166656 0.74212878942489624
0.3369545042514801 0.19720771908760071 0.76553612947463989
0.65631371736526489 0.16480578482151031 0.81243091821670532
0.91728055477142334 0.23383775353431702 0.83972537517547607
0.93323469161987305 0.44989398121833801 0.77094227075576782
0.0057260249741375446 0.44450443983078003 0.68835097551345825
0.20053929090499878 0.45606964826583862 0.70531433820724487
0.56572288274765015 0.51365929841995239 0.77418357133865356
0.85839647054672241 0.58622235059738159 0.82959115505218506
0.90768557786941528 0.62104421854019165 0.77923429012298584
0.26266264915466309 0.71351194381713867 0.76837140321731567
0.37977093458175659 0.71981167793273926 0.77290654182434082
0.58729833364486694 0.74522644281387329 0.7928086519241333
0.81006282567977905 0.78538399934768677 0.82380133867263794
0.94010549783706665 0.76544314622879028 0.79715323448181152
0.51637685298919678 0.90611433982849121 0.84885120391845703
0.56299078464508057 0.90706729888916016 0.84459275007247925
0.66440755128860474 0.90314477682113647 0.82473361492156982
0.80176454782485962 0.8952372670173645 0.8122631311416626
0.95821273326873779 0.91298216581344604 0.79147440195083618
0.45293077826499939 0.14275124669075012 0.95956701040267944
0.54301762580871582 0.092149324715137482 0.96140760183334351
0.7428818941116333 0.01958191767334938 0.97515714168548584
0.96915149688720703 0.002772162901237607 0.98384279012680054
1 0.21082086861133575 0.98454707860946655
0.42751613259315491 0.30881631374359131 0.95479345321655273
0.52166265249252319 0.29141721129417419 0.95787936449050903
0.72139990329742432 0.26682931184768677 0.96795719861984253
0.95001387596130371 0.25189611315727234 0.98302316665649414
0.9991070032119751 0.4103274941444397 0.97647666931152344
0.21794243156909943 0.51205283403396606 0.93546319007873535
0.38236436247825623 0.51124405860900879 0.93789476156234741
0.63989734649658203 0.52519035339355469 0.9502636194229126
0.89259600639343262 0.56521803140640259 0.9716988205909729
0.99623042345046997 0.63282102346420288 0.97204810380935669
0.17598310112953186 0.7250525951385498 0.91819924116134644
0.28419119119644165 0.72015863656997681 0.91494655609130859
0.48707148432731628 0.71538442373275757 0.91930997371673584
0.79861462116241455 0.74985122680664062 0.9518619179725647
0.98182135820388794 0.7971491813659668 0.96533787250518799
0.57145285606384277 0.89952236413955688 0.95426952838897705
0.61045777797698975 0.90167486667633057 0.95761412382125854
0.7015872597694397 0.90632796287536621 0.96191906929016113
0.82071584463119507 0.90881967544555664 0.96049958467483521
0.95942658185958862 0.92911118268966675 0.97129416465759277
