luts/instant_pro/fuji_fp-100c_cool.cube
# Created by: G'MIC (https://gmic.eu)
TITLE "fuji_fp-100c_cool"
# LUT size
LUT_3D_SIZE 5
# Data domain
DOMAIN_MIN 0.0 0.0 0.0
DOMAIN_MAX 1.0 1.0 1.0
# LUT data points
0.029020152986049652 0.067983426153659821 0.087669044733047485
0.19751380383968353 0.057369157671928406 0.097689986228942871
0.50987207889556885 0.0046667661517858505 0.10794945806264877
0.76936876773834229 0.0079272845759987831 0.1233440488576889
0.95780718326568604 0.15568970143795013 0.15265057981014252
0.0079612135887145996 0.21829260885715485 0.11568189412355423
0.24515782296657562 0.23635639250278473 0.095781527459621429
0.56406456232070923 0.25917533040046692 0.11177325993776321
0.79158353805541992 0.27050194144248962 0.13849334418773651
0.9647136926651001 0.33630973100662231 0.17596393823623657
0.0027623046189546585 0.48252001404762268 0.15096798539161682
0.22039525210857391 0.48785790801048279 0.14754344522953033
0.52146929502487183 0.51752316951751709 0.030929401516914368
0.7840302586555481 0.54197138547897339 0.073682017624378204
0.96276992559432983 0.58195072412490845 0.2457597553730011
0.0063150441274046898 0.69808667898178101 0.2220834493637085
0.23505081236362457 0.68600863218307495 0.21863104403018951
0.48068919777870178 0.69697141647338867 0.1808629184961319
0.716694176197052 0.72999238967895508 0.043325789272785187
0.93269360065460205 0.75564432144165039 0.08550155907869339
0.39734295010566711 0.9102480411529541 0.44540345668792725
0.46686831116676331 0.90526151657104492 0.44445770978927612
0.60851097106933594 0.90384691953659058 0.45442834496498108
0.76548522710800171 0.92244511842727661 0.43144458532333374
0.9413488507270813 0.94039678573608398 0.35681909322738647
0.01949494332075119 0.063891679048538208 0.24372582137584686
0.27047249674797058 0.019099157303571701 0.28137102723121643
0.48850783705711365 0.044121939688920975 0.27335554361343384
0.7651679515838623 0.01507275179028511 0.27228617668151855
0.94952577352523804 0.17857638001441956 0.28574571013450623
0.017018485814332962 0.24448885023593903 0.2981058657169342
0.28505140542984009 0.27821835875511169 0.32029885053634644
0.57636928558349609 0.28358429670333862 0.31714877486228943
0.78385168313980103 0.29015517234802246 0.3095279335975647
0.95201480388641357 0.34888541698455811 0.31777870655059814
0.01291758194565773 0.55119383335113525 0.35007128119468689
0.26971861720085144 0.54187452793121338 0.33816558122634888
0.55530792474746704 0.54910361766815186 0.30004757642745972
0.78645318746566772 0.56709259748458862 0.32745757699012756
0.95153284072875977 0.58767116069793701 0.38195985555648804
0.014410041272640228 0.72506159543991089 0.34993520379066467
0.27006116509437561 0.71295636892318726 0.35314473509788513
0.49836611747741699 0.71471363306045532 0.33561080694198608
0.72570347785949707 0.73599761724472046 0.27214032411575317
0.93098539113998413 0.76466470956802368 0.3031211793422699
0.39036887884140015 0.91572457551956177 0.50940036773681641
0.46582785248756409 0.91140484809875488 0.50887590646743774
0.60657387971878052 0.90841937065124512 0.518146812915802
0.76339876651763916 0.92214870452880859 0.49875056743621826
0.93615913391113281 0.9400603175163269 0.43964937329292297
0.024940460920333862 0.03542289137840271 0.51413440704345703
0.33991342782974243 0.0039708903059363365 0.56095904111862183
0.68461650609970093 0.00098675000481307507 0.62411010265350342
0.7331773042678833 0.20884217321872711 0.53863430023193359
0.91519331932067871 0.2570616602897644 0.5277101993560791
0.025383878499269485 0.23454633355140686 0.52244836091995239
0.33030086755752563 0.24359339475631714 0.56685107946395874
0.66636061668395996 0.27421626448631287 0.63029211759567261
0.74207717180252075 0.38350054621696472 0.56380707025527954
0.92684251070022583 0.36321145296096802 0.52600187063217163
0.14169968664646149 0.54464459419250488 0.58363145589828491
0.33931496739387512 0.56647276878356934 0.59910649061203003
0.59649688005447388 0.613353431224823 0.62494379281997681
0.77066421508789062 0.60415953397750854 0.60097134113311768
0.93110251426696777 0.57664257287979126 0.56510204076766968
0.24825912714004517 0.7686116099357605 0.62135714292526245
0.36721876263618469 0.76545059680938721 0.612263023853302
0.5418667197227478 0.7536017894744873 0.58627903461456299
0.74434876441955566 0.76854491233825684 0.56094193458557129
0.92302030324935913 0.78821736574172974 0.58908456563949585
0.37245899438858032 0.92863017320632935 0.64702439308166504
0.43206584453582764 0.92688298225402832 0.63976365327835083
0.58972656726837158 0.9195747971534729 0.64379596710205078
0.75700324773788452 0.92468678951263428 0.63738507032394409
0.92956686019897461 0.94414865970611572 0.59538668394088745
0.23264017701148987 0.0060203704051673412 0.75583338737487793
0.41169074177742004 0.0038437638431787491 0.78071880340576172
0.69829326868057251 0.0015264473622664809 0.83140718936920166
0.91979384422302246 0.0096799517050385475 0.85220110416412354
0.92534708976745605 0.38169530034065247 0.77146178483963013
0.21865546703338623 0.23656538128852844 0.74894720315933228
0.39712798595428467 0.22515884041786194 0.77259534597396851
0.67816495895385742 0.21778610348701477 0.82626253366470337
0.89466184377670288 0.32201263308525085 0.84830057621002197
0.91368800401687622 0.49925512075424194 0.78756898641586304
0.044758245348930359 0.45999306440353394 0.70098716020584106
0.27761033177375793 0.47704151272773743 0.72111517190933228
0.58834826946258545 0.54555922746658325 0.78734868764877319
0.8336491584777832 0.61884254217147827 0.83887392282485962
0.88762748241424561 0.65135091543197632 0.78856426477432251
0.29965686798095703 0.73398846387863159 0.77861213684082031
0.39738708734512329 0.74121946096420288 0.7826763391494751
0.57235103845596313 0.76951849460601807 0.80331546068191528
0.77303189039230347 0.81893616914749146 0.83237284421920776
0.90597981214523315 0.80193781852722168 0.80725216865539551
0.45969891548156738 0.94109576940536499 0.8604128360748291
0.50722610950469971 0.94098937511444092 0.85381323099136353
0.60731476545333862 0.93804454803466797 0.83548480272293091
0.74598878622055054 0.93841999769210815 0.81142687797546387
0.91759830713272095 0.94946849346160889 0.79855263233184814
0.52290678024291992 0.15895387530326843 0.97176676988601685
0.59256887435913086 0.11059082299470901 0.97545665502548218
0.75536125898361206 0.0492706298828125 0.98466759920120239
0.95772802829742432 0.017102709040045738 0.99235957860946655
1 0.30066162347793579 0.98623013496398926
0.50136286020278931 0.34002941846847534 0.96538525819778442
0.57721316814422607 0.32706484198570251 0.96716761589050293
0.73653692007064819 0.31453755497932434 0.97583860158920288
0.93555748462677002 0.32707658410072327 0.98741841316223145
0.99789285659790039 0.46329709887504578 0.9804081916809082
0.33804672956466675 0.52806729078292847 0.94506031274795532
0.4574381411075592 0.5367891788482666 0.94965106248855591
0.65836954116821289 0.55846256017684937 0.9591829776763916
0.87542003393173218 0.59854227304458618 0.97880101203918457
0.99473023414611816 0.66043394804000854 0.9808422327041626
0.24045784771442413 0.73021179437637329 0.92708694934844971
0.32448890805244446 0.72661781311035156 0.92601180076599121
0.48629108071327209 0.72406220436096191 0.93106883764266968
0.76469916105270386 0.7737385630607605 0.95653975009918213
0.9562370777130127 0.83075481653213501 0.97161602973937988
0.52315562963485718 0.93223816156387329 0.96430033445358276
0.55713701248168945 0.93127977848052979 0.96191507577896118
0.64915060997009277 0.9360426664352417 0.96591895818710327
0.77383828163146973 0.94538384675979614 0.96620374917984009
0.92795932292938232 0.96795421838760376 0.97136408090591431
