luts/instant_pro/fuji_fp-3000b.cube
# Created by: G'MIC (https://gmic.eu)
TITLE "fuji_fp-3000b"
# LUT size
LUT_3D_SIZE 13
# Data domain
DOMAIN_MIN 0.0 0.0 0.0
DOMAIN_MAX 1.0 1.0 1.0
# LUT data points
0.085671804845333099 0.085671804845333099 0.085671804845333099
0.090110048651695251 0.090110048651695251 0.090110048651695251
0.10259163379669189 0.10259163379669189 0.10259163379669189
0.12328703701496124 0.12328703701496124 0.12328703701496124
0.15174762904644012 0.15174762904644012 0.15174762904644012
0.18855336308479309 0.18855336308479309 0.18855336308479309
0.23300376534461975 0.23300376534461975 0.23300376534461975
0.28425171971321106 0.28425171971321106 0.28425171971321106
0.34389805793762207 0.34389805793762207 0.34389805793762207
0.41150462627410889 0.41150462627410889 0.41150462627410889
0.48410290479660034 0.48410290479660034 0.48410290479660034
0.55846500396728516 0.55846500396728516 0.55846500396728516
0.63011246919631958 0.63011246919631958 0.63011246919631958
0.096345432102680206 0.096345432102680206 0.096345432102680206
0.10124710947275162 0.10124710947275162 0.10124710947275162
0.11625716090202332 0.11625716090202332 0.11625716090202332
0.14151787757873535 0.14151787757873535 0.14151787757873535
0.17333509027957916 0.17333509027957916 0.17333509027957916
0.21115036308765411 0.21115036308765411 0.21115036308765411
0.25494629144668579 0.25494629144668579 0.25494629144668579
0.30400416254997253 0.30400416254997253 0.30400416254997253
0.36095747351646423 0.36095747351646423 0.36095747351646423
0.42586633563041687 0.42586633563041687 0.42586633563041687
0.49625855684280396 0.49625855684280396 0.49625855684280396
0.56811165809631348 0.56811165809631348 0.56811165809631348
0.63714998960494995 0.63714998960494995 0.63714998960494995
0.11488741636276245 0.11488741636276245 0.11488741636276245
0.11873095482587814 0.11873095482587814 0.11873095482587814
0.1372050940990448 0.1372050940990448 0.1372050940990448
0.17215205729007721 0.17215205729007721 0.17215205729007721
0.21470682322978973 0.21470682322978973 0.21470682322978973
0.25501537322998047 0.25501537322998047 0.25501537322998047
0.29390555620193481 0.29390555620193481 0.29390555620193481
0.33693701028823853 0.33693701028823853 0.33693701028823853
0.38942116498947144 0.38942116498947144 0.38942116498947144
0.44965916872024536 0.44965916872024536 0.44965916872024536
0.51561325788497925 0.51561325788497925 0.51561325788497925
0.58346116542816162 0.58346116542816162 0.58346116542816162
0.64879536628723145 0.64879536628723145 0.64879536628723145
0.14213180541992188 0.14213180541992188 0.14213180541992188
0.14042189717292786 0.14042189717292786 0.14042189717292786
0.1601775586605072 0.1601775586605072 0.1601775586605072
0.20770628750324249 0.20770628750324249 0.20770628750324249
0.26670154929161072 0.26670154929161072 0.26670154929161072
0.3132508397102356 0.3132508397102356 0.3132508397102356
0.34674358367919922 0.34674358367919922 0.34674358367919922
0.38367310166358948 0.38367310166358948 0.38367310166358948
0.43219506740570068 0.43219506740570068 0.43219506740570068
0.48664268851280212 0.48664268851280212 0.48664268851280212
0.54637938737869263 0.54637938737869263 0.54637938737869263
0.60854673385620117 0.60854673385620117 0.60854673385620117
0.66771572828292847 0.66771572828292847 0.66771572828292847
0.17734189331531525 0.17734189331531525 0.17734189331531525
0.16866558790206909 0.16866558790206909 0.16866558790206909
0.18521557748317719 0.18521557748317719 0.18521557748317719
0.23609808087348938 0.23609808087348938 0.23609808087348938
0.30411246418952942 0.30411246418952942 0.30411246418952942
0.36269870400428772 0.36269870400428772 0.36269870400428772
0.40475571155548096 0.40475571155548096 0.40475571155548096
0.44423207640647888 0.44423207640647888 0.44423207640647888
0.49066156148910522 0.49066156148910522 0.49066156148910522
0.53986138105392456 0.53986138105392456 0.53986138105392456
0.59116828441619873 0.59116828441619873 0.59116828441619873
0.6439853310585022 0.6439853310585022 0.6439853310585022
0.69561558961868286 0.69561558961868286 0.69561558961868286
0.22179271280765533 0.22179271280765533 0.22179271280765533
0.21051652729511261 0.21051652729511261 0.21051652729511261
0.21919156610965729 0.21919156610965729 0.21919156610965729
0.2583191990852356 0.2583191990852356 0.2583191990852356
0.32138121128082275 0.32138121128082275 0.32138121128082275
0.3909069299697876 0.3909069299697876 0.3909069299697876
0.45142588019371033 0.45142588019371033 0.45142588019371033
0.50483423471450806 0.50483423471450806 0.50483423471450806
0.55506628751754761 0.55506628751754761 0.55506628751754761
0.60042083263397217 0.60042083263397217 0.60042083263397217
0.64329439401626587 0.64329439401626587 0.64329439401626587
0.68612223863601685 0.68612223863601685 0.68612223863601685
0.72866374254226685 0.72866374254226685 0.72866374254226685
0.27476376295089722 0.27476376295089722 0.27476376295089722
0.26180562376976013 0.26180562376976013 0.26180562376976013
0.26064938306808472 0.26064938306808472 0.26064938306808472
0.28236144781112671 0.28236144781112671 0.28236144781112671
0.33251684904098511 0.33251684904098511 0.33251684904098511
0.40331128239631653 0.40331128239631653 0.40331128239631653
0.47830280661582947 0.47830280661582947 0.47830280661582947
0.54957956075668335 0.54957956075668335 0.54957956075668335
0.60982590913772583 0.60982590913772583 0.60982590913772583
0.65460824966430664 0.65460824966430664 0.65460824966430664
0.69219952821731567 0.69219952821731567 0.69219952821731567
0.72764784097671509 0.72764784097671509 0.72764784097671509
0.76342475414276123 0.76342475414276123 0.76342475414276123
0.33543318510055542 0.33543318510055542 0.33543318510055542
0.32126525044441223 0.32126525044441223 0.32126525044441223
0.3122502863407135 0.3122502863407135 0.3122502863407135
0.31780269742012024 0.31780269742012024 0.31780269742012024
0.35151126980781555 0.35151126980781555 0.35151126980781555
0.41445910930633545 0.41445910930633545 0.41445910930633545
0.49249488115310669 0.49249488115310669 0.49249488115310669
0.5732877254486084 0.5732877254486084 0.5732877254486084
0.64263355731964111 0.64263355731964111 0.64263355731964111
0.6925843358039856 0.6925843358039856 0.6925843358039856
0.73092436790466309 0.73092436790466309 0.73092436790466309
0.76414448022842407 0.76414448022842407 0.76414448022842407
0.79557853937149048 0.79557853937149048 0.79557853937149048
0.40467661619186401 0.40467661619186401 0.40467661619186401
0.39217483997344971 0.39217483997344971 0.39217483997344971
0.38107520341873169 0.38107520341873169 0.38107520341873169
0.37565374374389648 0.37565374374389648 0.37565374374389648
0.39010134339332581 0.39010134339332581 0.39010134339332581
0.43536573648452759 0.43536573648452759 0.43536573648452759
0.50565242767333984 0.50565242767333984 0.50565242767333984
0.58611547946929932 0.58611547946929932 0.58611547946929932
0.65960556268692017 0.65960556268692017 0.65960556268692017
0.7168084979057312 0.7168084979057312 0.7168084979057312
0.75965797901153564 0.75965797901153564 0.75965797901153564
0.79376459121704102 0.79376459121704102 0.79376459121704102
0.82386714220046997 0.82386714220046997 0.82386714220046997
0.48331224918365479 0.48331224918365479 0.48331224918365479
0.47378841042518616 0.47378841042518616 0.47378841042518616
0.46411877870559692 0.46411877870559692 0.46411877870559692
0.45141714811325073 0.45141714811325073 0.45141714811325073
0.4458867609500885 0.4458867609500885 0.4458867609500885
0.47100454568862915 0.47100454568862915 0.47100454568862915
0.53033393621444702 0.53033393621444702 0.53033393621444702
0.60583782196044922 0.60583782196044922 0.60583782196044922
0.67896205186843872 0.67896205186843872 0.67896205186843872
0.7387968897819519 0.7387968897819519 0.7387968897819519
0.784343421459198 0.784343421459198 0.784343421459198
0.81939226388931274 0.81939226388931274 0.81939226388931274
0.84914594888687134 0.84914594888687134 0.84914594888687134
0.57080614566802979 0.57080614566802979 0.57080614566802979
0.56298625469207764 0.56298625469207764 0.56298625469207764
0.55222606658935547 0.55222606658935547 0.55222606658935547
0.5350337028503418 0.5350337028503418 0.5350337028503418
0.51822346448898315 0.51822346448898315 0.51822346448898315
0.52782332897186279 0.52782332897186279 0.52782332897186279
0.577109694480896 0.577109694480896 0.577109694480896
0.6445469856262207 0.6445469856262207 0.6445469856262207
0.7115180492401123 0.7115180492401123 0.7115180492401123
0.7680666446685791 0.7680666446685791 0.7680666446685791
0.8113548755645752 0.8113548755645752 0.8113548755645752
0.84479260444641113 0.84479260444641113 0.84479260444641113
0.87311124801635742 0.87311124801635742 0.87311124801635742
0.66490000486373901 0.66490000486373901 0.66490000486373901
0.65812909603118896 0.65812909603118896 0.65812909603118896
0.64750039577484131 0.64750039577484131 0.64750039577484131
0.63217580318450928 0.63217580318450928 0.63217580318450928
0.6171841025352478 0.6171841025352478 0.6171841025352478
0.61977660655975342 0.61977660655975342 0.61977660655975342
0.65317410230636597 0.65317410230636597 0.65317410230636597
0.70567357540130615 0.70567357540130615 0.70567357540130615
0.76141786575317383 0.76141786575317383 0.76141786575317383
0.80801594257354736 0.80801594257354736 0.80801594257354736
0.84403574466705322 0.84403574466705322 0.84403574466705322
0.87284916639328003 0.87284916639328003 0.87284916639328003
0.89828038215637207 0.89828038215637207 0.89828038215637207
0.76045924425125122 0.76045924425125122 0.76045924425125122
0.75516140460968018 0.75516140460968018 0.75516140460968018
0.74785226583480835 0.74785226583480835 0.74785226583480835
0.73960137367248535 0.73960137367248535 0.73960137367248535
0.73216915130615234 0.73216915130615234 0.73216915130615234
0.73081421852111816 0.73081421852111816 0.73081421852111816
0.74773430824279785 0.74773430824279785 0.74773430824279785
0.78072530031204224 0.78072530031204224 0.78072530031204224
0.82064545154571533 0.82064545154571533 0.82064545154571533
0.85535001754760742 0.85535001754760742 0.85535001754760742
0.88255810737609863 0.88255810737609863 0.88255810737609863
0.90598249435424805 0.90598249435424805 0.90598249435424805
0.92742002010345459 0.92742002010345459 0.92742002010345459
0.098427668213844299 0.098427668213844299 0.098427668213844299
0.10466513782739639 0.10466513782739639 0.10466513782739639
0.1182360053062439 0.1182360053062439 0.1182360053062439
0.13971300423145294 0.13971300423145294 0.13971300423145294
0.16905184090137482 0.16905184090137482 0.16905184090137482
0.20645016431808472 0.20645016431808472 0.20645016431808472
0.24992035329341888 0.24992035329341888 0.24992035329341888
0.2985890805721283 0.2985890805721283 0.2985890805721283
0.35662657022476196 0.35662657022476196 0.35662657022476196
0.42295342683792114 0.42295342683792114 0.42295342683792114
0.49306175112724304 0.49306175112724304 0.49306175112724304
0.56300163269042969 0.56300163269042969 0.56300163269042969
0.63033998012542725 0.63033998012542725 0.63033998012542725
0.11159984767436981 0.11159984767436981 0.11159984767436981
0.11778344213962555 0.11778344213962555 0.11778344213962555
0.13192655146121979 0.13192655146121979 0.13192655146121979
0.15657246112823486 0.15657246112823486 0.15657246112823486
0.18789610266685486 0.18789610266685486 0.18789610266685486
0.22522708773612976 0.22522708773612976 0.22522708773612976
0.26761883497238159 0.26761883497238159 0.26761883497238159
0.31569549441337585 0.31569549441337585 0.31569549441337585
0.37240001559257507 0.37240001559257507 0.37240001559257507
0.43647986650466919 0.43647986650466919 0.43647986650466919
0.50454527139663696 0.50454527139663696 0.50454527139663696
0.57294189929962158 0.57294189929962158 0.57294189929962158
0.63842034339904785 0.63842034339904785 0.63842034339904785
0.13648459315299988 0.13648459315299988 0.13648459315299988
0.14066934585571289 0.14066934585571289 0.14066934585571289
0.15571199357509613 0.15571199357509613 0.15571199357509613
0.18450017273426056 0.18450017273426056 0.18450017273426056
0.22240033745765686 0.22240033745765686 0.22240033745765686
0.26141944527626038 0.26141944527626038 0.26141944527626038
0.29995825886726379 0.29995825886726379 0.29995825886726379
0.34415370225906372 0.34415370225906372 0.34415370225906372
0.39800116419792175 0.39800116419792175 0.39800116419792175
0.4590071439743042 0.4590071439743042 0.4590071439743042
0.52362483739852905 0.52362483739852905 0.52362483739852905
0.58867883682250977 0.58867883682250977 0.58867883682250977
0.65104216337203979 0.65104216337203979 0.65104216337203979
0.17446982860565186 0.17446982860565186 0.17446982860565186
0.17241634428501129 0.17241634428501129 0.17241634428501129
0.18388630449771881 0.18388630449771881 0.18388630449771881
0.21780948340892792 0.21780948340892792 0.21780948340892792
0.26640290021896362 0.26640290021896362 0.26640290021896362
0.31275328993797302 0.31275328993797302 0.31275328993797302
0.34872975945472717 0.34872975945472717 0.34872975945472717
0.3871159553527832 0.3871159553527832 0.3871159553527832
0.43807852268218994 0.43807852268218994 0.43807852268218994
0.4945405125617981 0.4945405125617981 0.4945405125617981
0.55365115404129028 0.55365115404129028 0.55365115404129028
0.61313992738723755 0.61313992738723755 0.61313992738723755
0.67051947116851807 0.67051947116851807 0.67051947116851807
0.21782931685447693 0.21782931685447693 0.21782931685447693
0.20864412188529968 0.20864412188529968 0.20864412188529968
0.21300695836544037 0.21300695836544037 0.21300695836544037
0.24587960541248322 0.24587960541248322 0.24587960541248322
0.30324423313140869 0.30324423313140869 0.30324423313140869
0.3657069206237793 0.3657069206237793 0.3657069206237793
0.41050371527671814 0.41050371527671814 0.41050371527671814
0.44857117533683777 0.44857117533683777 0.44857117533683777
0.49541404843330383 0.49541404843330383 0.49541404843330383
0.54564911127090454 0.54564911127090454 0.54564911127090454
0.59660840034484863 0.59660840034484863 0.59660840034484863
0.64783626794815063 0.64783626794815063 0.64783626794815063
0.69756603240966797 0.69756603240966797 0.69756603240966797
0.26245099306106567 0.26245099306106567 0.26245099306106567
0.24884872138500214 0.24884872138500214 0.24884872138500214
0.24493102729320526 0.24493102729320526 0.24493102729320526
0.26726719737052917 0.26726719737052917 0.26726719737052917
0.3226066529750824 0.3226066529750824 0.3226066529750824
0.39697390794754028 0.39697390794754028 0.39697390794754028
0.46007698774337769 0.46007698774337769 0.46007698774337769
0.51107662916183472 0.51107662916183472 0.51107662916183472
0.55978012084960938 0.55978012084960938 0.55978012084960938
0.6051185131072998 0.6051185131072998 0.6051185131072998
0.64774215221405029 0.64774215221405029 0.64774215221405029
0.68943226337432861 0.68943226337432861 0.68943226337432861
0.73074829578399658 0.73074829578399658 0.73074829578399658
0.31206700205802917 0.31206700205802917 0.31206700205802917
0.29572099447250366 0.29572099447250366 0.29572099447250366
0.28333842754364014 0.28333842754364014 0.28333842754364014
0.29102113842964172 0.29102113842964172 0.29102113842964172
0.3340241014957428 0.3340241014957428 0.3340241014957428
0.40620806813240051 0.40620806813240051 0.40620806813240051
0.4837525486946106 0.4837525486946106 0.4837525486946106
0.55397146940231323 0.55397146940231323 0.55397146940231323
0.61310940980911255 0.61310940980911255 0.61310940980911255
0.65916186571121216 0.65916186571121216 0.65916186571121216
0.69686257839202881 0.69686257839202881 0.69686257839202881
0.73157209157943726 0.73157209157943726 0.73157209157943726
0.76532238721847534 0.76532238721847534 0.76532238721847534
0.36715081334114075 0.36715081334114075 0.36715081334114075
0.35016342997550964 0.35016342997550964 0.35016342997550964
0.33297574520111084 0.33297574520111084 0.33297574520111084
0.32719388604164124 0.32719388604164124 0.32719388604164124
0.35386767983436584 0.35386767983436584 0.35386767983436584
0.41554725170135498 0.41554725170135498 0.41554725170135498
0.49481397867202759 0.49481397867202759 0.49481397867202759
0.57599961757659912 0.57599961757659912 0.57599961757659912
0.64555704593658447 0.64555704593658447 0.64555704593658447
0.6974339485168457 0.6974339485168457 0.6974339485168457
0.73627787828445435 0.73627787828445435 0.73627787828445435
0.76844465732574463 0.76844465732574463 0.76844465732574463
0.79831010103225708 0.79831010103225708 0.79831010103225708
0.42907023429870605 0.42907023429870605 0.42907023429870605
0.41541281342506409 0.41541281342506409 0.41541281342506409
0.39957618713378906 0.39957618713378906 0.39957618713378906
0.38682538270950317 0.38682538270950317 0.38682538270950317
0.39523643255233765 0.39523643255233765 0.39523643255233765
0.43770727515220642 0.43770727515220642 0.43770727515220642
0.50718683004379272 0.50718683004379272 0.50718683004379272
0.58818358182907104 0.58818358182907104 0.58818358182907104
0.66281276941299438 0.66281276941299438 0.66281276941299438
0.72146052122116089 0.72146052122116089 0.72146052122116089
0.7647705078125 0.7647705078125 0.7647705078125
0.79836380481719971 0.79836380481719971 0.79836380481719971
0.82715725898742676 0.82715725898742676 0.82715725898742676
0.50041466951370239 0.50041466951370239 0.50041466951370239
0.49160358309745789 0.49160358309745789 0.49160358309745789
0.48010289669036865 0.48010289669036865 0.48010289669036865
0.46424099802970886 0.46424099802970886 0.46424099802970886
0.45598945021629333 0.45598945021629333 0.45598945021629333
0.47770673036575317 0.47770673036575317 0.47770673036575317
0.53301173448562622 0.53301173448562622 0.53301173448562622
0.60712605714797974 0.60712605714797974 0.60712605714797974
0.68080514669418335 0.68080514669418335 0.68080514669418335
0.74197208881378174 0.74197208881378174 0.74197208881378174
0.78822058439254761 0.78822058439254761 0.78822058439254761
0.82334965467453003 0.82334965467453003 0.82334965467453003
0.85226964950561523 0.85226964950561523 0.85226964950561523
0.58322638273239136 0.58322638273239136 0.58322638273239136
0.57679462432861328 0.57679462432861328 0.57679462432861328
0.56658518314361572 0.56658518314361572 0.56658518314361572
0.54884731769561768 0.54884731769561768 0.54884731769561768
0.53304201364517212 0.53304201364517212 0.53304201364517212
0.54097896814346313 0.54097896814346313 0.54097896814346313
0.58240228891372681 0.58240228891372681 0.58240228891372681
0.64549565315246582 0.64549565315246582 0.64549565315246582
0.71151638031005859 0.71151638031005859 0.71151638031005859
0.76880311965942383 0.76880311965942383 0.76880311965942383
0.81339782476425171 0.81339782476425171 0.81339782476425171
0.84753066301345825 0.84753066301345825 0.84753066301345825
0.87582814693450928 0.87582814693450928 0.87582814693450928
0.6748470664024353 0.6748470664024353 0.6748470664024353
0.66915404796600342 0.66915404796600342 0.66915404796600342
0.65945553779602051 0.65945553779602051 0.65945553779602051
0.64453613758087158 0.64453613758087158 0.64453613758087158
0.63061350584030151 0.63061350584030151 0.63061350584030151
0.63171625137329102 0.63171625137329102 0.63171625137329102
0.6590569019317627 0.6590569019317627 0.6590569019317627
0.70626366138458252 0.70626366138458252 0.70626366138458252
0.7592463493347168 0.7592463493347168 0.7592463493347168
0.80629909038543701 0.80629909038543701 0.80629909038543701
0.84387034177780151 0.84387034177780151 0.84387034177780151
0.87430959939956665 0.87430959939956665 0.87430959939956665
0.90035015344619751 0.90035015344619751 0.90035015344619751
0.7676660418510437 0.7676660418510437 0.7676660418510437
0.76355785131454468 0.76355785131454468 0.76355785131454468
0.75702005624771118 0.75702005624771118 0.75702005624771118
0.7481987476348877 0.7481987476348877 0.7481987476348877
0.73946970701217651 0.73946970701217651 0.73946970701217651
0.73748517036437988 0.73748517036437988 0.73748517036437988
0.7512320876121521 0.7512320876121521 0.7512320876121521
0.78051078319549561 0.78051078319549561 0.78051078319549561
0.81719237565994263 0.81719237565994263 0.81719237565994263
0.85201990604400635 0.85201990604400635 0.85201990604400635
0.88109439611434937 0.88109439611434937 0.88109439611434937
0.90580052137374878 0.90580052137374878 0.90580052137374878
0.92860984802246094 0.92860984802246094 0.92860984802246094
0.11744456738233566 0.11744456738233566 0.11744456738233566
0.12618544697761536 0.12618544697761536 0.12618544697761536
0.14221644401550293 0.14221644401550293 0.14221644401550293
0.16472826898097992 0.16472826898097992 0.16472826898097992
0.1951691210269928 0.1951691210269928 0.1951691210269928
0.23534747958183289 0.23534747958183289 0.23534747958183289
0.28204306960105896 0.28204306960105896 0.28204306960105896
0.32908782362937927 0.32908782362937927 0.32908782362937927
0.38396498560905457 0.38396498560905457 0.38396498560905457
0.44669979810714722 0.44669979810714722 0.44669979810714722
0.51066493988037109 0.51066493988037109 0.51066493988037109
0.57341355085372925 0.57341355085372925 0.57341355085372925
0.63413757085800171 0.63413757085800171 0.63413757085800171
0.13020701706409454 0.13020701706409454 0.13020701706409454
0.13965986669063568 0.13965986669063568 0.13965986669063568
0.15621381998062134 0.15621381998062134 0.15621381998062134
0.17957451939582825 0.17957451939582825 0.17957451939582825
0.20990020036697388 0.20990020036697388 0.20990020036697388
0.24790816009044647 0.24790816009044647 0.24790816009044647
0.2927449643611908 0.2927449643611908 0.2927449643611908
0.3421052098274231 0.3421052098274231 0.3421052098274231
0.39774990081787109 0.39774990081787109 0.39774990081787109
0.45896151661872864 0.45896151661872864 0.45896151661872864
0.52193361520767212 0.52193361520767212 0.52193361520767212
0.5838208794593811 0.5838208794593811 0.5838208794593811
0.64365607500076294 0.64365607500076294 0.64365607500076294
0.15837538242340088 0.15837538242340088 0.15837538242340088
0.16621264815330505 0.16621264815330505 0.16621264815330505
0.18064901232719421 0.18064901232719421 0.18064901232719421
0.20420026779174805 0.20420026779174805 0.20420026779174805
0.23622754216194153 0.23622754216194153 0.23622754216194153
0.27346602082252502 0.27346602082252502 0.27346602082252502
0.31524467468261719 0.31524467468261719 0.31524467468261719
0.36371096968650818 0.36371096968650818 0.36371096968650818
0.41877704858779907 0.41877704858779907 0.41877704858779907
0.47826215624809265 0.47826215624809265 0.47826215624809265
0.53920692205429077 0.53920692205429077 0.53920692205429077
0.59955036640167236 0.59955036640167236 0.59955036640167236
0.65725302696228027 0.65725302696228027 0.65725302696228027
0.20473949611186981 0.20473949611186981 0.20473949611186981
0.20594711601734161 0.20594711601734161 0.20594711601734161
0.21269264817237854 0.21269264817237854 0.21269264817237854
0.23464696109294891 0.23464696109294891 0.23464696109294891
0.27163732051849365 0.27163732051849365 0.27163732051849365
0.31472447514533997 0.31472447514533997 0.31472447514533997
0.35677593946456909 0.35677593946456909 0.35677593946456909
0.40162181854248047 0.40162181854248047 0.40162181854248047
0.45303958654403687 0.45303958654403687 0.45303958654403687
0.50870376825332642 0.50870376825332642 0.50870376825332642
0.56601083278656006 0.56601083278656006 0.56601083278656006
0.62217491865158081 0.62217491865158081 0.62217491865158081
0.67596328258514404 0.67596328258514404 0.67596328258514404
0.25793135166168213 0.25793135166168213 0.25793135166168213
0.25107142329216003 0.25107142329216003 0.25107142329216003
0.24738632142543793 0.24738632142543793 0.24738632142543793
0.26273936033248901 0.26273936033248901 0.26273936033248901
0.3057762086391449 0.3057762086391449 0.3057762086391449
0.36449465155601501 0.36449465155601501 0.36449465155601501
0.4154587984085083 0.4154587984085083 0.4154587984085083
0.45849832892417908 0.45849832892417908 0.45849832892417908
0.50445973873138428 0.50445973873138428 0.50445973873138428
