luts/instant_pro/fuji_fp-100c_++_alt.cube
# Created by: G'MIC (https://gmic.eu)
TITLE "fuji_fp-100c_++_alt"
# LUT size
LUT_3D_SIZE 7
# Data domain
DOMAIN_MIN 0.0 0.0 0.0
DOMAIN_MAX 1.0 1.0 1.0
# LUT data points
0.27843138575553894 0.21875 0.15217514336109161
0.28914669156074524 0.2197110503911972 0.14602644741535187
0.34229815006256104 0.22297592461109161 0.14738036692142487
0.45707598328590393 0.23327586054801941 0.14989258348941803
0.59574222564697266 0.24757970869541168 0.14574496448040009
0.73715579509735107 0.26754313707351685 0.14300762116909027
0.87570023536682129 0.28885069489479065 0.14010332524776459
0.28235295414924622 0.24857467412948608 0.15091046690940857
0.29966890811920166 0.25043138861656189 0.1469588428735733
0.36390617489814758 0.25932207703590393 0.1450212299823761
0.47813913226127625 0.27239972352981567 0.14734673500061035
0.61962312459945679 0.29177898168563843 0.14329546689987183
0.75418883562088013 0.30629217624664307 0.13846716284751892
0.88861733675003052 0.33050987124443054 0.13946327567100525
0.27514326572418213 0.33128052949905396 0.16050127148628235
0.3034646213054657 0.33207452297210693 0.15015161037445068
0.37476536631584167 0.34642261266708374 0.13845929503440857
0.50003200769424438 0.37122437357902527 0.12608402967453003
0.65471208095550537 0.39762353897094727 0.13135804235935211
0.77889406681060791 0.40813371539115906 0.13659262657165527
0.9009823203086853 0.42728573083877563 0.14514832198619843
0.25863701105117798 0.4465995728969574 0.15449044108390808
0.30008396506309509 0.44697529077529907 0.15069335699081421
0.37345322966575623 0.45427983999252319 0.13872352242469788
0.49146422743797302 0.48087355494499207 0.10389820486307144
0.64048385620117188 0.5065997838973999 0.062120191752910614
0.79227596521377563 0.53078722953796387 0.10452987253665924
0.91040825843811035 0.55247801542282104 0.17793959379196167
0.24687308073043823 0.5709725022315979 0.15097410976886749
0.28921693563461304 0.57097643613815308 0.15201900899410248
0.37256261706352234 0.57718861103057861 0.15349328517913818
0.48084405064582825 0.59390163421630859 0.12320323288440704
0.61685782670974731 0.62027406692504883 0.024094600230455399
0.76941752433776855 0.63626062870025635 0.010650021024048328
0.90493053197860718 0.66172647476196289 0.13782733678817749
0.26630944013595581 0.70985615253448486 0.18743215501308441
0.31059768795967102 0.70632243156433105 0.18965859711170197
0.3925834596157074 0.70272904634475708 0.19376853108406067
0.4933411180973053 0.71003478765487671 0.18230541050434113
0.61722689867019653 0.72980910539627075 0.13746686279773712
0.75825798511505127 0.75123953819274902 0.052236039191484451
0.89448493719100952 0.76306867599487305 0.022350415587425232
0.45212796330451965 0.85035216808319092 0.39004918932914734
0.47535267472267151 0.84818828105926514 0.38953498005867004
0.53259921073913574 0.84607893228530884 0.39760547876358032
0.61465173959732056 0.84839785099029541 0.41007450222969055
0.70156568288803101 0.85740906000137329 0.40504544973373413
0.80609482526779175 0.86867159605026245 0.39721181988716125
0.91171354055404663 0.87860530614852905 0.37501281499862671
0.27360546588897705 0.21802888810634613 0.16885592043399811
0.29839926958084106 0.21768529713153839 0.1774628609418869
0.34156948328018188 0.22593368589878082 0.17575067281723022
0.45246186852455139 0.22449564933776855 0.17935779690742493
0.60008150339126587 0.22584804892539978 0.18370792269706726
0.74157106876373291 0.24496963620185852 0.18579293787479401
0.87731409072875977 0.27720844745635986 0.18213574588298798
0.28133371472358704 0.25112465023994446 0.18075712025165558
0.3079494833946228 0.256949782371521 0.1856878250837326
0.37025165557861328 0.26480978727340698 0.18347731232643127
0.48957356810569763 0.27134272456169128 0.18902973830699921
0.62141323089599609 0.28203815221786499 0.18836009502410889
0.75845897197723389 0.29355138540267944 0.18314541876316071
0.88851982355117798 0.32500210404396057 0.18812759220600128
0.27058818936347961 0.34081065654754639 0.19197835028171539
0.30755418539047241 0.35563710331916809 0.19498349726200104
0.39185166358947754 0.36305078864097595 0.18377953767776489
0.51351100206375122 0.37763792276382446 0.18074160814285278
0.65942704677581787 0.39877480268478394 0.18936602771282196
0.78270465135574341 0.40081137418746948 0.18760828673839569
0.89750808477401733 0.42358735203742981 0.20390093326568604
0.24805146455764771 0.47054657340049744 0.19309137761592865
0.2978578507900238 0.4684089720249176 0.19480974972248077
0.38038647174835205 0.47243499755859375 0.18552790582180023
0.50395148992538452 0.49196097254753113 0.15921163558959961
0.65265870094299316 0.5190463662147522 0.14299124479293823
0.79746550321578979 0.53880661725997925 0.19191046059131622
0.90971046686172485 0.55481314659118652 0.23980274796485901
0.23682981729507446 0.59720796346664429 0.19805054366588593
0.28710111975669861 0.59303253889083862 0.2024397999048233
0.37446615099906921 0.58740913867950439 0.1999536007642746
0.48218363523483276 0.60066980123519897 0.17836028337478638
0.62785851955413818 0.62512952089309692 0.12214218080043793
0.77667331695556641 0.6437070369720459 0.092219606041908264
0.90688872337341309 0.66903984546661377 0.2293381541967392
0.27242383360862732 0.72227203845977783 0.24836252629756927
0.31476259231567383 0.71807396411895752 0.24272619187831879
0.40253537893295288 0.71431654691696167 0.25086688995361328
0.50247561931610107 0.71820670366287231 0.23791740834712982
0.6212151050567627 0.73503744602203369 0.20718269050121307
0.76309871673583984 0.75171530246734619 0.15254524350166321
0.89401435852050781 0.76534122228622437 0.12151628732681274
0.45563101768493652 0.85173720121383667 0.42425617575645447
0.4784027636051178 0.8526415228843689 0.42206576466560364
0.53694421052932739 0.84910356998443604 0.42885005474090576
0.61523795127868652 0.84883421659469604 0.43608862161636353
0.70323276519775391 0.85731422901153564 0.43762147426605225
0.80488210916519165 0.86885160207748413 0.42996594309806824
0.9122084379196167 0.8800005316734314 0.41494566202163696
0.29051041603088379 0.2189098596572876 0.24448694288730621
0.32327857613563538 0.21322967112064362 0.25597614049911499
0.39918398857116699 0.20735758543014526 0.27343380451202393
0.45299246907234192 0.23456808924674988 0.26260459423065186
0.5855063796043396 0.23520328104496002 0.2667354941368103
0.73888540267944336 0.2137208878993988 0.25559553503990173
0.87657427787780762 0.23466753959655762 0.25490075349807739
0.28369787335395813 0.25354170799255371 0.24523410201072693
0.31859329342842102 0.25592076778411865 0.26648920774459839
0.40807667374610901 0.25547778606414795 0.28909730911254883
0.48208600282669067 0.27933666110038757 0.28039950132369995
0.61634451150894165 0.28009006381034851 0.27445340156555176
0.75972491502761841 0.26702466607093811 0.26436787843704224
0.88597291707992554 0.30668455362319946 0.27058404684066772
0.27519828081130981 0.35262253880500793 0.28487041592597961
0.31313955783843994 0.36425015330314636 0.29528701305389404
0.41486364603042603 0.38187631964683533 0.31558343768119812
0.53384393453598022 0.39543116092681885 0.31025862693786621
0.65830951929092407 0.39278519153594971 0.29971379041671753
0.78263288736343384 0.39885270595550537 0.29470339417457581
0.89710128307342529 0.41977483034133911 0.2975909411907196
0.24938194453716278 0.51429051160812378 0.33347910642623901
0.29667550325393677 0.51515811681747437 0.32396131753921509
0.40266808867454529 0.51504212617874146 0.31513139605522156
0.53103733062744141 0.52405679225921631 0.3007199764251709
0.67853075265884399 0.54148918390274048 0.30795961618423462
0.80206608772277832 0.55417859554290771 0.33475753664970398
0.90798741579055786 0.56482148170471191 0.35054638981819153
0.2471788227558136 0.63586056232452393 0.32738462090492249
0.29342573881149292 0.63275599479675293 0.32311642169952393
0.39034241437911987 0.62483114004135132 0.32276454567909241
0.50642001628875732 0.62485063076019287 0.30781292915344238
0.64714521169662476 0.64122986793518066 0.28101968765258789
0.78851348161697388 0.65920764207839966 0.28546011447906494
0.90428429841995239 0.68393981456756592 0.37398251891136169
0.27086526155471802 0.74085187911987305 0.3457215428352356
0.32156381011009216 0.73632705211639404 0.34724739193916321
0.40864795446395874 0.73105573654174805 0.34678605198860168
0.51458847522735596 0.72813159227371216 0.34457728266716003
0.6274304986000061 0.74230635166168213 0.32598549127578735
0.7659648060798645 0.75668090581893921 0.2980647087097168
0.8975033164024353 0.77094447612762451 0.29167461395263672
0.45082923769950867 0.85757154226303101 0.4820307195186615
0.47760009765625 0.85605663061141968 0.48364731669425964
0.53528130054473877 0.85359901189804077 0.48921710252761841
0.6195027232170105 0.85181134939193726 0.50145995616912842
0.70484960079193115 0.8586459755897522 0.50069868564605713
0.80210751295089722 0.86881160736083984 0.49256041646003723
0.91105258464813232 0.88084816932678223 0.48271101713180542
0.30919930338859558 0.21909868717193604 0.37339818477630615
0.34548899531364441 0.21171902120113373 0.38714390993118286
0.46093371510505676 0.18651244044303894 0.43875807523727417
0.60064113140106201 0.1539849191904068 0.47320404648780823
0.62297427654266357 0.23625540733337402 0.41763827204704285
0.71273452043533325 0.28959089517593384 0.41103833913803101
0.85975420475006104 0.28742209076881409 0.41395029425621033
0.29048553109169006 0.2553296685218811 0.37673810124397278
0.33411192893981934 0.25581702589988708 0.40058726072311401
0.45873004198074341 0.24179078638553619 0.45366933941841125
0.60412883758544922 0.22990864515304565 0.48691821098327637
0.63394320011138916 0.29854977130889893 0.43579480051994324
0.73377132415771484 0.33216196298599243 0.42291581630706787
0.87060672044754028 0.32725590467453003 0.41572600603103638
0.27549928426742554 0.34954443573951721 0.38012400269508362
0.31104874610900879 0.35491833090782166 0.39807555079460144
0.4262554943561554 0.36824202537536621 0.45231533050537109
0.59264165163040161 0.39192661643028259 0.50089478492736816
0.64595925807952881 0.42234876751899719 0.45858591794967651
0.76366496086120605 0.41754433512687683 0.43376344442367554
0.88608819246292114 0.40634757280349731 0.41629147529602051
0.26877638697624207 0.50160342454910278 0.45230990648269653
0.31516319513320923 0.51334923505783081 0.46029630303382874
0.41893842816352844 0.53573203086853027 0.48145467042922974
0.56661373376846313 0.56446987390518188 0.50842523574829102
0.68097174167633057 0.5689079761505127 0.49688217043876648
0.79083198308944702 0.55426466464996338 0.47488498687744141
0.89739394187927246 0.55418211221694946 0.46431928873062134
0.27788519859313965 0.66295677423477173 0.51569247245788574
0.33073249459266663 0.66302222013473511 0.51145511865615845
0.42761191725730896 0.66659426689147949 0.50478285551071167
0.54531985521316528 0.66829967498779297 0.49478831887245178
0.67240065336227417 0.67259705066680908 0.47937071323394775
0.79745852947235107 0.68550187349319458 0.49340936541557312
0.89890921115875244 0.69753056764602661 0.53771853446960449
0.35106399655342102 0.766460120677948 0.52391523122787476
0.37861406803131104 0.76252490282058716 0.51416200399398804
0.43897730112075806 0.76170116662979126 0.50046855211257935
0.538776695728302 0.75652056932449341 0.49687758088111877
0.64382010698318481 0.75609081983566284 0.4802422821521759
0.77547919750213623 0.76853948831558228 0.45905718207359314
0.89984631538391113 0.78208833932876587 0.47416067123413086
0.45954477787017822 0.86724424362182617 0.57977885007858276
0.47695538401603699 0.86689740419387817 0.57441014051437378
0.52904534339904785 0.86252647638320923 0.57312524318695068
0.61207258701324463 0.861347496509552 0.57944673299789429
0.70451968908309937 0.86133772134780884 0.58342260122299194
0.80258119106292725 0.86951088905334473 0.57752162218093872
0.91002351045608521 0.88142687082290649 0.57295793294906616
0.32776716351509094 0.21724943816661835 0.53230446577072144
0.37241098284721375 0.20929661393165588 0.55578190088272095
0.47485524415969849 0.18397632241249084 0.5970119833946228
0.64798140525817871 0.099509082734584808 0.65310382843017578
0.78628700971603394 0.068283706903457642 0.6655890941619873
0.79237198829650879 0.25527104735374451 0.59108519554138184
0.84483420848846436 0.37924051284790039 0.58821427822113037
0.29990550875663757 0.25455722212791443 0.5445094108581543
0.35246056318283081 0.25327584147453308 0.56259727478027344
0.45631867647171021 0.2358083575963974 0.59843319654464722
0.64022386074066162 0.19985239207744598 0.65215283632278442
0.78442281484603882 0.21002629399299622 0.6721765398979187
0.79231369495391846 0.32816702127456665 0.60292631387710571
0.84222173690795898 0.42315846681594849 0.5951610803604126
0.25758868455886841 0.33875072002410889 0.52979511022567749
0.31006678938865662 0.3442206084728241 0.5480353832244873
0.42461687326431274 0.35185664892196655 0.5882030725479126
0.61809837818145752 0.36739370226860046 0.64552587270736694
0.7658112645149231 0.39685937762260437 0.67261207103729248
0.78155505657196045 0.45500487089157104 0.61408376693725586
0.84864240884780884 0.4972076416015625 0.60442858934402466
0.25608497858047485 0.46826860308647156 0.52900344133377075
0.29578942060470581 0.47278898954391479 0.54239034652709961
0.38644731044769287 0.49202457070350647 0.56025731563568115
0.56120175123214722 0.52999794483184814 0.62143206596374512
0.72966992855072021 0.5755845308303833 0.67470031976699829
0.76934999227523804 0.59056031703948975 0.63203400373458862
0.86833816766738892 0.57478654384613037 0.60457813739776611
0.30741843581199646 0.63693797588348389 0.61070472002029419
0.35030534863471985 0.63901162147521973 0.61540818214416504
0.4421418309211731 0.65583890676498413 0.62586987018585205
0.55715030431747437 0.68104320764541626 0.64943784475326538
0.70222920179367065 0.71060538291931152 0.67848491668701172
0.79424822330474854 0.71000063419342041 0.66762834787368774
0.88663226366043091 0.68821674585342407 0.64519721269607544
0.37646517157554626 0.78309613466262817 0.68716919422149658
0.41361886262893677 0.78197753429412842 0.68106001615524292
0.48834055662155151 0.78464740514755249 0.67970257997512817
0.5849955677986145 0.78510785102844238 0.67081117630004883
0.68098032474517822 0.78453558683395386 0.65802282094955444
0.78941637277603149 0.78790873289108276 0.6450316309928894
0.8958355188369751 0.80117172002792358 0.66482126712799072
0.50934165716171265 0.87363451719284058 0.72088336944580078
0.53132730722427368 0.87470817565917969 0.71915411949157715
0.56624728441238403 0.87289810180664062 0.70878475904464722
0.62343847751617432 0.87311661243438721 0.69299119710922241
0.70553231239318848 0.86891359090805054 0.68694257736206055
0.80061960220336914 0.87287640571594238 0.68847984075546265
0.90660208463668823 0.88477349281311035 0.68577581644058228
0.35667756199836731 0.21897952258586884 0.71751564741134644
0.39712074398994446 0.20671465992927551 0.72861999273300171
0.49508705735206604 0.18609674274921417 0.74680334329605103
0.63781726360321045 0.13150021433830261 0.77531856298446655
0.81876474618911743 0.011523677036166191 0.81718605756759644
0.92691093683242798 0.122658371925354 0.81339496374130249
0.92374962568283081 0.34763246774673462 0.7453417181968689
0.32367247343063354 0.25488767027854919 0.71160298585891724
0.37612113356590271 0.2540515661239624 0.7225833535194397
0.47441080212593079 0.23771438002586365 0.74208223819732666
0.63297289609909058 0.21374498307704926 0.77443557977676392
0.80957639217376709 0.18083277344703674 0.81259804964065552
0.91980957984924316 0.25728511810302734 0.81302803754806519
0.91965663433074951 0.4098915159702301 0.75362026691436768
0.26159438490867615 0.34087163209915161 0.69721895456314087
0.32389214634895325 0.34384745359420776 0.70462751388549805
0.44200402498245239 0.35013020038604736 0.73170119524002075
0.60178977251052856 0.3545069694519043 0.76296496391296387
0.78894394636154175 0.37517407536506653 0.81014323234558105
0.89805161952972412 0.42900803685188293 0.80921465158462524
0.90048539638519287 0.50625878572463989 0.75544208288192749
0.18699544668197632 0.4513336718082428 0.65764492750167847
0.2442694753408432 0.453584223985672 0.67209553718566895
0.35779640078544617 0.46214738488197327 0.69848465919494629
0.54688423871994019 0.49582472443580627 0.74049198627471924
0.74076849222183228 0.54581290483474731 0.79332542419433594
0.86697673797607422 0.59021884202957153 0.80736458301544189
0.8816227912902832 0.61986565589904785 0.76700550317764282
0.21613004803657532 0.59494459629058838 0.68244642019271851
0.26307213306427002 0.59703999757766724 0.68558180332183838
0.35015943646430969 0.60322815179824829 0.68990731239318848
0.48088139295578003 0.62065678834915161 0.70660400390625
0.67702215909957886 0.67105799913406372 0.76221263408660889
0.83437895774841309 0.71959954500198364 0.81082099676132202
0.86606502532958984 0.72307115793228149 0.77890223264694214
0.38030546903610229 0.74897992610931396 0.75064706802368164
0.41149526834487915 0.75090271234512329 0.75334638357162476
0.48475354909896851 0.76103943586349487 0.7598157525062561
0.58369487524032593 0.77424770593643188 0.77252674102783203
0.69642597436904907 0.79327386617660522 0.79040789604187012
0.81530678272247314 0.8183785080909729 0.81350034475326538
0.88789618015289307 0.81526416540145874 0.8022686243057251
0.53731518983840942 0.88216251134872437 0.83646249771118164
0.55392682552337646 0.88265347480773926 0.83631700277328491
0.59704339504241943 0.88306659460067749 0.8339727520942688
0.66202116012573242 0.88407522439956665 0.83048444986343384
0.73333954811096191 0.88174247741699219 0.81983554363250732
0.81381845474243164 0.88471931219100952 0.81110405921936035
0.90586775541305542 0.89032614231109619 0.80488210916519165
0.42101183533668518 0.24757130444049835 0.88075119256973267
0.46144595742225647 0.24190793931484222 0.88250625133514404
0.54312258958816528 0.22637513279914856 0.89090001583099365
0.6606374979019165 0.19726468622684479 0.9024544358253479
0.80796265602111816 0.14930278062820435 0.91556912660598755
0.95706987380981445 0.1179216280579567 0.93206560611724854
0.99533671140670776 0.3174336850643158 0.91733676195144653
0.40723466873168945 0.29752832651138306 0.8817475438117981
0.44784826040267944 0.29394951462745667 0.8825685977935791
0.53316855430603027 0.28387707471847534 0.88907474279403687
0.65524077415466309 0.26876154541969299 0.89953553676605225
0.79958724975585938 0.25311234593391418 0.91311430931091309
0.94777876138687134 0.26337331533432007 0.92850929498672485
0.99766463041305542 0.39216738939285278 0.92044323682785034
0.36495816707611084 0.38990971446037292 0.87364363670349121
0.40744659304618835 0.38864016532897949 0.87289977073669434
0.50115454196929932 0.38545459508895874 0.87989431619644165
0.62989747524261475 0.38910111784934998 0.8933185338973999
0.77925384044647217 0.39960277080535889 0.90877169370651245
0.92966341972351074 0.43034836649894714 0.92332005500793457
0.99158042669296265 0.50639790296554565 0.91801506280899048
0.25183451175689697 0.4960792064666748 0.85767590999603271
0.30856862664222717 0.49476969242095947 0.86002230644226074
0.43050310015678406 0.50428885221481323 0.86694186925888062
0.58181822299957275 0.51987040042877197 0.88261348009109497
0.74156880378723145 0.54223161935806274 0.89719074964523315
0.89436966180801392 0.58109992742538452 0.91570979356765747
0.96889567375183105 0.62899434566497803 0.91070306301116943
0.15844175219535828 0.62900233268737793 0.83409571647644043
0.21459212899208069 0.62525242567062378 0.83393317461013794
0.32896363735198975 0.62362903356552124 0.84024971723556519
0.48772433400154114 0.62845951318740845 0.85836929082870483
0.68350124359130859 0.6643829345703125 0.88305681943893433
0.85031449794769287 0.70512986183166504 0.90929645299911499
0.94151097536087036 0.73705613613128662 0.90928107500076294
0.3533986508846283 0.75902795791625977 0.85963457822799683
0.37626752257347107 0.75816589593887329 0.85836660861968994
0.43327400088310242 0.75936710834503174 0.8589978814125061
0.51188987493515015 0.75921469926834106 0.8592602014541626
0.61903500556945801 0.76165372133255005 0.86296403408050537
0.79479604959487915 0.79511779546737671 0.89108723402023315
0.91428166627883911 0.82421982288360596 0.90797674655914307
0.56280314922332764 0.87030065059661865 0.89585691690444946
0.58155757188796997 0.87330496311187744 0.89984077215194702
0.61272388696670532 0.87191092967987061 0.89546024799346924
0.66690266132354736 0.87544709444046021 0.89933496713638306
0.73296487331390381 0.88096326589584351 0.90767759084701538
0.8219679594039917 0.88779199123382568 0.91299813985824585
0.91431325674057007 0.90024638175964355 0.91966980695724487
