luts/instant_pro/fuji_fp-3000b_negative_+++.cube
# Created by: G'MIC (https://gmic.eu)
TITLE "fuji_fp-3000b_negative_+++"
# LUT size
LUT_3D_SIZE 5
# Data domain
DOMAIN_MIN 0.0 0.0 0.0
DOMAIN_MAX 1.0 1.0 1.0
# LUT data points
0.11912251263856888 0.11912251263856888 0.11912251263856888
0.13377372920513153 0.13377372920513153 0.13377372920513153
0.23516787588596344 0.23516787588596344 0.23516787588596344
0.42052289843559265 0.42052289843559265 0.42052289843559265
0.60292011499404907 0.60292011499404907 0.60292011499404907
0.1863640695810318 0.1863640695810318 0.1863640695810318
0.18900886178016663 0.18900886178016663 0.18900886178016663
0.29755851626396179 0.29755851626396179 0.29755851626396179
0.47378018498420715 0.47378018498420715 0.47378018498420715
0.63116663694381714 0.63116663694381714 0.63116663694381714
0.34557059407234192 0.34557059407234192 0.34557059407234192
0.32159340381622314 0.32159340381622314 0.32159340381622314
0.41912305355072021 0.41912305355072021 0.41912305355072021
0.56508201360702515 0.56508201360702515 0.56508201360702515
0.6718941330909729 0.6718941330909729 0.6718941330909729
0.54360508918762207 0.54360508918762207 0.54360508918762207
0.53830695152282715 0.53830695152282715 0.53830695152282715
0.57296860218048096 0.57296860218048096 0.57296860218048096
0.64519113302230835 0.64519113302230835 0.64519113302230835
0.70069503784179688 0.70069503784179688 0.70069503784179688
0.69994419813156128 0.69994419813156128 0.69994419813156128
0.70946168899536133 0.70946168899536133 0.70946168899536133
0.7021220326423645 0.7021220326423645 0.7021220326423645
0.7063254714012146 0.7063254714012146 0.7063254714012146
0.71727287769317627 0.71727287769317627 0.71727287769317627
0.18204739689826965 0.18204739689826965 0.18204739689826965
0.2053942084312439 0.2053942084312439 0.2053942084312439
0.29724341630935669 0.29724341630935669 0.29724341630935669
0.47646605968475342 0.47646605968475342 0.47646605968475342
0.62085789442062378 0.62085789442062378 0.62085789442062378
0.23522856831550598 0.23522856831550598 0.23522856831550598
0.24937556684017181 0.24937556684017181 0.24937556684017181
0.35149523615837097 0.35149523615837097 0.35149523615837097
0.50872504711151123 0.50872504711151123 0.50872504711151123
0.64580267667770386 0.64580267667770386 0.64580267667770386
0.43453088402748108 0.43453088402748108 0.43453088402748108
0.40119606256484985 0.40119606256484985 0.40119606256484985
0.4698900580406189 0.4698900580406189 0.4698900580406189
0.58724284172058105 0.58724284172058105 0.58724284172058105
0.68017417192459106 0.68017417192459106 0.68017417192459106
0.6064714789390564 0.6064714789390564 0.6064714789390564
0.58225458860397339 0.58225458860397339 0.58225458860397339
0.60046815872192383 0.60046815872192383 0.60046815872192383
0.65843343734741211 0.65843343734741211 0.65843343734741211
0.7069472074508667 0.7069472074508667 0.7069472074508667
0.70794844627380371 0.70794844627380371 0.70794844627380371
0.70440888404846191 0.70440888404846191 0.70440888404846191
0.70428323745727539 0.70428323745727539 0.70428323745727539
0.7116391658782959 0.7116391658782959 0.7116391658782959
0.72511571645736694 0.72511571645736694 0.72511571645736694
0.37213605642318726 0.37213605642318726 0.37213605642318726
0.40976113080978394 0.40976113080978394 0.40976113080978394
0.47165960073471069 0.47165960073471069 0.47165960073471069
0.54552972316741943 0.54552972316741943 0.54552972316741943
0.64533352851867676 0.64533352851867676 0.64533352851867676
0.38749781250953674 0.38749781250953674 0.38749781250953674
0.42173710465431213 0.42173710465431213 0.42173710465431213
0.49536040425300598 0.49536040425300598 0.49536040425300598
0.57502657175064087 0.57502657175064087 0.57502657175064087
0.66568595170974731 0.66568595170974731 0.66568595170974731
0.4941820502281189 0.4941820502281189 0.4941820502281189
0.51450824737548828 0.51450824737548828 0.51450824737548828
0.56599903106689453 0.56599903106689453 0.56599903106689453
0.63238739967346191 0.63238739967346191 0.63238739967346191
0.69140052795410156 0.69140052795410156 0.69140052795410156
0.65469479560852051 0.65469479560852051 0.65469479560852051
0.65826761722564697 0.65826761722564697 0.65826761722564697
0.65908169746398926 0.65908169746398926 0.65908169746398926
0.68198108673095703 0.68198108673095703 0.68198108673095703
0.7119523286819458 0.7119523286819458 0.7119523286819458
0.71670091152191162 0.71670091152191162 0.71670091152191162
0.71589726209640503 0.71589726209640503 0.71589726209640503
0.71522241830825806 0.71522241830825806 0.71522241830825806
0.71766126155853271 0.71766126155853271 0.71766126155853271
0.72721576690673828 0.72721576690673828 0.72721576690673828
0.59135228395462036 0.59135228395462036 0.59135228395462036
0.61369502544403076 0.61369502544403076 0.61369502544403076
0.6610262393951416 0.6610262393951416 0.6610262393951416
0.65828311443328857 0.65828311443328857 0.65828311443328857
0.68551647663116455 0.68551647663116455 0.68551647663116455
0.62161242961883545 0.62161242961883545 0.62161242961883545
0.61545801162719727 0.61545801162719727 0.61545801162719727
0.65644264221191406 0.65644264221191406 0.65644264221191406
0.6715514063835144 0.6715514063835144 0.6715514063835144
0.69820481538772583 0.69820481538772583 0.69820481538772583
0.61636686325073242 0.61636686325073242 0.61636686325073242
0.6260221004486084 0.6260221004486084 0.6260221004486084
0.66463285684585571 0.66463285684585571 0.66463285684585571
0.68723136186599731 0.68723136186599731 0.68723136186599731
0.70974612236022949 0.70974612236022949 0.70974612236022949
0.67776840925216675 0.67776840925216675 0.67776840925216675
0.6888694167137146 0.6888694167137146 0.6888694167137146
0.6971784234046936 0.6971784234046936 0.6971784234046936
0.70414352416992188 0.70414352416992188 0.70414352416992188
0.71676969528198242 0.71676969528198242 0.71676969528198242
0.71862274408340454 0.71862274408340454 0.71862274408340454
0.72269737720489502 0.72269737720489502 0.72269737720489502
0.72244095802307129 0.72244095802307129 0.72244095802307129
0.72003501653671265 0.72003501653671265 0.72003501653671265
0.72376364469528198 0.72376364469528198 0.72376364469528198
0.71336883306503296 0.71336883306503296 0.71336883306503296
0.71616870164871216 0.71616870164871216 0.71616870164871216
0.71903723478317261 0.71903723478317261 0.71903723478317261
0.7169763445854187 0.7169763445854187 0.7169763445854187
0.71764254570007324 0.71764254570007324 0.71764254570007324
0.72185659408569336 0.72185659408569336 0.72185659408569336
0.71422094106674194 0.71422094106674194 0.71422094106674194
0.71400928497314453 0.71400928497314453 0.71400928497314453
0.71850490570068359 0.71850490570068359 0.71850490570068359
0.72347372770309448 0.72347372770309448 0.72347372770309448
0.7097771167755127 0.7097771167755127 0.7097771167755127
0.70909768342971802 0.70909768342971802 0.70909768342971802
0.71305388212203979 0.71305388212203979 0.71305388212203979
0.71746838092803955 0.71746838092803955 0.71746838092803955
0.72459930181503296 0.72459930181503296 0.72459930181503296
0.7108461856842041 0.7108461856842041 0.7108461856842041
0.71478581428527832 0.71478581428527832 0.71478581428527832
0.7172965407371521 0.7172965407371521 0.7172965407371521
0.71729415655136108 0.71729415655136108 0.71729415655136108
0.72135412693023682 0.72135412693023682 0.72135412693023682
0.71958929300308228 0.71958929300308228 0.71958929300308228
0.72468006610870361 0.72468006610870361 0.72468006610870361
0.72503840923309326 0.72503840923309326 0.72503840923309326
0.72094547748565674 0.72094547748565674 0.72094547748565674
0.72029203176498413 0.72029203176498413 0.72029203176498413
