luts/instant_pro/fuji_fp-100c_+++.cube
# Created by: G'MIC (https://gmic.eu)
TITLE "fuji_fp-100c_+++"
# LUT size
LUT_3D_SIZE 13
# Data domain
DOMAIN_MIN 0.0 0.0 0.0
DOMAIN_MAX 1.0 1.0 1.0
# LUT data points
0.29607173800468445 0.28339260816574097 0.30626913905143738
0.30576655268669128 0.28147608041763306 0.30477210879325867
0.31927639245986938 0.27800297737121582 0.29978951811790466
0.33358332514762878 0.27456715703010559 0.29417583346366882
0.35888653993606567 0.27274009585380554 0.29200595617294312
0.40418502688407898 0.27465406060218811 0.29299938678741455
0.45644921064376831 0.27521225810050964 0.29392966628074646
0.53083133697509766 0.27663365006446838 0.29527610540390015
0.61076194047927856 0.28016349673271179 0.29555788636207581
0.69273793697357178 0.28389632701873779 0.29460513591766357
0.77398192882537842 0.29134646058082581 0.2936561107635498
0.85508871078491211 0.30268818140029907 0.29358088970184326
0.93084746599197388 0.31297910213470459 0.29271587729454041
0.29508748650550842 0.2878473699092865 0.30162706971168518
0.30536049604415894 0.28643956780433655 0.30134660005569458
0.31991136074066162 0.28645604848861694 0.29787999391555786
0.33925265073776245 0.2842974066734314 0.29411405324935913
0.36562266945838928 0.28218361735343933 0.29234099388122559
0.41177034378051758 0.28429609537124634 0.2933197021484375
0.46724295616149902 0.28741559386253357 0.29398044943809509
0.53804093599319458 0.2904452383518219 0.29520532488822937
0.61894035339355469 0.29641562700271606 0.29558822512626648
0.70254212617874146 0.30315122008323669 0.29538658261299133
0.78381222486495972 0.31049266457557678 0.29403805732727051
0.86219149827957153 0.32227012515068054 0.29325979948043823
0.93316775560379028 0.33364185690879822 0.29224482178688049
0.29261359572410583 0.29499202966690063 0.29668161273002625
0.30406627058982849 0.2975803017616272 0.29667520523071289
0.31738609075546265 0.29871916770935059 0.29477956891059875
0.34000036120414734 0.29796674847602844 0.29304802417755127
0.37371215224266052 0.29853394627571106 0.29291674494743347
0.42528274655342102 0.30386406183242798 0.29462242126464844
0.48629483580589294 0.31549376249313354 0.29526129364967346
0.55618327856063843 0.32535898685455322 0.29564929008483887
0.63474714756011963 0.3289942741394043 0.29625877737998962
0.71601718664169312 0.3311612606048584 0.29540660977363586
0.79491263628005981 0.33498978614807129 0.29371601343154907
0.87068450450897217 0.34802192449569702 0.29318279027938843
0.94067376852035522 0.35894429683685303 0.29180008172988892
0.29050758481025696 0.31993961334228516 0.29745489358901978
0.3024010956287384 0.32259809970855713 0.29696008563041687
0.31524968147277832 0.32187601923942566 0.29489895701408386
0.34169736504554749 0.32208892703056335 0.29380989074707031
0.38788014650344849 0.32897290587425232 0.29529646039009094
0.44133868813514709 0.33830153942108154 0.29539239406585693
0.51109075546264648 0.35292708873748779 0.29642316699028015
0.58320528268814087 0.36761960387229919 0.2963617742061615
0.65920728445053101 0.37595269083976746 0.29613205790519714
0.73888349533081055 0.37763133645057678 0.29522347450256348
0.80991119146347046 0.37856453657150269 0.2928447425365448
0.8796650767326355 0.38774111866950989 0.29210677742958069
0.94473117589950562 0.39958581328392029 0.29285451769828796
0.28988108038902283 0.35894015431404114 0.30087345838546753
0.30152460932731628 0.36054107546806335 0.30020609498023987
0.31617569923400879 0.3606509268283844 0.2992425262928009
0.34555706381797791 0.36140453815460205 0.29896053671836853
0.39137342572212219 0.36838710308074951 0.29781332612037659
0.4469144344329834 0.38069406151771545 0.29496967792510986
0.5195731520652771 0.39461514353752136 0.29208275675773621
0.60158258676528931 0.40902632474899292 0.29333069920539856
0.68416523933410645 0.42206388711929321 0.29449537396430969
0.76162391901016235 0.42782750725746155 0.29405897855758667
0.82597392797470093 0.42817354202270508 0.29157200455665588
0.88930201530456543 0.4326167106628418 0.29124698042869568
0.95151436328887939 0.44540327787399292 0.29386362433433533
0.28804412484169006 0.3986828625202179 0.30338948965072632
0.30151841044425964 0.40097144246101379 0.30397039651870728
0.31815797090530396 0.40117564797401428 0.30400654673576355
0.34699133038520813 0.40227636694908142 0.30378291010856628
0.38869383931159973 0.41022881865501404 0.29911002516746521
0.44340571761131287 0.42310610413551331 0.29395470023155212
0.51413506269454956 0.43672856688499451 0.28747451305389404
0.59232950210571289 0.45156070590019226 0.2834075391292572
0.68316113948822021 0.46558943390846252 0.28601163625717163
0.76937621831893921 0.47968026995658875 0.28921148180961609
0.83849656581878662 0.48834875226020813 0.29111197590827942
0.90447866916656494 0.49383273720741272 0.29357939958572388
0.96516382694244385 0.50031006336212158 0.29629585146903992
0.28099179267883301 0.45042982697486877 0.30508401989936829
0.29694440960884094 0.44935417175292969 0.30644375085830688
0.31639298796653748 0.44677984714508057 0.30686745047569275
0.34528917074203491 0.44648751616477966 0.30606040358543396
0.38552197813987732 0.45503425598144531 0.29975011944770813
0.43509632349014282 0.46696212887763977 0.29172715544700623
0.50567775964736938 0.47998076677322388 0.28312018513679504
0.58004146814346313 0.49477821588516235 0.27381607890129089
0.66413265466690063 0.51119893789291382 0.27243268489837646
0.75178110599517822 0.52947843074798584 0.27564546465873718
0.83622562885284424 0.54480791091918945 0.28237196803092957
0.91512465476989746 0.55707263946533203 0.29089108109474182
0.97090798616409302 0.56560558080673218 0.30287104845046997
0.27078038454055786 0.50816869735717773 0.30537670850753784
0.28938060998916626 0.50779438018798828 0.30724382400512695
0.31066668033599854 0.5069350004196167 0.30864152312278748
0.3426300585269928 0.50598829984664917 0.30758404731750488
0.38284879922866821 0.51196378469467163 0.30181154608726501
0.43123269081115723 0.52033442258834839 0.29412615299224854
0.49982330203056335 0.53266477584838867 0.28434598445892334
0.57314318418502808 0.54774290323257446 0.27386689186096191
0.65154200792312622 0.56212073564529419 0.2630460262298584
0.73655247688293457 0.57818591594696045 0.25812307000160217
0.82252943515777588 0.59503024816513062 0.26143258810043335
0.90043634176254272 0.61031949520111084 0.27448228001594543
0.96711266040802002 0.62487250566482544 0.29641517996788025
0.26203200221061707 0.57235604524612427 0.30653077363967896
0.28207480907440186 0.57292002439498901 0.30785402655601501
0.30476123094558716 0.57288640737533569 0.30893945693969727
0.34038341045379639 0.57291942834854126 0.30773693323135376
0.38385140895843506 0.57568573951721191 0.30367556214332581
0.43171638250350952 0.57776594161987305 0.2973426878452301
0.49680846929550171 0.58892726898193359 0.28841984272003174
0.57014745473861694 0.60605746507644653 0.27837830781936646
0.64827650785446167 0.61975312232971191 0.26466166973114014
0.72988694906234741 0.63186532258987427 0.24730382859706879
0.81167370080947876 0.64577627182006836 0.23794916272163391
0.88812506198883057 0.661110520362854 0.24922566115856171
0.95987141132354736 0.67737805843353271 0.26838251948356628
0.25404468178749084 0.64272403717041016 0.30818787217140198
0.27576941251754761 0.64074736833572388 0.30929073691368103
0.30044123530387878 0.6392824649810791 0.30918106436729431
0.3425726592540741 0.64118200540542603 0.30939188599586487
0.39020738005638123 0.64549416303634644 0.30864515900611877
0.44005665183067322 0.64478850364685059 0.30291420221328735
0.50066739320755005 0.65122038125991821 0.2937411367893219
0.57009369134902954 0.66547125577926636 0.28243720531463623
0.64588207006454468 0.67881900072097778 0.2685512900352478
0.72573959827423096 0.69070649147033691 0.25270602107048035
0.80410850048065186 0.70059531927108765 0.22923967242240906
0.88137626647949219 0.71221911907196045 0.21479935944080353
0.95612406730651855 0.72804182767868042 0.23324193060398102
0.26537594199180603 0.72020220756530762 0.31815263628959656
0.28585156798362732 0.71846473217010498 0.3188207745552063
0.31602329015731812 0.71476489305496216 0.32053664326667786
0.35922205448150635 0.7147819995880127 0.32179993391036987
0.40781483054161072 0.71801376342773438 0.32105037569999695
0.46030601859092712 0.71634888648986816 0.31448790431022644
0.51776975393295288 0.72012150287628174 0.30699756741523743
0.58439856767654419 0.73177456855773926 0.29971033334732056
0.65333223342895508 0.7419971227645874 0.28334608674049377
0.7286950945854187 0.75208872556686401 0.2653958797454834
0.80510222911834717 0.76141226291656494 0.24274401366710663
0.8809935450553894 0.76963329315185547 0.21131379902362823
0.95248758792877197 0.77974921464920044 0.19369906187057495
0.31212788820266724 0.80203014612197876 0.35155019164085388
0.32870805263519287 0.80043953657150269 0.35116985440254211
0.35860744118690491 0.79807877540588379 0.35319557785987854
0.39736971259117126 0.79449504613876343 0.35264125466346741
0.44957417249679565 0.79401475191116333 0.35651761293411255
0.50562906265258789 0.79307937622070312 0.35798925161361694
0.55764973163604736 0.79541730880737305 0.35036107897758484
0.62084698677062988 0.8044428825378418 0.34677374362945557
0.68282902240753174 0.81190282106399536 0.32946524024009705
0.74947589635848999 0.81706821918487549 0.3102576732635498
0.81980586051940918 0.82467126846313477 0.28781062364578247
0.88920515775680542 0.83169424533843994 0.25962343811988831
0.95450276136398315 0.83705425262451172 0.22348138689994812
0.43263375759124756 0.87751823663711548 0.44717490673065186
0.44325035810470581 0.87597274780273438 0.4452570378780365
0.46375802159309387 0.87468558549880981 0.44589012861251831
0.49676734209060669 0.87276178598403931 0.44801586866378784
0.53800344467163086 0.87212955951690674 0.44982662796974182
0.58696484565734863 0.86962658166885376 0.45641982555389404
0.63696634769439697 0.86918628215789795 0.46085074543952942
0.68690431118011475 0.8737790584564209 0.45537024736404419
0.73896396160125732 0.87983942031860352 0.44657120108604431
0.79392808675765991 0.8830486536026001 0.43286922574043274
0.85208761692047119 0.88764649629592896 0.41708812117576599
0.91010260581970215 0.89303570985794067 0.39647507667541504
0.96538847684860229 0.8972131609916687 0.37202593684196472
0.29551008343696594 0.27884951233863831 0.30985328555107117
0.30313503742218018 0.27993643283843994 0.30732163786888123
0.31399518251419067 0.27759957313537598 0.30506843328475952
0.328004390001297 0.27541545033454895 0.30149158835411072
0.35889548063278198 0.27540326118469238 0.30250108242034912
0.40397253632545471 0.27711784839630127 0.30650347471237183
0.45955139398574829 0.2758156955242157 0.30934128165245056
0.53194564580917358 0.27164372801780701 0.30982211232185364
0.61050891876220703 0.27168148756027222 0.31003817915916443
0.69234538078308105 0.27388769388198853 0.30952322483062744
0.77355927228927612 0.27938768267631531 0.30937680602073669
0.85354667901992798 0.29087555408477783 0.30870792269706726
0.926372230052948 0.3028779923915863 0.30730736255645752
0.29447260499000549 0.28488770127296448 0.30640605092048645
0.30240023136138916 0.28433555364608765 0.30531796813011169
0.31691312789916992 0.28501766920089722 0.30333468317985535
0.33633905649185181 0.28620436787605286 0.30286368727684021
0.36683917045593262 0.28563690185546875 0.30471926927566528
0.41598978638648987 0.2857053279876709 0.30728340148925781
0.47400692105293274 0.2860817015171051 0.30928331613540649
0.54348176717758179 0.28561863303184509 0.3109433650970459
0.62079352140426636 0.28850701451301575 0.31191226840019226
0.70334619283676147 0.29353588819503784 0.31076505780220032
0.78385454416275024 0.29973071813583374 0.30906844139099121
0.86156535148620605 0.31228858232498169 0.30562517046928406
0.93448585271835327 0.32404616475105286 0.30254378914833069
0.29239243268966675 0.29823485016822815 0.30585101246833801
0.30171361565589905 0.29933226108551025 0.30435293912887573
0.31896230578422546 0.30026981234550476 0.30389973521232605
0.34336259961128235 0.30177733302116394 0.30400627851486206
0.37765353918075562 0.3023504912853241 0.30556187033653259
0.43287390470504761 0.30419665575027466 0.30855485796928406
0.49406713247299194 0.31304889917373657 0.31008481979370117
0.56291478872299194 0.32022801041603088 0.31214484572410583
0.63920539617538452 0.32275816798210144 0.31329655647277832
0.72002404928207397 0.3252662718296051 0.31323584914207458
0.79775881767272949 0.33004581928253174 0.31109541654586792
0.87370556592941284 0.34316393733024597 0.30584082007408142
0.94337475299835205 0.3542005717754364 0.30198752880096436
0.28959038853645325 0.3292052149772644 0.31152454018592834
0.30113920569419861 0.33198052644729614 0.309673011302948
0.31945857405662537 0.33059272170066833 0.30967485904693604
0.34616753458976746 0.32750830054283142 0.30730393528938293
0.38849946856498718 0.33147835731506348 0.30625629425048828
0.44885483384132385 0.34308800101280212 0.30821827054023743
0.51559853553771973 0.35504588484764099 0.31042557954788208
0.5878264307975769 0.36598917841911316 0.31113234162330627
0.66342359781265259 0.37126028537750244 0.31204888224601746
0.74164968729019165 0.37423458695411682 0.31134626269340515
0.81275320053100586 0.3782404363155365 0.30914482474327087
0.88371020555496216 0.38759616017341614 0.30553326010704041
0.94696688652038574 0.39901551604270935 0.30508697032928467
0.28427261114120483 0.37009003758430481 0.3131803572177887
0.29803496599197388 0.37122267484664917 0.31334945559501648
0.31818956136703491 0.37130284309387207 0.3142629861831665
0.34782704710960388 0.36918836832046509 0.31330463290214539
0.39227882027626038 0.37374815344810486 0.30872738361358643
0.45642945170402527 0.38793143630027771 0.30586016178131104
0.52751427888870239 0.40135684609413147 0.30537205934524536
0.60569339990615845 0.41269806027412415 0.3072170615196228
0.68716305494308472 0.42087990045547485 0.30887672305107117
0.76297909021377563 0.42540526390075684 0.30712360143661499
0.82755017280578613 0.42785590887069702 0.30706092715263367
0.89156407117843628 0.43411463499069214 0.30699309706687927
0.95367723703384399 0.44570958614349365 0.30765876173973083
0.2799493670463562 0.41165536642074585 0.31529900431632996
0.29384437203407288 0.41385257244110107 0.31541681289672852
0.31496283411979675 0.41376525163650513 0.31711569428443909
0.34909278154373169 0.41292944550514221 0.31907835602760315
0.39234074950218201 0.41867524385452271 0.31173980236053467
0.45164093375205994 0.43067681789398193 0.30525919795036316
0.52510970830917358 0.44345900416374207 0.2988029420375824
0.60184109210968018 0.45577669143676758 0.29599872231483459
0.69015228748321533 0.46778327226638794 0.30020326375961304
0.77361190319061279 0.4802890419960022 0.30378082394599915
0.84120804071426392 0.48933929204940796 0.30846145749092102
0.90489417314529419 0.49485698342323303 0.3096064031124115
0.96511507034301758 0.5001569390296936 0.31028351187705994
0.27275371551513672 0.46377575397491455 0.31808125972747803
0.28814023733139038 0.4612220823764801 0.31748172640800476
0.31151917576789856 0.45914718508720398 0.31839126348495483
0.34769889712333679 0.4593508243560791 0.31958466768264771
0.38979318737983704 0.46386709809303284 0.31239950656890869
0.44106748700141907 0.47422951459884644 0.30433011054992676
0.51420468091964722 0.48612463474273682 0.29336139559745789
0.58920621871948242 0.4995153546333313 0.28344652056694031
0.67419403791427612 0.51483070850372314 0.28468877077102661
0.76077979803085327 0.53231805562973022 0.29008987545967102
0.8404010534286499 0.54781734943389893 0.30089542269706726
0.91006171703338623 0.55713272094726562 0.30596122145652771
0.96721452474594116 0.56247532367706299 0.31061592698097229
0.26010927557945251 0.52377420663833618 0.32231432199478149
0.28082197904586792 0.52051854133605957 0.31930810213088989
0.30618700385093689 0.51859360933303833 0.32063370943069458
0.3422466516494751 0.51512706279754639 0.32078176736831665
0.38496938347816467 0.51708924770355225 0.31442117691040039
0.43549203872680664 0.52675712108612061 0.30643922090530396
0.50698578357696533 0.53874427080154419 0.29579129815101624
0.58246493339538574 0.55229926109313965 0.28391161561012268
0.66208821535110474 0.56548535823822021 0.27409321069717407
0.74510544538497925 0.58124434947967529 0.26969748735427856
0.82656466960906982 0.59726345539093018 0.27719020843505859
0.902912437915802 0.60932236909866333 0.28651455044746399
0.96716618537902832 0.62183332443237305 0.30587887763977051
0.25179538130760193 0.58505886793136597 0.32255259156227112
0.27254921197891235 0.58395427465438843 0.32088029384613037
0.29956364631652832 0.58300304412841797 0.32304519414901733
0.33851391077041626 0.57978957891464233 0.32166171073913574
0.38321849703788757 0.57842999696731567 0.31687819957733154
0.4348350465297699 0.58366662263870239 0.31049111485481262
0.50300252437591553 0.59563678503036499 0.30135715007781982
0.57718771696090698 0.60920053720474243 0.28978368639945984
0.65589559078216553 0.6221926212310791 0.27601543068885803
0.73571699857711792 0.63485246896743774 0.25800600647926331
0.81491506099700928 0.64772427082061768 0.24892555177211761
0.89252680540084839 0.65996646881103516 0.25981545448303223
0.96330970525741577 0.67639237642288208 0.28454163670539856
0.24632999300956726 0.6497693657875061 0.3216782808303833
0.26555207371711731 0.64908814430236816 0.32178071141242981
0.29637390375137329 0.64801216125488281 0.32430794835090637
0.34069490432739258 0.64794057607650757 0.32400739192962646
0.39026021957397461 0.64855581521987915 0.32173237204551697
0.44386640191078186 0.65013390779495239 0.31718465685844421
0.50668704509735107 0.65788304805755615 0.30852991342544556
0.57328528165817261 0.66861814260482788 0.29607495665550232
0.64983415603637695 0.68114405870437622 0.28107541799545288
0.72860157489776611 0.6932443380355835 0.26247772574424744
0.80669188499450684 0.70234388113021851 0.24100886285305023
0.88330608606338501 0.71229678392410278 0.22830371558666229
0.95648598670959473 0.72745543718338013 0.24822412431240082
0.2568187415599823 0.72542363405227661 0.32940259575843811
0.2773347795009613 0.72435718774795532 0.32962903380393982
0.31051918864250183 0.72209018468856812 0.33237352967262268
0.35511001944541931 0.71966207027435303 0.3326050341129303
0.40587565302848816 0.72020119428634644 0.33023551106452942
0.46305477619171143 0.722190260887146 0.3287290632724762
0.52136683464050293 0.72624504566192627 0.32100841403007507
0.58574998378753662 0.73514151573181152 0.31131237745285034
0.65563279390335083 0.74491357803344727 0.29539918899536133
0.72930997610092163 0.75355792045593262 0.27401620149612427
0.80699622631072998 0.76299130916595459 0.25413665175437927
0.88323521614074707 0.77118414640426636 0.22457690536975861
0.95181363821029663 0.77949893474578857 0.21004754304885864
0.30902901291847229 0.80510735511779785 0.36529943346977234
0.32788461446762085 0.80377334356307983 0.36605879664421082
0.35549622774124146 0.80092394351959229 0.36543950438499451
0.39596974849700928 0.79788684844970703 0.36517509818077087
0.44979536533355713 0.79745709896087646 0.36861744523048401
0.50642037391662598 0.79758334159851074 0.36975592374801636
0.55960166454315186 0.7983543872833252 0.36413553357124329
0.61925190687179565 0.80572259426116943 0.35378900170326233
0.68137973546981812 0.81343811750411987 0.33882215619087219
0.75056475400924683 0.81994658708572388 0.32405522465705872
0.82066398859024048 0.82723945379257202 0.30185151100158691
0.8907744288444519 0.83303701877593994 0.27585539221763611
0.95489501953125 0.83870947360992432 0.24078334867954254
0.43054121732711792 0.87871789932250977 0.45845761895179749
0.44297406077384949 0.877857506275177 0.45796078443527222
0.46237653493881226 0.87575012445449829 0.4561164379119873
0.49632629752159119 0.87394130229949951 0.45778903365135193
0.53865116834640503 0.87339401245117188 0.46207103133201599
0.58646416664123535 0.87099564075469971 0.46673879027366638
0.63857603073120117 0.87001335620880127 0.47361445426940918
0.68616962432861328 0.87341547012329102 0.46467819809913635
0.73737770318984985 0.87942194938659668 0.4572901725769043
0.79301488399505615 0.88354611396789551 0.44542881846427917
0.85114282369613647 0.88877028226852417 0.43013432621955872
0.90884554386138916 0.89238148927688599 0.41120120882987976
0.96350699663162231 0.89751523733139038 0.38821429014205933
0.29462483525276184 0.27375993132591248 0.31495484709739685
0.30254620313644409 0.27650991082191467 0.31606689095497131
0.31398600339889526 0.27561771869659424 0.31690734624862671
0.32787227630615234 0.2746187150478363 0.31546208262443542
0.35513982176780701 0.27774521708488464 0.3166363537311554
0.3982536792755127 0.27927911281585693 0.32217821478843689
0.45730790495872498 0.27681100368499756 0.32654339075088501
0.5327993631362915 0.27015656232833862 0.32858797907829285
0.6110418438911438 0.26157751679420471 0.32579123973846436
0.69220507144927979 0.26061975955963135 0.32444304227828979
0.77314716577529907 0.26525416970252991 0.3257659375667572
0.85281121730804443 0.27555835247039795 0.32676407694816589
0.92570400238037109 0.28917115926742554 0.32373914122581482
0.2941221296787262 0.28191801905632019 0.31471160054206848
0.30001705884933472 0.28141674399375916 0.31450659036636353
0.31713226437568665 0.28338953852653503 0.31707614660263062
0.33628669381141663 0.2854691743850708 0.31885170936584473
0.36543735861778259 0.28760999441146851 0.31974980235099792
0.4170001745223999 0.28625646233558655 0.32286196947097778
0.47937443852424622 0.28335180878639221 0.32541933655738831
0.55095583200454712 0.28086715936660767 0.32875517010688782
0.62485641241073608 0.27912437915802002 0.32937517762184143
0.70395523309707642 0.28028833866119385 0.32731887698173523
0.78380411863327026 0.28497371077537537 0.32644298672676086
0.86198455095291138 0.29694545269012451 0.32443833351135254
0.93488132953643799 0.30950859189033508 0.31993165612220764
0.29365462064743042 0.29969704151153564 0.31966426968574524
0.30120235681533813 0.30178719758987427 0.31914687156677246
0.3214738667011261 0.30250579118728638 0.32240051031112671
0.34456256031990051 0.30264389514923096 0.32165616750717163
0.38015633821487427 0.30422124266624451 0.32202437520027161
0.4370410144329071 0.30402880907058716 0.3251044750213623
0.50021970272064209 0.3084256649017334 0.32618966698646545
0.56962853670120239 0.31128761172294617 0.33124545216560364
0.64345026016235352 0.31204098463058472 0.33456948399543762
0.72107845544815063 0.31278255581855774 0.33270934224128723
0.79791295528411865 0.31795135140419006 0.33080950379371643
0.87406778335571289 0.33128318190574646 0.32550200819969177
0.94523102045059204 0.34290358424186707 0.32091438770294189
0.29113176465034485 0.32988184690475464 0.32830286026000977
0.30274513363838196 0.33727940917015076 0.32820650935173035
0.32299700379371643 0.33662992715835571 0.32991501688957214
0.34994244575500488 0.33384281396865845 0.32644563913345337
0.39106816053390503 0.33611807227134705 0.32469600439071655
0.45294341444969177 0.34657090902328491 0.32656678557395935
0.51950752735137939 0.35517969727516174 0.32960659265518188
0.59176892042160034 0.35898137092590332 0.33463451266288757
0.66635489463806152 0.36112865805625916 0.33433327078819275
0.73956304788589478 0.36511170864105225 0.33123275637626648
0.81278270483016968 0.37009775638580322 0.32746589183807373
0.88553082942962646 0.38143172860145569 0.32384982705116272
0.94888770580291748 0.39340174198150635 0.3243425190448761
0.28281238675117493 0.37442877888679504 0.33115699887275696
0.29903188347816467 0.37978309392929077 0.33474382758140564
0.32274287939071655 0.38115251064300537 0.33583411574363708
0.35135790705680847 0.37916508316993713 0.3328058123588562
0.39788836240768433 0.38404548168182373 0.32837373018264771
0.46283003687858582 0.39460206031799316 0.32307592034339905
0.53203809261322021 0.40523365139961243 0.3251972496509552
0.61069679260253906 0.4131540060043335 0.33570313453674316
0.68893992900848389 0.41735172271728516 0.33809211850166321
