luts/instant_pro/fuji_fp-100c_cool_-.cube
# Created by: G'MIC (https://gmic.eu)
TITLE "fuji_fp-100c_cool_-"
# LUT size
LUT_3D_SIZE 5
# Data domain
DOMAIN_MIN 0.0 0.0 0.0
DOMAIN_MAX 1.0 1.0 1.0
# LUT data points
0.031428169459104538 0.041905838996171951 0.043525397777557373
0.1919349879026413 0.02940896712243557 0.051727354526519775
0.48133203387260437 0.0071654673665761948 0.054560970515012741
0.77716761827468872 0.0044408012181520462 0.05527852475643158
0.97131747007369995 0.12500700354576111 0.076762929558753967
0.002417455893009901 0.2164633572101593 0.060487560927867889
0.20985826849937439 0.23325309157371521 0.027148870751261711
0.55623960494995117 0.25549733638763428 0.03704477846622467
0.80013126134872437 0.25792974233627319 0.055262904614210129
0.97174215316772461 0.32432559132575989 0.088082753121852875
2.8004365958622657e-05 0.47284519672393799 0.087203532457351685
0.1270868182182312 0.47505474090576172 0.072849884629249573
0.50395619869232178 0.50197756290435791 0.012969477102160454
0.79504227638244629 0.53395408391952515 0.012905868701636791
0.97367274761199951 0.57189446687698364 0.15036812424659729
0.006038665771484375 0.69780176877975464 0.13221818208694458
0.14968076348304749 0.69060075283050537 0.12135597318410873
0.47529008984565735 0.70195746421813965 0.046622123569250107
0.73809242248535156 0.72918105125427246 0.011984028853476048
0.94703906774520874 0.75768250226974487 0.0099146077409386635
0.37574857473373413 0.9179079532623291 0.38821178674697876
0.46529683470726013 0.91373282670974731 0.38404929637908936
0.61278808116912842 0.91401845216751099 0.39318016171455383
0.77835804224014282 0.92730134725570679 0.33503758907318115
0.95561319589614868 0.94556492567062378 0.1829535961151123
0.011318446137011051 0.033742703497409821 0.23015314340591431
0.25606012344360352 0.011488387361168861 0.26664897799491882
0.46528774499893188 0.048876550048589706 0.24660001695156097
0.76698380708694458 0.0087360907346010208 0.23308779299259186
0.96638578176498413 0.12683302164077759 0.23731158673763275
0.0018445781897753477 0.24675446748733521 0.27632635831832886
0.24063117802143097 0.27381575107574463 0.28915873169898987
0.56550341844558716 0.27115681767463684 0.28091490268707275
0.7935866117477417 0.26362353563308716 0.26004230976104736
0.96949607133865356 0.32738393545150757 0.26405322551727295
0.0042292275466024876 0.53293895721435547 0.30602884292602539
0.18368053436279297 0.53138983249664307 0.28898045420646667
0.55057185888290405 0.54374313354492188 0.23658089339733124
0.80486083030700684 0.55927819013595581 0.26020872592926025
0.96414262056350708 0.57078784704208374 0.32203370332717896
0.0059861126355826855 0.72232234477996826 0.29264020919799805
0.18494622409343719 0.71454066038131714 0.28932243585586548
0.49333629012107849 0.71589547395706177 0.26347935199737549
0.74129116535186768 0.73737400770187378 0.16045604646205902
0.94927239418029785 0.76184666156768799 0.18810835480690002
0.36776438355445862 0.92300176620483398 0.45714879035949707
0.45530900359153748 0.91896265745162964 0.45893388986587524
0.6126975417137146 0.91544437408447266 0.47188454866409302
0.77158689498901367 0.92648917436599731 0.43215969204902649
0.95294487476348877 0.94496089220046997 0.32533875107765198
0.0039227353408932686 0.020212436094880104 0.49959519505500793
0.32498458027839661 0.0041035669855773449 0.54691839218139648
0.69392997026443481 0.0010646894806995988 0.60469323396682739
0.74063956737518311 0.16368846595287323 0.51255738735198975
0.93562424182891846 0.19788080453872681 0.50006043910980225
0.0050926655530929565 0.23055721819400787 0.49344268441200256
0.29186785221099854 0.23938365280628204 0.55038124322891235
0.67966437339782715 0.23778805136680603 0.61405748128890991
0.75590771436691284 0.34932044148445129 0.5317191481590271
0.94574570655822754 0.31868773698806763 0.48700395226478577
0.015858085826039314 0.53312492370605469 0.55492508411407471
0.30796310305595398 0.55697578191757202 0.57060253620147705
0.61320394277572632 0.60797286033630371 0.60437649488449097
0.78850686550140381 0.59207254648208618 0.56806766986846924
0.94559311866760254 0.55723977088928223 0.52499866485595703
0.18963420391082764 0.76740354299545288 0.58457326889038086
0.34470438957214355 0.76549458503723145 0.5775182843208313
0.54730063676834106 0.76089072227478027 0.54699993133544922
0.76139980554580688 0.76443982124328613 0.50063890218734741
0.93980556726455688 0.79135096073150635 0.54067391157150269
0.36437559127807617 0.9355396032333374 0.61368036270141602
0.42519542574882507 0.93340599536895752 0.6039164662361145
0.582599937915802 0.91804808378219604 0.59842926263809204
0.76291418075561523 0.92844867706298828 0.59568434953689575
0.94580727815628052 0.94678741693496704 0.53141790628433228
0.1922466903924942 0.0063200858421623707 0.74122864007949829
0.40909409523010254 0.012863099575042725 0.76352745294570923
0.72811698913574219 0.00029296876164153218 0.81507033109664917
0.92922168970108032 0.0037641637027263641 0.8249393105506897
0.94497662782669067 0.32666298747062683 0.7535712718963623
0.15973269939422607 0.21997134387493134 0.73677384853363037
0.37358507513999939 0.20557393133640289 0.75509858131408691
0.69359534978866577 0.16605392098426819 0.8087889552116394
0.91840499639511108 0.2619234025478363 0.83128780126571655
0.92959755659103394 0.46282055974006653 0.75740450620651245
0.0054007885046303272 0.44619360566139221 0.67961210012435913
0.19606015086174011 0.46113258600234985 0.70102787017822266
0.58622390031814575 0.51988768577575684 0.76179260015487671
0.84865707159042358 0.60214811563491821 0.81581622362136841
0.89931666851043701 0.63766908645629883 0.76295799016952515
0.26197785139083862 0.72877949476242065 0.75223636627197266
0.37921878695487976 0.73583436012268066 0.75836396217346191
0.57659769058227539 0.76561504602432251 0.77768087387084961
0.78821629285812378 0.81199026107788086 0.80446439981460571
0.92323648929595947 0.79560393095016479 0.77690690755844116
0.45171239972114563 0.94520300626754761 0.83008062839508057
0.50560504198074341 0.94590336084365845 0.82422333955764771
0.61994683742523193 0.94424039125442505 0.81319153308868408
0.76090025901794434 0.93490707874298096 0.78602463006973267
0.93923258781433105 0.950400710105896 0.75831300020217896
0.52913224697113037 0.11192771792411804 0.95468705892562866
0.60773938894271851 0.068067751824855804 0.95919513702392578
0.77113860845565796 0.013341417536139488 0.96876126527786255
0.9647059440612793 0.003880474716424942 0.98121470212936401
1 0.19831328094005585 0.98040992021560669
0.49897730350494385 0.30941462516784668 0.94678819179534912
0.58473628759384155 0.30129563808441162 0.95070761442184448
0.74741137027740479 0.27037045359611511 0.96085637807846069
0.94561481475830078 0.25534659624099731 0.9787706732749939
0.99891120195388794 0.40498197078704834 0.9731520414352417
0.31729748845100403 0.51044905185699463 0.92773061990737915
0.45912498235702515 0.52162724733352661 0.93103682994842529
0.66475862264633179 0.53259265422821045 0.94186526536941528
0.88241231441497803 0.57846361398696899 0.95998573303222656
0.99454706907272339 0.63683342933654785 0.96197360754013062
0.21500787138938904 0.72650444507598877 0.91036957502365112
0.32702437043190002 0.72304105758666992 0.91007822751998901
0.49914848804473877 0.71641278266906738 0.90852421522140503
0.77141761779785156 0.76986032724380493 0.93387621641159058
0.97006535530090332 0.82216286659240723 0.96028596162796021
0.51735514402389526 0.9337964653968811 0.95009064674377441
0.55453985929489136 0.93198710680007935 0.94876205921173096
0.64494353532791138 0.93616658449172974 0.95221024751663208
0.77760493755340576 0.94188916683197021 0.95091539621353149
0.94795602560043335 0.9622572660446167 0.96042072772979736
