luts/instant_pro/fuji_fp-100c_cool_+.cube
# Created by: G'MIC (https://gmic.eu)
TITLE "fuji_fp-100c_cool_+"
# LUT size
LUT_3D_SIZE 7
# Data domain
DOMAIN_MIN 0.0 0.0 0.0
DOMAIN_MAX 1.0 1.0 1.0
# LUT data points
0.094856411218643188 0.064541608095169067 0.13498671352863312
0.15568393468856812 0.059771206229925156 0.13665235042572021
0.29851767420768738 0.036803539842367172 0.14463767409324646
0.47967579960823059 0.011862810701131821 0.15245717763900757
0.67771339416503906 0.010777357965707779 0.16522975265979767
0.83713102340698242 0.011652329005300999 0.17180123925209045
0.970378577709198 0.10074497014284134 0.18292555212974548
0.10196635127067566 0.13499908149242401 0.15166176855564117
0.17503853142261505 0.14057175815105438 0.15035761892795563
0.32607543468475342 0.14477430284023285 0.14955002069473267
0.51673716306686401 0.12357612699270248 0.16177552938461304
0.69869685173034668 0.1075265184044838 0.17065432667732239
0.84989786148071289 0.1555706113576889 0.17531463503837585
0.97390705347061157 0.24036616086959839 0.19266103208065033
0.069499567151069641 0.27478218078613281 0.17996691167354584
0.17389658093452454 0.27952885627746582 0.17570739984512329
0.34745132923126221 0.30621126294136047 0.15246318280696869
0.54842311143875122 0.33014830946922302 0.14849917590618134
0.73710352182388306 0.35095292329788208 0.17590390145778656
0.86975640058517456 0.36947456002235413 0.19006495177745819
0.9734223484992981 0.40196704864501953 0.21471907198429108
0.0043654497712850571 0.45664677023887634 0.20241047441959381
0.12052245438098907 0.4536164402961731 0.20139181613922119
0.31421101093292236 0.46672812104225159 0.18183791637420654
0.50674402713775635 0.48769006133079529 0.13176588714122772
0.70580542087554932 0.52050900459289551 0.084187917411327362
0.86555963754653931 0.5488811731338501 0.16374035179615021
0.97833538055419922 0.57263988256454468 0.24826274812221527
0.0043394798412919044 0.61543995141983032 0.22511759400367737
0.055707968771457672 0.6079602837562561 0.21688668429851532
0.28678655624389648 0.60799813270568848 0.20996089279651642
0.46572664380073547 0.61895489692687988 0.17827175557613373
0.66111046075820923 0.65234792232513428 0.069163978099822998
0.83087867498397827 0.67306411266326904 0.019455179572105408
0.95831590890884399 0.69914555549621582 0.17167912423610687
0.022368846461176872 0.76211810111999512 0.26306056976318359
0.15563879907131195 0.75566184520721436 0.2639860212802887
0.33180698752403259 0.74845165014266968 0.26839402318000793
0.49067410826683044 0.75693345069885254 0.2540137767791748
0.64663994312286377 0.77810937166213989 0.20366261899471283
0.807201087474823 0.79538196325302124 0.090616561472415924
0.94391590356826782 0.80877494812011719 0.02008483000099659
0.39901453256607056 0.90766173601150513 0.45970135927200317
0.43840104341506958 0.90423029661178589 0.45291700959205627
0.52087831497192383 0.89949280023574829 0.45814439654350281
0.62208622694015503 0.90382695198059082 0.46559125185012817
0.72466558218002319 0.91337001323699951 0.45250129699707031
0.84286397695541382 0.9254271388053894 0.42196488380432129
0.95371663570404053 0.93680304288864136 0.35772901773452759
0.087408669292926788 0.062758050858974457 0.2014148086309433
0.1612379401922226 0.05657564103603363 0.20999197661876678
0.27657970786094666 0.056496474891901016 0.2174534946680069
0.47263675928115845 0.0097636356949806213 0.2314920574426651
0.67480349540710449 0.0082831587642431259 0.23811289668083191
0.84074825048446655 0.0071257944218814373 0.23541595041751862
0.96862077713012695 0.095838882029056549 0.24376286566257477
0.097562290728092194 0.14513598382472992 0.22975990176200867
0.17955693602561951 0.14763076603412628 0.2362511157989502
0.32770752906799316 0.15538609027862549 0.23908481001853943
0.52272599935531616 0.13603506982326508 0.24821707606315613
0.70119494199752808 0.1254863440990448 0.25140553712844849
0.85071003437042236 0.15789200365543365 0.25218331813812256
0.97255134582519531 0.23634235560894012 0.258758544921875
0.034973878413438797 0.31772169470787048 0.26481607556343079
0.17593292891979218 0.31234046816825867 0.26463651657104492
0.36509671807289124 0.33251002430915833 0.25162485241889954
0.56727331876754761 0.34902411699295044 0.25540882349014282
0.73897874355316162 0.35868188738822937 0.27319395542144775
0.86456584930419922 0.3719576895236969 0.27806821465492249
0.97558987140655518 0.40201148390769958 0.27863094210624695
0.0080556981265544891 0.49377667903900146 0.27706557512283325
0.10932226479053497 0.48999771475791931 0.27514204382896423
0.32409760355949402 0.48708164691925049 0.25959280133247375
0.52900594472885132 0.50475698709487915 0.22412888705730438
0.71396100521087646 0.52939224243164062 0.21907170116901398
0.86454373598098755 0.56066280603408813 0.27533391118049622
0.97375446557998657 0.5788150429725647 0.31854429841041565
0.0043974332511425018 0.63945192098617554 0.28712624311447144
0.052963033318519592 0.63086837530136108 0.27965185046195984
0.30334395170211792 0.62777423858642578 0.28011947870254517
0.48894572257995605 0.6370164155960083 0.26030564308166504
0.67494839429855347 0.66058540344238281 0.19644705951213837
0.83420276641845703 0.68040198087692261 0.16596074402332306
0.95909136533737183 0.7077019214630127 0.27838093042373657
0.024888580664992332 0.77455288171768188 0.32267597317695618
0.16069665551185608 0.76845079660415649 0.32297515869140625
0.3391450047492981 0.75984257459640503 0.32633772492408752
0.49480420351028442 0.76624965667724609 0.31145387887954712
0.6604689359664917 0.78347378969192505 0.28367254137992859
0.81608670949935913 0.79792267084121704 0.20779311656951904
0.94686222076416016 0.81185817718505859 0.13561984896659851
0.39861586689949036 0.90995913743972778 0.49317246675491333
0.43486180901527405 0.90776318311691284 0.48820593953132629
0.51898181438446045 0.90552741289138794 0.49243646860122681
0.62679725885391235 0.90434986352920532 0.50513797998428345
0.7225760817527771 0.91158854961395264 0.48458710312843323
0.84038722515106201 0.92661577463150024 0.46386054158210754
0.95141005516052246 0.93869119882583618 0.40457573533058167
0.050436567515134811 0.057388786226511002 0.33749145269393921
0.19245901703834534 0.029685016721487045 0.36309424042701721
0.38360923528671265 0.0091443229466676712 0.39133048057556152
0.47165623307228088 0.048354998230934143 0.3656669557094574
0.64794039726257324 0.029033496975898743 0.37139695882797241
0.83069723844528198 0.0042824838310480118 0.3498745858669281
0.96668422222137451 0.034382913261651993 0.34745144844055176
0.062104169279336929 0.14765465259552002 0.35361588001251221
0.19367155432701111 0.14651286602020264 0.3781033456325531
0.39574599266052246 0.12106113880872726 0.40997537970542908
0.50757730007171631 0.18033505976200104 0.39123299717903137
0.68879759311676025 0.13004039227962494 0.37616616487503052
0.84911876916885376 0.11565756797790527 0.36002403497695923
0.96942287683486938 0.2041294276714325 0.36253499984741211
0.048623312264680862 0.32653582096099854 0.40301188826560974
0.17911136150360107 0.34458836913108826 0.41568547487258911
0.39315694570541382 0.37337139248847961 0.4361782968044281
0.57764351367950439 0.37771102786064148 0.42204967141151428
0.72849082946777344 0.3591134250164032 0.40783220529556274
0.85831677913665771 0.37008234858512878 0.39910015463829041
0.97031527757644653 0.40083011984825134 0.39111053943634033
0.0044042100198566914 0.54259198904037476 0.4491007924079895
0.14782984554767609 0.55108308792114258 0.44306138157844543
0.36054712533950806 0.53742945194244385 0.42749622464179993
0.56325840950012207 0.55001378059387207 0.40795862674713135
0.73107099533081055 0.56800967454910278 0.41492462158203125
0.86288583278656006 0.57389676570892334 0.43765515089035034
0.96638739109039307 0.58371996879577637 0.43819934129714966
0.019184231758117676 0.68286973237991333 0.43780308961868286
0.091326706111431122 0.67736333608627319 0.421998530626297
0.3369678258895874 0.67148303985595703 0.42284044623374939
0.51356977224349976 0.66785383224487305 0.40328270196914673
0.69544118642807007 0.68372786045074463 0.37376660108566284
0.83965456485748291 0.69918632507324219 0.36349779367446899
0.955738365650177 0.72210597991943359 0.44387799501419067
0.02928893081843853 0.79424899816513062 0.43703508377075195
0.16340230405330658 0.78598934412002563 0.43828567862510681
0.35751372575759888 0.78214794397354126 0.43442118167877197
0.51296168565750122 0.77922791242599487 0.42593580484390259
0.66277557611465454 0.78948700428009033 0.40581277012825012
0.81178438663482666 0.80520474910736084 0.36126181483268738
0.94353771209716797 0.81788724660873413 0.33058980107307434
0.39137753844261169 0.91763895750045776 0.56244397163391113
0.42731693387031555 0.91242629289627075 0.55362433195114136
0.51497530937194824 0.91107958555221558 0.55532610416412354
0.62049108743667603 0.90743613243103027 0.56547641754150391
0.72414469718933105 0.91549700498580933 0.55920958518981934
0.83461165428161621 0.92758113145828247 0.53448808193206787
0.94720941781997681 0.94007086753845215 0.49377927184104919
0.025599490851163864 0.036237455904483795 0.50743311643600464
0.19689446687698364 0.012301231734454632 0.52998393774032593
0.45063373446464539 0.0039414349012076855 0.59042322635650635
0.67020541429519653 0.0001068115234375 0.62045061588287354
0.69430041313171387 0.046688050031661987 0.54382908344268799
0.7907559871673584 0.1676342636346817 0.5353928804397583
0.94178813695907593 0.15387551486492157 0.5275300145149231
0.01799519918859005 0.14274182915687561 0.51743930578231812
0.18659627437591553 0.12245197594165802 0.54329651594161987
0.45162948966026306 0.06955350935459137 0.59880673885345459
0.67602849006652832 0.037841975688934326 0.62960392236709595
0.70790964365005493 0.1955360621213913 0.56435209512710571
0.80496948957443237 0.26285162568092346 0.5432199239730835
0.95078426599502563 0.24459953606128693 0.52560305595397949
0.0088609736412763596 0.30701050162315369 0.51327741146087646
0.16551220417022705 0.32005387544631958 0.54131746292114258
0.40170544385910034 0.3386082649230957 0.58411902189254761
0.64304476976394653 0.37160387635231018 0.63226449489593506
0.71201860904693604 0.41191217303276062 0.58642816543579102
0.83127319812774658 0.40585413575172424 0.5541265606880188
0.95868706703186035 0.38045346736907959 0.52282238006591797
0.031605005264282227 0.52569282054901123 0.58022570610046387
0.19486716389656067 0.54174661636352539 0.5890883207321167
0.39253497123718262 0.57175010442733765 0.60946202278137207
0.599884033203125 0.60567367076873779 0.63165736198425293
0.73083913326263428 0.60373669862747192 0.61219698190689087
0.85146224498748779 0.57644391059875488 0.5815354585647583
0.94956463575363159 0.5675346851348877 0.56343865394592285
0.083025224506855011 0.71640288829803467 0.62955945730209351
0.23594671487808228 0.71080946922302246 0.62467998266220093
0.41185981035232544 0.71532773971557617 0.61468708515167236
0.5575484037399292 0.71048921346664429 0.59954816102981567
0.7132190465927124 0.71461695432662964 0.59176969528198242
0.84395903348922729 0.72690558433532715 0.58739244937896729
0.94437748193740845 0.73737239837646484 0.6257399320602417
0.25730577111244202 0.81753093004226685 0.61955881118774414
0.31355351209640503 0.81535965204238892 0.61167913675308228
0.40110036730766296 0.81182730197906494 0.59272342920303345
0.53897887468338013 0.79734194278717041 0.58239668607711792
0.67504703998565674 0.80348926782608032 0.56861692667007446
0.82023507356643677 0.81917774677276611 0.54306340217590332
0.94019138813018799 0.83049976825714111 0.53667151927947998
0.40670949220657349 0.92800736427307129 0.66044723987579346
0.42569053173065186 0.92463630437850952 0.65233200788497925
0.50101381540298462 0.91770631074905396 0.64803868532180786
0.61055725812911987 0.9162977933883667 0.65364623069763184
0.72195512056350708 0.91468346118927002 0.6508139967918396
0.8326447606086731 0.9287102222442627 0.63921499252319336
0.94026046991348267 0.94172132015228271 0.60735929012298584
0.068149298429489136 0.013015582226216793 0.67846822738647461
0.2376394122838974 0.0043952194973826408 0.69644534587860107
0.44658175110816956 0.0075635723769664764 0.73126554489135742
0.71054565906524658 0.00046002256567589939 0.78520119190216064
0.86785441637039185 0.00044536215136758983 0.78907352685928345
0.87180715799331665 0.10625598579645157 0.7138209342956543
0.91716402769088745 0.34962022304534912 0.70727473497390747
0.042876612395048141 0.1273505687713623 0.68473279476165771
0.21591547131538391 0.1112002357840538 0.69783604145050049
0.44181373715400696 0.048891659826040268 0.73649996519088745
0.69510316848754883 0.015594527125358582 0.78371447324752808
0.86163592338562012 0.038032051175832748 0.79337525367736816
0.86953175067901611 0.26272502541542053 0.72294926643371582
0.91589593887329102 0.41424602270126343 0.71420913934707642
0.006876043975353241 0.29466715455055237 0.66471606492996216
0.14766046404838562 0.29595160484313965 0.68530791997909546
0.39391809701919556 0.30524957180023193 0.72086483240127563
0.65032684803009033 0.32467770576477051 0.76861262321472168
0.82650834321975708 0.37546750903129578 0.78580164909362793
0.84488981962203979 0.45720189809799194 0.73106849193572998
0.90952730178833008 0.50870734453201294 0.71822607517242432
0.010497269220650196 0.47642609477043152 0.6571422815322876
0.10761796683073044 0.48227313160896301 0.66231471300125122
0.33930861949920654 0.50538676977157593 0.69197380542755127
0.57834506034851074 0.55517423152923584 0.73791807889938354
0.77244311571121216 0.6058695912361145 0.77773791551589966
0.82567554712295532 0.62349832057952881 0.74517440795898438
0.92402327060699463 0.60603839159011841 0.71274030208587646
0.18316501379013062 0.67554163932800293 0.72344619035720825
0.27239024639129639 0.67863404750823975 0.72647947072982788
0.42218267917633057 0.6974027156829834 0.73683696985244751
0.57744342088699341 0.72323936223983765 0.75409150123596191
0.74015319347381592 0.74999028444290161 0.7713552713394165
0.83537876605987549 0.75588387250900269 0.76498085260391235
0.92916315793991089 0.73007214069366455 0.73548352718353271
0.32505485415458679 0.83639144897460938 0.77964884042739868
0.38204246759414673 0.83602005243301392 0.77845573425292969
0.48019474744796753 0.83523392677307129 0.77019429206848145
0.59170264005661011 0.8336557149887085 0.75873845815658569
0.71118324995040894 0.83418798446655273 0.74706822633743286
0.82017982006072998 0.83953756093978882 0.73729962110519409
0.92622178792953491 0.85462367534637451 0.74520581960678101
0.47975441813468933 0.93497544527053833 0.8055838942527771
0.50535941123962402 0.93443727493286133 0.80245012044906616
0.55175358057022095 0.93257498741149902 0.78632622957229614
0.61677175760269165 0.93156784772872925 0.77115577459335327
0.72583746910095215 0.92819756269454956 0.76796942949295044
0.82334786653518677 0.92878496646881104 0.75569605827331543
0.93218594789505005 0.94175988435745239 0.73926728963851929
0.24264132976531982 0.011141803115606308 0.84420734643936157
0.33434873819351196 0.0047106426209211349 0.84712111949920654
0.49735599756240845 0.0040668710134923458 0.86313509941101074
0.6876300573348999 0.003169953590258956 0.88635766506195068
0.89458572864532471 0.0047522149980068207 0.9128347635269165
0.98602098226547241 0.0066599976271390915 0.90651363134384155
0.98355746269226074 0.2913135290145874 0.86001014709472656
0.2114468514919281 0.12401383370161057 0.83892726898193359
0.31718054413795471 0.098206751048564911 0.84232234954833984
0.48008817434310913 0.046780843287706375 0.85793793201446533
0.67915892601013184 0.017324469983577728 0.88510692119598389
0.88613402843475342 0.0099647967144846916 0.91634255647659302
0.98661935329437256 0.13891778886318207 0.9129035472869873
0.97879672050476074 0.37629932165145874 0.86435788869857788
0.082452572882175446 0.28994914889335632 0.82359832525253296
0.22511942684650421 0.28861969709396362 0.8273388147354126
0.41909581422805786 0.29152101278305054 0.84345430135726929
0.64198225736618042 0.30235114693641663 0.8719489574432373
0.85284048318862915 0.33864125609397888 0.90670078992843628
0.95094591379165649 0.41976237297058105 0.89847087860107422
0.96159166097640991 0.52454686164855957 0.86407411098480225
0.0034613516181707382 0.4523695707321167 0.77980482578277588
0.025418225675821304 0.45401817560195923 0.78795933723449707
0.30603322386741638 0.4785534143447876 0.80329900979995728
0.56424587965011597 0.51912087202072144 0.8400503396987915
0.79140722751617432 0.57846248149871826 0.88886046409606934
0.91694086790084839 0.62238329648971558 0.89657819271087646
0.93518096208572388 0.65880703926086426 0.86681771278381348
0.012601844966411591 0.62642282247543335 0.79302829504013062
0.062567315995693207 0.6258774995803833 0.79208189249038696
0.27444857358932495 0.63419991731643677 0.79727184772491455
0.48372229933738708 0.65900570154190063 0.81605452299118042
0.70792508125305176 0.71316564083099365 0.85699743032455444
0.87598973512649536 0.76611316204071045 0.89204508066177368
0.90946441888809204 0.76731157302856445 0.86802703142166138
0.31828716397285461 0.79617941379547119 0.84336811304092407
0.37381270527839661 0.79773497581481934 0.84354454278945923
0.47331678867340088 0.8065376877784729 0.84897315502166748
0.59184610843658447 0.81874430179595947 0.86004090309143066
0.71323347091674805 0.83993446826934814 0.87345999479293823
0.84695684909820557 0.87057685852050781 0.88785958290100098
0.91823118925094604 0.86697942018508911 0.88035625219345093
0.50379186868667603 0.93459510803222656 0.90208727121353149
0.5368538498878479 0.93965309858322144 0.90576982498168945
0.58637958765029907 0.93501436710357666 0.8972243070602417
0.65876233577728271 0.94216912984848022 0.90013307332992554
0.74344938993453979 0.94361883401870728 0.89257133007049561
0.83121269941329956 0.94775617122650146 0.87743192911148071
0.92819750308990479 0.95116180181503296 0.87434184551239014
0.45249006152153015 0.11244715005159378 0.97343730926513672
0.50177878141403198 0.082297258079051971 0.97595083713531494
0.60478466749191284 0.043395638465881348 0.97986572980880737
0.7439037561416626 0.022797064855694771 0.98278516530990601
0.89552277326583862 0.0068037891760468483 0.98426365852355957
0.97999650239944458 0.0068937712348997593 0.98830008506774902
1 0.235716313123703 0.98839670419692993
0.44244897365570068 0.23348869383335114 0.97040480375289917
0.49283534288406372 0.22139792144298553 0.97015726566314697
0.59406095743179321 0.18787585198879242 0.9735950231552124
0.73021095991134644 0.13398315012454987 0.98019152879714966
0.88534057140350342 0.10623323172330856 0.98965728282928467
0.99631834030151367 0.11049285531044006 0.9968981146812439
0.99950259923934937 0.36348578333854675 0.98538923263549805
0.39057618379592896 0.38435062766075134 0.9633292555809021
0.44489756226539612 0.38254645466804504 0.96270382404327393
0.55680012702941895 0.37368747591972351 0.96644449234008789
0.70465695858001709 0.37165960669517517 0.97397732734680176
0.85514324903488159 0.38450616598129272 0.97999870777130127
0.98136454820632935 0.41328522562980652 0.98731988668441772
0.99624752998352051 0.51634103059768677 0.98018729686737061
0.21401172876358032 0.52585494518280029 0.94762986898422241
0.31130537390708923 0.52648884057998657 0.94894647598266602
0.47153756022453308 0.5372084379196167 0.95281624794006348
0.63794779777526855 0.54239100217819214 0.96320021152496338
0.8090440034866333 0.57422477006912231 0.97442322969436646
0.95170098543167114 0.60837042331695557 0.98416978120803833
0.99221503734588623 0.65772664546966553 0.97757607698440552
0.096665598452091217 0.67898809909820557 0.92789930105209351
0.1374528706073761 0.67246752977371216 0.92626667022705078
0.31742191314697266 0.66924858093261719 0.92890900373458862
0.53204202651977539 0.67618697881698608 0.94119465351104736
0.73136049509048462 0.70421993732452393 0.95671075582504272
0.89315199851989746 0.75094223022460938 0.96956777572631836
0.98003679513931274 0.77973747253417969 0.97456222772598267
0.32967421412467957 0.81465029716491699 0.93834072351455688
0.36274287104606628 0.81084626913070679 0.93629598617553711
0.43724969029426575 0.81032848358154297 0.93684250116348267
0.53584617376327515 0.81333428621292114 0.93751627206802368
0.65030676126480103 0.80994045734405518 0.93580394983291626
0.82963734865188599 0.84439396858215332 0.95486432313919067
0.94995105266571045 0.88219654560089111 0.97043454647064209
0.55549174547195435 0.93322724103927612 0.9622642993927002
0.57052373886108398 0.93152713775634766 0.96155345439910889
0.61961245536804199 0.93204247951507568 0.95973503589630127
0.67284584045410156 0.9373818039894104 0.96327966451644897
0.73987597227096558 0.93022894859313965 0.95376235246658325
0.84200453758239746 0.94896483421325684 0.96411371231079102
0.93192809820175171 0.96773040294647217 0.97250354290008545
