luts/instant_pro/fuji_fp-100c_cool_+.cube
# Created by: G'MIC (https://gmic.eu)
TITLE "fuji_fp-100c_cool_+"
# LUT size
LUT_3D_SIZE 5
# Data domain
DOMAIN_MIN 0.0 0.0 0.0
DOMAIN_MAX 1.0 1.0 1.0
# LUT data points
0.094856411218643188 0.064541608095169067 0.13498671352863312
0.21556571125984192 0.051663313060998917 0.13978855311870575
0.47967579960823059 0.011862810701131821 0.15245717763900757
0.7585492730140686 0.011846384964883327 0.16868950426578522
0.970378577709198 0.10074497014284134 0.18292555212974548
0.096686378121376038 0.19351331889629364 0.16482892632484436
0.26015892624855042 0.21367381513118744 0.15467505156993866
0.54229527711868286 0.22932438552379608 0.16364681720733643
0.79273462295532227 0.2445511519908905 0.1775299608707428
0.97159481048583984 0.32107174396514893 0.20535214245319366
0.0043654497712850571 0.45664677023887634 0.20241047441959381
0.2233433723449707 0.45796889066696167 0.19459198415279388
0.50674402713775635 0.48769006133079529 0.13176588714122772
0.79066860675811768 0.53309464454650879 0.11303924769163132
0.97833538055419922 0.57263988256454468 0.24826274812221527
0.004159979522228241 0.68895936012268066 0.23559747636318207
0.20426541566848755 0.677573561668396 0.23662823438644409
0.47444590926170349 0.68647253513336182 0.21481913328170776
0.73393434286117554 0.72975420951843262 0.072422772645950317
0.95176208019256592 0.75302082300186157 0.088188022375106812
0.39901453256607056 0.90766173601150513 0.45970135927200317
0.47856390476226807 0.89881861209869385 0.45407658815383911
0.62208622694015503 0.90382695198059082 0.46559125185012817
0.77981597185134888 0.91785264015197754 0.43442913889884949
0.95371663570404053 0.93680304288864136 0.35772901773452759
0.073612511157989502 0.062409196048974991 0.2633308470249176
0.26393970847129822 0.025423401966691017 0.29592487215995789
0.45867803692817688 0.032425452023744583 0.28879824280738831
0.75672763586044312 0.0069845011457800865 0.28920724987983704
0.96881520748138428 0.077159389853477478 0.29125407338142395
0.083808928728103638 0.21924364566802979 0.3079524040222168
0.27785015106201172 0.24027852714061737 0.32825365662574768
0.55248427391052246 0.25309044122695923 0.32546409964561462
0.78970861434936523 0.25135287642478943 0.32076254487037659
0.97122323513031006 0.31217736005783081 0.31935364007949829
0.0077218147926032543 0.51940184831619263 0.35576257109642029
0.23648248612880707 0.51269954442977905 0.34336671233177185
0.54229456186294556 0.52237921953201294 0.30226317048072815
0.79139196872711182 0.55856740474700928 0.33601647615432739
0.96838641166687012 0.58220827579498291 0.37895578145980835
0.0057368557900190353 0.72042906284332275 0.35521712899208069
0.21947550773620605 0.7133135199546814 0.35331252217292786
0.49002769589424133 0.70943278074264526 0.33468267321586609
0.7516443133354187 0.73579639196395874 0.27655154466629028
0.95128720998764038 0.76348960399627686 0.29907253384590149
0.39486953616142273 0.91291189193725586 0.51860028505325317
0.46862560510635376 0.9082828164100647 0.51226669549942017
0.62377697229385376 0.90553784370422363 0.53220444917678833
0.77840089797973633 0.92033278942108154 0.50920015573501587
0.94924885034561157 0.94017714262008667 0.44729363918304443
0.025599490851163864 0.036237455904483795 0.50743311643600464
0.31002098321914673 0.00737024936825037 0.55671614408493042
0.67020541429519653 0.0001068115234375 0.62045061588287354
0.73133701086044312 0.13626720011234283 0.53828948736190796
0.94178813695907593 0.15387551486492157 0.5275300145149231
0.010563674382865429 0.21919165551662445 0.51862174272537231
0.29377821087837219 0.21598635613918304 0.56350028514862061
0.66022193431854248 0.20714229345321655 0.62839645147323608
0.75289678573608398 0.33249175548553467 0.56093823909759521
0.9529607892036438 0.30483543872833252 0.51830214262008667
0.031605005264282227 0.52569282054901123 0.58022570610046387
0.29816710948944092 0.55248856544494629 0.59565895795822144
0.599884033203125 0.60567367076873779 0.63165736198425293
0.79223924875259399 0.59095674753189087 0.59964001178741455
0.94956463575363159 0.5675346851348877 0.56343865394592285
0.19433769583702087 0.76730287075042725 0.62255311012268066
0.34327176213264465 0.76359659433364868 0.61098223924636841
0.54020035266876221 0.75049012899398804 0.58577293157577515
0.7662585973739624 0.7641105055809021 0.55779892206192017
0.94170302152633667 0.78828734159469604 0.59308016300201416
0.40670949220657349 0.92800736427307129 0.66044723987579346
0.4580473005771637 0.92186468839645386 0.64958155155181885
0.61055725812911987 0.9162977933883667 0.65364623069763184
0.77777504920959473 0.92043471336364746 0.6500515341758728
0.94026046991348267 0.94172132015228271 0.60735929012298584
0.15529255568981171 0.011083849705755711 0.76709181070327759
0.36606928706169128 0.0077099371701478958 0.78397005796432495
0.69667994976043701 0.00026352825807407498 0.83846509456634521
0.93204915523529053 0.00052550074178725481 0.84944605827331543
0.95123410224914551 0.3306736946105957 0.77940219640731812
0.070593290030956268 0.20315681397914886 0.76114636659622192
0.32267209887504578 0.18197959661483765 0.77873212099075317
0.66451072692871094 0.15042403340339661 0.83019787073135376
0.91552585363388062 0.24108105897903442 0.85170161724090576
0.93524223566055298 0.46850371360778809 0.79054290056228638
0.0033306197728961706 0.45531949400901794 0.70404404401779175
0.15428973734378815 0.46970227360725403 0.7248845100402832
0.56959736347198486 0.53666979074478149 0.78693145513534546
0.85193705558776855 0.61429369449615479 0.84241777658462524
0.90898144245147705 0.65223348140716553 0.79746764898300171
0.24799486994743347 0.73696064949035645 0.78480267524719238
0.3692537248134613 0.74442356824874878 0.79046368598937988
0.58499431610107422 0.77296918630599976 0.81091934442520142
0.79658329486846924 0.8097374439239502 0.83246791362762451
0.92374962568283081 0.80007803440093994 0.81023210287094116
0.49289178848266602 0.93689459562301636 0.86093795299530029
0.54161804914474487 0.93932861089706421 0.85625332593917847
0.64659643173217773 0.93896770477294922 0.8450959324836731
0.78104150295257568 0.93681544065475464 0.82377153635025024
0.93061149120330811 0.94900596141815186 0.80429446697235107
0.45249006152153015 0.11244715005159378 0.97343730926513672
0.5479004979133606 0.062222320586442947 0.97812342643737793
0.7439037561416626 0.022797064855694771 0.98278516530990601
0.95509254932403564 0.0063040638342499733 0.98511224985122681
1 0.235716313123703 0.98839670419692993
0.42445492744445801 0.30758568644523621 0.96748679876327515
0.52833420038223267 0.29625338315963745 0.9671744704246521
0.72056823968887329 0.26566579937934875 0.97562277317047119
0.94577586650848389 0.2732999324798584 0.98831474781036377
0.99738806486129761 0.4395504891872406 0.98038214445114136
0.21401172876358032 0.52585494518280029 0.94762986898422241
0.38504514098167419 0.53063458204269409 0.94966208934783936
0.63794779777526855 0.54239100217819214 0.96320021152496338
0.87957113981246948 0.58975279331207275 0.97766005992889404
0.99221503734588623 0.65772664546966553 0.97757607698440552
0.17222177982330322 0.74687153100967407 0.93064749240875244
0.27591416239738464 0.74180418252944946 0.92739206552505493
0.49165624380111694 0.74190270900726318 0.9330906867980957
0.77928066253662109 0.77939832210540771 0.95379382371902466
0.96360796689987183 0.83305621147155762 0.97138303518295288
0.55549174547195435 0.93322724103927612 0.9622642993927002
0.59945547580718994 0.93425953388214111 0.96197694540023804
0.67284584045410156 0.9373818039894104 0.96327966451644897
0.78982430696487427 0.93956267833709717 0.96076971292495728
0.93192809820175171 0.96773040294647217 0.97250354290008545
