luts/instant_pro/fuji_fp-3000b_+++.cube
# Created by: G'MIC (https://gmic.eu)
TITLE "fuji_fp-3000b_+++"
# LUT size
LUT_3D_SIZE 13
# Data domain
DOMAIN_MIN 0.0 0.0 0.0
DOMAIN_MAX 1.0 1.0 1.0
# LUT data points
0.3120574951171875 0.3120574951171875 0.3120574951171875
0.31136733293533325 0.31136733293533325 0.31136733293533325
0.3141876757144928 0.3141876757144928 0.3141876757144928
0.32161363959312439 0.32161363959312439 0.32161363959312439
0.33331459760665894 0.33331459760665894 0.33331459760665894
0.34900656342506409 0.34900656342506409 0.34900656342506409
0.36861565709114075 0.36861565709114075 0.36861565709114075
0.39274784922599792 0.39274784922599792 0.39274784922599792
0.42342421412467957 0.42342421412467957 0.42342421412467957
0.46315193176269531 0.46315193176269531 0.46315193176269531
0.51305216550827026 0.51305216550827026 0.51305216550827026
0.57173234224319458 0.57173234224319458 0.57173234224319458
0.63445895910263062 0.63445895910263062 0.63445895910263062
0.31452709436416626 0.31452709436416626 0.31452709436416626
0.31472226977348328 0.31472226977348328 0.31472226977348328
0.31879666447639465 0.31879666447639465 0.31879666447639465
0.32797122001647949 0.32797122001647949 0.32797122001647949
0.34141084551811218 0.34141084551811218 0.34141084551811218
0.35861703753471375 0.35861703753471375 0.35861703753471375
0.37827667593955994 0.37827667593955994 0.37827667593955994
0.40095555782318115 0.40095555782318115 0.40095555782318115
0.42942512035369873 0.42942512035369873 0.42942512035369873
0.46744647622108459 0.46744647622108459 0.46744647622108459
0.51786714792251587 0.51786714792251587 0.51786714792251587
0.57798105478286743 0.57798105478286743 0.57798105478286743
0.64226329326629639 0.64226329326629639 0.64226329326629639
0.31967127323150635 0.31967127323150635 0.31967127323150635
0.32052126526832581 0.32052126526832581 0.32052126526832581
0.3263041079044342 0.3263041079044342 0.3263041079044342
0.33801603317260742 0.33801603317260742 0.33801603317260742
0.3549731969833374 0.3549731969833374 0.3549731969833374
0.37533846497535706 0.37533846497535706 0.37533846497535706
0.39711260795593262 0.39711260795593262 0.39711260795593262
0.41901946067810059 0.41901946067810059 0.41901946067810059
0.44470623135566711 0.44470623135566711 0.44470623135566711
0.48048269748687744 0.48048269748687744 0.48048269748687744
0.53057605028152466 0.53057605028152466 0.53057605028152466
0.59194684028625488 0.59194684028625488 0.59194684028625488
0.65720683336257935 0.65720683336257935 0.65720683336257935
0.32845556735992432 0.32845556735992432 0.32845556735992432
0.32907474040985107 0.32907474040985107 0.32907474040985107
0.33583465218544006 0.33583465218544006 0.33583465218544006
0.35033482313156128 0.35033482313156128 0.35033482313156128
0.37204676866531372 0.37204676866531372 0.37204676866531372
0.3984275758266449 0.3984275758266449 0.3984275758266449
0.42508754134178162 0.42508754134178162 0.42508754134178162
0.44807848334312439 0.44807848334312439 0.44807848334312439
0.47153756022453308 0.47153756022453308 0.47153756022453308
0.50307059288024902 0.50307059288024902 0.50307059288024902
0.55310463905334473 0.55310463905334473 0.55310463905334473
0.61602437496185303 0.61602437496185303 0.61602437496185303
0.68099236488342285 0.68099236488342285 0.68099236488342285
0.34046229720115662 0.34046229720115662 0.34046229720115662
0.34019461274147034 0.34019461274147034 0.34019461274147034
0.34709906578063965 0.34709906578063965 0.34709906578063965
0.36309120059013367 0.36309120059013367 0.36309120059013367
0.38909804821014404 0.38909804821014404 0.38909804821014404
0.4229075014591217 0.4229075014591217 0.4229075014591217
0.45863372087478638 0.45863372087478638 0.45863372087478638
0.48739874362945557 0.48739874362945557 0.48739874362945557
0.51278078556060791 0.51278078556060791 0.51278078556060791
0.5428888201713562 0.5428888201713562 0.5428888201713562
0.59135359525680542 0.59135359525680542 0.59135359525680542
0.65162712335586548 0.65162712335586548 0.65162712335586548
0.71162712574005127 0.71162712574005127 0.71162712574005127
0.35637030005455017 0.35637030005455017 0.35637030005455017
0.3538716733455658 0.3538716733455658 0.3538716733455658
0.35890629887580872 0.35890629887580872 0.35890629887580872
0.37394616007804871 0.37394616007804871 0.37394616007804871
0.40100330114364624 0.40100330114364624 0.40100330114364624
0.4404677152633667 0.4404677152633667 0.4404677152633667
0.485515296459198 0.485515296459198 0.485515296459198
0.52729994058609009 0.52729994058609009 0.52729994058609009
0.56685537099838257 0.56685537099838257 0.56685537099838257
0.60433286428451538 0.60433286428451538 0.60433286428451538
0.64703446626663208 0.64703446626663208 0.64703446626663208
0.69594252109527588 0.69594252109527588 0.69594252109527588
0.74544912576675415 0.74544912576675415 0.74544912576675415
0.37699681520462036 0.37699681520462036 0.37699681520462036
0.37101733684539795 0.37101733684539795 0.37101733684539795
0.37251162528991699 0.37251162528991699 0.37251162528991699
0.38368207216262817 0.38368207216262817 0.38368207216262817
0.40740445256233215 0.40740445256233215 0.40740445256233215
0.44504082202911377 0.44504082202911377 0.44504082202911377
0.4947466254234314 0.4947466254234314 0.4947466254234314
0.55449479818344116 0.55449479818344116 0.55449479818344116
0.61821597814559937 0.61821597814559937 0.61821597814559937
0.66622453927993774 0.66622453927993774 0.66622453927993774
0.7046545147895813 0.7046545147895813 0.7046545147895813
0.74235790967941284 0.74235790967941284 0.74235790967941284
0.78043109178543091 0.78043109178543091 0.78043109178543091
0.40418455004692078 0.40418455004692078 0.40418455004692078
0.39523333311080933 0.39523333311080933 0.39523333311080933
0.3922974169254303 0.3922974169254303 0.3922974169254303
0.39727437496185303 0.39727437496185303 0.39727437496185303
0.4138951301574707 0.4138951301574707 0.4138951301574707
0.44631785154342651 0.44631785154342651 0.44631785154342651
0.49567118287086487 0.49567118287086487 0.49567118287086487
0.56289833784103394 0.56289833784103394 0.56289833784103394
0.64531272649765015 0.64531272649765015 0.64531272649765015
0.70706075429916382 0.70706075429916382 0.70706075429916382
0.74802744388580322 0.74802744388580322 0.74802744388580322
0.78067946434020996 0.78067946434020996 0.78067946434020996
0.81149816513061523 0.81149816513061523 0.81149816513061523
0.44179674983024597 0.44179674983024597 0.44179674983024597
0.43083688616752625 0.43083688616752625 0.43083688616752625
0.42405754327774048 0.42405754327774048 0.42405754327774048
0.42236968874931335 0.42236968874931335 0.42236968874931335
0.43069678544998169 0.43069678544998169 0.43069678544998169
0.45681673288345337 0.45681673288345337 0.45681673288345337
0.50429415702819824 0.50429415702819824 0.50429415702819824
0.57223719358444214 0.57223719358444214 0.57223719358444214
0.65413177013397217 0.65413177013397217 0.65413177013397217
0.72496098279953003 0.72496098279953003 0.72496098279953003
0.77321040630340576 0.77321040630340576 0.77321040630340576
0.80694937705993652 0.80694937705993652 0.80694937705993652
0.83510804176330566 0.83510804176330566 0.83510804176330566
0.49493664503097534 0.49493664503097534 0.49493664503097534
0.48381707072257996 0.48381707072257996 0.48381707072257996
0.47444075345993042 0.47444075345993042 0.47444075345993042
0.46704304218292236 0.46704304218292236 0.46704304218292236
0.46682798862457275 0.46682798862457275 0.46682798862457275
0.48568341135978699 0.48568341135978699 0.48568341135978699
0.53146106004714966 0.53146106004714966 0.53146106004714966
0.59657984972000122 0.59657984972000122 0.59657984972000122
0.67052555084228516 0.67052555084228516 0.67052555084228516
0.73756372928619385 0.73756372928619385 0.73756372928619385
0.78783828020095825 0.78783828020095825 0.78783828020095825
0.82372784614562988 0.82372784614562988 0.82372784614562988
0.85195285081863403 0.85195285081863403 0.85195285081863403
0.56957179307937622 0.56957179307937622 0.56957179307937622
0.55838239192962646 0.55838239192962646 0.55838239192962646
0.54782778024673462 0.54782778024673462 0.54782778024673462
0.53743982315063477 0.53743982315063477 0.53743982315063477
0.53153204917907715 0.53153204917907715 0.53153204917907715
0.54299437999725342 0.54299437999725342 0.54299437999725342
0.58220523595809937 0.58220523595809937 0.58220523595809937
0.63820868730545044 0.63820868730545044 0.63820868730545044
0.70009046792984009 0.70009046792984009 0.70009046792984009
0.75733041763305664 0.75733041763305664 0.75733041763305664
0.80325907468795776 0.80325907468795776 0.80325907468795776
0.8379206657409668 0.8379206657409668 0.8379206657409668
0.86558264493942261 0.86558264493942261 0.86558264493942261
0.66192299127578735 0.66192299127578735 0.66192299127578735
0.65055739879608154 0.65055739879608154 0.65055739879608154
0.6402968168258667 0.6402968168258667 0.6402968168258667
0.63162684440612793 0.63162684440612793 0.63162684440612793
0.62710130214691162 0.62710130214691162 0.62710130214691162
0.6334460973739624 0.6334460973739624 0.6334460973739624
0.65836364030838013 0.65836364030838013 0.65836364030838013
0.69789606332778931 0.69789606332778931 0.69789606332778931
0.74368304014205933 0.74368304014205933 0.74368304014205933
0.78788232803344727 0.78788232803344727 0.78788232803344727
0.82529991865158081 0.82529991865158081 0.82529991865158081
0.85493975877761841 0.85493975877761841 0.85493975877761841
0.879627525806427 0.879627525806427 0.879627525806427
0.75865030288696289 0.75865030288696289 0.75865030288696289
0.74869364500045776 0.74869364500045776 0.74869364500045776
0.74046778678894043 0.74046778678894043 0.74046778678894043
0.73609614372253418 0.73609614372253418 0.73609614372253418
0.73524826765060425 0.73524826765060425 0.73524826765060425
0.73651736974716187 0.73651736974716187 0.73651736974716187
0.74641358852386475 0.74641358852386475 0.74641358852386475
0.76822513341903687 0.76822513341903687 0.76822513341903687
0.79750514030456543 0.79750514030456543 0.79750514030456543
0.82793086767196655 0.82793086767196655 0.82793086767196655
0.85519886016845703 0.85519886016845703 0.85519886016845703
0.87795644998550415 0.87795644998550415 0.87795644998550415
0.89842629432678223 0.89842629432678223 0.89842629432678223
0.30915260314941406 0.30915260314941406 0.30915260314941406
0.30870199203491211 0.30870199203491211 0.30870199203491211
0.31166175007820129 0.31166175007820129 0.31166175007820129
0.31924620270729065 0.31924620270729065 0.31924620270729065
0.33120375871658325 0.33120375871658325 0.33120375871658325
0.34751179814338684 0.34751179814338684 0.34751179814338684
0.36726078391075134 0.36726078391075134 0.36726078391075134
0.39131069183349609 0.39131069183349609 0.39131069183349609
0.42181414365768433 0.42181414365768433 0.42181414365768433
0.46111595630645752 0.46111595630645752 0.46111595630645752
0.51006758213043213 0.51006758213043213 0.51006758213043213
0.56852066516876221 0.56852066516876221 0.56852066516876221
0.63169431686401367 0.63169431686401367 0.63169431686401367
0.31294000148773193 0.31294000148773193 0.31294000148773193
0.31260639429092407 0.31260639429092407 0.31260639429092407
0.31688684225082397 0.31688684225082397 0.31688684225082397
0.32570531964302063 0.32570531964302063 0.32570531964302063
0.33904802799224854 0.33904802799224854 0.33904802799224854
0.35650190711021423 0.35650190711021423 0.35650190711021423
0.37603342533111572 0.37603342533111572 0.37603342533111572
0.39911529421806335 0.39911529421806335 0.39911529421806335
0.42763730883598328 0.42763730883598328 0.42763730883598328
0.4656413197517395 0.4656413197517395 0.4656413197517395
0.51544225215911865 0.51544225215911865 0.51544225215911865
0.57528209686279297 0.57528209686279297 0.57528209686279297
0.63973671197891235 0.63973671197891235 0.63973671197891235
0.32059705257415771 0.32059705257415771 0.32059705257415771
0.32061457633972168 0.32061457633972168 0.32061457633972168
0.32563048601150513 0.32563048601150513 0.32563048601150513
0.33631733059883118 0.33631733059883118 0.33631733059883118
0.35255944728851318 0.35255944728851318 0.35255944728851318
0.37349182367324829 0.37349182367324829 0.37349182367324829
0.39480093121528625 0.39480093121528625 0.39480093121528625
0.41776448488235474 0.41776448488235474 0.41776448488235474
0.44440707564353943 0.44440707564353943 0.44440707564353943
0.48084178566932678 0.48084178566932678 0.48084178566932678
0.53052538633346558 0.53052538633346558 0.53052538633346558
0.59069287776947021 0.59069287776947021 0.59069287776947021
0.65466213226318359 0.65466213226318359 0.65466213226318359
0.33231887221336365 0.33231887221336365 0.33231887221336365
0.33177688717842102 0.33177688717842102 0.33177688717842102
0.33733043074607849 0.33733043074607849 0.33733043074607849
0.35019692778587341 0.35019692778587341 0.35019692778587341
0.37046581506729126 0.37046581506729126 0.37046581506729126
0.39611977338790894 0.39611977338790894 0.39611977338790894
0.42298492789268494 0.42298492789268494 0.42298492789268494
0.4481671154499054 0.4481671154499054 0.4481671154499054
0.4742870032787323 0.4742870032787323 0.4742870032787323
0.50848239660263062 0.50848239660263062 0.50848239660263062
0.55697882175445557 0.55697882175445557 0.55697882175445557
0.61632043123245239 0.61632043123245239 0.61632043123245239
0.67847424745559692 0.67847424745559692 0.67847424745559692
0.34829163551330566 0.34829163551330566 0.34829163551330566
0.34653171896934509 0.34653171896934509 0.34653171896934509
0.35122227668762207 0.35122227668762207 0.35122227668762207
0.36476963758468628 0.36476963758468628 0.36476963758468628
0.38829877972602844 0.38829877972602844 0.38829877972602844
0.42083412408828735 0.42083412408828735 0.42083412408828735
0.45600706338882446 0.45600706338882446 0.45600706338882446
0.48770284652709961 0.48770284652709961 0.48770284652709961
0.51786988973617554 0.51786988973617554 0.51786988973617554
0.55235522985458374 0.55235522985458374 0.55235522985458374
0.59816533327102661 0.59816533327102661 0.59816533327102661
0.65314680337905884 0.65314680337905884 0.65314680337905884
0.70939534902572632 0.70939534902572632 0.70939534902572632
0.36855816841125488 0.36855816841125488 0.36855816841125488
0.36430928111076355 0.36430928111076355 0.36430928111076355
0.36654826998710632 0.36654826998710632 0.36654826998710632
0.37809604406356812 0.37809604406356812 0.37809604406356812
0.40197303891181946 0.40197303891181946 0.40197303891181946
0.43871772289276123 0.43871772289276123 0.43871772289276123
0.48303952813148499 0.48303952813148499 0.48303952813148499
0.52727580070495605 0.52727580070495605 0.52727580070495605
0.56949508190155029 0.56949508190155029 0.56949508190155029
0.60968077182769775 0.60968077182769775 0.60968077182769775
0.65182751417160034 0.65182751417160034 0.65182751417160034
0.69761532545089722 0.69761532545089722 0.69761532545089722
0.74445968866348267 0.74445968866348267 0.74445968866348267
0.39348289370536804 0.39348289370536804 0.39348289370536804
0.38601785898208618 0.38601785898208618 0.38601785898208618
0.3839605450630188 0.3839605450630188 0.3839605450630188
0.39096435904502869 0.39096435904502869 0.39096435904502869
0.41062834858894348 0.41062834858894348 0.41062834858894348
0.44602498412132263 0.44602498412132263 0.44602498412132263
0.49577978253364563 0.49577978253364563 0.49577978253364563
0.55546480417251587 0.55546480417251587 0.55546480417251587
0.61593276262283325 0.61593276262283325 0.61593276262283325
0.6664499044418335 0.6664499044418335 0.6664499044418335
0.70705288648605347 0.70705288648605347 0.70705288648605347
0.74376183748245239 0.74376183748245239 0.74376183748245239
0.78027260303497314 0.78027260303497314 0.78027260303497314
0.42486652731895447 0.42486652731895447 0.42486652731895447
0.4139714241027832 0.4139714241027832 0.4139714241027832
0.40758159756660461 0.40758159756660461 0.40758159756660461
0.4080997109413147 0.4080997109413147 0.4080997109413147
0.42054933309555054 0.42054933309555054 0.42054933309555054
0.45078462362289429 0.45078462362289429 0.45078462362289429
0.50150513648986816 0.50150513648986816 0.50150513648986816
0.56972020864486694 0.56972020864486694 0.56972020864486694
0.6451411247253418 0.6451411247253418 0.6451411247253418
0.70730733871459961 0.70730733871459961 0.70730733871459961
0.75066214799880981 0.75066214799880981 0.75066214799880981
0.78322404623031616 0.78322404623031616 0.78322404623031616
0.81301993131637573 0.81301993131637573 0.81301993131637573
0.46571141481399536 0.46571141481399536 0.46571141481399536
0.45281639695167542 0.45281639695167542 0.45281639695167542
0.44242033362388611 0.44242033362388611 0.44242033362388611
0.43679475784301758 0.43679475784301758 0.43679475784301758
0.44168883562088013 0.44168883562088013 0.44168883562088013
0.4654681384563446 0.4654681384563446 0.4654681384563446
0.51312041282653809 0.51312041282653809 0.51312041282653809
0.58215320110321045 0.58215320110321045 0.58215320110321045
0.66088294982910156 0.66088294982910156 0.66088294982910156
0.72978907823562622 0.72978907823562622 0.72978907823562622
0.77859777212142944 0.77859777212142944 0.77859777212142944
0.81112885475158691 0.81112885475158691 0.81112885475158691
0.83819282054901123 0.83819282054901123 0.83819282054901123
0.52073574066162109 0.52073574066162109 0.52073574066162109
0.5069962739944458 0.5069962739944458 0.5069962739944458
0.49475449323654175 0.49475449323654175 0.49475449323654175
0.48460465669631958 0.48460465669631958 0.48460465669631958
0.48248621821403503 0.48248621821403503 0.48248621821403503
0.49946600198745728 0.49946600198745728 0.49946600198745728
0.54174721240997314 0.54174721240997314 0.54174721240997314
0.60555052757263184 0.60555052757263184 0.60555052757263184
0.67847490310668945 0.67847490310668945 0.67847490310668945
0.74475795030593872 0.74475795030593872 0.74475795030593872
0.79452812671661377 0.79452812671661377 0.79452812671661377
0.82949960231781006 0.82949960231781006 0.82949960231781006
0.85625451803207397 0.85625451803207397 0.85625451803207397
0.59295636415481567 0.59295636415481567 0.59295636415481567
0.57998597621917725 0.57998597621917725 0.57998597621917725
0.56729143857955933 0.56729143857955933 0.56729143857955933
0.55530714988708496 0.55530714988708496 0.55530714988708496
0.5492255687713623 0.5492255687713623 0.5492255687713623
0.5593382716178894 0.5593382716178894 0.5593382716178894
0.59327834844589233 0.59327834844589233 0.59327834844589233
0.64649701118469238 0.64649701118469238 0.64649701118469238
0.70773470401763916 0.70773470401763916 0.70773470401763916
0.76518827676773071 0.76518827676773071 0.76518827676773071
0.8110053539276123 0.8110053539276123 0.8110053539276123
0.84460431337356567 0.84460431337356567 0.84460431337356567
0.87076520919799805 0.87076520919799805 0.87076520919799805
0.67937332391738892 0.67937332391738892 0.67937332391738892
0.66778045892715454 0.66778045892715454 0.66778045892715454
0.65656030178070068 0.65656030178070068 0.65656030178070068
0.64648127555847168 0.64648127555847168 0.64648127555847168
0.64056134223937988 0.64056134223937988 0.64056134223937988
0.64537417888641357 0.64537417888641357 0.64537417888641357
0.66715157032012939 0.66715157032012939 0.66715157032012939
0.70505475997924805 0.70505475997924805 0.70505475997924805
0.75107383728027344 0.75107383728027344 0.75107383728027344
0.79601144790649414 0.79601144790649414 0.79601144790649414
0.8331260085105896 0.8331260085105896 0.8331260085105896
0.86212986707687378 0.86212986707687378 0.86212986707687378
0.88579410314559937 0.88579410314559937 0.88579410314559937
0.77006721496582031 0.77006721496582031 0.77006721496582031
0.76100784540176392 0.76100784540176392 0.76100784540176392
0.7525019645690918 0.7525019645690918 0.7525019645690918
0.74600094556808472 0.74600094556808472 0.74600094556808472
0.74225759506225586 0.74225759506225586 0.74225759506225586
0.74274283647537231 0.74274283647537231 0.74274283647537231
0.75271803140640259 0.75271803140640259 0.75271803140640259
0.77464097738265991 0.77464097738265991 0.77464097738265991
0.80447936058044434 0.80447936058044434 0.80447936058044434
0.83552604913711548 0.83552604913711548 0.83552604913711548
0.86263573169708252 0.86263573169708252 0.86263573169708252
0.88486570119857788 0.88486570119857788 0.88486570119857788
0.90461641550064087 0.90461641550064087 0.90461641550064087
0.30877980589866638 0.30877980589866638 0.30877980589866638
0.30851930379867554 0.30851930379867554 0.30851930379867554
0.31247708201408386 0.31247708201408386 0.31247708201408386
0.32104259729385376 0.32104259729385376 0.32104259729385376
0.33386451005935669 0.33386451005935669 0.33386451005935669
0.35064670443534851 0.35064670443534851 0.35064670443534851
0.37162443995475769 0.37162443995475769 0.37162443995475769
0.39713126420974731 0.39713126420974731 0.39713126420974731
0.42837110161781311 0.42837110161781311 0.42837110161781311
0.46737578511238098 0.46737578511238098 0.46737578511238098
0.5152965784072876 0.5152965784072876 0.5152965784072876
0.57219278812408447 0.57219278812408447 0.57219278812408447
0.63488632440567017 0.63488632440567017 0.63488632440567017
0.31428021192550659 0.31428021192550659 0.31428021192550659
0.31377750635147095 0.31377750635147095 0.31377750635147095
0.31798571348190308 0.31798571348190308 0.31798571348190308
0.32702904939651489 0.32702904939651489 0.32702904939651489
0.34078308939933777 0.34078308939933777 0.34078308939933777
0.35849407315254211 0.35849407315254211 0.35849407315254211
0.3793494701385498 0.3793494701385498 0.3793494701385498
0.40358823537826538 0.40358823537826538 0.40358823537826538
0.43306636810302734 0.43306636810302734 0.43306636810302734
0.47145968675613403 0.47145968675613403 0.47145968675613403
0.52090942859649658 0.52090942859649658 0.52090942859649658
0.57930076122283936 0.57930076122283936 0.57930076122283936
0.64218264818191528 0.64218264818191528 0.64218264818191528
0.32451638579368591 0.32451638579368591 0.32451638579368591
0.32371270656585693 0.32371270656585693 0.32371270656585693
0.32788515090942383 0.32788515090942383 0.32788515090942383
0.33800739049911499 0.33800739049911499 0.33800739049911499
0.3535904586315155 0.3535904586315155 0.3535904586315155
0.37405765056610107 0.37405765056610107 0.37405765056610107
0.39659777283668518 0.39659777283668518 0.39659777283668518
0.42125469446182251 0.42125469446182251 0.42125469446182251
0.45002672076225281 0.45002672076225281 0.45002672076225281
0.48769226670265198 0.48769226670265198 0.48769226670265198
0.53715395927429199 0.53715395927429199 0.53715395927429199
0.59507125616073608 0.59507125616073608 0.59507125616073608
0.65650022029876709 0.65650022029876709 0.65650022029876709
0.34009745717048645 0.34009745717048645 0.34009745717048645
0.33826979994773865 0.33826979994773865 0.33826979994773865
0.34217745065689087 0.34217745065689087 0.34217745065689087
0.35287553071975708 0.35287553071975708 0.35287553071975708
0.37095406651496887 0.37095406651496887 0.37095406651496887
0.39539948105812073 0.39539948105812073 0.39539948105812073
0.42269250750541687 0.42269250750541687 0.42269250750541687
0.45113110542297363 0.45113110542297363 0.45113110542297363
0.48145142197608948 0.48145142197608948 0.48145142197608948
0.51856476068496704 0.51856476068496704 0.51856476068496704
0.5655943751335144 0.5655943751335144 0.5655943751335144
0.62053930759429932 0.62053930759429932 0.62053930759429932
0.67857885360717773 0.67857885360717773 0.67857885360717773
0.36100709438323975 0.36100709438323975 0.36100709438323975
0.35748517513275146 0.35748517513275146 0.35748517513275146
0.35971274971961975 0.35971274971961975 0.35971274971961975
0.36965250968933105 0.36965250968933105 0.36965250968933105
0.38956159353256226 0.38956159353256226 0.38956159353256226
0.41846156120300293 0.41846156120300293 0.41846156120300293
0.45325168967247009 0.45325168967247009 0.45325168967247009
0.48893910646438599 0.48893910646438599 0.48893910646438599
0.52446281909942627 0.52446281909942627 0.52446281909942627
