luts/instant_pro/fuji_fp-100c_cool_-.cube
# Created by: G'MIC (https://gmic.eu)
TITLE "fuji_fp-100c_cool_-"
# LUT size
LUT_3D_SIZE 13
# Data domain
DOMAIN_MIN 0.0 0.0 0.0
DOMAIN_MAX 1.0 1.0 1.0
# LUT data points
0.031428169459104538 0.041905838996171951 0.043525397777557373
0.054234642535448074 0.037445500493049622 0.039221476763486862
0.11340023577213287 0.037753533571958542 0.043627452105283737
0.1919349879026413 0.02940896712243557 0.051727354526519775
0.27991145849227905 0.015805935487151146 0.047078091651201248
0.37742507457733154 0.0068979901261627674 0.04625345766544342
0.48133203387260437 0.0071654673665761948 0.054560970515012741
0.59178560972213745 0.0072633181698620319 0.05666128545999527
0.69394779205322266 0.0057846219278872013 0.055939201265573502
0.77716761827468872 0.0044408012181520462 0.05527852475643158
0.84995108842849731 0.0072756451554596424 0.056419596076011658
0.91403639316558838 0.034621730446815491 0.062162049114704132
0.97131747007369995 0.12500700354576111 0.076762929558753967
0.023477936163544655 0.07756970077753067 0.047107338905334473
0.05663464218378067 0.077409513294696808 0.04199841246008873
0.12548777461051941 0.084255725145339966 0.039496179670095444
0.20581686496734619 0.079294584691524506 0.043710894882678986
0.29538634419441223 0.070531465113162994 0.0435345359146595
0.3926297128200531 0.060477491468191147 0.04597492516040802
0.49462071061134338 0.044774193316698074 0.051994115114212036
0.60323786735534668 0.026490934193134308 0.051968637853860855
0.70289170742034912 0.01848207414150238 0.050477210432291031
0.78349536657333374 0.02542298287153244 0.051700204610824585
0.85360527038574219 0.052725024521350861 0.057785287499427795
0.91541486978530884 0.10795998573303223 0.068038374185562134
0.97349894046783447 0.17778834700584412 0.077734269201755524
0.0076422300189733505 0.14176353812217712 0.052452627569437027
0.041569098830223083 0.14132930338382721 0.046793770045042038
0.12423668801784515 0.14719359576702118 0.038284271955490112
0.21671494841575623 0.15191985666751862 0.032121516764163971
0.31439992785453796 0.15554746985435486 0.034090422093868256
0.41997885704040527 0.15348683297634125 0.041831508278846741
0.52396517992019653 0.1426098644733429 0.04764944314956665
0.62671416997909546 0.12767608463764191 0.051280796527862549
0.71646904945373535 0.12703831493854523 0.050311263650655746
0.79105836153030396 0.13797351717948914 0.054901495575904846
0.85759633779525757 0.16012875735759735 0.064255960285663605
0.91780483722686768 0.20717772841453552 0.076101891696453094
0.97365540266036987 0.25193744897842407 0.082173727452754974
0.002417455893009901 0.2164633572101593 0.060487560927867889
0.017712252214550972 0.217646524310112 0.058180026710033417
0.097933933138847351 0.22567017376422882 0.050336230546236038
0.20985826849937439 0.23325309157371521 0.027148870751261711
0.32554841041564941 0.24356760084629059 0.017887145280838013
0.44282221794128418 0.25145873427391052 0.026667950674891472
0.55623960494995117 0.25549733638763428 0.03704477846622467
0.64958703517913818 0.25355270504951477 0.045464131981134415
0.72959452867507935 0.25098848342895508 0.04921334981918335
0.80013126134872437 0.25792974233627319 0.055262904614210129
0.8663630485534668 0.27483126521110535 0.063699595630168915
0.92389428615570068 0.30204334855079651 0.078279383480548859
0.97174215316772461 0.32432559132575989 0.088082753121852875
0.0037665723357349634 0.30275169014930725 0.073327325284481049
0.005084318108856678 0.3033699095249176 0.071235314011573792
0.062066949903964996 0.30901762843132019 0.06326562911272049
0.18377862870693207 0.31765538454055786 0.04333292692899704
0.31448417901992798 0.33217516541481018 0.019062265753746033
0.4395710825920105 0.34425246715545654 0.013403185643255711
0.55776399374008179 0.35017257928848267 0.019575934857130051
0.65651035308837891 0.35741141438484192 0.028615524992346764
0.73729473352432251 0.36055171489715576 0.04017365351319313
0.809650719165802 0.36630922555923462 0.049752403050661087
0.87307894229888916 0.37570109963417053 0.06336481124162674
0.9259607195854187 0.39277827739715576 0.086957730352878571
0.96942543983459473 0.4059298038482666 0.10755043476819992
0.0021636064630001783 0.39076903462409973 0.080467268824577332
0.0039826934225857258 0.39157745242118835 0.081885814666748047
0.029767144471406937 0.39233264327049255 0.079109549522399902
0.15376384556293488 0.40037718415260315 0.056352607905864716
0.28558799624443054 0.41141703724861145 0.02426605299115181
0.41426697373390198 0.4206603467464447 0.015297833830118179
0.5346032977104187 0.43002739548683167 0.018576826900243759
0.64050960540771484 0.43794035911560059 0.016496920958161354
0.73554414510726929 0.45067080855369568 0.015154984779655933
0.81251829862594604 0.4611523449420929 0.028467739000916481
0.87688201665878296 0.47128570079803467 0.071029186248779297
0.92807787656784058 0.48112785816192627 0.10518711805343628
0.96812200546264648 0.48882293701171875 0.12882129848003387
2.8004365958622657e-05 0.47284519672393799 0.087203532457351685
0.0036749446298927069 0.47099927067756653 0.08970700204372406
0.014716473408043385 0.47086796164512634 0.089257620275020599
0.1270868182182312 0.47505474090576172 0.072849884629249573
0.2625049352645874 0.4828794002532959 0.039319597184658051
0.38590294122695923 0.49092072248458862 0.016486898064613342
0.50395619869232178 0.50197756290435791 0.012969477102160454
0.6147773265838623 0.51260179281234741 0.010070950724184513
0.71514683961868286 0.52403151988983154 0.0093985758721828461
0.79504227638244629 0.53395408391952515 0.012905868701636791
0.86788135766983032 0.54561889171600342 0.031049944460391998
0.92767190933227539 0.55994033813476562 0.096216149628162384
0.97367274761199951 0.57189446687698364 0.15036812424659729
0 0.54915076494216919 0.097996413707733154
0.0029919792432337999 0.54833227396011353 0.099165990948677063
0.0071429084055125713 0.54596942663192749 0.097360722720623016
0.11718772351741791 0.54346346855163574 0.09265601634979248
0.25219959020614624 0.54886072874069214 0.061713378876447678
0.36589142680168152 0.55776357650756836 0.022053962573409081
0.47976237535476685 0.57173258066177368 0.0092458538711071014
0.59206146001815796 0.58499741554260254 0.0086555182933807373
0.68933790922164917 0.59483188390731812 0.010413181036710739
0.77345371246337891 0.60174441337585449 0.013021446764469147
0.8477243185043335 0.61151397228240967 0.016607021912932396
0.91427123546600342 0.62553215026855469 0.028659027069807053
0.97195231914520264 0.64188814163208008 0.11444461345672607
0.00050822237972170115 0.62369459867477417 0.10701411962509155
0.0037517172750085592 0.62330704927444458 0.10996982455253601
0.0060360627248883247 0.6205717921257019 0.10905202478170395
0.10571541637182236 0.61735528707504272 0.1041877269744873
0.25676143169403076 0.61922729015350342 0.084658153355121613
0.36761987209320068 0.62546169757843018 0.049411416053771973
0.46858623623847961 0.6365426778793335 0.017720181494951248
0.57409065961837769 0.64964002370834351 0.0091828741133213043
0.66731494665145874 0.65913128852844238 0.01104392297565937
0.75422000885009766 0.66716718673706055 0.013848577626049519
0.82872277498245239 0.67575675249099731 0.013235129415988922
0.89606988430023193 0.68588423728942871 0.013297960162162781
0.95891094207763672 0.69874078035354614 0.032224379479885101
0.006038665771484375 0.69780176877975464 0.13221818208694458
0.0069003836251795292 0.69508576393127441 0.12666451930999756
0.017673971131443977 0.69150412082672119 0.12109757959842682
0.14968076348304749 0.69060075283050537 0.12135597318410873
0.28225162625312805 0.69171005487442017 0.11119528114795685
0.38486042618751526 0.69564050436019897 0.086222663521766663
0.47529008984565735 0.70195746421813965 0.046622123569250107
0.56186604499816895 0.70927572250366211 0.012933469377458096
0.65325117111206055 0.71899288892745972 0.012546958401799202
0.73809242248535156 0.72918105125427246 0.011984028853476048
0.81333506107330322 0.73768538236618042 0.01217886246740818
0.88265025615692139 0.7474139928817749 0.01310379896312952
0.94703906774520874 0.75768250226974487 0.0099146077409386635
0.013336196541786194 0.7726706862449646 0.17185941338539124
0.028411716222763062 0.76911306381225586 0.1643841564655304
0.1053217276930809 0.7649264931678772 0.16166901588439941
0.22915643453598022 0.76336514949798584 0.16939237713813782
0.33083012700080872 0.76428407430648804 0.16673903167247772
0.4207642674446106 0.76525336503982544 0.15070748329162598
0.49725103378295898 0.76698291301727295 0.11211740970611572
0.56978785991668701 0.77150356769561768 0.061712346971035004
0.64650970697402954 0.78158891201019287 0.022646481171250343
0.7269245982170105 0.79099011421203613 0.01237538643181324
0.80322045087814331 0.80045217275619507 0.010622510686516762
0.87502002716064453 0.80972850322723389 0.009128151461482048
0.93753689527511597 0.81693029403686523 0.0095270788297057152
0.16451126337051392 0.84466350078582764 0.24857614934444427
0.2026798278093338 0.84229260683059692 0.25422754883766174
0.26284226775169373 0.84117257595062256 0.24719785153865814
0.3310648500919342 0.837818443775177 0.24747799336910248
0.40322762727737427 0.83760744333267212 0.24941717088222504
0.47394081950187683 0.83718538284301758 0.25221842527389526
0.53515845537185669 0.83843767642974854 0.23116974532604218
0.60237735509872437 0.84173804521560669 0.19268019497394562
0.67594391107559204 0.84887820482254028 0.15852344036102295
0.73982584476470947 0.85650217533111572 0.10421678423881531
0.80548763275146484 0.86564642190933228 0.056218463927507401
0.87368828058242798 0.87356722354888916 0.023425621911883354
0.93626976013183594 0.8803597092628479 0.0094460286200046539
0.37574857473373413 0.9179079532623291 0.38821178674697876
0.39343178272247314 0.91635191440582275 0.38856726884841919
0.42196601629257202 0.91591441631317139 0.38599720597267151
0.46529683470726013 0.91373282670974731 0.38404929637908936
0.50865316390991211 0.91191995143890381 0.38799425959587097
0.56430399417877197 0.91350138187408447 0.39798769354820251
0.61278808116912842 0.91401845216751099 0.39318016171455383
0.66677778959274292 0.91751247644424438 0.38072341680526733
0.7246665358543396 0.92149686813354492 0.36091896891593933
0.77835804224014282 0.92730134725570679 0.33503758907318115
0.83465319871902466 0.93327111005783081 0.30085155367851257
0.89396440982818604 0.93914145231246948 0.25043311715126038
0.95561319589614868 0.94556492567062378 0.1829535961151123
0.028176520019769669 0.035666864365339279 0.083841226994991302
0.062241736799478531 0.033813327550888062 0.087907634675502777
0.1104888916015625 0.03817545622587204 0.083055160939693451
0.18684269487857819 0.033864699304103851 0.085536971688270569
0.28067639470100403 0.022777093574404716 0.08932456374168396
0.38007673621177673 0.012915397994220257 0.098088160157203674
0.48329252004623413 0.013810430653393269 0.10997571796178818
0.58851957321166992 0.012650643475353718 0.11436266452074051
0.6901283860206604 0.0081669827923178673 0.11282183974981308
0.77613908052444458 0.0064898920245468616 0.11139921098947525
0.8502621054649353 0.0080563416704535484 0.10925839096307755
0.91220992803573608 0.046310350298881531 0.11370743066072464
0.96715575456619263 0.12927699089050293 0.12428222596645355
0.01929442398250103 0.084308356046676636 0.098498307168483734
0.057450477033853531 0.083160832524299622 0.099293731153011322
0.12339194864034653 0.087873838841915131 0.09392286092042923
0.20268581807613373 0.088525183498859406 0.09583716094493866
0.2978246808052063 0.085920087993144989 0.099716067314147949
0.39790594577789307 0.073503606021404266 0.10188674926757812
0.49834135174751282 0.053710594773292542 0.10963297635316849
0.60182756185531616 0.042135830968618393 0.11281202733516693
0.69823968410491943 0.032434903085231781 0.11171110719442368
0.78052830696105957 0.041395656764507294 0.11091955006122589
0.85191982984542847 0.069108791649341583 0.11525072902441025
0.91312915086746216 0.12130002677440643 0.12342365086078644
0.97014480829238892 0.18127109110355377 0.12809400260448456
0.006067866925150156 0.1500055342912674 0.10814178735017776
0.041403722018003464 0.1519504189491272 0.10697859525680542
0.12485752254724503 0.15853849053382874 0.10271775722503662
0.21655465662479401 0.16327938437461853 0.096124179661273956
0.31992453336715698 0.16962295770645142 0.10250570625066757
0.42718526721000671 0.16563801467418671 0.10858488082885742
0.52878761291503906 0.15267926454544067 0.11350955069065094
0.62767302989959717 0.14363788068294525 0.11715137213468552
0.71193093061447144 0.13999007642269135 0.1159447580575943
0.78754156827926636 0.14934857189655304 0.1167653426527977
0.85622388124465942 0.17312774062156677 0.12227629125118256
0.91619884967803955 0.21656167507171631 0.1311117559671402
0.97126644849777222 0.25596901774406433 0.13567541539669037
0.0038975733332335949 0.23173202574253082 0.12050960958003998
0.020127823576331139 0.23431789875030518 0.11764594912528992
0.10748099535703659 0.23947177827358246 0.11203583329916
0.21791942417621613 0.24530370533466339 0.096229225397109985
0.33326494693756104 0.25547796487808228 0.088324561715126038
0.45196902751922607 0.26298683881759644 0.10218530148267746
0.56314378976821899 0.26461175084114075 0.11467403173446655
0.65154606103897095 0.26184573769569397 0.11957089602947235
0.72702962160110474 0.2559540867805481 0.11823514848947525
0.79834407567977905 0.26267611980438232 0.11777310818433762
0.86300748586654663 0.27952396869659424 0.12465967237949371
0.92042630910873413 0.30523353815078735 0.13512539863586426
0.96871614456176758 0.32843831181526184 0.14521704614162445
0.0051797456108033657 0.31932413578033447 0.13047446310520172
0.0087732803076505661 0.32037636637687683 0.12733131647109985
0.072198815643787384 0.32337814569473267 0.1215064525604248
0.20020611584186554 0.32993349432945251 0.10549172759056091
0.32561057806015015 0.34379634261131287 0.075926549732685089
0.44824689626693726 0.35426318645477295 0.059624705463647842
0.5655968189239502 0.36004930734634399 0.077680818736553192
0.6605185866355896 0.36491817235946655 0.099608384072780609
0.74197542667388916 0.36689010262489319 0.11227294057607651
0.81225627660751343 0.37265044450759888 0.11655295640230179
0.86964917182922363 0.38216066360473633 0.1269737035036087
0.92350918054580688 0.3948880136013031 0.14067620038986206
0.96871227025985718 0.40731048583984375 0.15876568853855133
0.0025671566836535931 0.4077434241771698 0.13844127953052521
0.0047124824486672878 0.40728923678398132 0.13614247739315033
0.039716172963380814 0.40608423948287964 0.1315198689699173
0.17586526274681091 0.41055801510810852 0.11746863275766373
0.30163276195526123 0.42069900035858154 0.088578589260578156
0.42595189809799194 0.43080213665962219 0.045211073011159897
0.54335755109786987 0.44017577171325684 0.024989977478981018
0.64573895931243896 0.44574519991874695 0.040236812084913254
0.7410513162612915 0.45550888776779175 0.063428632915019989
0.81491094827651978 0.4651179313659668 0.10037461668252945
0.87232667207717896 0.47252383828163147 0.12903212010860443
0.92596840858459473 0.48145303130149841 0.15124581754207611
0.97153967618942261 0.49022510647773743 0.17517407238483429
5.1520852139219642e-05 0.48679846525192261 0.14396189153194427
0.0029513190966099501 0.48318904638290405 0.13974498212337494
0.015753637999296188 0.48259314894676208 0.13433746993541718
0.14380525052547455 0.48457297682762146 0.129222571849823
0.27601221203804016 0.49240148067474365 0.10117573291063309
0.39598682522773743 0.50082272291183472 0.055905599147081375
0.51214414834976196 0.51032018661499023 0.021525423973798752
0.6233484148979187 0.51930147409439087 0.010435710661113262
0.7183302640914917 0.52750986814498901 0.015724241733551025
0.7977374792098999 0.53640115261077881 0.036193292587995529
0.86524909734725952 0.5474855899810791 0.08061663806438446
0.92722737789154053 0.56271260976791382 0.14899554848670959
0.97617393732070923 0.57431483268737793 0.19014613330364227
0 0.5602075457572937 0.14858497679233551
0.0021439497359097004 0.55731981992721558 0.14519058167934418
0.012605136260390282 0.55479538440704346 0.14150063693523407
0.12493618577718735 0.55195713043212891 0.13742299377918243
0.26581749320030212 0.55605006217956543 0.11463024467229843
0.37878280878067017 0.56483685970306396 0.072780966758728027
0.48759305477142334 0.57706570625305176 0.032140277326107025
0.59443813562393188 0.58769363164901733 0.0098785096779465675
0.69112342596054077 0.59713703393936157 0.0089431758970022202
0.77606630325317383 0.6044536828994751 0.01089039258658886
0.85018861293792725 0.61416053771972656 0.024457864463329315
0.91529339551925659 0.62760049104690552 0.076461568474769592
0.97084951400756836 0.64446026086807251 0.16895613074302673
0.00071553251473233104 0.63420343399047852 0.15659566223621368
0.003952699713408947 0.63036268949508667 0.1534448117017746
0.012861797586083412 0.62665355205535889 0.14966501295566559
0.12367649376392365 0.62246495485305786 0.14562514424324036
0.26878854632377625 0.62081652879714966 0.13471211493015289
0.37392440438270569 0.62812680006027222 0.10049202293157578
0.4760444164276123 0.6398126482963562 0.05691852793097496
0.57469576597213745 0.65161222219467163 0.018362412229180336
0.66740661859512329 0.66201984882354736 0.010742905549705029
0.75427716970443726 0.66967594623565674 0.010116666555404663
0.83166295289993286 0.67706656455993652 0.012340575456619263
0.89861464500427246 0.68697673082351685 0.023665005341172218
0.95990234613418579 0.70045346021652222 0.07754044234752655
0.0071234460920095444 0.70616501569747925 0.17634277045726776
0.0044597401283681393 0.70143848657608032 0.16648854315280914
0.021873354911804199 0.69698739051818848 0.15862923860549927
0.16089390218257904 0.6944267749786377 0.1587354838848114
0.28616085648536682 0.69290626049041748 0.15957185626029968
0.39180147647857666 0.69642651081085205 0.14035664498806
0.48272764682769775 0.70513826608657837 0.095100492238998413
0.5650099515914917 0.71226000785827637 0.047936860471963882
0.65141242742538452 0.72177135944366455 0.01883220300078392
0.7355843186378479 0.73014259338378906 0.010216642171144485
0.81336545944213867 0.73732805252075195 0.010494965128600597
0.88468295335769653 0.74767225980758667 0.01294759102165699
0.94819396734237671 0.7572295069694519 0.016315819695591927
0.016430754214525223 0.77577054500579834 0.20272068679332733
0.029303323477506638 0.77264893054962158 0.19513237476348877
0.11151792109012604 0.76879286766052246 0.19244031608104706
0.23191606998443604 0.7662578821182251 0.20278793573379517
0.32929784059524536 0.76609104871749878 0.20754781365394592
0.4288494884967804 0.76797550916671753 0.19972500205039978
0.50823557376861572 0.77188307046890259 0.16476987302303314
0.57746732234954834 0.77515774965286255 0.1207583099603653
0.64902055263519287 0.78214973211288452 0.057228568941354752
0.72457045316696167 0.79050278663635254 0.020284315571188927
0.8010021448135376 0.80023413896560669 0.010679192841053009
0.87521052360534668 0.80976444482803345 0.011778079904615879
0.93823373317718506 0.81676334142684937 0.01078669261187315
0.16541916131973267 0.84680908918380737 0.27033248543739319
0.19740492105484009 0.84460115432739258 0.27905327081680298
0.26300892233848572 0.84325128793716431 0.27017208933830261
0.33273220062255859 0.83975785970687866 0.27251765131950378
0.40229165554046631 0.83809155225753784 0.27598565816879272
0.47401130199432373 0.83874952793121338 0.27084079384803772
0.53959816694259644 0.83992820978164673 0.25908496975898743
0.60416978597640991 0.84305262565612793 0.22776728868484497
0.67680186033248901 0.84953033924102783 0.19260598719120026
0.74370485544204712 0.85777813196182251 0.14159564673900604
0.80730772018432617 0.86648672819137573 0.084831416606903076
0.87460786104202271 0.87467139959335327 0.036475341767072678
0.93625921010971069 0.88012945652008057 0.014550541527569294
0.37706542015075684 0.91989177465438843 0.40132740139961243
0.39186200499534607 0.91882956027984619 0.40571328997612
0.4217134416103363 0.91829651594161987 0.39901816844940186
0.46230900287628174 0.91526281833648682 0.39820083975791931
0.51124805212020874 0.91334772109985352 0.40526917576789856
0.56157892942428589 0.91349184513092041 0.40901905298233032
0.61388295888900757 0.91389071941375732 0.41105219721794128
0.66362482309341431 0.91655361652374268 0.39580768346786499
0.72188609838485718 0.92106056213378906 0.37791928648948669
0.77830618619918823 0.92590928077697754 0.35151907801628113
0.83546000719070435 0.93187206983566284 0.32218220829963684
0.89487218856811523 0.93863463401794434 0.27272200584411621
0.95430320501327515 0.94494920969009399 0.20723733305931091
0.020771609619259834 0.032697100192308426 0.14862650632858276
0.070568695664405823 0.028170252218842506 0.1624259352684021
0.14468491077423096 0.024932082742452621 0.16797813773155212
0.19080992043018341 0.038788169622421265 0.15764245390892029
0.26980310678482056 0.043292384594678879 0.15858156979084015
0.37238201498985291 0.028016258031129837 0.16204912960529327
0.48173189163208008 0.013638934120535851 0.17224529385566711
0.5883793830871582 0.011919867247343063 0.17673212289810181
0.68789100646972656 0.0078807752579450607 0.17285236716270447
0.7724185585975647 0.0082514593377709389 0.17027705907821655
0.84641242027282715 0.014938399195671082 0.17073217034339905
0.91001260280609131 0.055808559060096741 0.17409294843673706
0.96818059682846069 0.13682509958744049 0.17763508856296539
0.013008581474423409 0.083303205668926239 0.16305381059646606
0.058326210826635361 0.081879623234272003 0.17138461768627167
0.13958948850631714 0.079628735780715942 0.17660152912139893
0.20293214917182922 0.095014296472072601 0.1715797483921051
0.28838208317756653 0.10321018099784851 0.17213372886180878
0.39317324757575989 0.087547674775123596 0.17087465524673462
0.50518155097961426 0.052589356899261475 0.1720757931470871
0.60925805568695068 0.050622604787349701 0.17530854046344757
0.70038652420043945 0.040109641849994659 0.17389178276062012
0.7782517671585083 0.049721226096153259 0.17569723725318909
0.84819936752319336 0.07559821754693985 0.17873719334602356
0.91018158197402954 0.12377721816301346 0.18488483130931854
0.96670866012573242 0.18144741654396057 0.18650099635124207
0.0059581534005701542 0.15074507892131805 0.17632247507572174
0.045636493712663651 0.15744510293006897 0.18231241405010223
0.13235324621200562 0.16480934619903564 0.18550701439380646
0.21987447142601013 0.17512223124504089 0.1846240907907486
0.31854790449142456 0.18233039975166321 0.18614043295383453
0.42674344778060913 0.17537987232208252 0.18540248274803162
0.53342145681381226 0.15968716144561768 0.18413394689559937
0.63187927007675171 0.15641099214553833 0.18397876620292664
0.71315920352935791 0.15080477297306061 0.18328765034675598
0.78625035285949707 0.15565973520278931 0.18360336124897003
0.85161072015762329 0.17700451612472534 0.18712617456912994
0.91228419542312622 0.21178130805492401 0.19203284382820129
0.96822488307952881 0.24989192187786102 0.19449076056480408
0.0031400942243635654 0.24352811276912689 0.20067329704761505
0.017578843981027603 0.25068032741546631 0.20077612996101379
0.11614096909761429 0.25326114892959595 0.19588063657283783
0.22436654567718506 0.25960138440132141 0.19167846441268921
0.34236437082290649 0.2705594003200531 0.19198647141456604
0.45879063010215759 0.27549067139625549 0.19645282626152039
0.56597888469696045 0.27071234583854675 0.19572368264198303
0.65192198753356934 0.26403802633285522 0.19356861710548401
0.72810250520706177 0.25968891382217407 0.18925561010837555
0.79649096727371216 0.26580286026000977 0.18704751133918762
0.85848641395568848 0.28055131435394287 0.19087487459182739
0.91764944791793823 0.30533298850059509 0.19556127488613129
0.96870654821395874 0.32890382409095764 0.20241960883140564
0.0039974884130060673 0.3404209315776825 0.21368597447872162
0.0079148979857563972 0.34441900253295898 0.20903705060482025
0.078664146363735199 0.34572741389274597 0.20310007035732269
