luts/instant_pro/fuji_fp-100c_cool_--.cube
# Created by: G'MIC (https://gmic.eu)
TITLE "fuji_fp-100c_cool_--"
# LUT size
LUT_3D_SIZE 5
# Data domain
DOMAIN_MIN 0.0 0.0 0.0
DOMAIN_MAX 1.0 1.0 1.0
# LUT data points
0.0095015885308384895 0.02092183381319046 0.022480159997940063
0.19854597747325897 0.021399179473519325 0.024895193055272102
0.53378033638000488 0.0063856537453830242 0.029695143923163414
0.82450485229492188 0.011727366596460342 0.016992231830954552
0.99348151683807373 0.036613345146179199 0.003335616085678339
0.0054827970452606678 0.22455610334873199 0.028189385309815407
0.21044614911079407 0.23975910246372223 0.013062002137303352
0.59340149164199829 0.2424473762512207 0.0055988985113799572
0.83545094728469849 0.23408542573451996 0.0059825223870575428
0.99046933650970459 0.29064443707466125 0.010474709793925285
0.001906226621940732 0.49656367301940918 0.0061880224384367466
0.034480586647987366 0.49029868841171265 0.0056774215772747993
0.51495683193206787 0.51753658056259155 0.006451326422393322
0.81728428602218628 0.53287172317504883 0.016162872314453125
0.99173170328140259 0.56944775581359863 0.023868367075920105
0 0.70712238550186157 0.010895597748458385
0.017172615975141525 0.70108669996261597 0.012177621014416218
0.43715560436248779 0.71149134635925293 0.0052422615699470043
0.7315673828125 0.73669373989105225 0.0032579610124230385
0.96807754039764404 0.76402682065963745 0.0063847261480987072
0.28118526935577393 0.94416970014572144 0.33846303820610046
0.41126793622970581 0.93880796432495117 0.34034106135368347
0.59916645288467407 0.93337702751159668 0.34325981140136719
0.77605199813842773 0.94657391309738159 0.23983623087406158
0.97287464141845703 0.96007007360458374 0.046065986156463623
0.0091802859678864479 0.020320143550634384 0.24241307377815247
0.27811980247497559 0.0027245914097875357 0.27814725041389465
0.50762075185775757 0.015038060024380684 0.24484069645404816
0.80316078662872314 0.0052029476501047611 0.21285738050937653
0.98646062612533569 0.045050002634525299 0.20984286069869995
0.0052226944826543331 0.24570277333259583 0.26608359813690186
0.26373925805091858 0.28241065144538879 0.29750615358352661
0.59941357374191284 0.26859885454177856 0.27409029006958008
0.82472604513168335 0.24672780930995941 0.24130797386169434
0.97637933492660522 0.29512333869934082 0.23321819305419922
0.0063546723686158657 0.54560399055480957 0.29966902732849121
0.13736680150032043 0.54617142677307129 0.27686643600463867
0.55763357877731323 0.54407864809036255 0.19256310164928436
0.83143407106399536 0.55497634410858154 0.22296266257762909
0.98274332284927368 0.5791812539100647 0.27631765604019165
0.0010261985007673502 0.73717743158340454 0.26726114749908447
0.046467829495668411 0.72648060321807861 0.25290843844413757
0.4596235454082489 0.72355157136917114 0.20559640228748322
0.75176507234573364 0.74148851633071899 0.057034362107515335
0.97534006834030151 0.77020758390426636 0.071868628263473511
0.26177290081977844 0.94720983505249023 0.41712102293968201
0.39527076482772827 0.94064527750015259 0.4257015585899353
0.58888888359069824 0.93395155668258667 0.42959761619567871
0.77474278211593628 0.94307142496109009 0.36986732482910156
0.97113585472106934 0.95982062816619873 0.15741769969463348
0.010288657620549202 0.0058684404939413071 0.52800709009170532
0.34455245733261108 0.0039215688593685627 0.57477402687072754
0.73076999187469482 0.00074823416071012616 0.61886626482009888
0.76708835363388062 0.13516591489315033 0.5142977237701416
0.96306633949279785 0.15132820606231689 0.49427607655525208
0.0054477169178426266 0.22340391576290131 0.50981539487838745
0.31246539950370789 0.2324894517660141 0.56686115264892578
0.71052306890487671 0.23251304030418396 0.62015223503112793
0.78154140710830688 0.34179052710533142 0.53369355201721191
0.97130662202835083 0.29566958546638489 0.47540509700775146
0.020109424367547035 0.54134303331375122 0.55880641937255859
0.32407292723655701 0.5721014142036438 0.58075225353240967
0.62932485342025757 0.60585880279541016 0.59421813488006592
0.81361645460128784 0.58358210325241089 0.55431807041168213
0.97009384632110596 0.54315286874771118 0.50869721174240112
0.16667757928371429 0.77763581275939941 0.58352792263031006
0.34091266989707947 0.77661025524139404 0.57337218523025513
0.54254603385925293 0.77097982168197632 0.52790701389312744
0.76847648620605469 0.76989531517028809 0.48071467876434326
0.96766167879104614 0.79590147733688354 0.50426453351974487
0.29334366321563721 0.95656657218933105 0.59849387407302856
0.36763623356819153 0.95207881927490234 0.58225661516189575
0.562705397605896 0.94130039215087891 0.57178151607513428
0.76709294319152832 0.94656729698181152 0.55639612674713135
0.96695727109909058 0.95663321018218994 0.46507170796394348
0.21375854313373566 0.0055900122970342636 0.75034356117248535
0.42537128925323486 0.005222066305577755 0.77184790372848511
0.75165086984634399 0.003659611102193594 0.82158541679382324
0.9588083028793335 0.0030031092464923859 0.83012449741363525
0.97022807598114014 0.31572398543357849 0.75225061178207397
0.19442589581012726 0.21027961373329163 0.74435174465179443
0.40484818816184998 0.19180120527744293 0.76500773429870605
0.72244018316268921 0.14408023655414581 0.81443279981613159
0.94286537170410156 0.22933351993560791 0.83031916618347168
0.95839995145797729 0.45812070369720459 0.76344043016433716
0.0074066459201276302 0.44651150703430176 0.68129861354827881
0.21309554576873779 0.4692017138004303 0.70127910375595093
0.61406534910202026 0.52028810977935791 0.76689285039901733
0.87371647357940674 0.59577250480651855 0.81745743751525879
0.92953413724899292 0.63572472333908081 0.76423078775405884
0.25253888964653015 0.73325848579406738 0.74714565277099609
0.38328948616981506 0.74408823251724243 0.75634491443634033
0.57963955402374268 0.77230894565582275 0.77604538202285767
0.81475406885147095 0.81932699680328369 0.79745924472808838
0.94998401403427124 0.80017143487930298 0.77010101079940796
0.43917316198348999 0.95990449190139771 0.83109498023986816
0.49992042779922485 0.95547759532928467 0.82315129041671753
0.6224510669708252 0.95854717493057251 0.81099015474319458
0.75923424959182739 0.95504796504974365 0.77126544713973999
0.95787841081619263 0.95950812101364136 0.72986423969268799
0.56524008512496948 0.081335119903087616 0.96395206451416016
0.64237290620803833 0.047814536839723587 0.96791887283325195
0.80470985174179077 0.0093328887596726418 0.97385960817337036
0.98401004076004028 0.0040956083685159683 0.98665177822113037
1 0.1021527573466301 0.98328286409378052
0.54134988784790039 0.31387650966644287 0.95493251085281372
0.62087827920913696 0.29855194687843323 0.95539671182632446
0.78397715091705322 0.24292819201946259 0.96947222948074341
0.97141331434249878 0.19652983546257019 0.98495763540267944
1 0.36457845568656921 0.9752814769744873
0.36639520525932312 0.51798003911972046 0.93456763029098511
0.48921689391136169 0.52712386846542358 0.93665194511413574
0.70474660396575928 0.5367017388343811 0.95273858308792114
0.91285914182662964 0.56342983245849609 0.97246909141540527
0.99433887004852295 0.62432646751403809 0.96642923355102539
0.22804127633571625 0.73639315366744995 0.91703420877456665
0.33925217390060425 0.73190116882324219 0.91550230979919434
0.51617354154586792 0.72409826517105103 0.91843664646148682
0.79965198040008545 0.77732580900192261 0.95272111892700195
0.97907251119613647 0.82299327850341797 0.96528071165084839
0.51514089107513428 0.94374948740005493 0.95818859338760376
0.5570259690284729 0.94262248277664185 0.96066862344741821
0.65482646226882935 0.94953614473342896 0.96294736862182617
0.79096299409866333 0.95350497961044312 0.96081089973449707
0.96074241399765015 0.97328144311904907 0.96290963888168335
