luts/instant_pro/fuji_fp-100c_-.cube
# Created by: G'MIC (https://gmic.eu)
TITLE "fuji_fp-100c_-"
# LUT size
LUT_3D_SIZE 5
# Data domain
DOMAIN_MIN 0.0 0.0 0.0
DOMAIN_MAX 1.0 1.0 1.0
# LUT data points
0.028023872524499893 0.037385243922472 0.047896411269903183
0.20417122542858124 0.030484816059470177 0.046130716800689697
0.5105736255645752 0.0089362645521759987 0.042132716625928879
0.80851262807846069 0.0071373432874679565 0.038411654531955719
0.99135959148406982 0.071739569306373596 0.049199916422367096
0.0065150689333677292 0.21924854815006256 0.058085065335035324
0.2318233996629715 0.24275654554367065 0.023878030478954315
0.57751274108886719 0.24836696684360504 0.028000909835100174
0.83163243532180786 0.23985485732555389 0.034686878323554993
0.99518978595733643 0.30938133597373962 0.065719097852706909
0.0035047193523496389 0.47088518738746643 0.078657574951648712
0.1567862331867218 0.47414371371269226 0.052630584686994553
0.53830409049987793 0.50085794925689697 0.0046638189814984798
0.83155262470245361 0.52880692481994629 0.0079809902235865593
0.99422001838684082 0.56811660528182983 0.1385742574930191
0.0047217276878654957 0.69352102279663086 0.11646530777215958
0.21617862582206726 0.68965941667556763 0.10864154249429703
0.50756609439849854 0.69256436824798584 0.02394256554543972
0.77941542863845825 0.72465837001800537 0.011682068929076195
0.97502249479293823 0.75378859043121338 0.0057448740117251873
0.45428264141082764 0.91540199518203735 0.38532537221908569
0.53125655651092529 0.91096007823944092 0.38672348856925964
0.67169898748397827 0.90989381074905396 0.39011028409004211
0.82277780771255493 0.92387610673904419 0.33396118879318237
0.98044222593307495 0.94263178110122681 0.17879371345043182
0.023167269304394722 0.030026873573660851 0.23110121488571167
0.26386821269989014 0.011419856920838356 0.25916033983230591
0.48116523027420044 0.04348817840218544 0.24109424650669098
0.79741448163986206 0.0044109867885708809 0.22545422613620758
0.98573476076126099 0.07005048543214798 0.22864572703838348
0.0049925562925636768 0.24319383502006531 0.26907521486282349
0.25757992267608643 0.2735481858253479 0.28557723760604858
0.58025693893432617 0.26711496710777283 0.27592054009437561
0.82599169015884399 0.24422299861907959 0.24999982118606567
0.98717093467712402 0.3001437783241272 0.25231301784515381
0.0039145378395915031 0.53900414705276489 0.29601693153381348
0.22442187368869781 0.53261435031890869 0.28475204110145569
0.57589131593704224 0.53537756204605103 0.23387034237384796
0.84560471773147583 0.54998260736465454 0.2543322741985321
0.98993974924087524 0.5698276162147522 0.31937718391418457
0.0045267590321600437 0.7217676043510437 0.29100972414016724
0.24840423464775085 0.71761739253997803 0.28371301293373108
0.53095400333404541 0.71533441543579102 0.26015684008598328
0.78376442193984985 0.73333466053009033 0.137480229139328
0.98122453689575195 0.75663250684738159 0.17445418238639832
0.44814771413803101 0.92154479026794434 0.45920303463935852
0.52441805601119995 0.91733604669570923 0.45533254742622375
0.66914552450180054 0.91178750991821289 0.46757793426513672
0.81657356023788452 0.92286843061447144 0.42834094166755676
0.9768950343132019 0.94125378131866455 0.31938111782073975
0.006160316988825798 0.014273953624069691 0.50251317024230957
0.33165353536605835 0.0053648254834115505 0.55174213647842407
0.71730995178222656 0.00027162139303982258 0.60896551609039307
0.76919782161712646 0.1366831511259079 0.51228445768356323
0.97094237804412842 0.15456414222717285 0.49725815653800964
0.0058841332793235779 0.23103839159011841 0.49809703230857849
0.30929872393608093 0.23033930361270905 0.54731243848800659
0.70623892545700073 0.22318153083324432 0.61284369230270386
0.78849375247955322 0.33716240525245667 0.52986317873001099
0.97436201572418213 0.29629090428352356 0.48714381456375122
0.048700176179409027 0.53084284067153931 0.55549532175064087
0.32910868525505066 0.55740714073181152 0.57513827085494995
0.64928781986236572 0.60114169120788574 0.6032605767250061
0.8293921947479248 0.58465063571929932 0.56978219747543335
0.9769665002822876 0.55354982614517212 0.52733266353607178
0.26833310723304749 0.76537525653839111 0.5853692889213562
0.40298426151275635 0.76444411277770996 0.57624167203903198
0.59561115503311157 0.74862837791442871 0.54791736602783203
0.80214124917984009 0.7567819356918335 0.50675392150878906
0.97033554315567017 0.78090071678161621 0.53670459985733032
0.44411766529083252 0.93304538726806641 0.61023861169815063
0.50153791904449463 0.92447054386138916 0.60194879770278931
0.64950186014175415 0.92156839370727539 0.59884536266326904
0.81189996004104614 0.92230093479156494 0.59003949165344238
0.97097170352935791 0.94211459159851074 0.52601087093353271
0.24591486155986786 0.013488140888512135 0.74596661329269409
0.42895784974098206 0.0033819011878222227 0.76041918992996216
0.75463122129440308 0.00039856854709796607 0.8127129077911377
0.96994626522064209 0.001088939025066793 0.82463598251342773
0.9767005443572998 0.31639626622200012 0.75018107891082764
0.19172413647174835 0.21829366683959961 0.7325587272644043
0.39539188146591187 0.20014221966266632 0.7528986930847168
0.72265923023223877 0.14911359548568726 0.80186903476715088
0.95301133394241333 0.23020035028457642 0.82319074869155884
0.96229702234268188 0.4491477906703949 0.754741370677948
0.008623175323009491 0.44149354100227356 0.67905271053314209
0.23600512742996216 0.45885276794433594 0.69919359683990479
0.62667739391326904 0.51564645767211914 0.76462990045547485
0.89161008596420288 0.58566945791244507 0.8122180700302124
0.9421960711479187 0.63529795408248901 0.76173883676528931
0.33167698979377747 0.72765451669692993 0.75104564428329468
0.4421800971031189 0.73314511775970459 0.75840067863464355
0.63462227582931519 0.76462686061859131 0.7771226167678833
0.83526206016540527 0.80770301818847656 0.8014647364616394
0.95827388763427734 0.78672826290130615 0.76775246858596802
0.54025804996490479 0.94096386432647705 0.82519054412841797
0.58378231525421143 0.93945449590682983 0.82178956270217896
0.67247867584228516 0.93505239486694336 0.79650557041168213
0.80515629053115845 0.93542146682739258 0.78145688772201538
0.96079212427139282 0.94605737924575806 0.75188195705413818
0.56403899192810059 0.080635353922843933 0.9513775110244751
0.64527612924575806 0.04426124319434166 0.95578670501708984
0.8120044469833374 0.0056787231005728245 0.96365821361541748
0.97371631860733032 0.0059906304813921452 0.96860963106155396
1 0.17268012464046478 0.9752238392829895
0.53860938549041748 0.29933556914329529 0.94340384006500244
0.6261788010597229 0.2875610888004303 0.94637322425842285
0.79448598623275757 0.25037118792533875 0.95834100246429443
0.97802138328552246 0.22460143268108368 0.97699660062789917
1 0.39270678162574768 0.96799659729003906
0.38320764899253845 0.51458799839019775 0.92225664854049683
0.51283222436904907 0.51723414659500122 0.92781645059585571
0.71823775768280029 0.53126215934753418 0.94240427017211914
0.92213946580886841 0.56457144021987915 0.9601142406463623
0.99270725250244141 0.63532114028930664 0.96314620971679688
0.32853931188583374 0.72246766090393066 0.90584039688110352
0.40106117725372314 0.718131422996521 0.90341436862945557
0.56220299005508423 0.71586436033248901 0.90812522172927856
0.8265841007232666 0.76869624853134155 0.93952274322509766
0.98049616813659668 0.81220400333404541 0.95686942338943481
0.59933161735534668 0.9299933910369873 0.94818460941314697
0.62968331575393677 0.92816793918609619 0.94431966543197632
0.70811086893081665 0.93142062425613403 0.94660496711730957
0.8218996524810791 0.94375413656234741 0.94747906923294067
0.96464407444000244 0.96139830350875854 0.95842272043228149
