luts/instant_pro/fuji_fp-100c_++_alt.cube
# Created by: G'MIC (https://gmic.eu)
TITLE "fuji_fp-100c_++_alt"
# LUT size
LUT_3D_SIZE 13
# Data domain
DOMAIN_MIN 0.0 0.0 0.0
DOMAIN_MAX 1.0 1.0 1.0
# LUT data points
0.27843138575553894 0.21875 0.15217514336109161
0.27902352809906006 0.21863330900669098 0.14925338327884674
0.28914669156074524 0.2197110503911972 0.14602644741535187
0.31436875462532043 0.22201541066169739 0.14651510119438171
0.34229815006256104 0.22297592461109161 0.14738036692142487
0.38974031805992126 0.2251829206943512 0.14795951545238495
0.45707598328590393 0.23327586054801941 0.14989258348941803
0.52652919292449951 0.24067121744155884 0.14947836101055145
0.59574222564697266 0.24757970869541168 0.14574496448040009
0.66596496105194092 0.25516542792320251 0.14397589862346649
0.73715579509735107 0.26754313707351685 0.14300762116909027
0.80900084972381592 0.27954107522964478 0.1420150101184845
0.87570023536682129 0.28885069489479065 0.14010332524776459
0.28091850876808167 0.23066012561321259 0.15294118225574493
0.28253746032714844 0.23007398843765259 0.15196877717971802
0.29601368308067322 0.23329843580722809 0.14854748547077179
0.32126128673553467 0.23790182173252106 0.14689238369464874
0.35459986329078674 0.23878677189350128 0.1475977897644043
0.39971828460693359 0.23877459764480591 0.14810614287853241
0.46189886331558228 0.24413579702377319 0.14848068356513977
0.53287345170974731 0.25241884589195251 0.14771565794944763
0.60232257843017578 0.25825172662734985 0.14555975794792175
0.67184025049209595 0.26379305124282837 0.14169937372207642
0.74219030141830444 0.27817216515541077 0.14126592874526978
0.81425601243972778 0.29250562191009521 0.14054247736930847
0.88207966089248657 0.30594936013221741 0.14043085277080536
0.28235295414924622 0.24857467412948608 0.15091046690940857
0.28316745162010193 0.24703794717788696 0.14885058999061584
0.29966890811920166 0.25043138861656189 0.1469588428735733
0.32648870348930359 0.2560562789440155 0.14463329315185547
0.36390617489814758 0.25932207703590393 0.1450212299823761
0.41239091753959656 0.26382878422737122 0.1464015394449234
0.47813913226127625 0.27239972352981567 0.14734673500061035
0.55179816484451294 0.28416329622268677 0.14580526947975159
0.61962312459945679 0.29177898168563843 0.14329546689987183
0.68609827756881714 0.2974909245967865 0.13946500420570374
0.75418883562088013 0.30629217624664307 0.13846716284751892
0.82181257009506226 0.31571158766746521 0.13814036548137665
0.88861733675003052 0.33050987124443054 0.13946327567100525
0.28080031275749207 0.28049710392951965 0.15360091626644135
0.28331100940704346 0.27886489033699036 0.15090775489807129
0.30238059163093567 0.28131583333015442 0.14755375683307648
0.32973167300224304 0.28630131483078003 0.14393064379692078
0.37247523665428162 0.29542115330696106 0.14087432622909546
0.43260893225669861 0.30837538838386536 0.14132146537303925
0.49924138188362122 0.31750190258026123 0.14155246317386627
0.57003593444824219 0.32880690693855286 0.1417883038520813
0.63760840892791748 0.33738690614700317 0.13963478803634644
0.70156198740005493 0.34037536382675171 0.13612256944179535
0.76611930131912231 0.34993425011634827 0.13773384690284729
0.8313603401184082 0.3636053204536438 0.1405579149723053
0.89468050003051758 0.37511581182479858 0.1420673280954361
0.27514326572418213 0.33128052949905396 0.16050127148628235
0.28267210721969604 0.33135753870010376 0.15567989647388458
0.3034646213054657 0.33207452297210693 0.15015161037445068
0.33111634850502014 0.33623537421226501 0.14527562260627747
0.37476536631584167 0.34642261266708374 0.13845929503440857
0.4344123899936676 0.35964876413345337 0.13103276491165161
0.50003200769424438 0.37122437357902527 0.12608402967453003
0.5763518214225769 0.38539350032806396 0.12852360308170319
0.65471208095550537 0.39762353897094727 0.13135804235935211
0.72124683856964111 0.4020940363407135 0.13151548802852631
0.77889406681060791 0.40813371539115906 0.13659262657165527
0.83984607458114624 0.41624301671981812 0.14111541211605072
0.9009823203086853 0.42728573083877563 0.14514832198619843
0.2663198709487915 0.38843253254890442 0.16068772971630096
0.28011348843574524 0.38783162832260132 0.15663667023181915
0.30360656976699829 0.38759574294090271 0.15195770561695099
0.33175384998321533 0.3908073902130127 0.14615453779697418
0.37470453977584839 0.40047433972358704 0.13787680864334106
0.43195298314094543 0.41274815797805786 0.12329321354627609
0.49680808186531067 0.42479240894317627 0.10710681229829788
0.57151144742965698 0.43926700949668884 0.10353676229715347
0.65380370616912842 0.45323279500007629 0.1070035919547081
0.73068654537200928 0.46402516961097717 0.11551054567098618
0.79038375616073608 0.47080808877944946 0.12612755596637726
0.84950178861618042 0.47722291946411133 0.13753423094749451
0.90757095813751221 0.48575621843338013 0.15481895208358765
0.25863701105117798 0.4465995728969574 0.15449044108390808
0.27440467476844788 0.4469359815120697 0.15300348401069641
0.30008396506309509 0.44697529077529907 0.15069335699081421
0.33034834265708923 0.44678950309753418 0.14612984657287598
0.37345322966575623 0.45427983999252319 0.13872352242469788
0.42993864417076111 0.4682011604309082 0.12495087087154388
0.49146422743797302 0.48087355494499207 0.10389820486307144
0.56186169385910034 0.4930536150932312 0.074461497366428375
0.64048385620117188 0.5065997838973999 0.062120191752910614
0.718414306640625 0.5193449854850769 0.07144271582365036
0.79227596521377563 0.53078722953796387 0.10452987253665924
0.85229998826980591 0.5406029224395752 0.13315543532371521
0.91040825843811035 0.55247801542282104 0.17793959379196167
0.25126180052757263 0.50669568777084351 0.14868701994419098
0.26724457740783691 0.50731664896011353 0.14914384484291077
0.29253068566322327 0.50758457183837891 0.14753717184066772
0.32765215635299683 0.50934082269668579 0.14887702465057373
0.37225168943405151 0.51426154375076294 0.14600300788879395
0.42623817920684814 0.52557778358459473 0.13364808261394501
0.48645338416099548 0.5381934642791748 0.10875127464532852
0.55476862192153931 0.55055856704711914 0.064336337149143219
0.62821012735366821 0.56249302625656128 0.02545662596821785
0.70573300123214722 0.57219338417053223 0.017985355108976364
0.78061783313751221 0.58328056335449219 0.047907151281833649
0.85014128684997559 0.59722727537155151 0.10656508058309555
0.91089522838592529 0.61176705360412598 0.17609779536724091
0.24687308073043823 0.5709725022315979 0.15097410976886749
0.262727290391922 0.57136178016662598 0.15161509811878204
0.28921693563461304 0.57097643613815308 0.15201900899410248
0.32738390564918518 0.57322156429290771 0.154805988073349
0.37256261706352234 0.57718861103057861 0.15349328517913818
0.42452481389045715 0.58396327495574951 0.14749707281589508
0.48084405064582825 0.59390163421630859 0.12320323288440704
0.54621762037277222 0.60732448101043701 0.074522010982036591
0.61685782670974731 0.62027406692504883 0.024094600230455399
0.69222873449325562 0.62783551216125488 0.0095881596207618713
0.76941752433776855 0.63626062870025635 0.010650021024048328
0.84151095151901245 0.64802926778793335 0.044110123068094254
0.90493053197860718 0.66172647476196289 0.13782733678817749
0.24466350674629211 0.63897597789764404 0.15789167582988739
0.2641720175743103 0.63841849565505981 0.16132785379886627
0.29117721319198608 0.63686287403106689 0.1615927517414093
0.32846900820732117 0.63528287410736084 0.16082563996315002
0.37512519955635071 0.63733720779418945 0.16248172521591187
0.42611688375473022 0.64177995920181274 0.16172553598880768
0.47914594411849976 0.64935517311096191 0.14354264736175537
0.53933614492416382 0.66095048189163208 0.10939872264862061
0.61043864488601685 0.67277950048446655 0.069249279797077179
0.68259227275848389 0.68380385637283325 0.026612106710672379
0.75823473930358887 0.69313895702362061 0.0096941329538822174
0.83099538087844849 0.70121312141418457 0.0084005771204829216
0.89843815565109253 0.71111369132995605 0.073626093566417694
0.26630944013595581 0.70985615253448486 0.18743215501308441
0.2848585844039917 0.70793431997299194 0.18960152566432953
0.31059768795967102 0.70632243156433105 0.18965859711170197
0.34846276044845581 0.70376294851303101 0.191226527094841
0.3925834596157074 0.70272904634475708 0.19376853108406067
0.44181111454963684 0.70430612564086914 0.19368697702884674
0.4933411180973053 0.71003478765487671 0.18230541050434113
0.55020272731781006 0.71970033645629883 0.16490910947322845
0.61722689867019653 0.72980910539627075 0.13746686279773712
0.68770080804824829 0.74072068929672241 0.096369259059429169
0.75825798511505127 0.75123953819274902 0.052236039191484451
0.82649242877960205 0.75714164972305298 0.025707917287945747
0.89448493719100952 0.76306867599487305 0.022350415587425232
0.32838344573974609 0.78069686889648438 0.25701853632926941
0.344887375831604 0.77919518947601318 0.25930964946746826
0.36573681235313416 0.7779463529586792 0.2584686279296875
0.39868634939193726 0.77558773756027222 0.26065284013748169
0.43836227059364319 0.77440279722213745 0.26538535952568054
0.48756057024002075 0.77464485168457031 0.27135229110717773
0.53546130657196045 0.77904415130615234 0.26423585414886475
0.58465999364852905 0.78539502620697021 0.25356271862983704
0.64331668615341187 0.79325538873672485 0.24239131808280945
0.70866841077804565 0.80071824789047241 0.22871069610118866
0.77244693040847778 0.80897754430770874 0.20461541414260864
0.83523392677307129 0.81570255756378174 0.17258988320827484
0.895915687084198 0.81902402639389038 0.12836086750030518
0.45212796330451965 0.85035216808319092 0.39004918932914734
0.46083098649978638 0.84919023513793945 0.38988193869590759
0.47535267472267151 0.84818828105926514 0.38953498005867004
0.50101810693740845 0.84569674730300903 0.39296832680702209
0.53259921073913574 0.84607893228530884 0.39760547876358032
0.57234829664230347 0.84656870365142822 0.40462252497673035
0.61465173959732056 0.84839785099029541 0.41007450222969055
0.65596675872802734 0.85211652517318726 0.40692102909088135
0.70156568288803101 0.85740906000137329 0.40504544973373413
0.75192183256149292 0.86247342824935913 0.40422141551971436
0.80609482526779175 0.86867159605026245 0.39721181988716125
0.85844159126281738 0.87365889549255371 0.38548740744590759
0.91171354055404663 0.87860530614852905 0.37501281499862671
0.27631005644798279 0.21875 0.15828703343868256
0.27935582399368286 0.21847909688949585 0.15658742189407349
0.29122698307037354 0.21853631734848022 0.15585371851921082
0.31676575541496277 0.22183297574520111 0.15823169052600861
0.34491810202598572 0.2250046581029892 0.16107651591300964
0.39267921447753906 0.22441314160823822 0.16112358868122101
0.4544701874256134 0.2279733419418335 0.1603941023349762
0.52556198835372925 0.23380866646766663 0.16102047264575958
0.59766066074371338 0.23835542798042297 0.16206973791122437
0.66902357339859009 0.24523426592350006 0.16387574374675751
0.74020212888717651 0.26071292161941528 0.16294318437576294
0.81118512153625488 0.27587836980819702 0.16100318729877472
0.87533509731292725 0.28517436981201172 0.16035538911819458
0.27985996007919312 0.23013505339622498 0.15880310535430908
0.2818484902381897 0.22870643436908722 0.15718983113765717
0.29772219061851501 0.23091796040534973 0.15765061974525452
0.3255993127822876 0.23666965961456299 0.16046284139156342
0.35846006870269775 0.23893497884273529 0.16206488013267517
0.40558421611785889 0.23878322541713715 0.162610724568367
0.46726062893867493 0.24340434372425079 0.1634366512298584
0.53564631938934326 0.24866771697998047 0.16522571444511414
0.60434567928314209 0.25320518016815186 0.16486002504825592
0.67483878135681152 0.2607705295085907 0.16136395931243896
0.74663048982620239 0.27621161937713623 0.15825770795345306
0.81709802150726318 0.29129257798194885 0.1587069183588028
0.88173985481262207 0.30321738123893738 0.16025598347187042
0.28235295414924622 0.25244152545928955 0.16193312406539917
0.28429350256919861 0.25136414170265198 0.15978379547595978
0.30402210354804993 0.25425788760185242 0.16036194562911987
0.33181726932525635 0.25789949297904968 0.16233699023723602
0.36904379725456238 0.26220712065696716 0.16118472814559937
0.41912555694580078 0.26797625422477722 0.16224071383476257
0.48525398969650269 0.27365571260452271 0.16595245897769928
0.55330193042755127 0.28045561909675598 0.16653135418891907
0.62046825885772705 0.2878974974155426 0.16416455805301666
0.68840432167053223 0.29412120580673218 0.15911896526813507
0.75730973482131958 0.30132254958152771 0.15352240204811096
0.82299864292144775 0.31407085061073303 0.15611584484577179
0.88751125335693359 0.3295007050037384 0.15994216501712799
0.28163459897041321 0.28498432040214539 0.16542361676692963
0.28538811206817627 0.28390240669250488 0.16341513395309448
0.30874183773994446 0.28993836045265198 0.16416306793689728
0.33899858593940735 0.29640001058578491 0.16324004530906677
0.37885776162147522 0.30442655086517334 0.15846310555934906
0.43444743752479553 0.31433913111686707 0.15842618048191071
0.5027959942817688 0.32087922096252441 0.16380651295185089
0.57135879993438721 0.33011254668235779 0.16519938409328461
0.6384626030921936 0.33970350027084351 0.16200675070285797
0.70346248149871826 0.34271645545959473 0.15891963243484497
0.76765269041061401 0.34768155217170715 0.15600350499153137
0.8300279974937439 0.35905706882476807 0.15889394283294678
0.89212876558303833 0.37308913469314575 0.16159854829311371
0.27346551418304443 0.33452656865119934 0.17008860409259796
0.28271809220314026 0.33354014158248901 0.16752120852470398
0.30693230032920837 0.33880871534347534 0.16627956926822662
0.33970886468887329 0.34631851315498352 0.16329367458820343
0.38289064168930054 0.35325977206230164 0.15533332526683807
0.43963173031806946 0.36470258235931396 0.14845272898674011
0.5051504373550415 0.37480410933494568 0.14873255789279938
0.58022701740264893 0.3877449631690979 0.15417283773422241
0.65634822845458984 0.39990869164466858 0.15692640841007233
0.72073674201965332 0.40146249532699585 0.15564733743667603
0.78058546781539917 0.40322750806808472 0.15695579349994659
0.84015876054763794 0.41282510757446289 0.1625358909368515
0.9002692699432373 0.42570644617080688 0.16677363216876984
0.26179236173629761 0.39509499073028564 0.17319007217884064
0.27995026111602783 0.39446595311164856 0.17087432742118835
0.30410939455032349 0.39481517672538757 0.16791798174381256
0.33597731590270996 0.39881220459938049 0.16225409507751465
0.37983715534210205 0.40678489208221436 0.15553852915763855
0.43584135174751282 0.41781878471374512 0.14291764795780182
0.5039680004119873 0.43046784400939941 0.12970475852489471
0.57807600498199463 0.4432930052280426 0.12950155138969421
0.65854150056838989 0.4566255509853363 0.13432605564594269
0.72966557741165161 0.46573302149772644 0.14460965991020203
0.7896113395690918 0.46805962920188904 0.15468800067901611
0.84886813163757324 0.4758395254611969 0.16966442763805389
0.90558511018753052 0.48617085814476013 0.18075795471668243
0.25423413515090942 0.45613205432891846 0.17003174126148224
0.27487468719482422 0.4549560546875 0.16946271061897278
0.30087742209434509 0.45275682210922241 0.165509894490242
0.33297628164291382 0.45463591814041138 0.16187380254268646
0.37611019611358643 0.46140328049659729 0.1564171314239502
0.42939510941505432 0.47226998209953308 0.14417055249214172
0.49745672941207886 0.48499906063079834 0.12511132657527924
0.56886571645736694 0.49731793999671936 0.10000742226839066
0.64474350214004517 0.5109362006187439 0.088613234460353851
0.72129297256469727 0.52382475137710571 0.10496899485588074
0.79293400049209595 0.53355348110198975 0.14135099947452545
0.8551933765411377 0.54250937700271606 0.17068563401699066
0.91012239456176758 0.55265772342681885 0.20204639434814453
0.24710960686206818 0.5186765193939209 0.16734400391578674
0.26621171832084656 0.51912236213684082 0.16859069466590881
0.2941533625125885 0.51635175943374634 0.16724173724651337
0.33072939515113831 0.51628369092941284 0.16654166579246521
0.37409359216690063 0.52135735750198364 0.16318224370479584
0.42493963241577148 0.52952176332473755 0.15386846661567688
0.48601213097572327 0.54003489017486572 0.13207703828811646
0.5572890043258667 0.55190354585647583 0.092005692422389984
0.63276159763336182 0.56534075736999512 0.047828853130340576
0.71114814281463623 0.57681560516357422 0.045371666550636292
0.78472578525543213 0.58675771951675415 0.083408176898956299
0.85104691982269287 0.59811770915985107 0.13935878872871399
0.91190630197525024 0.61518514156341553 0.20622453093528748
0.24216164648532867 0.58340024948120117 0.16996492445468903
0.25951537489891052 0.58415341377258301 0.17349478602409363
0.28886577486991882 0.58147561550140381 0.17403002083301544
0.32741919159889221 0.57896155118942261 0.1729872077703476
0.37294036149978638 0.58239412307739258 0.17153981328010559
0.42452925443649292 0.5886799693107605 0.16718906164169312
0.48157545924186707 0.59665024280548096 0.14597491919994354
0.54896384477615356 0.60868650674819946 0.10238218307495117
0.62219971418380737 0.62181323766708374 0.056346189230680466
0.69924956560134888 0.63244682550430298 0.016665276139974594
0.77380168437957764 0.63955259323120117 0.022588467225432396
0.84447002410888672 0.65013009309768677 0.08529827743768692
0.90595334768295288 0.6645849347114563 0.17263469099998474
0.24289421737194061 0.64809316396713257 0.17843006551265717
0.26004385948181152 0.64698553085327148 0.17926374077796936
0.28921616077423096 0.64441090822219849 0.17911681532859802
0.32943612337112427 0.64164942502975464 0.18111445009708405
0.37758767604827881 0.64367789030075073 0.18349088728427887
0.43061396479606628 0.64775931835174561 0.18160133063793182
0.48247286677360535 0.65325790643692017 0.16554461419582367
0.5467602014541626 0.66378802061080933 0.13545496761798859
0.61839431524276733 0.67585664987564087 0.10300994664430618
0.69060230255126953 0.68747395277023315 0.054380632936954498
0.76223039627075195 0.69492775201797485 0.021329887211322784
0.83388012647628784 0.70200997591018677 0.021516522392630577
0.90052217245101929 0.71430546045303345 0.11115437000989914
0.26675665378570557 0.71539294719696045 0.20964148640632629
0.28256699442863464 0.71388393640518188 0.20813256502151489
0.31075507402420044 0.71132045984268188 0.20850741863250732
0.35022595524787903 0.70913088321685791 0.21356528997421265
0.39743879437446594 0.70806401968002319 0.21774624288082123
0.44863012433052063 0.71084904670715332 0.21689903736114502
0.49904012680053711 0.7149432897567749 0.20681701600551605
0.55699878931045532 0.7230256199836731 0.19187580049037933
0.62115156650543213 0.73332327604293823 0.16719071567058563
0.69023299217224121 0.74208241701126099 0.13041110336780548
0.76092594861984253 0.75063884258270264 0.087431482970714569
0.82946765422821045 0.75752246379852295 0.043825425207614899
0.89595961570739746 0.76422959566116333 0.049765598028898239
0.32968300580978394 0.78337764739990234 0.27558603882789612
0.34553471207618713 0.78300935029983521 0.27601376175880432
0.37049081921577454 0.78141659498214722 0.27879458665847778
0.40231221914291382 0.77909153699874878 0.27973920106887817
0.44226440787315369 0.77750176191329956 0.28235247731208801
0.48878070712089539 0.77853435277938843 0.28663548827171326
0.53532165288925171 0.78193187713623047 0.28094330430030823
0.58696538209915161 0.78775131702423096 0.27281510829925537
0.64673513174057007 0.79453462362289429 0.26599645614624023
0.71051526069641113 0.80163359642028809 0.2547905445098877
0.77281588315963745 0.80945718288421631 0.22742138803005219
0.83666020631790161 0.81512922048568726 0.19827650487422943
0.89811038970947266 0.81948333978652954 0.16259297728538513
0.45342588424682617 0.85154813528060913 0.40317681431770325
0.46143624186515808 0.85069829225540161 0.40214371681213379
0.477853924036026 0.84963077306747437 0.40290883183479309
0.50241279602050781 0.84751152992248535 0.40514722466468811
0.53435659408569336 0.84718984365463257 0.40799295902252197
0.57259529829025269 0.84789365530014038 0.41430783271789551
0.61564666032791138 0.84961897134780884 0.41982612013816833
0.65701186656951904 0.85285103321075439 0.41813793778419495
0.70338356494903564 0.85795634984970093 0.41726517677307129
0.75205749273300171 0.86264318227767944 0.41229760646820068
0.80509114265441895 0.86830335855484009 0.40771296620368958
0.85915863513946533 0.87358224391937256 0.40114524960517883
0.91206306219100952 0.87896120548248291 0.39126113057136536
0.27360546588897705 0.21802888810634613 0.16885592043399811
0.28333500027656555 0.2180902361869812 0.1757565438747406
0.29839926958084106 0.21768529713153839 0.1774628609418869
0.31839105486869812 0.21997550129890442 0.17446058988571167
0.34156948328018188 0.22593368589878082 0.17575067281723022
0.39053952693939209 0.22597607970237732 0.17743274569511414
0.45246186852455139 0.22449564933776855 0.17935779690742493
0.52660197019577026 0.22423793375492096 0.18196737766265869
0.60008150339126587 0.22584804892539978 0.18370792269706726
0.67225044965744019 0.23169393837451935 0.18472577631473541
0.74157106876373291 0.24496963620185852 0.18579293787479401
0.81039774417877197 0.26348009705543518 0.18419794738292694
0.87731409072875977 0.27720844745635986 0.18213574588298798
0.27790802717208862 0.23103098571300507 0.17415376007556915
0.28630700707435608 0.22875748574733734 0.17804242670536041
0.303153395652771 0.22947777807712555 0.18115207552909851
0.3263607919216156 0.23501478135585785 0.18172192573547363
0.3546658456325531 0.23917476832866669 0.18017691373825073
0.40456750988960266 0.23725177347660065 0.17970412969589233
0.46995934844017029 0.24007977545261383 0.18345730006694794
0.53801363706588745 0.2412765771150589 0.18708533048629761
0.60750854015350342 0.24525217711925507 0.18666800856590271
0.67858636379241943 0.25363489985466003 0.18372569978237152
0.74835443496704102 0.26422831416130066 0.18220202624797821
0.81606239080429077 0.2792966365814209 0.18312792479991913
0.88192629814147949 0.29459282755851746 0.18420253694057465
0.28133371472358704 0.25112465023994446 0.18075712025165558
0.28809311985969543 0.25157210230827332 0.18234308063983917
0.3079494833946228 0.256949782371521 0.1856878250837326
0.33335620164871216 0.25976189970970154 0.18599151074886322
0.37025165557861328 0.26480978727340698 0.18347731232643127
0.42264634370803833 0.26831811666488647 0.18210023641586304
0.48957356810569763 0.27134272456169128 0.18902973830699921
0.55511653423309326 0.27520531415939331 0.19073542952537537
0.62141323089599609 0.28203815221786499 0.18836009502410889
0.6898200511932373 0.28790852427482605 0.18607504665851593
0.75845897197723389 0.29355138540267944 0.18314541876316071
0.82350945472717285 0.30777633190155029 0.18603117763996124
0.88851982355117798 0.32500210404396057 0.18812759220600128
0.28102028369903564 0.28389519453048706 0.18541653454303741
0.28815972805023193 0.2876594066619873 0.18659430742263794
0.31055596470832825 0.29911759495735168 0.19031187891960144
0.34262481331825256 0.30616423487663269 0.188339963555336
0.38378962874412537 0.31113526225090027 0.18300549685955048
0.44001331925392151 0.31593489646911621 0.18382872641086578
0.50737255811691284 0.31950920820236206 0.19203208386898041
0.57399159669876099 0.32873132824897766 0.19370369613170624
0.63972681760787964 0.33762454986572266 0.19093278050422668
0.70417302846908569 0.33923959732055664 0.18822784721851349
0.76891875267028809 0.34281593561172485 0.18622729182243347
0.83075118064880371 0.35533154010772705 0.191031813621521
0.89118474721908569 0.37015330791473389 0.19551873207092285
0.27058818936347961 0.34081065654754639 0.19197835028171539
0.28301134705543518 0.34565716981887817 0.193704754114151
0.30755418539047241 0.35563710331916809 0.19498349726200104
0.34599897265434265 0.36131259799003601 0.19156181812286377
0.39185166358947754 0.36305078864097595 0.18377953767776489
0.44923049211502075 0.36934694647789001 0.17935547232627869
0.51351100206375122 0.37763792276382446 0.18074160814285278
0.58750635385513306 0.38961628079414368 0.18813839554786682
