luts/instant_pro/fuji_fp-3000b_negative_early.cube
# Created by: G'MIC (https://gmic.eu)
TITLE "fuji_fp-3000b_negative_early"
# LUT size
LUT_3D_SIZE 13
# Data domain
DOMAIN_MIN 0.0 0.0 0.0
DOMAIN_MAX 1.0 1.0 1.0
# LUT data points
0.19169561564922333 0.19169561564922333 0.19169561564922333
0.18939360976219177 0.18939360976219177 0.18939360976219177
0.18265356123447418 0.18265356123447418 0.18265356123447418
0.17271170020103455 0.17271170020103455 0.17271170020103455
0.17035871744155884 0.17035871744155884 0.17035871744155884
0.18476013839244843 0.18476013839244843 0.18476013839244843
0.22093060612678528 0.22093060612678528 0.22093060612678528
0.27994474768638611 0.27994474768638611 0.27994474768638611
0.35073348879814148 0.35073348879814148 0.35073348879814148
0.42563501000404358 0.42563501000404358 0.42563501000404358
0.50250887870788574 0.50250887870788574 0.50250887870788574
0.57827627658843994 0.57827627658843994 0.57827627658843994
0.64901840686798096 0.64901840686798096 0.64901840686798096
0.17380483448505402 0.17380483448505402 0.17380483448505402
0.17485201358795166 0.17485201358795166 0.17485201358795166
0.17333082854747772 0.17333082854747772 0.17333082854747772
0.17016865313053131 0.17016865313053131 0.17016865313053131
0.17679612338542938 0.17679612338542938 0.17679612338542938
0.19955763220787048 0.19955763220787048 0.19955763220787048
0.24207235872745514 0.24207235872745514 0.24207235872745514
0.30150792002677917 0.30150792002677917 0.30150792002677917
0.37055012583732605 0.37055012583732605 0.37055012583732605
0.44352409243583679 0.44352409243583679 0.44352409243583679
0.5179935097694397 0.5179935097694397 0.5179935097694397
0.59070539474487305 0.59070539474487305 0.59070539474487305
0.65804016590118408 0.65804016590118408 0.65804016590118408
0.16045086085796356 0.16045086085796356 0.16045086085796356
0.16210561990737915 0.16210561990737915 0.16210561990737915
0.16593010723590851 0.16593010723590851 0.16593010723590851
0.17313477396965027 0.17313477396965027 0.17313477396965027
0.19108478724956512 0.19108478724956512 0.19108478724956512
0.22490599751472473 0.22490599751472473 0.22490599751472473
0.27434578537940979 0.27434578537940979 0.27434578537940979
0.33483898639678955 0.33483898639678955 0.33483898639678955
0.40138879418373108 0.40138879418373108 0.40138879418373108
0.47091180086135864 0.47091180086135864 0.47091180086135864
0.5405268669128418 0.5405268669128418 0.5405268669128418
0.6080588698387146 0.6080588698387146 0.6080588698387146
0.66987931728363037 0.66987931728363037 0.66987931728363037
0.16343283653259277 0.16343283653259277 0.16343283653259277
0.16583211719989777 0.16583211719989777 0.16583211719989777
0.17317157983779907 0.17317157983779907 0.17317157983779907
0.1872820109128952 0.1872820109128952 0.1872820109128952
0.21477113664150238 0.21477113664150238 0.21477113664150238
0.25738057494163513 0.25738057494163513 0.25738057494163513
0.31271862983703613 0.31271862983703613 0.31271862983703613
0.37398123741149902 0.37398123741149902 0.37398123741149902
0.43837809562683105 0.43837809562683105 0.43837809562683105
0.50414669513702393 0.50414669513702393 0.50414669513702393
0.56865298748016357 0.56865298748016357 0.56865298748016357
0.62944644689559937 0.62944644689559937 0.62944644689559937
0.68521797657012939 0.68521797657012939 0.68521797657012939
0.19388465583324432 0.19388465583324432 0.19388465583324432
0.19498445093631744 0.19498445093631744 0.19498445093631744
0.20171695947647095 0.20171695947647095 0.20171695947647095
0.21738715469837189 0.21738715469837189 0.21738715469837189
0.24743065237998962 0.24743065237998962 0.24743065237998962
0.29435968399047852 0.29435968399047852 0.29435968399047852
0.35229972004890442 0.35229972004890442 0.35229972004890442
0.41380536556243896 0.41380536556243896 0.41380536556243896
0.4763302206993103 0.4763302206993103 0.4763302206993103
0.53887253999710083 0.53887253999710083 0.53887253999710083
0.59822547435760498 0.59822547435760498 0.59822547435760498
0.65234678983688354 0.65234678983688354 0.65234678983688354
0.70192646980285645 0.70192646980285645 0.70192646980285645
0.25583609938621521 0.25583609938621521 0.25583609938621521
0.25171688199043274 0.25171688199043274 0.25171688199043274
0.25210133194923401 0.25210133194923401 0.25210133194923401
0.26243603229522705 0.26243603229522705 0.26243603229522705
0.29043453931808472 0.29043453931808472 0.29043453931808472
0.33564499020576477 0.33564499020576477 0.33564499020576477
0.39185395836830139 0.39185395836830139 0.39185395836830139
0.45178630948066711 0.45178630948066711 0.45178630948066711
0.51215094327926636 0.51215094327926636 0.51215094327926636
0.57097828388214111 0.57097828388214111 0.57097828388214111
0.62549233436584473 0.62549233436584473 0.62549233436584473
0.67408609390258789 0.67408609390258789 0.67408609390258789
0.71816867589950562 0.71816867589950562 0.71816867589950562
0.33880937099456787 0.33880937099456787 0.33880937099456787
0.33006823062896729 0.33006823062896729 0.33006823062896729
0.32264116406440735 0.32264116406440735 0.32264116406440735
0.32495021820068359 0.32495021820068359 0.32495021820068359
0.34684813022613525 0.34684813022613525 0.34684813022613525
0.38623514771461487 0.38623514771461487 0.38623514771461487
0.43630427122116089 0.43630427122116089 0.43630427122116089
0.49100837111473083 0.49100837111473083 0.49100837111473083
0.54623854160308838 0.54623854160308838 0.54623854160308838
0.59971922636032104 0.59971922636032104 0.59971922636032104
0.6488916277885437 0.6488916277885437 0.6488916277885437
0.693104088306427 0.693104088306427 0.693104088306427
0.7331206202507019 0.7331206202507019 0.7331206202507019
0.43172889947891235 0.43172889947891235 0.43172889947891235
0.42186740040779114 0.42186740040779114 0.42186740040779114
0.41033640503883362 0.41033640503883362 0.41033640503883362
0.40640044212341309 0.40640044212341309 0.40640044212341309
0.41904595494270325 0.41904595494270325 0.41904595494270325
0.4480760395526886 0.4480760395526886 0.4480760395526886
0.48827430605888367 0.48827430605888367 0.48827430605888367
0.53418624401092529 0.53418624401092529 0.53418624401092529
0.58159941434860229 0.58159941434860229 0.58159941434860229
0.62776970863342285 0.62776970863342285 0.62776970863342285
0.67114317417144775 0.67114317417144775 0.67114317417144775
0.71077865362167358 0.71077865362167358 0.71077865362167358
0.74715232849121094 0.74715232849121094 0.74715232849121094
0.52600014209747314 0.52600014209747314 0.52600014209747314
0.51834660768508911 0.51834660768508911 0.51834660768508911
0.50602322816848755 0.50602322816848755 0.50602322816848755
0.49682649970054626 0.49682649970054626 0.49682649970054626
0.50039774179458618 0.50039774179458618 0.50039774179458618
0.51784837245941162 0.51784837245941162 0.51784837245941162
0.54622346162796021 0.54622346162796021 0.54622346162796021
0.58114266395568848 0.58114266395568848 0.58114266395568848
0.61907923221588135 0.61907923221588135 0.61907923221588135
0.65731203556060791 0.65731203556060791 0.65731203556060791
0.69400054216384888 0.69400054216384888 0.69400054216384888
0.72872698307037354 0.72872698307037354 0.72872698307037354
0.76138651371002197 0.76138651371002197 0.76138651371002197
0.61280828714370728 0.61280828714370728 0.61280828714370728
0.60913974046707153 0.60913974046707153 0.60913974046707153
0.59611153602600098 0.59611153602600098 0.59611153602600098
0.58398294448852539 0.58398294448852539 0.58398294448852539
0.58062642812728882 0.58062642812728882 0.58062642812728882
0.58840769529342651 0.58840769529342651 0.58840769529342651
0.60586607456207275 0.60586607456207275 0.60586607456207275
0.6301301121711731 0.6301301121711731 0.6301301121711731
0.65843319892883301 0.65843319892883301 0.65843319892883301
0.68836218118667603 0.68836218118667603 0.68836218118667603
0.71832388639450073 0.71832388639450073 0.71832388639450073
0.74756264686584473 0.74756264686584473 0.74756264686584473
0.77650099992752075 0.77650099992752075 0.77650099992752075
0.68576806783676147 0.68576806783676147 0.68576806783676147
0.68308699131011963 0.68308699131011963 0.68308699131011963
0.6722140908241272 0.6722140908241272 0.6722140908241272
0.66006588935852051 0.66006588935852051 0.66006588935852051
0.6532207727432251 0.6532207727432251 0.6532207727432251
0.65419590473175049 0.65419590473175049 0.65419590473175049
0.66335892677307129 0.66335892677307129 0.66335892677307129
0.67874258756637573 0.67874258756637573 0.67874258756637573
0.69829267263412476 0.69829267263412476 0.69829267263412476
0.72038012742996216 0.72038012742996216 0.72038012742996216
0.7439039945602417 0.7439039945602417 0.7439039945602417
0.76813524961471558 0.76813524961471558 0.76813524961471558
0.79280835390090942 0.79280835390090942 0.79280835390090942
0.74506598711013794 0.74506598711013794 0.74506598711013794
0.74257063865661621 0.74257063865661621 0.74257063865661621
0.73423671722412109 0.73423671722412109 0.73423671722412109
0.72374075651168823 0.72374075651168823 0.72374075651168823
0.71571618318557739 0.71571618318557739 0.71571618318557739
0.71301478147506714 0.71301478147506714 0.71301478147506714
0.71606355905532837 0.71606355905532837 0.71606355905532837
0.72461813688278198 0.72461813688278198 0.72461813688278198
0.73748064041137695 0.73748064041137695 0.73748064041137695
0.75304901599884033 0.75304901599884033 0.75304901599884033
0.77082610130310059 0.77082610130310059 0.77082610130310059
0.78973126411437988 0.78973126411437988 0.78973126411437988
0.81124520301818848 0.81124520301818848 0.81124520301818848
0.79479104280471802 0.79479104280471802 0.79479104280471802
0.79266995191574097 0.79266995191574097 0.79266995191574097
0.78579926490783691 0.78579926490783691 0.78579926490783691
0.77695953845977783 0.77695953845977783 0.77695953845977783
0.76900863647460938 0.76900863647460938 0.76900863647460938
0.7643311619758606 0.7643311619758606 0.7643311619758606
0.7638586163520813 0.7638586163520813 0.7638586163520813
0.76757365465164185 0.76757365465164185 0.76757365465164185
0.77505427598953247 0.77505427598953247 0.77505427598953247
0.78562992811203003 0.78562992811203003 0.78562992811203003
0.79860758781433105 0.79860758781433105 0.79860758781433105
0.81373894214630127 0.81373894214630127 0.81373894214630127
0.83161765336990356 0.83161765336990356 0.83161765336990356
0.17536121606826782 0.17536121606826782 0.17536121606826782
0.17925915122032166 0.17925915122032166 0.17925915122032166
0.1788007915019989 0.1788007915019989 0.1788007915019989
0.17312125861644745 0.17312125861644745 0.17312125861644745
0.17580251395702362 0.17580251395702362 0.17580251395702362
0.19753104448318481 0.19753104448318481 0.19753104448318481
0.24126005172729492 0.24126005172729492 0.24126005172729492
0.30130878090858459 0.30130878090858459 0.30130878090858459
0.36840161681175232 0.36840161681175232 0.36840161681175232
0.43865680694580078 0.43865680694580078 0.43865680694580078
0.51139593124389648 0.51139593124389648 0.51139593124389648
0.58405584096908569 0.58405584096908569 0.58405584096908569
0.65217125415802002 0.65217125415802002 0.65217125415802002
0.16144698858261108 0.16144698858261108 0.16144698858261108
0.16653692722320557 0.16653692722320557 0.16653692722320557
0.16955681145191193 0.16955681145191193 0.16955681145191193
0.1697155088186264 0.1697155088186264 0.1697155088186264
0.18024666607379913 0.18024666607379913 0.18024666607379913
0.20932862162590027 0.20932862162590027 0.20932862162590027
0.25761875510215759 0.25761875510215759 0.25761875510215759
0.31890103220939636 0.31890103220939636 0.31890103220939636
0.38525819778442383 0.38525819778442383 0.38525819778442383
0.45437943935394287 0.45437943935394287 0.45437943935394287
0.52557992935180664 0.52557992935180664 0.52557992935180664
0.59620428085327148 0.59620428085327148 0.59620428085327148
0.66170209646224976 0.66170209646224976 0.66170209646224976
0.15479691326618195 0.15479691326618195 0.15479691326618195
0.15851499140262604 0.15851499140262604 0.15851499140262604
0.16396470367908478 0.16396470367908478 0.16396470367908478
0.17334377765655518 0.17334377765655518 0.17334377765655518
0.19465062022209167 0.19465062022209167 0.19465062022209167
0.23350371420383453 0.23350371420383453 0.23350371420383453
0.28765210509300232 0.28765210509300232 0.28765210509300232
0.34985977411270142 0.34985977411270142 0.34985977411270142
0.41501274704933167 0.41501274704933167 0.41501274704933167
0.48164910078048706 0.48164910078048706 0.48164910078048706
0.54902559518814087 0.54902559518814087 0.54902559518814087
0.61421316862106323 0.61421316862106323 0.61421316862106323
0.67458450794219971 0.67458450794219971 0.67458450794219971
0.16836540400981903 0.16836540400981903 0.16836540400981903
0.17071415483951569 0.17071415483951569 0.17071415483951569
0.17738558351993561 0.17738558351993561 0.17738558351993561
0.19147644937038422 0.19147644937038422 0.19147644937038422
0.2203657478094101 0.2203657478094101 0.2203657478094101
0.2675933837890625 0.2675933837890625 0.2675933837890625
0.32737439870834351 0.32737439870834351 0.32737439870834351
0.38969960808753967 0.38969960808753967 0.38969960808753967
0.45243877172470093 0.45243877172470093 0.45243877172470093
0.51608788967132568 0.51608788967132568 0.51608788967132568
0.57845145463943481 0.57845145463943481 0.57845145463943481
0.63697904348373413 0.63697904348373413 0.63697904348373413
0.69068551063537598 0.69068551063537598 0.69068551063537598
0.21109627187252045 0.21109627187252045 0.21109627187252045
0.21081019937992096 0.21081019937992096 0.21081019937992096
0.21517573297023773 0.21517573297023773 0.21517573297023773
0.22748912870883942 0.22748912870883942 0.22748912870883942
0.25672343373298645 0.25672343373298645 0.25672343373298645
0.30599308013916016 0.30599308013916016 0.30599308013916016
0.36769619584083557 0.36769619584083557 0.36769619584083557
0.42964574694633484 0.42964574694633484 0.42964574694633484
0.49068805575370789 0.49068805575370789 0.49068805575370789
0.55175232887268066 0.55175232887268066 0.55175232887268066
0.6092800498008728 0.6092800498008728 0.6092800498008728
0.66092365980148315 0.66092365980148315 0.66092365980148315
0.70793235301971436 0.70793235301971436 0.70793235301971436
0.28164133429527283 0.28164133429527283 0.28164133429527283
0.27667036652565002 0.27667036652565002 0.27667036652565002
0.27387303113937378 0.27387303113937378 0.27387303113937378
0.27869030833244324 0.27869030833244324 0.27869030833244324
0.3021489679813385 0.3021489679813385 0.3021489679813385
0.34730806946754456 0.34730806946754456 0.34730806946754456
0.40518176555633545 0.40518176555633545 0.40518176555633545
0.46587979793548584 0.46587979793548584 0.46587979793548584
0.52565079927444458 0.52565079927444458 0.52565079927444458
0.58369666337966919 0.58369666337966919 0.58369666337966919
0.63675755262374878 0.63675755262374878 0.63675755262374878
0.6827508807182312 0.6827508807182312 0.6827508807182312
0.7243884801864624 0.7243884801864624 0.7243884801864624
0.36869525909423828 0.36869525909423828 0.36869525909423828
0.3594062328338623 0.3594062328338623 0.3594062328338623
0.34843346476554871 0.34843346476554871 0.34843346476554871
0.34446829557418823 0.34446829557418823 0.34446829557418823
0.36016136407852173 0.36016136407852173 0.36016136407852173
0.39772129058837891 0.39772129058837891 0.39772129058837891
0.44838047027587891 0.44838047027587891 0.44838047027587891
0.50364965200424194 0.50364965200424194 0.50364965200424194
0.55852842330932617 0.55852842330932617 0.55852842330932617
0.61114048957824707 0.61114048957824707 0.61114048957824707
0.65899574756622314 0.65899574756622314 0.65899574756622314
0.70103132724761963 0.70103132724761963 0.70103132724761963
0.73879712820053101 0.73879712820053101 0.73879712820053101
0.46094772219657898 0.46094772219657898 0.46094772219657898
0.45030233263969421 0.45030233263969421 0.45030233263969421
0.4357055127620697 0.4357055127620697 0.4357055127620697
0.4262273907661438 0.4262273907661438 0.4262273907661438
0.43350279331207275 0.43350279331207275 0.43350279331207275
0.46049079298973083 0.46049079298973083 0.46049079298973083
0.50032854080200195 0.50032854080200195 0.50032854080200195
0.54587340354919434 0.54587340354919434 0.54587340354919434
0.59261703491210938 0.59261703491210938 0.59261703491210938
0.63792181015014648 0.63792181015014648 0.63792181015014648
0.67964988946914673 0.67964988946914673 0.67964988946914673
0.71747690439224243 0.71747690439224243 0.71747690439224243
0.75214248895645142 0.75214248895645142 0.75214248895645142
0.55097633600234985 0.55097633600234985 0.55097633600234985
0.54220187664031982 0.54220187664031982 0.54220187664031982
0.52763432264328003 0.52763432264328003 0.52763432264328003
0.51563763618469238 0.51563763618469238 0.51563763618469238
0.51595181226730347 0.51595181226730347 0.51595181226730347
0.53126215934753418 0.53126215934753418 0.53126215934753418
0.55862331390380859 0.55862331390380859 0.55862331390380859
0.59266656637191772 0.59266656637191772 0.59266656637191772
0.62937825918197632 0.62937825918197632 0.62937825918197632
0.66602182388305664 0.66602182388305664 0.66602182388305664
0.70132756233215332 0.70132756233215332 0.70132756233215332
0.73438078165054321 0.73438078165054321 0.73438078165054321
0.76540094614028931 0.76540094614028931 0.76540094614028931
0.63257700204849243 0.63257700204849243 0.63257700204849243
0.62694185972213745 0.62694185972213745 0.62694185972213745
0.6138160228729248 0.6138160228729248 0.6138160228729248
0.60075253248214722 0.60075253248214722 0.60075253248214722
0.59598797559738159 0.59598797559738159 0.59598797559738159
0.60207432508468628 0.60207432508468628 0.60207432508468628
0.61813861131668091 0.61813861131668091 0.61813861131668091
0.64111542701721191 0.64111542701721191 0.64111542701721191
0.66779416799545288 0.66779416799545288 0.66779416799545288
0.69618266820907593 0.69618266820907593 0.69618266820907593
0.72457331418991089 0.72457331418991089 0.72457331418991089
0.75235813856124878 0.75235813856124878 0.75235813856124878
0.77959144115447998 0.77959144115447998 0.77959144115447998
0.70166856050491333 0.70166856050491333 0.70166856050491333
0.69798856973648071 0.69798856973648071 0.69798856973648071
0.68724459409713745 0.68724459409713745 0.68724459409713745
0.6748044490814209 0.6748044490814209 0.6748044490814209
0.66704398393630981 0.66704398393630981 0.66704398393630981
0.66691792011260986 0.66691792011260986 0.66691792011260986
0.67450010776519775 0.67450010776519775 0.67450010776519775
0.68844801187515259 0.68844801187515259 0.68844801187515259
0.70647197961807251 0.70647197961807251 0.70647197961807251
0.727073073387146 0.727073073387146 0.727073073387146
0.7491072416305542 0.7491072416305542 0.7491072416305542
0.77190393209457397 0.77190393209457397 0.77190393209457397
0.79513382911682129 0.79513382911682129 0.79513382911682129
0.7586742639541626 0.7586742639541626 0.7586742639541626
0.75575876235961914 0.75575876235961914 0.75575876235961914
0.74716055393218994 0.74716055393218994 0.74716055393218994
0.73634809255599976 0.73634809255599976 0.73634809255599976
0.72777563333511353 0.72777563333511353 0.72777563333511353
0.72396171092987061 0.72396171092987061 0.72396171092987061
0.72593885660171509 0.72593885660171509 0.72593885660171509
0.73307329416275024 0.73307329416275024 0.73307329416275024
0.744315505027771 0.744315505027771 0.744315505027771
0.7584654688835144 0.7584654688835144 0.7584654688835144
0.77483987808227539 0.77483987808227539 0.77483987808227539
0.79291355609893799 0.79291355609893799 0.79291355609893799
0.81239110231399536 0.81239110231399536 0.81239110231399536
0.80608075857162476 0.80608075857162476 0.80608075857162476
0.80352449417114258 0.80352449417114258 0.80352449417114258
0.79664045572280884 0.79664045572280884 0.79664045572280884
0.78748041391372681 0.78748041391372681 0.78748041391372681
0.77893513441085815 0.77893513441085815 0.77893513441085815
0.77340292930603027 0.77340292930603027 0.77340292930603027
0.7717248797416687 0.7717248797416687 0.7717248797416687
0.77427750825881958 0.77427750825881958 0.77427750825881958
0.78043878078460693 0.78043878078460693 0.78043878078460693
0.78977364301681519 0.78977364301681519 0.78977364301681519
0.8015899658203125 0.8015899658203125 0.8015899658203125
0.81560683250427246 0.81560683250427246 0.81560683250427246
0.8317878246307373 0.8317878246307373 0.8317878246307373
0.16099674999713898 0.16099674999713898 0.16099674999713898
0.16922678053379059 0.16922678053379059 0.16922678053379059
0.17605970799922943 0.17605970799922943 0.17605970799922943
0.17880268394947052 0.17880268394947052 0.17880268394947052
0.18724636733531952 0.18724636733531952 0.18724636733531952
0.21703629195690155 0.21703629195690155 0.21703629195690155
0.27085185050964355 0.27085185050964355 0.27085185050964355
0.33316290378570557 0.33316290378570557 0.33316290378570557
0.39522436261177063 0.39522436261177063 0.39522436261177063
0.45767644047737122 0.45767644047737122 0.45767644047737122
0.52440565824508667 0.52440565824508667 0.52440565824508667
0.59249472618103027 0.59249472618103027 0.59249472618103027
0.65640735626220703 0.65640735626220703 0.65640735626220703
0.15178400278091431 0.15178400278091431 0.15178400278091431
0.15957899391651154 0.15957899391651154 0.15957899391651154
0.16787376999855042 0.16787376999855042 0.16787376999855042
0.17543026804924011 0.17543026804924011 0.17543026804924011
0.19095149636268616 0.19095149636268616 0.19095149636268616
0.22569070756435394 0.22569070756435394 0.22569070756435394
0.28055346012115479 0.28055346012115479 0.28055346012115479
0.34365269541740417 0.34365269541740417 0.34365269541740417
0.40669292211532593 0.40669292211532593 0.40669292211532593
0.46942245960235596 0.46942245960235596 0.46942245960235596
0.53607642650604248 0.53607642650604248 0.53607642650604248
0.60346090793609619 0.60346090793609619 0.60346090793609619
0.66581457853317261 0.66581457853317261 0.66581457853317261
0.15376952290534973 0.15376952290534973 0.15376952290534973
0.15986849367618561 0.15986849367618561 0.15986849367618561
0.16820994019508362 0.16820994019508362 0.16820994019508362
0.18069253861904144 0.18069253861904144 0.18069253861904144
0.20583890378475189 0.20583890378475189 0.20583890378475189
0.24806751310825348 0.24806751310825348 0.24806751310825348
0.30519035458564758 0.30519035458564758 0.30519035458564758
0.36893105506896973 0.36893105506896973 0.36893105506896973
0.43272817134857178 0.43272817134857178 0.43272817134857178
0.49565950036048889 0.49565950036048889 0.49565950036048889
0.55929267406463623 0.55929267406463623 0.55929267406463623
0.62166792154312134 0.62166792154312134 0.62166792154312134
0.6791757345199585 0.6791757345199585 0.6791757345199585
0.17971049249172211 0.17971049249172211 0.17971049249172211
0.18404938280582428 0.18404938280582428 0.18404938280582428
0.19096070528030396 0.19096070528030396 0.19096070528030396
0.20436926186084747 0.20436926186084747 0.20436926186084747
0.23427003622055054 0.23427003622055054 0.23427003622055054
0.28263384103775024 0.28263384103775024 0.28263384103775024
0.34325820207595825 0.34325820207595825 0.34325820207595825
0.40594395995140076 0.40594395995140076 0.40594395995140076
0.46796667575836182 0.46796667575836182 0.46796667575836182
0.52939176559448242 0.52939176559448242 0.52939176559448242
0.58881181478500366 0.58881181478500366 0.58881181478500366
0.64443671703338623 0.64443671703338623 0.64443671703338623
0.69557791948318481 0.69557791948318481 0.69557791948318481
0.23697181046009064 0.23697181046009064 0.23697181046009064
0.23891094326972961 0.23891094326972961 0.23891094326972961
0.24227036535739899 0.24227036535739899 0.24227036535739899
0.25017613172531128 0.25017613172531128 0.25017613172531128
0.27545362710952759 0.27545362710952759 0.27545362710952759
0.32203701138496399 0.32203701138496399 0.32203701138496399
0.38332843780517578 0.38332843780517578 0.38332843780517578
0.44447660446166992 0.44447660446166992 0.44447660446166992
0.50461882352828979 0.50461882352828979 0.50461882352828979
