luts/instant_pro/polaroid_690_--.cube
# Created by: G'MIC (https://gmic.eu)
TITLE "polaroid_690_--"
# LUT size
LUT_3D_SIZE 7
# Data domain
DOMAIN_MIN 0.0 0.0 0.0
DOMAIN_MAX 1.0 1.0 1.0
# LUT data points
0.016272749751806259 0.016745712608098984 0.013736425898969173
0.10875238478183746 0.011441024951636791 0.0132788410410285
0.28981927037239075 0.002545779338106513 0.01278234738856554
0.49957329034805298 0.0018049053614959121 0.017085416242480278
0.69041508436203003 0.00031738280085846782 0.0090582752600312233
0.86655205488204956 0.00020590389613062143 0
0.99372357130050659 0 0
0.0077322116121649742 0.1227157860994339 0.0091207167133688927
0.11262814700603485 0.13066519796848297 0.0085267461836338043
0.33696046471595764 0.093335442245006561 0.0037760566920042038
0.56674396991729736 0.02747446671128273 0.004295737948268652
0.75281870365142822 0.0048787137493491173 0.00094751094002276659
0.90394806861877441 0.0024478686973452568 0
0.99443376064300537 0.003077084431424737 0
0.0033918193075805902 0.32086467742919922 0.0084175411611795425
0.031172703951597214 0.32607972621917725 0.0013520035427063704
0.33310434222221375 0.3547954261302948 0.0012889038771390915
0.6009223461151123 0.34769734740257263 0.00048844580305740237
0.81410449743270874 0.32603886723518372 0.00096802058396860957
0.94446289539337158 0.26248389482498169 0
0.99937236309051514 0.23609821498394012 0
0.00014935662329662591 0.51574259996414185 0.011736701242625713
0.0070441002026200294 0.51088154315948486 0.0027372622862458229
0.26382279396057129 0.52218830585479736 0.0012696807971224189
0.55101847648620605 0.54895162582397461 0.0012000887654721737
0.78287774324417114 0.5640333890914917 0.0029239729046821594
0.94463574886322021 0.57730722427368164 0.0028414707630872726
0.99812060594558716 0.57703065872192383 0.0012409285409376025
0.0076516545377671719 0.66850817203521729 0.0064344964921474457
0.0072783227078616619 0.66831225156784058 0.0021985671482980251
0.25537431240081787 0.66625493764877319 0.00091103947488591075
0.51772725582122803 0.68243652582168579 0.0031046699732542038
0.73508745431900024 0.70082652568817139 0.0051862681284546852
0.90822970867156982 0.71830779314041138 0.0023463231045752764
0.99881380796432495 0.73013335466384888 0.0047709597274661064
0.11696437746286392 0.80689644813537598 0
0.22846637666225433 0.80381196737289429 0.00036103490856476128
0.39464780688285828 0.79914146661758423 0.0034683228004723787
0.57924306392669678 0.79946750402450562 0.0030966964550316334
0.76256239414215088 0.82389628887176514 0.0080432072281837463
0.90534698963165283 0.83671164512634277 0.0047407262027263641
0.99390518665313721 0.8438112735748291 0.0021378460805863142
0.4775661826133728 0.9417417049407959 0.06206309050321579
0.51517295837402344 0.94024699926376343 0.052325170487165451
0.59099501371383667 0.93901807069778442 0.032418403774499893
0.68819725513458252 0.93652635812759399 0.012934965081512928
0.80315136909484863 0.94389969110488892 0.0083252852782607079
0.91244655847549438 0.94978052377700806 0.0041895098984241486
0.99471908807754517 0.95995044708251953 8.1858917837962508e-05
0.008253823034465313 0.01998208649456501 0.11942984163761139
0.097767114639282227 0.01508020143955946 0.12833759188652039
0.2885822057723999 0.0022346945479512215 0.11125447601079941
0.48881897330284119 2.1541820842685411e-06 0.096991248428821564
0.66542541980743408 0.00037937538581900299 0.075411386787891388
0.84211510419845581 0 0.044065766036510468
0.98731207847595215 0 0.016596894711256027
0.007721366360783577 0.13138188421726227 0.13042804598808289
0.12720634043216705 0.13384094834327698 0.13565348088741302
0.33979007601737976 0.098494298756122589 0.11973737925291061
0.54689759016036987 0.024619128555059433 0.10096091777086258
0.72657883167266846 0.0054916981607675552 0.07418455183506012
0.88663220405578613 0.0059366561472415924 0.043922275304794312
0.99412637948989868 0.0020084904972463846 0.017588671296834946
0.0010836732108145952 0.33820056915283203 0.11354450881481171
0.076838292181491852 0.34334057569503784 0.10805508494377136
0.35570594668388367 0.36133065819740295 0.079782865941524506
0.61034435033798218 0.36137643456459045 0.087351031601428986
0.79874593019485474 0.31540787220001221 0.086040645837783813
0.93340367078781128 0.24965351819992065 0.039591275155544281
0.99997377395629883 0.20193551480770111 0.011387080885469913
3.4107881219824776e-05 0.529327392578125 0.067967988550662994
0.012977869249880314 0.5289795994758606 0.055213224142789841
0.29803282022476196 0.53011524677276611 0.034002713859081268
0.56312447786331177 0.55824732780456543 0.019161224365234375
0.79001408815383911 0.57391542196273804 0.029866641387343407
0.94642728567123413 0.58466994762420654 0.069110170006752014
0.99992156028747559 0.57250988483428955 0.068146876990795135
0.0014294193824753165 0.68078482151031494 0.033213954418897629
0.01368789654225111 0.68123346567153931 0.021458525210618973
0.29157629609107971 0.67129778861999512 0.015320183709263802
0.52911847829818726 0.68661069869995117 0.018189089372754097
0.74544835090637207 0.70696026086807251 0.012547392398118973
0.91802489757537842 0.72129291296005249 0.009567934088408947
0.99848610162734985 0.73331308364868164 0.065377704799175262
0.13677297532558441 0.80987781286239624 0.029157901182770729
0.2531464695930481 0.80694663524627686 0.023488018661737442
0.40903627872467041 0.80085819959640503 0.012411978095769882
0.57803332805633545 0.79988688230514526 0.007778421975672245
0.75345486402511597 0.81688809394836426 0.012027217075228691
0.90336376428604126 0.83137243986129761 0.0091226911172270775
0.99336796998977661 0.84208041429519653 0.0075107649900019169
0.47102063894271851 0.94146150350570679 0.20598883926868439
0.5073390007019043 0.94014465808868408 0.19000869989395142
0.58262795209884644 0.93734574317932129 0.1486382782459259
0.68502998352050781 0.93664282560348511 0.09211229532957077
0.79910898208618164 0.94339972734451294 0.061825171113014221
0.9095039963722229 0.95318770408630371 0.028947792947292328
0.99382120370864868 0.95883214473724365 0.0044377045705914497
0.0040258667431771755 0.025945311412215233 0.34518760442733765
0.030318360775709152 0.014126946218311787 0.35824358463287354
0.32081747055053711 0.0023417752236127853 0.37834587693214417
0.51627784967422485 0.0021844902075827122 0.31918594241142273
0.68097120523452759 0.0023910521995276213 0.27597281336784363
0.83406156301498413 0.0043244902044534683 0.24763032793998718
0.97699600458145142 0 0.20156686007976532
0.0035441678483039141 0.1378057450056076 0.33718743920326233
0.089901551604270935 0.14523681998252869 0.3614899218082428
0.35910290479660034 0.14285479485988617 0.38891759514808655
0.54018765687942505 0.085447333753108978 0.33684045076370239
0.69915026426315308 0.01079852506518364 0.2913137674331665
0.8536716103553772 0.003764911787584424 0.24593731760978699
0.98051315546035767 0.00029183182050473988 0.19562816619873047
0.001508809975348413 0.35386848449707031 0.36036914587020874
0.11011750251054764 0.3639616072177887 0.37829411029815674
0.37886548042297363 0.38013178110122681 0.38829118013381958
0.5882229208946228 0.34236648678779602 0.36733248829841614
0.75157546997070312 0.26420244574546814 0.31910988688468933
0.89796298742294312 0.15700261294841766 0.27041459083557129
0.99874097108840942 0.095324374735355377 0.22394987940788269
0.0046124029904603958 0.5599064826965332 0.3693355917930603
0.074682332575321198 0.56550705432891846 0.37551388144493103
0.35185873508453369 0.5615241527557373 0.36017316579818726
0.579132080078125 0.5634273886680603 0.35257017612457275
0.78948438167572021 0.58197331428527832 0.36232191324234009
0.93151164054870605 0.56516271829605103 0.36469835042953491
0.99747711420059204 0.53295361995697021 0.31737300753593445
0.0051757963374257088 0.70596009492874146 0.34691956639289856
0.099900186061859131 0.70394110679626465 0.34213796257972717
0.34474188089370728 0.69220775365829468 0.31383851170539856
0.54486507177352905 0.69540822505950928 0.28862985968589783
0.75118875503540039 0.71255868673324585 0.2927258312702179
0.91194719076156616 0.72552615404129028 0.32125186920166016
0.99808228015899658 0.73718470335006714 0.38940927386283875
0.18360903859138489 0.8195376992225647 0.33642685413360596
0.27543154358863831 0.81739681959152222 0.32829934358596802
0.42028588056564331 0.80965203046798706 0.28468436002731323
0.57242202758789062 0.80294430255889893 0.25473302602767944
0.74359226226806641 0.81423169374465942 0.24708770215511322
0.89638745784759521 0.83058887720108032 0.25572279095649719
0.99230057001113892 0.84452074766159058 0.3014773428440094
0.45234009623527527 0.94213992357254028 0.39810210466384888
0.49323150515556335 0.93994784355163574 0.39025422930717468
0.5643913745880127 0.93978959321975708 0.37228411436080933
0.66811865568161011 0.93838554620742798 0.33289700746536255
0.78187268972396851 0.94068855047225952 0.31282097101211548
0.89755582809448242 0.94764238595962524 0.29062822461128235
0.99095278978347778 0.96034544706344604 0.26909011602401733
0.00037931554834358394 0.031831163913011551 0.55749422311782837
0.0046755773946642876 0.017271498218178749 0.57910752296447754
0.30209344625473022 0.0059143966063857079 0.61505848169326782
0.59777742624282837 0.0023057227954268456 0.62577229738235474
0.73809432983398438 0.0030779968947172165 0.54193794727325439
0.85824966430664062 0.0048083136789500713 0.48952367901802063
0.97530025243759155 0.00021829044271726161 0.45696869492530823
0.0028725718148052692 0.16601863503456116 0.55095040798187256
0.028460334986448288 0.16224928200244904 0.57718068361282349
0.3496946394443512 0.16435281932353973 0.61699646711349487
0.60833179950714111 0.14203236997127533 0.62921142578125
0.73997074365615845 0.093816019594669342 0.54961317777633667
0.86228060722351074 0.027164759114384651 0.49383744597434998
0.97764348983764648 0.0072592492215335369 0.45812693238258362
0.0029686721973121166 0.33804428577423096 0.54693925380706787
0.063382767140865326 0.34631997346878052 0.56517595052719116
0.3688238263130188 0.37802815437316895 0.59999537467956543
0.61200356483459473 0.3995877206325531 0.62641823291778564
0.74112993478775024 0.34683388471603394 0.55570006370544434
0.87193864583969116 0.22635425627231598 0.49529558420181274
0.98817974328994751 0.026955025270581245 0.43769606947898865
0.0058511323295533657 0.56286680698394775 0.58482027053833008
0.14549586176872253 0.56583213806152344 0.58926033973693848
0.39779427647590637 0.57568114995956421 0.60086840391159058
0.60165071487426758 0.5870593786239624 0.61141675710678101
0.76128792762756348 0.5531923770904541 0.57981777191162109
0.89321029186248779 0.47589203715324402 0.51882475614547729
0.99396729469299316 0.39954617619514465 0.45559397339820862
0.13805998861789703 0.72748219966888428 0.59353351593017578
0.27019309997558594 0.72366446256637573 0.58644288778305054
0.43512031435966492 0.71805989742279053 0.58242297172546387
0.5810924768447876 0.71108376979827881 0.56127583980560303
0.75752824544906616 0.72126871347427368 0.56491678953170776
0.90591561794281006 0.7335435152053833 0.5922476053237915
0.99748951196670532 0.72400945425033569 0.59999966621398926
0.26385444402694702 0.83254283666610718 0.5676085352897644
0.34116515517234802 0.8307684063911438 0.5604865550994873
0.45722636580467224 0.82499760389328003 0.54925024509429932
0.59009110927581787 0.81512892246246338 0.51950347423553467
0.73337727785110474 0.81374645233154297 0.50026619434356689
0.88640278577804565 0.8317452073097229 0.52859735488891602
0.99031978845596313 0.84731012582778931 0.55334049463272095
0.4492281973361969 0.94487369060516357 0.59348994493484497
0.48623991012573242 0.94624418020248413 0.58839201927185059
0.55616205930709839 0.9439348578453064 0.57222193479537964
0.65025359392166138 0.9407772421836853 0.54211533069610596
0.76198911666870117 0.93964612483978271 0.50924628973007202
0.88318312168121338 0.9483877420425415 0.51211988925933838
0.98381084203720093 0.96035546064376831 0.51508384943008423
0.0017105850856751204 0.0477626733481884 0.74122494459152222
0.0064661512151360512 0.0356280617415905 0.75493663549423218
0.31354454159736633 0.013845092616975307 0.77676421403884888
0.60965847969055176 0.0070698908530175686 0.80532705783843994
0.81058639287948608 0.01164983119815588 0.80178862810134888
0.91365605592727661 0.0066833198070526123 0.74248641729354858
0.98930895328521729 0.015062309801578522 0.69121265411376953
0.0033632165286689997 0.18028309941291809 0.73923271894454956
0.038757100701332092 0.18194669485092163 0.75618106126785278
0.34931555390357971 0.19236189126968384 0.76762276887893677
0.62244671583175659 0.20447979867458344 0.79674702882766724
0.80875921249389648 0.21589314937591553 0.80204474925994873
0.90763896703720093 0.1784224808216095 0.73763281106948853
0.98987644910812378 0.15289692580699921 0.68969660997390747
0.0040170107968151569 0.34715646505355835 0.71966177225112915
0.084651947021484375 0.35849341750144958 0.73928636312484741
0.3752957284450531 0.39059743285179138 0.7542462944984436
0.62600260972976685 0.42577478289604187 0.78310412168502808
0.79872268438339233 0.43975979089736938 0.79577577114105225
0.89680385589599609 0.39400258660316467 0.7327272891998291
0.9840814471244812 0.31890341639518738 0.68497604131698608
0.0057625565677881241 0.52159130573272705 0.71239179372787476
0.066136650741100311 0.52791714668273926 0.71749347448348999
0.35263547301292419 0.54819262027740479 0.73411434888839722
0.59243607521057129 0.58254897594451904 0.7579033374786377
0.78323626518249512 0.61316615343093872 0.77981269359588623
0.87841790914535522 0.55393439531326294 0.72039210796356201
0.98475921154022217 0.44617184996604919 0.66297298669815063
0.17099887132644653 0.71573102474212646 0.74317175149917603
0.28648856282234192 0.71227395534515381 0.74559891223907471
0.45413261651992798 0.71227681636810303 0.75174033641815186
0.62810295820236206 0.72543823719024658 0.76352787017822266
0.7735288143157959 0.73915833234786987 0.7688027024269104
0.88572585582733154 0.70551180839538574 0.74382609128952026
0.98810297250747681 0.63680112361907959 0.68194085359573364
0.43676984310150146 0.84234440326690674 0.75689959526062012
0.47979384660720825 0.84277021884918213 0.75548768043518066
0.55695933103561401 0.84083062410354614 0.75894862413406372
0.65280675888061523 0.83756482601165771 0.752677321434021
0.75314754247665405 0.82933878898620605 0.72544372081756592
0.88018351793289185 0.84120833873748779 0.73813724517822266
0.98317813873291016 0.85431444644927979 0.76028627157211304
0.52912443876266479 0.94710338115692139 0.76270914077758789
0.5388413667678833 0.94873672723770142 0.76376163959503174
0.59326827526092529 0.94849950075149536 0.76054006814956665
0.65967762470245361 0.9464867115020752 0.74453479051589966
0.75639432668685913 0.9406624436378479 0.7097284197807312
0.86310344934463501 0.94877064228057861 0.70281487703323364
0.97314953804016113 0.96057403087615967 0.70942389965057373
0.018521372228860855 0.11053141951560974 0.88714909553527832
0.15424908697605133 0.10620706528425217 0.89363199472427368
0.41162678599357605 0.10066898167133331 0.89648288488388062
0.62620717287063599 0.10671477764844894 0.90784603357315063
0.82498729228973389 0.202309250831604 0.92412501573562622
0.94796442985534668 0.24632789194583893 0.9163506031036377
0.99722003936767578 0.23954561352729797 0.88230478763580322
0.054593402892351151 0.2233758270740509 0.88669466972351074
0.22253364324569702 0.22947351634502411 0.88884854316711426
0.44148331880569458 0.25019869208335876 0.88898473978042603
0.64137899875640869 0.27234348654747009 0.90091937780380249
0.81974154710769653 0.3310825526714325 0.92193138599395752
0.93766087293624878 0.36069613695144653 0.91196995973587036
0.99428397417068481 0.34462922811508179 0.88160222768783569
0.078470654785633087 0.37681767344474792 0.87428587675094604
0.22969092428684235 0.39146250486373901 0.87376624345779419
0.44146648049354553 0.41634011268615723 0.87796032428741455
0.64209592342376709 0.4382985532283783 0.89695221185684204
0.81172472238540649 0.49699756503105164 0.91205716133117676
0.92262595891952515 0.51469498872756958 0.90483361482620239
0.98988074064254761 0.48382019996643066 0.87277126312255859
0.010146062821149826 0.52163052558898926 0.84957218170166016
0.12243900448083878 0.52500444650650024 0.85223263502120972
0.37988945841789246 0.54705691337585449 0.85759031772613525
0.60814845561981201 0.5820009708404541 0.86963349580764771
0.79637116193771362 0.64019381999969482 0.89696389436721802
0.91059547662734985 0.65488547086715698 0.89989608526229858
0.98667049407958984 0.60764753818511963 0.86802130937576294
0.04621269553899765 0.68992751836776733 0.84857857227325439
0.18258056044578552 0.68755829334259033 0.84913629293441772
0.3754216730594635 0.68339502811431885 0.84991073608398438
0.56519812345504761 0.69275909662246704 0.85772538185119629
0.75269657373428345 0.73204267024993896 0.87742429971694946
0.90093767642974854 0.76148873567581177 0.89445751905441284
0.98003083467483521 0.70202469825744629 0.8467484712600708
0.42978140711784363 0.83151686191558838 0.86685127019882202
0.47577735781669617 0.83138751983642578 0.87297719717025757
0.55683928728103638 0.83074843883514404 0.87569177150726318
0.66768115758895874 0.82992279529571533 0.8780827522277832
0.77554094791412354 0.83939075469970703 0.88177251815795898
0.89111053943634033 0.85823243856430054 0.89173096418380737
0.97992044687271118 0.82233661413192749 0.8681023120880127
0.63135313987731934 0.95156359672546387 0.89167821407318115
0.64216005802154541 0.94952648878097534 0.89109045267105103
0.67879420518875122 0.95112353563308716 0.890982985496521
0.73254889249801636 0.95213377475738525 0.88628023862838745
0.79371339082717896 0.94695627689361572 0.87660855054855347
0.87227320671081543 0.95226705074310303 0.86305052042007446
0.97332751750946045 0.96420001983642578 0.8682856559753418
0.39442932605743408 0.27084678411483765 0.98078471422195435
0.46043246984481812 0.27807694673538208 0.98328185081481934
0.56958240270614624 0.28819578886032104 0.98314321041107178
0.69971811771392822 0.31160768866539001 0.98515844345092773
0.82818567752838135 0.36344292759895325 0.98765695095062256
0.93697512149810791 0.44184786081314087 0.98613733053207397
0.99709939956665039 0.48222842812538147 0.98335075378417969
0.41463291645050049 0.35766097903251648 0.98006397485733032
0.47173187136650085 0.35676437616348267 0.9801294207572937
0.57853484153747559 0.37216794490814209 0.982738196849823
0.70356804132461548 0.38955256342887878 0.98542004823684692
0.82790619134902954 0.44208803772926331 0.98682773113250732
0.93290477991104126 0.5113634467124939 0.9851873517036438
0.99526870250701904 0.53944176435470581 0.9806932806968689
0.4175906777381897 0.47926655411720276 0.97489243745803833
0.47433638572692871 0.48499828577041626 0.97490262985229492
0.58229327201843262 0.4957527220249176 0.97763895988464355
0.70386064052581787 0.5181090235710144 0.97852915525436401
0.82466566562652588 0.55745184421539307 0.98089092969894409
0.92387533187866211 0.60699331760406494 0.98271560668945312
0.98329979181289673 0.62484514713287354 0.97761720418930054
0.36801847815513611 0.59612452983856201 0.96763062477111816
0.43383267521858215 0.60018610954284668 0.96633553504943848
0.55627167224884033 0.61519151926040649 0.96608954668045044
0.68524479866027832 0.63029760122299194 0.96695411205291748
0.81540179252624512 0.66567224264144897 0.97521615028381348
0.91544812917709351 0.6988532543182373 0.97814100980758667
0.9914097785949707 0.71086794137954712 0.97446572780609131
0.29437944293022156 0.70902866125106812 0.95713210105895996
0.3615361750125885 0.70659905672073364 0.95762723684310913
0.48412421345710754 0.70978564023971558 0.95895767211914062
0.63882267475128174 0.71922039985656738 0.96022367477416992
0.78052812814712524 0.74404829740524292 0.96362811326980591
0.90335768461227417 0.78114980459213257 0.97215515375137329
0.98316925764083862 0.79908996820449829 0.96903318166732788
0.47964593768119812 0.83469599485397339 0.95639628171920776
0.50854074954986572 0.8326295018196106 0.95780467987060547
0.57385116815567017 0.83274388313293457 0.95912736654281616
0.65297365188598633 0.82518684864044189 0.95785963535308838
0.7532610297203064 0.82373046875 0.95855093002319336
0.88853216171264648 0.85644066333770752 0.96761798858642578
0.98321789503097534 0.88293939828872681 0.9675108790397644
0.64266186952590942 0.95284450054168701 0.96226608753204346
0.66033011674880981 0.95160722732543945 0.964028000831604
0.69513344764709473 0.95084953308105469 0.96428215503692627
0.75282567739486694 0.95236217975616455 0.96359932422637939
0.82036620378494263 0.95210856199264526 0.96025985479354858
0.88920128345489502 0.95709776878356934 0.96254920959472656
0.9785609245300293 0.97287243604660034 0.96608263254165649
