luts/instant_pro/polaroid_665.cube
# Created by: G'MIC (https://gmic.eu)
TITLE "polaroid_665"
# LUT size
LUT_3D_SIZE 7
# Data domain
DOMAIN_MIN 0.0 0.0 0.0
DOMAIN_MAX 1.0 1.0 1.0
# LUT data points
0.058585073798894882 0.058585073798894882 0.058585073798894882
0.062462408095598221 0.062462408095598221 0.062462408095598221
0.097657144069671631 0.097657144069671631 0.097657144069671631
0.16072456538677216 0.16072456538677216 0.16072456538677216
0.23804382979869843 0.23804382979869843 0.23804382979869843
0.32702809572219849 0.32702809572219849 0.32702809572219849
0.441059410572052 0.441059410572052 0.441059410572052
0.094877533614635468 0.094877533614635468 0.094877533614635468
0.094980485737323761 0.094980485737323761 0.094980485737323761
0.12946608662605286 0.12946608662605286 0.12946608662605286
0.19926834106445312 0.19926834106445312 0.19926834106445312
0.27815157175064087 0.27815157175064087 0.27815157175064087
0.35698032379150391 0.35698032379150391 0.35698032379150391
0.46221745014190674 0.46221745014190674 0.46221745014190674
0.18435567617416382 0.18435567617416382 0.18435567617416382
0.17782509326934814 0.17782509326934814 0.17782509326934814
0.19739487767219543 0.19739487767219543 0.19739487767219543
0.25375622510910034 0.25375622510910034 0.25375622510910034
0.32936528325080872 0.32936528325080872 0.32936528325080872
0.40565115213394165 0.40565115213394165 0.40565115213394165
0.51762640476226807 0.51762640476226807 0.51762640476226807
0.29372283816337585 0.29372283816337585 0.29372283816337585
0.29077619314193726 0.29077619314193726 0.29077619314193726
0.29423642158508301 0.29423642158508301 0.29423642158508301
0.31363114714622498 0.31363114714622498 0.31363114714622498
0.3627450168132782 0.3627450168132782 0.3627450168132782
0.45778939127922058 0.45778939127922058 0.45778939127922058
0.60767608880996704 0.60767608880996704 0.60767608880996704
0.41860520839691162 0.41860520839691162 0.41860520839691162
0.4274604320526123 0.4274604320526123 0.4274604320526123
0.42906641960144043 0.42906641960144043 0.42906641960144043
0.42669513821601868 0.42669513821601868 0.42669513821601868
0.43988248705863953 0.43988248705863953 0.43988248705863953
0.51571542024612427 0.51571542024612427 0.51571542024612427
0.66249549388885498 0.66249549388885498 0.66249549388885498
0.60205596685409546 0.60205596685409546 0.60205596685409546
0.60863858461380005 0.60863858461380005 0.60863858461380005
0.61144202947616577 0.61144202947616577 0.61144202947616577
0.61196541786193848 0.61196541786193848 0.61196541786193848
0.6211584210395813 0.6211584210395813 0.6211584210395813
0.65671253204345703 0.65671253204345703 0.65671253204345703
0.73309206962585449 0.73309206962585449 0.73309206962585449
0.8187142014503479 0.8187142014503479 0.8187142014503479
0.81619942188262939 0.81619942188262939 0.81619942188262939
0.81827092170715332 0.81827092170715332 0.81827092170715332
0.8296387791633606 0.8296387791633606 0.8296387791633606
0.8471032977104187 0.8471032977104187 0.8471032977104187
0.86159032583236694 0.86159032583236694 0.86159032583236694
0.87610232830047607 0.87610232830047607 0.87610232830047607
0.11132923513650894 0.11132923513650894 0.11132923513650894
0.11743627488613129 0.11743627488613129 0.11743627488613129
0.14852313697338104 0.14852313697338104 0.14852313697338104
0.20384523272514343 0.20384523272514343 0.20384523272514343
0.27348107099533081 0.27348107099533081 0.27348107099533081
0.35158035159111023 0.35158035159111023 0.35158035159111023
0.46130144596099854 0.46130144596099854 0.46130144596099854
0.13059993088245392 0.13059993088245392 0.13059993088245392
0.14749233424663544 0.14749233424663544 0.14749233424663544
0.18108507990837097 0.18108507990837097 0.18108507990837097
0.23831085860729218 0.23831085860729218 0.23831085860729218
0.31025630235671997 0.31025630235671997 0.31025630235671997
0.38538295030593872 0.38538295030593872 0.38538295030593872
0.48346352577209473 0.48346352577209473 0.48346352577209473
0.22484593093395233 0.22484593093395233 0.22484593093395233
0.22686567902565002 0.22686567902565002 0.22686567902565002
0.24487325549125671 0.24487325549125671 0.24487325549125671
0.28644672036170959 0.28644672036170959 0.28644672036170959
0.35801103711128235 0.35801103711128235 0.35801103711128235
0.43769779801368713 0.43769779801368713 0.43769779801368713
0.54174435138702393 0.54174435138702393 0.54174435138702393
0.34084630012512207 0.34084630012512207 0.34084630012512207
0.33941423892974854 0.33941423892974854 0.33941423892974854
0.33867233991622925 0.33867233991622925 0.33867233991622925
0.34150129556655884 0.34150129556655884 0.34150129556655884
0.3941129744052887 0.3941129744052887 0.3941129744052887
0.48807653784751892 0.48807653784751892 0.48807653784751892
0.62091493606567383 0.62091493606567383 0.62091493606567383
0.46628978848457336 0.46628978848457336 0.46628978848457336
0.47311422228813171 0.47311422228813171 0.47311422228813171
0.46845018863677979 0.46845018863677979 0.46845018863677979
0.45672625303268433 0.45672625303268433 0.45672625303268433
0.47003334760665894 0.47003334760665894 0.47003334760665894
0.54212009906768799 0.54212009906768799 0.54212009906768799
0.67391908168792725 0.67391908168792725 0.67391908168792725
0.63545733690261841 0.63545733690261841 0.63545733690261841
0.64080339670181274 0.64080339670181274 0.64080339670181274
0.63884562253952026 0.63884562253952026 0.63884562253952026
0.63368523120880127 0.63368523120880127 0.63368523120880127
0.63746970891952515 0.63746970891952515 0.63746970891952515
0.66223448514938354 0.66223448514938354 0.66223448514938354
0.7300727367401123 0.7300727367401123 0.7300727367401123
0.83364963531494141 0.83364963531494141 0.83364963531494141
0.83283501863479614 0.83283501863479614 0.83283501863479614
0.83220303058624268 0.83220303058624268 0.83220303058624268
0.83858054876327515 0.83858054876327515 0.83858054876327515
0.85178905725479126 0.85178905725479126 0.85178905725479126
0.86297774314880371 0.86297774314880371 0.86297774314880371
0.87635737657546997 0.87635737657546997 0.87635737657546997
0.20872737467288971 0.20872737467288971 0.20872737467288971
0.20846948027610779 0.20846948027610779 0.20846948027610779
0.23145493865013123 0.23145493865013123 0.23145493865013123
0.27565714716911316 0.27565714716911316 0.27565714716911316
0.3435700535774231 0.3435700535774231 0.3435700535774231
0.42438101768493652 0.42438101768493652 0.42438101768493652
0.52841508388519287 0.52841508388519287 0.52841508388519287
0.22879326343536377 0.22879326343536377 0.22879326343536377
0.23914328217506409 0.23914328217506409 0.23914328217506409
0.26549437642097473 0.26549437642097473 0.26549437642097473
0.30654159188270569 0.30654159188270569 0.30654159188270569
0.37284529209136963 0.37284529209136963 0.37284529209136963
0.45262667536735535 0.45262667536735535 0.45262667536735535
0.5364372730255127 0.5364372730255127 0.5364372730255127
0.26873975992202759 0.26873975992202759 0.26873975992202759
0.29188957810401917 0.29188957810401917 0.29188957810401917
0.32330265641212463 0.32330265641212463 0.32330265641212463
0.35826563835144043 0.35826563835144043 0.35826563835144043
0.42373129725456238 0.42373129725456238 0.42373129725456238
0.49901893734931946 0.49901893734931946 0.49901893734931946
0.58166408538818359 0.58166408538818359 0.58166408538818359
0.37145772576332092 0.37145772576332092 0.37145772576332092
0.38223552703857422 0.38223552703857422 0.38223552703857422
0.41210469603538513 0.41210469603538513 0.41210469603538513
0.42256841063499451 0.42256841063499451 0.42256841063499451
0.46722480654716492 0.46722480654716492 0.46722480654716492
0.54618167877197266 0.54618167877197266 0.54618167877197266
0.65918207168579102 0.65918207168579102 0.65918207168579102
0.515228271484375 0.515228271484375 0.515228271484375
0.51705896854400635 0.51705896854400635 0.51705896854400635
0.52575212717056274 0.52575212717056274 0.52575212717056274
0.52110671997070312 0.52110671997070312 0.52110671997070312
0.53104871511459351 0.53104871511459351 0.53104871511459351
0.59666508436203003 0.59666508436203003 0.59666508436203003
0.72219914197921753 0.72219914197921753 0.72219914197921753
0.67413794994354248 0.67413794994354248 0.67413794994354248
0.67572927474975586 0.67572927474975586 0.67572927474975586
0.67688459157943726 0.67688459157943726 0.67688459157943726
0.67556244134902954 0.67556244134902954 0.67556244134902954
0.67480266094207764 0.67480266094207764 0.67480266094207764
0.6960795521736145 0.6960795521736145 0.6960795521736145
0.76816815137863159 0.76816815137863159 0.76816815137863159
0.8556828498840332 0.8556828498840332 0.8556828498840332
0.85178995132446289 0.85178995132446289 0.85178995132446289
0.84758371114730835 0.84758371114730835 0.84758371114730835
0.85465359687805176 0.85465359687805176 0.85465359687805176
0.86213153600692749 0.86213153600692749 0.86213153600692749
0.87151980400085449 0.87151980400085449 0.87151980400085449
0.89442604780197144 0.89442604780197144 0.89442604780197144
0.32826310396194458 0.32826310396194458 0.32826310396194458
0.32405731081962585 0.32405731081962585 0.32405731081962585
0.34591290354728699 0.34591290354728699 0.34591290354728699
0.37248006463050842 0.37248006463050842 0.37248006463050842
0.41844063997268677 0.41844063997268677 0.41844063997268677
0.5174483060836792 0.5174483060836792 0.5174483060836792
0.63408321142196655 0.63408321142196655 0.63408321142196655
0.36064788699150085 0.36064788699150085 0.36064788699150085
0.36731335520744324 0.36731335520744324 0.36731335520744324
0.38461601734161377 0.38461601734161377 0.38461601734161377
0.3992096483707428 0.3992096483707428 0.3992096483707428
0.43568623065948486 0.43568623065948486 0.43568623065948486
0.53910559415817261 0.53910559415817261 0.53910559415817261
0.6379731297492981 0.6379731297492981 0.6379731297492981
0.3860335648059845 0.3860335648059845 0.3860335648059845
0.40766537189483643 0.40766537189483643 0.40766537189483643
0.43284198641777039 0.43284198641777039 0.43284198641777039
0.4481787383556366 0.4481787383556366 0.4481787383556366
0.48986560106277466 0.48986560106277466 0.48986560106277466
0.57636344432830811 0.57636344432830811 0.57636344432830811
0.65277218818664551 0.65277218818664551 0.65277218818664551
0.40840762853622437 0.40840762853622437 0.40840762853622437
0.42790958285331726 0.42790958285331726 0.42790958285331726
0.48295074701309204 0.48295074701309204 0.48295074701309204
0.50905871391296387 0.50905871391296387 0.50905871391296387
0.54523193836212158 0.54523193836212158 0.54523193836212158
0.61253845691680908 0.61253845691680908 0.61253845691680908
0.70116567611694336 0.70116567611694336 0.70116567611694336
0.51474583148956299 0.51474583148956299 0.51474583148956299
0.53277254104614258 0.53277254104614258 0.53277254104614258
0.56906956434249878 0.56906956434249878 0.56906956434249878
0.59118360280990601 0.59118360280990601 0.59118360280990601
0.61246925592422485 0.61246925592422485 0.61246925592422485
0.6659349799156189 0.6659349799156189 0.6659349799156189
0.76015424728393555 0.76015424728393555 0.76015424728393555
0.68606007099151611 0.68606007099151611 0.68606007099151611
0.69061803817749023 0.69061803817749023 0.69061803817749023
0.7124028205871582 0.7124028205871582 0.7124028205871582
0.72986775636672974 0.72986775636672974 0.72986775636672974
0.73169714212417603 0.73169714212417603 0.73169714212417603
0.74986553192138672 0.74986553192138672 0.74986553192138672
0.81342184543609619 0.81342184543609619 0.81342184543609619
0.8727424144744873 0.8727424144744873 0.8727424144744873
0.86797231435775757 0.86797231435775757 0.86797231435775757
0.86950588226318359 0.86950588226318359 0.86950588226318359
0.88270837068557739 0.88270837068557739 0.88270837068557739
0.88600891828536987 0.88600891828536987 0.88600891828536987
0.89339911937713623 0.89339911937713623 0.89339911937713623
0.91971820592880249 0.91971820592880249 0.91971820592880249
0.48349082469940186 0.48349082469940186 0.48349082469940186
0.47978624701499939 0.47978624701499939 0.47978624701499939
0.50120693445205688 0.50120693445205688 0.50120693445205688
0.51618450880050659 0.51618450880050659 0.51618450880050659
0.51112598180770874 0.51112598180770874 0.51112598180770874
0.55794340372085571 0.55794340372085571 0.55794340372085571
0.70469784736633301 0.70469784736633301 0.70469784736633301
0.52215921878814697 0.52215921878814697 0.52215921878814697
0.52822530269622803 0.52822530269622803 0.52822530269622803
0.54144483804702759 0.54144483804702759 0.54144483804702759
0.54754906892776489 0.54754906892776489 0.54754906892776489
0.53574645519256592 0.53574645519256592 0.53574645519256592
0.58010613918304443 0.58010613918304443 0.58010613918304443
0.71532070636749268 0.71532070636749268 0.71532070636749268
0.56141859292984009 0.56141859292984009 0.56141859292984009
0.57478374242782593 0.57478374242782593 0.57478374242782593
0.58165866136550903 0.58165866136550903 0.58165866136550903
0.58071881532669067 0.58071881532669067 0.58071881532669067
0.5872541069984436 0.5872541069984436 0.5872541069984436
0.64017307758331299 0.64017307758331299 0.64017307758331299
0.74621492624282837 0.74621492624282837 0.74621492624282837
0.56282985210418701 0.56282985210418701 0.56282985210418701
0.57865685224533081 0.57865685224533081 0.57865685224533081
0.60398250818252563 0.60398250818252563 0.60398250818252563
0.62000185251235962 0.62000185251235962 0.62000185251235962
0.64408683776855469 0.64408683776855469 0.64408683776855469
0.6927064061164856 0.6927064061164856 0.6927064061164856
0.7686237096786499 0.7686237096786499 0.7686237096786499
0.59021866321563721 0.59021866321563721 0.59021866321563721
0.60279703140258789 0.60279703140258789 0.60279703140258789
0.63152432441711426 0.63152432441711426 0.63152432441711426
0.66189438104629517 0.66189438104629517 0.66189438104629517
0.69840472936630249 0.69840472936630249 0.69840472936630249
0.74713701009750366 0.74713701009750366 0.74713701009750366
0.81648409366607666 0.81648409366607666 0.81648409366607666
0.6954161524772644 0.6954161524772644 0.6954161524772644
0.70683133602142334 0.70683133602142334 0.70683133602142334
0.73226010799407959 0.73226010799407959 0.73226010799407959
0.76449602842330933 0.76449602842330933 0.76449602842330933
0.79066318273544312 0.79066318273544312 0.79066318273544312
0.82322055101394653 0.82322055101394653 0.82322055101394653
0.87639272212982178 0.87639272212982178 0.87639272212982178
0.86189764738082886 0.86189764738082886 0.86189764738082886
0.87717622518539429 0.87717622518539429 0.87717622518539429
0.8832666277885437 0.8832666277885437 0.8832666277885437
0.89857542514801025 0.89857542514801025 0.89857542514801025
0.91173887252807617 0.91173887252807617 0.91173887252807617
0.92323052883148193 0.92323052883148193 0.92323052883148193
0.94796514511108398 0.94796514511108398 0.94796514511108398
0.67663091421127319 0.67663091421127319 0.67663091421127319
0.67341119050979614 0.67341119050979614 0.67341119050979614
0.68503892421722412 0.68503892421722412 0.68503892421722412
0.70241725444793701 0.70241725444793701 0.70241725444793701
0.71100729703903198 0.71100729703903198 0.71100729703903198
0.7012103796005249 0.7012103796005249 0.7012103796005249
0.75666600465774536 0.75666600465774536 0.75666600465774536
0.70431900024414062 0.70431900024414062 0.70431900024414062
0.70597422122955322 0.70597422122955322 0.70597422122955322
0.71438395977020264 0.71438395977020264 0.71438395977020264
0.72684568166732788 0.72684568166732788 0.72684568166732788
0.72736191749572754 0.72736191749572754 0.72736191749572754
0.71579819917678833 0.71579819917678833 0.71579819917678833
0.75774085521697998 0.75774085521697998 0.75774085521697998
0.73347645998001099 0.73347645998001099 0.73347645998001099
0.73937249183654785 0.73937249183654785 0.73937249183654785
0.74378031492233276 0.74378031492233276 0.74378031492233276
0.74936991930007935 0.74936991930007935 0.74936991930007935
0.75342941284179688 0.75342941284179688 0.75342941284179688
0.75605571269989014 0.75605571269989014 0.75605571269989014
0.79657113552093506 0.79657113552093506 0.79657113552093506
0.74470323324203491 0.74470323324203491 0.74470323324203491
0.75563603639602661 0.75563603639602661 0.75563603639602661
0.76603943109512329 0.76603943109512329 0.76603943109512329
0.77153474092483521 0.77153474092483521 0.77153474092483521
0.77847248315811157 0.77847248315811157 0.77847248315811157
0.79053908586502075 0.79053908586502075 0.79053908586502075
0.82166391611099243 0.82166391611099243 0.82166391611099243
0.75341832637786865 0.75341832637786865 0.75341832637786865
0.75827133655548096 0.75827133655548096 0.75827133655548096
0.768776535987854 0.768776535987854 0.768776535987854
0.77992641925811768 0.77992641925811768 0.77992641925811768
0.8053818941116333 0.8053818941116333 0.8053818941116333
0.83332455158233643 0.83332455158233643 0.83332455158233643
0.86819243431091309 0.86819243431091309 0.86819243431091309
0.77164572477340698 0.77164572477340698 0.77164572477340698
0.78741252422332764 0.78741252422332764 0.78741252422332764
0.79495209455490112 0.79495209455490112 0.79495209455490112
0.81567347049713135 0.81567347049713135 0.81567347049713135
0.85478132963180542 0.85478132963180542 0.85478132963180542
0.88554894924163818 0.88554894924163818 0.88554894924163818
0.91569489240646362 0.91569489240646362 0.91569489240646362
0.86833649873733521 0.86833649873733521 0.86833649873733521
0.88365048170089722 0.88365048170089722 0.88365048170089722
0.8876006007194519 0.8876006007194519 0.8876006007194519
0.90226584672927856 0.90226584672927856 0.90226584672927856
0.93179118633270264 0.93179118633270264 0.93179118633270264
0.94642335176467896 0.94642335176467896 0.94642335176467896
0.96247851848602295 0.96247851848602295 0.96247851848602295
0.86719530820846558 0.86719530820846558 0.86719530820846558
0.86015677452087402 0.86015677452087402 0.86015677452087402
0.86363828182220459 0.86363828182220459 0.86363828182220459
0.87881875038146973 0.87881875038146973 0.87881875038146973
0.89295917749404907 0.89295917749404907 0.89295917749404907
0.89218407869338989 0.89218407869338989 0.89218407869338989
0.88957196474075317 0.88957196474075317 0.88957196474075317
0.87739521265029907 0.87739521265029907 0.87739521265029907
0.87403577566146851 0.87403577566146851 0.87403577566146851
0.87714940309524536 0.87714940309524536 0.87714940309524536
0.89363044500350952 0.89363044500350952 0.89363044500350952
0.90559971332550049 0.90559971332550049 0.90559971332550049
0.89886724948883057 0.89886724948883057 0.89886724948883057
0.89031845331192017 0.89031845331192017 0.89031845331192017
0.88938498497009277 0.88938498497009277 0.88938498497009277
0.89006376266479492 0.89006376266479492 0.89006376266479492
0.89135712385177612 0.89135712385177612 0.89135712385177612
0.90562146902084351 0.90562146902084351 0.90562146902084351
0.91305088996887207 0.91305088996887207 0.91305088996887207
0.90517288446426392 0.90517288446426392 0.90517288446426392
0.89823740720748901 0.89823740720748901 0.89823740720748901
0.90124642848968506 0.90124642848968506 0.90124642848968506
0.90805959701538086 0.90805959701538086 0.90805959701538086
0.91159039735794067 0.91159039735794067 0.91159039735794067
0.9179072380065918 0.9179072380065918 0.9179072380065918
0.91700327396392822 0.91700327396392822 0.91700327396392822
0.90827071666717529 0.90827071666717529 0.90827071666717529
0.90647804737091064 0.90647804737091064 0.90647804737091064
0.9128265380859375 0.9128265380859375 0.9128265380859375
0.91521018743515015 0.91521018743515015 0.91521018743515015
0.91190779209136963 0.91190779209136963 0.91190779209136963
0.91506630182266235 0.91506630182266235 0.91506630182266235
0.9218558669090271 0.9218558669090271 0.9218558669090271
0.92952483892440796 0.92952483892440796 0.92952483892440796
0.93745309114456177 0.93745309114456177 0.93745309114456177
0.90652406215667725 0.90652406215667725 0.90652406215667725
0.91239982843399048 0.91239982843399048 0.91239982843399048
0.90416920185089111 0.90416920185089111 0.90416920185089111
0.90881401300430298 0.90881401300430298 0.90881401300430298
0.92958527803421021 0.92958527803421021 0.92958527803421021
0.94769430160522461 0.94769430160522461 0.94769430160522461
0.95979124307632446 0.95979124307632446 0.95979124307632446
0.92709410190582275 0.92709410190582275 0.92709410190582275
0.93325799703598022 0.93325799703598022 0.93325799703598022
0.92902094125747681 0.92902094125747681 0.92902094125747681
0.93424797058105469 0.93424797058105469 0.93424797058105469
0.95844703912734985 0.95844703912734985 0.95844703912734985
0.97092843055725098 0.97092843055725098 0.97092843055725098
0.97824877500534058 0.97824877500534058 0.97824877500534058
