luts/instant_pro/polaroid_690_cold.cube
# Created by: G'MIC (https://gmic.eu)
TITLE "polaroid_690_cold"
# LUT size
LUT_3D_SIZE 13
# Data domain
DOMAIN_MIN 0.0 0.0 0.0
DOMAIN_MAX 1.0 1.0 1.0
# LUT data points
0.0031378353014588356 0.14469912648200989 0.13477452099323273
0.019067578017711639 0.14613552391529083 0.13555732369422913
0.075484901666641235 0.14557814598083496 0.13687832653522491
0.14223875105381012 0.14217691123485565 0.13570922613143921
0.2258351594209671 0.13489629328250885 0.13686525821685791
0.31098207831382751 0.12093511968851089 0.13749502599239349
0.41598102450370789 0.083384796977043152 0.1381123960018158
0.52533841133117676 0.02983124740421772 0.13564823567867279
0.63743513822555542 0.0073638916946947575 0.13346217572689056
0.74411571025848389 0.0042972937226295471 0.12906065583229065
0.83244812488555908 0.0039215688593685627 0.12452418357133865
0.90553128719329834 0.0036057415418326855 0.12087664008140564
0.97229313850402832 0.0022224425338208675 0.11605758965015411
0.0047291922383010387 0.17400370538234711 0.14225983619689941
0.020186614245176315 0.17485064268112183 0.14269231259822845
0.0782652348279953 0.17387427389621735 0.14202843606472015
0.15621174871921539 0.17072410881519318 0.14013077318668365
0.24763613939285278 0.16140627861022949 0.14019635319709778
0.33913701772689819 0.14667652547359467 0.13976027071475983
0.44381541013717651 0.11569201946258545 0.14019559323787689
0.55314087867736816 0.064545050263404846 0.13643728196620941
0.66219919919967651 0.01459033414721489 0.13324977457523346
0.76355922222137451 0.0065034604631364346 0.12767046689987183
0.84878325462341309 0.0056626712903380394 0.12252948433160782
0.92216747999191284 0.0062849903479218483 0.11831893771886826
0.97601646184921265 0.0045617497526109219 0.11202692985534668
0.0049227098934352398 0.20428454875946045 0.14658880233764648
0.016459761187434196 0.20456984639167786 0.14571678638458252
0.077458277344703674 0.20475488901138306 0.14417551457881927
0.16392701864242554 0.20354148745536804 0.14086318016052246
0.2600768506526947 0.19724598526954651 0.14003293216228485
0.36827391386032104 0.1921023428440094 0.13914184272289276
0.48994854092597961 0.18136216700077057 0.13877013325691223
0.6031501293182373 0.14890033006668091 0.13264173269271851
0.69945567846298218 0.083083055913448334 0.12825484573841095
0.78590631484985352 0.036251410841941833 0.12445394694805145
0.86879581212997437 0.015473085455596447 0.11890080571174622
0.94131851196289062 0.009142482653260231 0.11458773165941238
0.98389190435409546 0.0065422505140304565 0.10463754832744598
0.0039630364626646042 0.24135173857212067 0.14825296401977539
0.0085303662344813347 0.23947687447071075 0.14584283530712128
0.068626284599304199 0.24242734909057617 0.14311671257019043
0.16633982956409454 0.24843853712081909 0.13886831700801849
0.28024733066558838 0.25663840770721436 0.13467113673686981
0.40447303652763367 0.26627138257026672 0.13159675896167755
0.53646159172058105 0.26923522353172302 0.13031747937202454
0.656047523021698 0.25380277633666992 0.12391979992389679
0.74320805072784424 0.21209812164306641 0.11932884901762009
0.81653362512588501 0.18251626193523407 0.11616484820842743
0.89085680246353149 0.15486747026443481 0.10862705111503601
0.9573204517364502 0.12520182132720947 0.10296040028333664
0.99279522895812988 0.11415001004934311 0.093142718076705933
0.0039215688593685627 0.3072364330291748 0.14262150228023529
0.0065995459444820881 0.30737635493278503 0.1416039764881134
0.054213594645261765 0.31261560320854187 0.14028346538543701
0.16495849192142487 0.32245996594429016 0.13410934805870056
0.29073348641395569 0.33333665132522583 0.12513731420040131
0.41819074749946594 0.34522333741188049 0.11183540523052216
0.55367368459701538 0.35680657625198364 0.10179935395717621
0.68239426612854004 0.36595243215560913 0.095882102847099304
0.77717626094818115 0.36067980527877808 0.094886466860771179
0.84867113828659058 0.34417155385017395 0.090529635548591614
0.91097539663314819 0.32416963577270508 0.083907261490821838
0.97328490018844604 0.31058564782142639 0.077356941998004913
0.99797320365905762 0.30542528629302979 0.068573474884033203
0.0038690604269504547 0.38715597987174988 0.13104301691055298
0.0073041878640651703 0.38790023326873779 0.13139639794826508
0.036605671048164368 0.39137709140777588 0.1324286013841629
0.15916064381599426 0.39828199148178101 0.12233273684978485
0.28663551807403564 0.41118386387825012 0.10599230229854584
0.40803053975105286 0.43042081594467163 0.078693464398384094
0.5383266806602478 0.44917950034141541 0.053267072886228561
0.66567426919937134 0.46406933665275574 0.035946056246757507
0.77366173267364502 0.47955438494682312 0.036661289632320404
0.86109018325805664 0.48569598793983459 0.043698657304048538
0.92904919385910034 0.47981637716293335 0.047499876469373703
0.983012855052948 0.46751236915588379 0.04934711754322052
0.99908447265625 0.46254199743270874 0.044549472630023956
0.001592538901604712 0.47077208757400513 0.11223316937685013
0.0045650708489120007 0.47014644742012024 0.11017080396413803
0.016129676252603531 0.47126302123069763 0.10533161461353302
0.13164998590946198 0.47758549451828003 0.095429077744483948
0.27279621362686157 0.49154508113861084 0.074679583311080933
0.39631000161170959 0.51223206520080566 0.041635729372501373
0.52005249261856079 0.53448355197906494 0.01930631697177887
0.64227151870727539 0.55546480417251587 0.0095539167523384094
0.75042492151260376 0.57364112138748169 0.0092323748394846916
0.84482711553573608 0.58579158782958984 0.0081299729645252228
0.92278605699539185 0.59321737289428711 0.014855882152915001
0.9815334677696228 0.59590393304824829 0.034920353442430496
0.99918609857559204 0.5910261869430542 0.067175246775150299
0.00020087747543584555 0.56829118728637695 0.058825861662626266
0.0036545547191053629 0.56536674499511719 0.059052754193544388
0.006116919219493866 0.56244301795959473 0.056210745126008987
0.10087841004133224 0.56202214956283569 0.047341831028461456
0.25420898199081421 0.57370394468307495 0.03050861693918705
0.38708081841468811 0.59005212783813477 0.011296365410089493
0.50522655248641968 0.60939592123031616 0.0073908637277781963
0.61861884593963623 0.63000524044036865 0.0070410636253654957
0.73139649629592896 0.64799541234970093 0.0058056251145899296
0.8254084587097168 0.65609818696975708 0.0051730289123952389
0.9047778844833374 0.66544502973556519 0.0069289114326238632
0.96813076734542847 0.67146021127700806 0.013359713368117809
0.99834698438644409 0.67537087202072144 0.06994754821062088
0.0021269554272294044 0.66181337833404541 0.0087839914485812187
0.0050527537241578102 0.65590143203735352 0.01333669014275074
0.006466839462518692 0.65233975648880005 0.010378490202128887
0.094764918088912964 0.64998561143875122 0.0065904506482183933
0.26009669899940491 0.65337765216827393 0.0089058373123407364
0.39267072081565857 0.66319531202316284 0.0082505466416478157
0.50829601287841797 0.6763986349105835 0.0066103017888963223
0.61196625232696533 0.69171112775802612 0.0069910087622702122
0.71515834331512451 0.70494574308395386 0.0070792404003441334
0.81184512376785278 0.71352207660675049 0.0063676275312900543
0.89301824569702148 0.7215803861618042 0.0064662410877645016
0.95558309555053711 0.72582924365997314 0.0094380695372819901
0.99386787414550781 0.72836148738861084 0.029579192399978638
0.0067386254668235779 0.7306860089302063 0.0032816869206726551
0.013237298466265202 0.72932916879653931 0.0039443522691726685
0.036098182201385498 0.72919189929962158 0.0025015438441187143
0.16373071074485779 0.72672098875045776 0.0020413717720657587
0.29845651984214783 0.72457069158554077 0.0042406120337545872
0.41973385214805603 0.72771459817886353 0.0046377591788768768
0.52769231796264648 0.73716115951538086 0.0046052071265876293
0.62352144718170166 0.74703234434127808 0.0074683842249214649
0.71548199653625488 0.75600218772888184 0.0078431377187371254
0.80359941720962524 0.7634093165397644 0.0088834427297115326
0.88270014524459839 0.77011960744857788 0.0080863656476140022
0.94499462842941284 0.77255880832672119 0.0062663806602358818
0.98779600858688354 0.7767297625541687 0.0091198189184069633
0.095009550452232361 0.79704010486602783 0.003603318240493536
0.12823030352592468 0.79436546564102173 0.0046385671012103558
0.19858203828334808 0.79157829284667969 0.0038340699393302202
0.28460592031478882 0.78758305311203003 0.005604717880487442
0.37274804711341858 0.78435409069061279 0.0055159623734652996
0.45982980728149414 0.78448629379272461 0.0043585533276200294
0.55634576082229614 0.79104459285736084 0.0066340579651296139
0.64721184968948364 0.79850536584854126 0.0077754450030624866
0.73062431812286377 0.80576872825622559 0.007598488125950098
0.80982869863510132 0.8136252760887146 0.010369903407990932
0.87941867113113403 0.81949633359909058 0.0092798266559839249
0.94021004438400269 0.82351768016815186 0.0041981865651905537
0.98722755908966064 0.8270992636680603 0.0091710556298494339
0.29784443974494934 0.85248792171478271 0.058892913162708282
0.31933730840682983 0.8516804575920105 0.054121173918247223
0.35459476709365845 0.84958392381668091 0.042865484952926636
0.40604877471923828 0.84757596254348755 0.031585231423377991
0.46543258428573608 0.84529101848602295 0.01830558106303215
0.53002327680587769 0.84464174509048462 0.013430621474981308
0.60543292760848999 0.8468438982963562 0.013140778988599777
0.67998582124710083 0.85187608003616333 0.010947358794510365
0.75073903799057007 0.85780513286590576 0.012024927884340286
0.82029193639755249 0.86473989486694336 0.013763831928372383
0.88209199905395508 0.87156963348388672 0.014797315001487732
0.93844622373580933 0.87795621156692505 0.009607008658349514
0.98502510786056519 0.88100951910018921 0.031632710248231888
0.43728357553482056 0.91764873266220093 0.21267656981945038
0.45006120204925537 0.91657811403274536 0.20556263625621796
0.47332474589347839 0.91506004333496094 0.19521543383598328
0.51011306047439575 0.91458970308303833 0.18345564603805542
0.55364501476287842 0.91290295124053955 0.16514408588409424
0.6025661826133728 0.91210514307022095 0.14431482553482056
0.65763115882873535 0.91184759140014648 0.13018643856048584
0.71646976470947266 0.91560190916061401 0.13287718594074249
0.77443909645080566 0.92068946361541748 0.13919936120510101
0.83147704601287842 0.92743122577667236 0.14196681976318359
0.88389694690704346 0.93321758508682251 0.14487375319004059
0.9342116117477417 0.93939042091369629 0.14337773621082306
0.97721034288406372 0.94701743125915527 0.16414906084537506
0.0037951599806547165 0.14624853432178497 0.16390039026737213
0.014779005199670792 0.14555387198925018 0.16275975108146667
0.067671880125999451 0.14738476276397705 0.16310763359069824
0.13483645021915436 0.14711236953735352 0.16071438789367676
0.21818563342094421 0.13689133524894714 0.16123464703559875
0.30829527974128723 0.11941586434841156 0.16321046650409698
0.40855509042739868 0.085430324077606201 0.16252654790878296
0.52041244506835938 0.020841620862483978 0.1560894250869751
0.6314091682434082 0.0051012975163757801 0.1555938720703125
0.74034857749938965 0.0064238454215228558 0.15246826410293579
0.83527481555938721 0.0048028384335339069 0.14680971205234528
0.90703397989273071 0.0039213742129504681 0.14210623502731323
0.96994954347610474 0.0027840856928378344 0.13734500110149384
0.0049610063433647156 0.17115512490272522 0.17012956738471985
0.017056528478860855 0.17043285071849823 0.16984023153781891
0.071343667805194855 0.17109738290309906 0.16899953782558441
0.14791171252727509 0.17049309611320496 0.16558650135993958
0.236095130443573 0.15627594292163849 0.16334299743175507
0.33004140853881836 0.13950841128826141 0.1621372252702713
0.43856579065322876 0.10271630436182022 0.16246569156646729
0.55009335279464722 0.043860580772161484 0.15892444550991058
0.65539252758026123 0.010863255709409714 0.15574298799037933
0.75891458988189697 0.0086567150428891182 0.15149432420730591
0.84865069389343262 0.0054519502446055412 0.14537413418292999
0.9228813648223877 0.0063795051537454128 0.13999582827091217
0.97704237699508667 0.0057927747257053852 0.13351796567440033
0.005116690881550312 0.20313556492328644 0.17298996448516846
0.014598352834582329 0.20300701260566711 0.17139585316181183
0.074683710932731628 0.20315878093242645 0.16917063295841217
0.1607162207365036 0.19994176924228668 0.16730892658233643
0.25636836886405945 0.19327998161315918 0.16626733541488647
0.36701029539108276 0.19261500239372253 0.16414311528205872
0.48707127571105957 0.16918249428272247 0.16572162508964539
0.59664654731750488 0.12252724170684814 0.161794513463974
0.6918368935585022 0.065910860896110535 0.15413320064544678
0.78257942199707031 0.026845460757613182 0.14821964502334595
0.86774802207946777 0.0098737534135580063 0.14228589832782745
0.94194620847702026 0.009228784590959549 0.13579621911048889
0.98696541786193848 0.0094198938459157944 0.12744994461536407
0.0040286793373525143 0.2448749840259552 0.17361971735954285
0.008941650390625 0.24341653287410736 0.17200738191604614
0.06884484738111496 0.2452276200056076 0.16882668435573578
0.17627537250518799 0.25050774216651917 0.16697460412979126
0.29196000099182129 0.25756853818893433 0.16581429541110992
0.41073393821716309 0.26540699601173401 0.16114972531795502
0.5412214994430542 0.2623475193977356 0.16438917815685272
0.64709603786468506 0.23628062009811401 0.15953618288040161
0.73485177755355835 0.20123176276683807 0.15089471638202667
0.81469208002090454 0.17050221562385559 0.14342361688613892
0.88811153173446655 0.12957845628261566 0.13716806471347809
0.9582945704460144 0.098740868270397186 0.1289723813533783
0.99621260166168213 0.082656681537628174 0.12074919790029526
0.0039589079096913338 0.31654837727546692 0.17260372638702393
0.0079889334738254547 0.3169308602809906 0.17219777405261993
0.051602397114038467 0.31886968016624451 0.16779376566410065
0.17332069575786591 0.32531434297561646 0.16315647959709167
0.30296057462692261 0.33609363436698914 0.15941140055656433
0.43020367622375488 0.34785640239715576 0.14852383732795715
0.55831241607666016 0.35822814702987671 0.14113143086433411
0.67664706707000732 0.36376717686653137 0.14178118109703064
0.77656865119934082 0.35275804996490479 0.13981986045837402
0.84473836421966553 0.33227705955505371 0.13477595150470734
0.90741986036300659 0.30789315700531006 0.12834233045578003
0.97012168169021606 0.29552778601646423 0.1228126659989357
0.99714398384094238 0.28912705183029175 0.1151144728064537
0.0042856251820921898 0.3984132707118988 0.16752912104129791
0.008162105455994606 0.39843863248825073 0.16339579224586487
0.033445980399847031 0.39668500423431396 0.1573113352060318
0.16186480224132538 0.40025067329406738 0.15193581581115723
0.29132935404777527 0.41602590680122375 0.14318573474884033
0.41552507877349854 0.43190336227416992 0.1252368688583374
0.54073017835617065 0.45142611861228943 0.10043801367282867
0.66548174619674683 0.46821790933609009 0.088878437876701355
0.77790486812591553 0.4810638427734375 0.093433469533920288
0.86401671171188354 0.48454418778419495 0.11024841666221619
0.92744147777557373 0.47314846515655518 0.11789507418870926
0.97990494966506958 0.45979517698287964 0.11804706603288651
0.99769622087478638 0.45398521423339844 0.11157038062810898
0.0020176607649773359 0.48253285884857178 0.15247760713100433
0.0049026790075004101 0.48533928394317627 0.14519046247005463
0.014257363975048065 0.48620256781578064 0.13735373318195343
0.13074111938476562 0.48779577016830444 0.13025346398353577
0.27220356464385986 0.4992620050907135 0.11783656477928162
0.39778751134872437 0.5150296688079834 0.091733314096927643
0.52375572919845581 0.53650838136672974 0.060236643999814987
0.64883065223693848 0.56047296524047852 0.034115854650735855
0.75791782140731812 0.57829517126083374 0.027946038171648979
0.84855556488037109 0.5864219069480896 0.040208283811807632
0.92312532663345337 0.59309041500091553 0.078267417848110199
0.97978806495666504 0.59564781188964844 0.12179182469844818
0.99653208255767822 0.58644986152648926 0.13776466250419617
0.0010491764405742288 0.57548445463180542 0.10761654376983643
0.0044706757180392742 0.57534307241439819 0.10441482812166214
0.0080917058512568474 0.57347613573074341 0.10278704762458801
0.10203378647565842 0.57332777976989746 0.094695627689361572
0.25588604807853699 0.58259624242782593 0.077001892030239105
0.38594803214073181 0.59549766778945923 0.049264572560787201
0.51007568836212158 0.6157383918762207 0.022316308692097664
0.62451988458633423 0.63526511192321777 0.01203581877052784
0.73480355739593506 0.65016096830368042 0.007747904397547245
0.82931786775588989 0.65917086601257324 0.0096231494098901749
0.90911638736724854 0.66652274131774902 0.025046553462743759
0.96637386083602905 0.67005807161331177 0.070656150579452515
0.99421530961990356 0.67372292280197144 0.14845617115497589
0.00024081960145849735 0.66475993394851685 0.060423322021961212
0.0029391718562692404 0.66243380308151245 0.057161606848239899
0.0073803621344268322 0.65968650579452515 0.053653255105018616
0.091441057622432709 0.65793043375015259 0.043239593505859375
0.25781238079071045 0.66037178039550781 0.030633365735411644
0.38771101832389832 0.6695101261138916 0.017322748899459839
0.50549530982971191 0.68196308612823486 0.010583271272480488
0.6138795018196106 0.69586730003356934 0.008187626488506794
0.71676570177078247 0.70648062229156494 0.0080809202045202255
0.81396430730819702 0.71472197771072388 0.008500492200255394
0.89568179845809937 0.72221106290817261 0.01014684047549963
0.96015483140945435 0.72554957866668701 0.027448736131191254
0.99366581439971924 0.72717040777206421 0.1007278710603714
0.0034531985875219107 0.7390626072883606 0.038384575396776199
0.0073569952510297298 0.73702162504196167 0.032447680830955505
0.034220736473798752 0.73451238870620728 0.023665020242333412
0.16054838895797729 0.73186057806015015 0.017840158194303513
0.29650717973709106 0.7284885048866272 0.011821717023849487
0.41298702359199524 0.73263001441955566 0.0081744175404310226
0.52183282375335693 0.73892652988433838 0.0080226827412843704
0.6212698221206665 0.7478100061416626 0.0078165540471673012
0.71449571847915649 0.75629764795303345 0.0083626993000507355
0.80447214841842651 0.76397252082824707 0.010974898934364319
0.8844064474105835 0.77038073539733887 0.0087412362918257713
0.95080244541168213 0.7728649377822876 0.015091630630195141
0.99314528703689575 0.77690434455871582 0.065342411398887634
0.088774658739566803 0.79937189817428589 0.053620491176843643
0.12573413550853729 0.7968716025352478 0.046218093484640121
0.19822961091995239 0.79389351606369019 0.034691754728555679
0.28889867663383484 0.79070001840591431 0.024788036942481995
0.37320235371589661 0.78719782829284668 0.017255490645766258
0.46032282710075378 0.78708922863006592 0.0081103155389428139
0.55515873432159424 0.79084062576293945 0.0099015776067972183
0.64243865013122559 0.79706335067749023 0.0087066954001784325
0.72636157274246216 0.80436843633651733 0.0088642491027712822
0.80681329965591431 0.81121861934661865 0.009877343662083149
0.87918698787689209 0.81746417284011841 0.0086979735642671585
0.94314813613891602 0.82233071327209473 0.015433307737112045
0.98940378427505493 0.82709640264511108 0.058945734053850174
0.29597583413124084 0.85291177034378052 0.12778778374195099
0.31559634208679199 0.85279059410095215 0.12258637696504593
0.35018715262413025 0.85092490911483765 0.10476303100585938
0.40280121564865112 0.84966790676116943 0.088745817542076111
0.46256345510482788 0.84678506851196289 0.067818105220794678
0.52753579616546631 0.84545540809631348 0.049164805561304092
0.60053539276123047 0.8462907075881958 0.03873017430305481
0.67508947849273682 0.85168242454528809 0.037745904177427292
0.74676626920700073 0.85700446367263794 0.037625391036272049
0.81644177436828613 0.86276096105575562 0.041217535734176636
0.88086122274398804 0.86919093132019043 0.041814647614955902
0.93829286098480225 0.87682706117630005 0.045703288167715073
0.9823182225227356 0.8821755051612854 0.10250986367464066
0.43732032179832458 0.91777509450912476 0.25216662883758545
0.44850566983222961 0.9178842306137085 0.24626927077770233
0.47005549073219299 0.91595011949539185 0.23619715869426727
0.50558489561080933 0.91472691297531128 0.22528436779975891
0.55016297101974487 0.91349577903747559 0.2092660665512085
0.60041159391403198 0.9122389554977417 0.19015781581401825
0.65538883209228516 0.91257274150848389 0.17681345343589783
0.71389859914779663 0.91675543785095215 0.18106488883495331
0.77118182182312012 0.92158347368240356 0.18625491857528687
0.82888263463973999 0.92754125595092773 0.19327168166637421
0.88228559494018555 0.93327414989471436 0.19441446661949158
0.93165546655654907 0.94128632545471191 0.19982568919658661
0.97463738918304443 0.94714343547821045 0.21174298226833344
0.0023852179292589426 0.14629752933979034 0.19681437313556671
0.0067993910051882267 0.14566470682621002 0.19835121929645538
0.054205965250730515 0.14700005948543549 0.19905988872051239
0.12919788062572479 0.14848938584327698 0.19589719176292419
0.21529786288738251 0.14020875096321106 0.19887794554233551
0.30728930234909058 0.1229405403137207 0.20267601311206818
0.40622472763061523 0.089573398232460022 0.20227496325969696
0.51577997207641602 0.024605186656117439 0.19796819984912872
0.62142801284790039 0.0054514715448021889 0.19741500914096832
0.72569531202316284 0.0050314660184085369 0.19219666719436646
0.81962460279464722 0.0040500117465853691 0.18242757022380829
0.89973604679107666 0.0034880395978689194 0.17163845896720886
0.97085785865783691 0.0015517440624535084 0.16191817820072174
0.0039648017846047878 0.16810445487499237 0.20489069819450378
0.0086431317031383514 0.16520325839519501 0.20367899537086487
0.059628847986459732 0.16640737652778625 0.20479847490787506
0.14462617039680481 0.16838060319423676 0.20634399354457855
0.23238980770111084 0.15763801336288452 0.20444312691688538
0.32613831758499146 0.13675962388515472 0.20213750004768372
0.43334323167800903 0.09306875616312027 0.19911523163318634
0.54233455657958984 0.036348395049571991 0.19530054926872253
0.64598840475082397 0.0088566197082400322 0.19461695849895477
0.74326664209365845 0.0064675426110625267 0.18922612071037292
0.83333694934844971 0.0048268185928463936 0.18130481243133545
0.91440021991729736 0.0040978672914206982 0.17182226479053497
0.97593933343887329 0.0048538953997194767 0.16305628418922424
0.0040164124220609665 0.19876447319984436 0.21222573518753052
0.008636893704533577 0.19833314418792725 0.20887894928455353
0.064847491681575775 0.1990085244178772 0.20915798842906952
0.15822812914848328 0.19768233597278595 0.21146440505981445
0.25678399205207825 0.1883566826581955 0.2109563946723938
0.36282715201377869 0.17604146897792816 0.20737716555595398
0.47560188174247742 0.13964806497097015 0.20263859629631042
0.5824088454246521 0.087409853935241699 0.19673007726669312
0.67807340621948242 0.036249753087759018 0.19064927101135254
0.77045530080795288 0.014617994427680969 0.18508531153202057
0.85796868801116943 0.006935792975127697 0.17820394039154053
0.93320488929748535 0.0073326709680259228 0.17059631645679474
0.98443925380706787 0.0070899366401135921 0.16239020228385925
0.0039324592798948288 0.24603331089019775 0.21634328365325928
0.0058219460770487785 0.24674375355243683 0.21453671157360077
0.061240192502737045 0.24871574342250824 0.21489602327346802
0.17564444243907928 0.25174245238304138 0.21879245340824127
0.28999489545822144 0.25090712308883667 0.2193891853094101
0.41032367944717407 0.25234824419021606 0.21650116145610809
0.53347182273864746 0.24032507836818695 0.21493928134441376
0.63495540618896484 0.20888930559158325 0.20969356596469879
0.72317266464233398 0.17213638126850128 0.19853213429450989
0.8062857985496521 0.13245823979377747 0.18623995780944824
0.88562071323394775 0.09200827032327652 0.17840161919593811
0.95304346084594727 0.065138183534145355 0.1700294017791748
0.994037926197052 0.047232609242200851 0.16021436452865601
0.0039215688593685627 0.32367351651191711 0.21787413954734802
