luts/instant_pro/polaroid_669_+++.cube
# Created by: G'MIC (https://gmic.eu)
TITLE "polaroid_669_+++"
# LUT size
LUT_3D_SIZE 13
# Data domain
DOMAIN_MIN 0.0 0.0 0.0
DOMAIN_MAX 1.0 1.0 1.0
# LUT data points
0.31850564479827881 0.23420290648937225 0.1877693235874176
0.32324552536010742 0.23464922606945038 0.18804313242435455
0.33205410838127136 0.23648113012313843 0.19073574244976044
0.34868717193603516 0.23921152949333191 0.19533760845661163
0.37738379836082458 0.24091711640357971 0.19974222779273987
0.41833633184432983 0.24194619059562683 0.2041177898645401
0.46792548894882202 0.24270199239253998 0.20970733463764191
0.52347332239151001 0.24283383786678314 0.21647965908050537
0.58387798070907593 0.24398143589496613 0.22444450855255127
0.64914447069168091 0.24655769765377045 0.23424951732158661
0.718974769115448 0.25128772854804993 0.2471594363451004
0.7918134331703186 0.25842759013175964 0.26400715112686157
0.86462539434432983 0.2705991268157959 0.28703004121780396
0.32329064607620239 0.2479274570941925 0.18813160061836243
0.32926347851753235 0.24924540519714355 0.18933558464050293
0.33977645635604858 0.25181359052658081 0.19264896214008331
0.35838472843170166 0.25494286417961121 0.19764812290668488
0.38808992505073547 0.25826302170753479 0.20330289006233215
0.42904829978942871 0.25930348038673401 0.20973746478557587
0.47859501838684082 0.26150134205818176 0.21691974997520447
0.53378957509994507 0.2613053023815155 0.22416582703590393
0.59296900033950806 0.2602996826171875 0.23122519254684448
0.65646743774414062 0.26165354251861572 0.23962484300136566
0.72516971826553345 0.26525962352752686 0.2513725757598877
0.79665833711624146 0.27367761731147766 0.26814410090446472
0.86709439754486084 0.28737923502922058 0.29119002819061279
0.32972866296768188 0.26641193032264709 0.19265033304691315
0.33717072010040283 0.26846978068351746 0.19450320303440094
0.34994718432426453 0.27148294448852539 0.19808435440063477
0.37061995267868042 0.27511045336723328 0.20304647088050842
0.40165364742279053 0.27902108430862427 0.20979717373847961
0.44327592849731445 0.2828790545463562 0.21791480481624603
0.49319332838058472 0.28546220064163208 0.22763723134994507
0.54871314764022827 0.28628373146057129 0.2363162636756897
0.60724252462387085 0.28508910536766052 0.24345012009143829
0.66929107904434204 0.28469797968864441 0.25096592307090759
0.73617523908615112 0.28872144222259521 0.26164969801902771
0.8043169379234314 0.29715007543563843 0.27714413404464722
0.87145352363586426 0.31206580996513367 0.29996326565742493
0.33791983127593994 0.29176798462867737 0.20291653275489807
0.34675982594490051 0.2936689555644989 0.20468097925186157
0.36072894930839539 0.29638707637786865 0.20743665099143982
0.38226577639579773 0.29988762736320496 0.21157661080360413
0.41398516297340393 0.30433312058448792 0.21764780580997467
0.45610851049423218 0.30984356999397278 0.22693032026290894
0.5073121190071106 0.31529122591018677 0.23869070410728455
0.56462717056274414 0.31909593939781189 0.25013431906700134
0.62571907043457031 0.32099717855453491 0.26040822267532349
0.6892428994178772 0.32320764660835266 0.2701570987701416
0.7536885142326355 0.32736027240753174 0.28066042065620422
0.81707406044006348 0.33402913808822632 0.29419669508934021
0.87831771373748779 0.34758523106575012 0.31531700491905212
0.34757816791534424 0.32453250885009766 0.21819637715816498
0.35696437954902649 0.32547855377197266 0.21912491321563721
0.37070736289024353 0.3269965648651123 0.22039009630680084
0.39183241128921509 0.32936447858810425 0.22205628454685211
0.42253285646438599 0.3334190845489502 0.2258637547492981
0.46362286806106567 0.33966937661170959 0.23345871269702911
0.51484066247940063 0.34753566980361938 0.24539043009281158
0.57461625337600708 0.35584938526153564 0.25995531678199768
0.64159691333770752 0.36538022756576538 0.27721068263053894
0.71147876977920532 0.37507331371307373 0.29493683576583862
0.7742493748664856 0.38082194328308105 0.30817303061485291
0.83198702335357666 0.38622161746025085 0.32142800092697144
0.88763493299484253 0.39802852272987366 0.34230771660804749
0.35761615633964539 0.36365130543708801 0.23787620663642883
0.36664572358131409 0.36318260431289673 0.23769591748714447
0.37953072786331177 0.36295399069786072 0.23606698215007782
0.39862960577011108 0.36351421475410461 0.23486299812793732
0.42659309506416321 0.36673244833946228 0.23528751730918884
0.46466740965843201 0.37263524532318115 0.23951669037342072
0.5132935643196106 0.38097959756851196 0.24797345697879791
0.57242780923843384 0.39185062050819397 0.26201516389846802
0.64333701133728027 0.40744078159332275 0.28416597843170166
0.72025257349014282 0.42649433016777039 0.31208434700965881
0.78624218702316284 0.43882453441619873 0.33358514308929443
0.84337711334228516 0.44902098178863525 0.35441488027572632
0.89754343032836914 0.46537059545516968 0.38281217217445374
0.36687824130058289 0.40798506140708923 0.25831112265586853
0.37516084313392639 0.40585541725158691 0.2569955587387085
0.38635721802711487 0.40406849980354309 0.25352829694747925
0.40303692221641541 0.40359339118003845 0.25007423758506775
0.42831376194953918 0.40601316094398499 0.24906867742538452
0.46304547786712646 0.41130879521369934 0.25019210577011108
0.50671952962875366 0.41886374354362488 0.25410035252571106
0.56072157621383667 0.42818644642829895 0.26191255450248718
0.6282346248626709 0.44387811422348022 0.27972674369812012
0.70665615797042847 0.46658870577812195 0.3098236620426178
0.77945083379745483 0.48810166120529175 0.34168890118598938
0.84342139959335327 0.50977271795272827 0.37792932987213135
0.90194940567016602 0.53631329536437988 0.42162734270095825
0.37334582209587097 0.45801776647567749 0.27901557087898254
0.38092038035392761 0.45480471849441528 0.27625212073326111
0.39074882864952087 0.45233026146888733 0.27206236124038696
0.40654376149177551 0.45121413469314575 0.26830032467842102
0.42882466316223145 0.45301291346549988 0.26796844601631165
0.46099412441253662 0.45793715119361877 0.26819851994514465
0.50168472528457642 0.46518799662590027 0.26829493045806885
0.5513005256652832 0.47351568937301636 0.26980745792388916
0.61388117074966431 0.48705348372459412 0.28003469109535217
0.68812870979309082 0.50732624530792236 0.3023645281791687
0.76228553056716919 0.53008460998535156 0.33338794112205505
0.83173352479934692 0.55875951051712036 0.37833091616630554
0.8964044451713562 0.59594202041625977 0.43813318014144897
0.37515762448310852 0.51706624031066895 0.29674890637397766
0.38321730494499207 0.51334446668624878 0.2954651415348053
0.39277845621109009 0.51019608974456787 0.29125946760177612
0.40686628222465515 0.50814396142959595 0.28715631365776062
0.42890244722366333 0.50896918773651123 0.28703156113624573
0.46106177568435669 0.5134584903717041 0.28899720311164856
0.50095945596694946 0.52082496881484985 0.28917601704597473
0.54835551977157593 0.53074121475219727 0.28743478655815125
0.60776007175445557 0.54431241750717163 0.29134240746498108
0.67628109455108643 0.55922508239746094 0.3026149570941925
0.74568486213684082 0.57339948415756226 0.31791812181472778
0.81489396095275879 0.59756839275360107 0.35540467500686646
0.88314759731292725 0.63949638605117798 0.42329192161560059
0.37283119559288025 0.58857548236846924 0.31460553407669067
0.38353246450424194 0.58449935913085938 0.31692600250244141
0.39277505874633789 0.58027380704879761 0.31221958994865417
0.40576609969139099 0.57668864727020264 0.30532801151275635
0.42841160297393799 0.57511818408966064 0.30513942241668701
0.46296876668930054 0.57803970575332642 0.31112551689147949
0.5023840069770813 0.58545935153961182 0.31199461221694946
0.5485454797744751 0.5976443886756897 0.30659118294715881
0.60611909627914429 0.61279773712158203 0.30842506885528564
0.67243915796279907 0.6264159083366394 0.31517684459686279
0.73708605766296387 0.63144111633300781 0.31357613205909729
0.80209428071975708 0.64464539289474487 0.33205440640449524
0.86920452117919922 0.68230217695236206 0.39645776152610779
0.37354108691215515 0.67138290405273438 0.33779889345169067
0.38518354296684265 0.66807591915130615 0.34175938367843628
0.39437371492385864 0.66362690925598145 0.33665627241134644
0.40700629353523254 0.65838414430618286 0.32898649573326111
0.43017691373825073 0.65446740388870239 0.32769021391868591
0.46343401074409485 0.65385442972183228 0.33059471845626831
0.50385713577270508 0.66032040119171143 0.3317510187625885
0.55162227153778076 0.67321121692657471 0.32962825894355774
0.60868924856185913 0.68901330232620239 0.33097630739212036
0.67297321557998657 0.70301198959350586 0.33644631505012512
0.73809850215911865 0.71079337596893311 0.33684399724006653
0.80060821771621704 0.72059357166290283 0.34563642740249634
0.85884559154510498 0.74355244636535645 0.38396307826042175
0.39481884241104126 0.7631218433380127 0.38490936160087585
0.40416833758354187 0.76200872659683228 0.38690623641014099
0.41266775131225586 0.75825071334838867 0.38184189796447754
0.42756691575050354 0.75358664989471436 0.37747287750244141
0.45264145731925964 0.74872773885726929 0.37834465503692627
0.48147547245025635 0.74514138698577881 0.37500765919685364
0.52122277021408081 0.74904674291610718 0.37678515911102295
0.57068383693695068 0.76044708490371704 0.38165861368179321
0.6253516674041748 0.77414387464523315 0.3841366171836853
0.68610233068466187 0.78832793235778809 0.39248904585838318
0.74998342990875244 0.80158448219299316 0.40328961610794067
0.8089415431022644 0.8148806095123291 0.41294485330581665
0.85724300146102905 0.82560592889785767 0.42674288153648376
0.46222695708274841 0.86230146884918213 0.48232546448707581
0.46650320291519165 0.8618965744972229 0.47990179061889648
0.4768577516078949 0.86076498031616211 0.47924542427062988
0.49292707443237305 0.85855597257614136 0.47991305589675903
0.51470303535461426 0.85651671886444092 0.48167848587036133
0.54129010438919067 0.8553922176361084 0.48165696859359741
0.57482731342315674 0.85484564304351807 0.48089215159416199
0.61895352602005005 0.86041432619094849 0.48696953058242798
0.66903501749038696 0.87017321586608887 0.49494311213493347
0.72269511222839355 0.88170117139816284 0.50546729564666748
0.77810710668563843 0.89360916614532471 0.52089917659759521
0.82980382442474365 0.9039044976234436 0.53751504421234131
0.87585043907165527 0.91136759519577026 0.55679184198379517
0.31436803936958313 0.22955323755741119 0.20078539848327637
0.32007673382759094 0.23073349893093109 0.20159065723419189
0.32996639609336853 0.23321631550788879 0.20471103489398956
0.34772828221321106 0.2364611029624939 0.20942386984825134
0.37679645419120789 0.23929546773433685 0.21492713689804077
0.41739487648010254 0.24180033802986145 0.22168554365634918
0.46717983484268188 0.24329572916030884 0.22936932742595673
0.52314776182174683 0.2443443238735199 0.23747497797012329
0.58366292715072632 0.24605679512023926 0.24552908539772034
0.64831399917602539 0.24993510544300079 0.25500437617301941
0.7175171971321106 0.25490093231201172 0.26727700233459473
0.78957873582839966 0.26132956147193909 0.28333812952041626
0.86101770401000977 0.27379724383354187 0.30622050166130066
0.32025802135467529 0.2435556948184967 0.20262567698955536
0.32674914598464966 0.24588459730148315 0.20435430109500885
0.33816272020339966 0.24929122626781464 0.20810168981552124
0.35767874121665955 0.25333663821220398 0.21371832489967346
0.38800010085105896 0.25742989778518677 0.22048307955265045
0.42953377962112427 0.26059374213218689 0.22894613444805145
0.47948142886161804 0.26258587837219238 0.23782496154308319
0.53498965501785278 0.26251280307769775 0.24560049176216125
0.59383165836334229 0.26231759786605835 0.25174930691719055
0.65707027912139893 0.26273003220558167 0.2590239942073822
0.7252010703086853 0.26672583818435669 0.27011701464653015
0.79609984159469604 0.27532368898391724 0.28728955984115601
0.86624103784561157 0.28994667530059814 0.31090602278709412
0.32744419574737549 0.26344496011734009 0.2095838189125061
0.33558940887451172 0.26676195859909058 0.2121942937374115
0.3487449586391449 0.2710317075252533 0.21672023832798004
0.37067347764968872 0.27554541826248169 0.22277207672595978
0.40285712480545044 0.2804100513458252 0.2305004894733429
0.44567817449569702 0.28518611192703247 0.24061578512191772
0.49665844440460205 0.28853580355644226 0.25146344304084778
0.55186754465103149 0.28847160935401917 0.25947284698486328
0.60951513051986694 0.28586855530738831 0.26405704021453857
0.67099899053573608 0.28459131717681885 0.26924353837966919
0.73712444305419922 0.28886935114860535 0.27917248010635376
0.80550152063369751 0.29825648665428162 0.29596740007400513
0.87229186296463013 0.31454569101333618 0.31980651617050171
0.33624368906021118 0.29152962565422058 0.22275432944297791
0.34556341171264648 0.29530569911003113 0.22601562738418579
0.3604360818862915 0.29909667372703552 0.23006990551948547
0.38325285911560059 0.30303457379341125 0.23476719856262207
0.41643783450126648 0.30802947282791138 0.24133345484733582
0.46050599217414856 0.31443518400192261 0.25209471583366394
0.51371157169342041 0.32085594534873962 0.26588594913482666
0.57052254676818848 0.32342991232872009 0.27628698945045471
0.6290174126625061 0.32250013947486877 0.28153124451637268
0.68988144397735596 0.32203400135040283 0.28684872388839722
0.75407475233078003 0.32629558444023132 0.29656204581260681
0.81834334135055542 0.33516097068786621 0.31235161423683167
0.88011538982391357 0.35076019167900085 0.33521375060081482
0.34704527258872986 0.32900157570838928 0.24234025180339813
0.35662984848022461 0.33164557814598083 0.24483907222747803
0.37098255753517151 0.33371007442474365 0.24643312394618988
0.39318406581878662 0.33516556024551392 0.24727930128574371
0.42511913180351257 0.33883383870124817 0.25037145614624023
0.46843358874320984 0.34570056200027466 0.25802192091941833
0.52224266529083252 0.35510069131851196 0.27208217978477478
0.58226662874221802 0.36275124549865723 0.28683280944824219
0.64530855417251587 0.36815124750137329 0.29882514476776123
0.70996236801147461 0.37370216846466064 0.31027370691299438
0.77392542362213135 0.38013169169425964 0.32340550422668457
0.83435863256454468 0.38826662302017212 0.33949601650238037
0.89013528823852539 0.40216830372810364 0.36130204796791077
0.35851716995239258 0.37307292222976685 0.26503881812095642
0.36754709482192993 0.37354043126106262 0.26541778445243835
0.3803609311580658 0.37230348587036133 0.26352778077125549
0.39982563257217407 0.37138020992279053 0.26042661070823669
0.42873543500900269 0.37320059537887573 0.2587222158908844
0.4682709276676178 0.37938520312309265 0.26117247343063354
0.51943767070770264 0.38915196061134338 0.27088713645935059
0.58033072948455811 0.40054023265838623 0.28706586360931396
0.64929729700088501 0.4138215184211731 0.30766132473945618
0.72152197360992432 0.42909955978393555 0.33101925253868103
0.78871691226959229 0.44250813126564026 0.35310852527618408
0.84722024202346802 0.45366677641868591 0.37355890870094299
0.89968210458755493 0.46858444809913635 0.39946433901786804
0.3687099814414978 0.42036619782447815 0.28637263178825378
0.3769385814666748 0.41835343837738037 0.28495901823043823
0.38767030835151672 0.41476261615753174 0.28058251738548279
0.40438699722290039 0.41217026114463806 0.27511599659919739
0.42964532971382141 0.41336408257484436 0.27148923277854919
0.46518644690513611 0.41957151889801025 0.27160468697547913
0.51206034421920776 0.42913368344306946 0.27683261036872864
0.56946313381195068 0.4396299421787262 0.28724783658981323
0.63804882764816284 0.45443561673164368 0.30601787567138672
0.71382087469100952 0.47507119178771973 0.33408358693122864
0.78627389669418335 0.49673959612846375 0.36623296141624451
0.84887248277664185 0.51766812801361084 0.399995356798172
0.90342867374420166 0.54053473472595215 0.4382379949092865
0.37502315640449524 0.47067540884017944 0.30437719821929932
0.38259366154670715 0.4666866660118103 0.30194768309593201
0.39226046204566956 0.46223026514053345 0.2967413067817688
0.40701460838317871 0.45943015813827515 0.2915194034576416
0.4304412305355072 0.46103730797767639 0.2890784740447998
0.46333906054496765 0.4677174985408783 0.28965067863464355
0.50569957494735718 0.47702187299728394 0.29200917482376099
0.55842781066894531 0.48569437861442566 0.29426419734954834
0.62249350547790527 0.49738392233848572 0.30384206771850586
0.6950644850730896 0.51505821943283081 0.32407927513122559
0.7680475115776062 0.53742086887359619 0.35480329394340515
0.83615905046463013 0.56586688756942749 0.39968544244766235
0.89706814289093018 0.60058194398880005 0.45567613840103149
0.37614378333091736 0.52720046043395996 0.31868660449981689
0.38350841403007507 0.52200686931610107 0.31645223498344421
0.39351961016654968 0.51750421524047852 0.3122103214263916
0.40851569175720215 0.51509219408035278 0.30819699168205261
0.43085819482803345 0.51642704010009766 0.30726936459541321
0.46188583970069885 0.52238327264785767 0.30818784236907959
0.50217336416244507 0.53136545419692993 0.30849131941795349
0.55175149440765381 0.54054147005081177 0.30684190988540649
0.61185115575790405 0.55120956897735596 0.30892166495323181
0.6788794994354248 0.56209450960159302 0.31621918082237244
0.74788248538970947 0.57593512535095215 0.33227658271789551
0.81745857000350952 0.60220479965209961 0.37309592962265015
0.88305914402008057 0.6420363187789917 0.43913084268569946
0.37399107217788696 0.59491592645645142 0.33227095007896423
0.3822670578956604 0.58956778049468994 0.3317103385925293
0.39315140247344971 0.58490800857543945 0.32889470458030701
0.40855270624160767 0.58146560192108154 0.32480376958847046
0.43011960387229919 0.58125299215316772 0.32325407862663269
0.46028122305870056 0.58521914482116699 0.32493221759796143
0.49971774220466614 0.59371048212051392 0.32401403784751892
0.54800659418106079 0.60479503870010376 0.32052356004714966
0.6069754958152771 0.61727821826934814 0.32094079256057739
0.67210835218429565 0.62674933671951294 0.3228803277015686
0.73785132169723511 0.63200086355209351 0.32371854782104492
0.80365747213363647 0.64601773023605347 0.34474608302116394
0.86779606342315674 0.67968964576721191 0.40315604209899902
0.37647399306297302 0.6750636100769043 0.35434162616729736
0.38399633765220642 0.67117130756378174 0.35400545597076416
0.39494723081588745 0.66659450531005859 0.35181516408920288
0.41086855530738831 0.66184556484222412 0.34791052341461182
0.43268746137619019 0.65895253419876099 0.34513565897941589
0.46181535720825195 0.65969693660736084 0.34386560320854187
0.50093221664428711 0.66618770360946655 0.34229615330696106
0.55004280805587769 0.67858636379241943 0.34091880917549133
0.60868263244628906 0.69316607713699341 0.34204894304275513
0.67323261499404907 0.70471477508544922 0.34516102075576782
0.73861396312713623 0.7110363245010376 0.34492877125740051
0.80055350065231323 0.71732670068740845 0.35053578019142151
0.85657739639282227 0.73640298843383789 0.38478943705558777
0.40006691217422485 0.76622915267944336 0.40215441584587097
0.4041503369808197 0.76454222202301025 0.39972361922264099
0.41487118601799011 0.76128238439559937 0.39829999208450317
0.43231657147407532 0.7561875581741333 0.39687800407409668
0.45497313141822815 0.75180542469024658 0.39474770426750183
0.48239356279373169 0.74965506792068481 0.39057552814483643
0.5201038122177124 0.75340050458908081 0.38886833190917969
0.56945526599884033 0.764151930809021 0.39200714230537415
0.62645792961120605 0.77812975645065308 0.39615407586097717
0.68741720914840698 0.79125034809112549 0.40322697162628174
0.7494162917137146 0.80180668830871582 0.40990439057350159
0.80706161260604858 0.80985575914382935 0.41620689630508423
0.85632646083831787 0.81818526983261108 0.43159869313240051
0.46285256743431091 0.86334633827209473 0.49253490567207336
0.46503570675849915 0.86359816789627075 0.48947781324386597
0.47578451037406921 0.86264806985855103 0.48978114128112793
0.49373814463615417 0.85974222421646118 0.49188300967216492
0.51363354921340942 0.85670030117034912 0.49131259322166443
0.53862792253494263 0.85474121570587158 0.48904752731323242
0.5726625919342041 0.85555976629257202 0.48913970589637756
0.61855334043502808 0.86245203018188477 0.49731510877609253
0.67130941152572632 0.8733590841293335 0.50937014818191528
0.7237553596496582 0.88435202836990356 0.51749634742736816
0.77725481986999512 0.89455950260162354 0.52858477830886841
0.82891666889190674 0.90230494737625122 0.54401099681854248
0.87693482637405396 0.90937894582748413 0.56618916988372803
0.31138321757316589 0.22721664607524872 0.22095566987991333
0.31836944818496704 0.22852227091789246 0.2221221923828125
0.3294985294342041 0.2310698926448822 0.22589090466499329
0.3488253653049469 0.23463302850723267 0.23115247488021851
0.37830114364624023 0.23864579200744629 0.23777575790882111
0.41910022497177124 0.24245259165763855 0.24662595987319946
0.46972289681434631 0.24562793970108032 0.25772452354431152
0.52689820528030396 0.24751460552215576 0.26806437969207764
0.5878596305847168 0.24826808273792267 0.27576783299446106
0.65195709466934204 0.24997329711914062 0.28280782699584961
0.71990633010864258 0.25353837013244629 0.2930944561958313
0.79058068990707397 0.26064252853393555 0.30880597233772278
0.86031323671340942 0.27568838000297546 0.33186420798301697
0.31808292865753174 0.24211087822914124 0.22481082379817963
0.32547622919082642 0.24405428767204285 0.22692619264125824
0.33787545561790466 0.24809347093105316 0.23160085082054138
0.35866504907608032 0.2526887059211731 0.23804400861263275
0.38999086618423462 0.25762483477592468 0.24577264487743378
0.43186452984809875 0.26202166080474854 0.25570160150527954
0.48250758647918701 0.26471969485282898 0.26701781153678894
0.53847712278366089 0.26477372646331787 0.27596548199653625
0.59790903329849243 0.2628217339515686 0.28147384524345398
0.66101694107055664 0.26258465647697449 0.28660798072814941
0.72855991125106812 0.26542609930038452 0.2965361475944519
0.79881268739700317 0.27486690878868103 0.31374058127403259
0.86778861284255981 0.2907140851020813 0.33819374442100525
0.32568255066871643 0.26323169469833374 0.23480311036109924
0.33412706851959229 0.2673981785774231 0.23904156684875488
0.34852653741836548 0.27247458696365356 0.24471916258335114
0.37191674113273621 0.27762231230735779 0.25185105204582214
0.40569183230400085 0.2831023633480072 0.26059809327125549
0.44951966404914856 0.28816935420036316 0.27157014608383179
0.50093454122543335 0.29116350412368774 0.28294792771339417
0.55558305978775024 0.2898317277431488 0.29027333855628967
0.61219644546508789 0.28549039363861084 0.29246345162391663
0.67377018928527832 0.28381255269050598 0.29604378342628479
0.74021691083908081 0.28776106238365173 0.30584964156150818
0.80871856212615967 0.29921853542327881 0.32359936833381653
0.87512373924255371 0.31739634275436401 0.34872093796730042
0.33481115102767944 0.2947482168674469 0.252267986536026
0.34451904892921448 0.30066344141960144 0.25812023878097534
0.36042121052742004 0.30522418022155762 0.26334065198898315
0.38514414429664612 0.30909997224807739 0.26895928382873535
0.42033737897872925 0.31384792923927307 0.27606415748596191
0.46590554714202881 0.31959694623947144 0.28643307089805603
0.51948493719100952 0.325501948595047 0.30020591616630554
0.57520347833633423 0.32599145174026489 0.30857142806053162
0.63047975301742554 0.32170507311820984 0.30997779965400696
0.69059056043624878 0.32052591443061829 0.31325462460517883
0.75549232959747314 0.32544413208961487 0.32308283448219299
0.82065612077713013 0.33697855472564697 0.34006419777870178
0.88252085447311401 0.35505121946334839 0.36333394050598145
0.34619370102882385 0.33833229541778564 0.27705329656600952
0.35598662495613098 0.34354570508003235 0.28187116980552673
0.37171521782875061 0.34473195672035217 0.28428667783737183
0.39537414908409119 0.3448995053768158 0.2847859263420105
0.42911422252655029 0.34759780764579773 0.28675362467765808
0.47376516461372375 0.35302707552909851 0.29216152429580688
0.5293164849281311 0.36182489991188049 0.3057934045791626
0.58923250436782837 0.36859080195426941 0.32177993655204773
0.64867299795150757 0.37099578976631165 0.33087754249572754
