luts/instant_pro/polaroid_665_++.cube
# Created by: G'MIC (https://gmic.eu)
TITLE "polaroid_665_++"
# LUT size
LUT_3D_SIZE 13
# Data domain
DOMAIN_MIN 0.0 0.0 0.0
DOMAIN_MAX 1.0 1.0 1.0
# LUT data points
0.13520921766757965 0.13520921766757965 0.13520921766757965
0.13348987698554993 0.13348987698554993 0.13348987698554993
0.1349528580904007 0.1349528580904007 0.1349528580904007
0.14113797247409821 0.14113797247409821 0.14113797247409821
0.15295390784740448 0.15295390784740448 0.15295390784740448
0.17049881815910339 0.17049881815910339 0.17049881815910339
0.19302564859390259 0.19302564859390259 0.19302564859390259
0.21942499279975891 0.21942499279975891 0.21942499279975891
0.24933959543704987 0.24933959543704987 0.24933959543704987
0.28463965654373169 0.28463965654373169 0.28463965654373169
0.33111366629600525 0.33111366629600525 0.33111366629600525
0.39149484038352966 0.39149484038352966 0.39149484038352966
0.46186283230781555 0.46186283230781555 0.46186283230781555
0.14113208651542664 0.14113208651542664 0.14113208651542664
0.14183582365512848 0.14183582365512848 0.14183582365512848
0.14575420320034027 0.14575420320034027 0.14575420320034027
0.15400449931621552 0.15400449931621552 0.15400449931621552
0.16712458431720734 0.16712458431720734 0.16712458431720734
0.18566638231277466 0.18566638231277466 0.18566638231277466
0.20895510911941528 0.20895510911941528 0.20895510911941528
0.2353663295507431 0.2353663295507431 0.2353663295507431
0.26414898037910461 0.26414898037910461 0.26414898037910461
0.2981112003326416 0.2981112003326416 0.2981112003326416
0.34234464168548584 0.34234464168548584 0.34234464168548584
0.40089133381843567 0.40089133381843567 0.40089133381843567
0.47098326683044434 0.47098326683044434 0.47098326683044434
0.15233640372753143 0.15233640372753143 0.15233640372753143
0.1556563526391983 0.1556563526391983 0.1556563526391983
0.16222567856311798 0.16222567856311798 0.16222567856311798
0.17215624451637268 0.17215624451637268 0.17215624451637268
0.18625836074352264 0.18625836074352264 0.18625836074352264
0.20533396303653717 0.20533396303653717 0.20533396303653717
0.22909943759441376 0.22909943759441376 0.22909943759441376
0.25627848505973816 0.25627848505973816 0.25627848505973816
0.28523319959640503 0.28523319959640503 0.28523319959640503
0.31859311461448669 0.31859311461448669 0.31859311461448669
0.36139172315597534 0.36139172315597534 0.36139172315597534
0.4177488386631012 0.4177488386631012 0.4177488386631012
0.48761063814163208 0.48761063814163208 0.48761063814163208
0.1723407506942749 0.1723407506942749 0.1723407506942749
0.17762865126132965 0.17762865126132965 0.17762865126132965
0.18599997460842133 0.18599997460842133 0.18599997460842133
0.19653154909610748 0.19653154909610748 0.19653154909610748
0.21021303534507751 0.21021303534507751 0.21021303534507751
0.22822269797325134 0.22822269797325134 0.22822269797325134
0.25190138816833496 0.25190138816833496 0.25190138816833496
0.28010833263397217 0.28010833263397217 0.28010833263397217
0.30975174903869629 0.30975174903869629 0.30975174903869629
0.34301847219467163 0.34301847219467163 0.34301847219467163
0.38639813661575317 0.38639813661575317 0.38639813661575317
0.44277936220169067 0.44277936220169067 0.44277936220169067
0.5139305591583252 0.5139305591583252 0.5139305591583252
0.20313830673694611 0.20313830673694611 0.20313830673694611
0.20994779467582703 0.20994779467582703 0.20994779467582703
0.21877449750900269 0.21877449750900269 0.21877449750900269
0.22862875461578369 0.22862875461578369 0.22862875461578369
0.23986224830150604 0.23986224830150604 0.23986224830150604
0.25453838706016541 0.25453838706016541 0.25453838706016541
0.27515164017677307 0.27515164017677307 0.27515164017677307
0.3025352954864502 0.3025352954864502 0.3025352954864502
0.33291411399841309 0.33291411399841309 0.33291411399841309
0.36836338043212891 0.36836338043212891 0.36836338043212891
0.41632407903671265 0.41632407903671265 0.41632407903671265
0.47843310236930847 0.47843310236930847 0.47843310236930847
0.55446535348892212 0.55446535348892212 0.55446535348892212
0.2454511821269989 0.2454511821269989 0.2454511821269989
0.25341951847076416 0.25341951847076416 0.25341951847076416
0.26209130883216858 0.26209130883216858 0.26209130883216858
0.27012893557548523 0.27012893557548523 0.27012893557548523
0.27761799097061157 0.27761799097061157 0.27761799097061157
0.28652846813201904 0.28652846813201904 0.28652846813201904
0.30054822564125061 0.30054822564125061 0.30054822564125061
0.32213649153709412 0.32213649153709412 0.32213649153709412
0.35139042139053345 0.35139042139053345 0.35139042139053345
0.39161542057991028 0.39161542057991028 0.39161542057991028
0.44868224859237671 0.44868224859237671 0.44868224859237671
0.52267658710479736 0.52267658710479736 0.52267658710479736
0.6073424220085144 0.6073424220085144 0.6073424220085144
0.29798248410224915 0.29798248410224915 0.29798248410224915
0.3069109320640564 0.3069109320640564 0.3069109320640564
0.31615185737609863 0.31615185737609863 0.31615185737609863
0.32298272848129272 0.32298272848129272 0.32298272848129272
0.32729640603065491 0.32729640603065491 0.32729640603065491
0.33044007420539856 0.33044007420539856 0.33044007420539856
0.33650451898574829 0.33650451898574829 0.33650451898574829
0.349466472864151 0.349466472864151 0.349466472864151
0.37360692024230957 0.37360692024230957 0.37360692024230957
0.41432380676269531 0.41432380676269531 0.41432380676269531
0.47847399115562439 0.47847399115562439 0.47847399115562439
0.56430506706237793 0.56430506706237793 0.56430506706237793
0.65944588184356689 0.65944588184356689 0.65944588184356689
0.36121320724487305 0.36121320724487305 0.36121320724487305
0.37153193354606628 0.37153193354606628 0.37153193354606628
0.38216212391853333 0.38216212391853333 0.38216212391853333
0.38924685120582581 0.38924685120582581 0.38924685120582581
0.39187467098236084 0.39187467098236084 0.39187467098236084
0.39199519157409668 0.39199519157409668 0.39199519157409668
0.3920167088508606 0.3920167088508606 0.3920167088508606
0.39668872952461243 0.39668872952461243 0.39668872952461243
0.410483717918396 0.410483717918396 0.410483717918396
0.44318443536758423 0.44318443536758423 0.44318443536758423
0.50562620162963867 0.50562620162963867 0.50562620162963867
0.59524726867675781 0.59524726867675781 0.59524726867675781
0.69518733024597168 0.69518733024597168 0.69518733024597168
0.43941026926040649 0.43941026926040649 0.43941026926040649
0.45061659812927246 0.45061659812927246 0.45061659812927246
0.46216133236885071 0.46216133236885071 0.46216133236885071
0.46975228190422058 0.46975228190422058 0.46975228190422058
0.47267043590545654 0.47267043590545654 0.47267043590545654
0.4724433422088623 0.4724433422088623 0.4724433422088623
0.47065591812133789 0.47065591812133789 0.47065591812133789
0.47013527154922485 0.47013527154922485 0.47013527154922485
0.47454056143760681 0.47454056143760681 0.47454056143760681
0.49304434657096863 0.49304434657096863 0.49304434657096863
0.5436977744102478 0.5436977744102478 0.5436977744102478
0.62235075235366821 0.62235075235366821 0.62235075235366821
0.71406209468841553 0.71406209468841553 0.71406209468841553
0.53734749555587769 0.53734749555587769 0.53734749555587769
0.54643046855926514 0.54643046855926514 0.54643046855926514
0.55639147758483887 0.55639147758483887 0.55639147758483887
0.56354218721389771 0.56354218721389771 0.56354218721389771
0.56736373901367188 0.56736373901367188 0.56736373901367188
0.5689125657081604 0.5689125657081604 0.5689125657081604
0.56944245100021362 0.56944245100021362 0.56944245100021362
0.57053500413894653 0.57053500413894653 0.57053500413894653
0.57386571168899536 0.57386571168899536 0.57386571168899536
0.58524197340011597 0.58524197340011597 0.58524197340011597
0.6128804087638855 0.6128804087638855 0.6128804087638855
0.6644713282585144 0.6644713282585144 0.6644713282585144
0.73840451240539551 0.73840451240539551 0.73840451240539551
0.64898306131362915 0.64898306131362915 0.64898306131362915
0.654804527759552 0.654804527759552 0.654804527759552
0.66098892688751221 0.66098892688751221 0.66098892688751221
0.66629016399383545 0.66629016399383545 0.66629016399383545
0.6707647442817688 0.6707647442817688 0.6707647442817688
0.67537420988082886 0.67537420988082886 0.67537420988082886
0.68059271574020386 0.68059271574020386 0.68059271574020386
0.68756473064422607 0.68756473064422607 0.68756473064422607
0.69631046056747437 0.69631046056747437 0.69631046056747437
0.70695072412490845 0.70695072412490845 0.70695072412490845
0.71419495344161987 0.71419495344161987 0.71419495344161987
0.73306804895401001 0.73306804895401001 0.73306804895401001
0.78286653757095337 0.78286653757095337 0.78286653757095337
0.7650458812713623 0.7650458812713623 0.7650458812713623
0.76738357543945312 0.76738357543945312 0.76738357543945312
0.76920557022094727 0.76920557022094727 0.76920557022094727
0.77189737558364868 0.77189737558364868 0.77189737558364868
0.77611804008483887 0.77611804008483887 0.77611804008483887
0.78295165300369263 0.78295165300369263 0.78295165300369263
0.79280102252960205 0.79280102252960205 0.79280102252960205
0.80464780330657959 0.80464780330657959 0.80464780330657959
0.81590265035629272 0.81590265035629272 0.81590265035629272
0.82383996248245239 0.82383996248245239 0.82383996248245239
0.8211861252784729 0.8211861252784729 0.8211861252784729
0.82219856977462769 0.82219856977462769 0.82219856977462769
0.84774678945541382 0.84774678945541382 0.84774678945541382
0.87679892778396606 0.87679892778396606 0.87679892778396606
0.87599688768386841 0.87599688768386841 0.87599688768386841
0.87447363138198853 0.87447363138198853 0.87447363138198853
0.87446773052215576 0.87446773052215576 0.87446773052215576
0.87785845994949341 0.87785845994949341 0.87785845994949341
0.88527917861938477 0.88527917861938477 0.88527917861938477
0.89612740278244019 0.89612740278244019 0.89612740278244019
0.90839028358459473 0.90839028358459473 0.90839028358459473
0.91710752248764038 0.91710752248764038 0.91710752248764038
0.91916465759277344 0.91916465759277344 0.91916465759277344
0.91346007585525513 0.91346007585525513 0.91346007585525513
0.90926891565322876 0.90926891565322876 0.90926891565322876
0.92045944929122925 0.92045944929122925 0.92045944929122925
0.14178451895713806 0.14178451895713806 0.14178451895713806
0.14064742624759674 0.14064742624759674 0.14064742624759674
0.14258590340614319 0.14258590340614319 0.14258590340614319
0.149074986577034 0.149074986577034 0.149074986577034
0.1611645370721817 0.1611645370721817 0.1611645370721817
0.18017037212848663 0.18017037212848663 0.18017037212848663
0.20507128536701202 0.20507128536701202 0.20507128536701202
0.23375430703163147 0.23375430703163147 0.23375430703163147
0.26488593220710754 0.26488593220710754 0.26488593220710754
0.30041277408599854 0.30041277408599854 0.30041277408599854
0.34569483995437622 0.34569483995437622 0.34569483995437622
0.40350615978240967 0.40350615978240967 0.40350615978240967
0.47215068340301514 0.47215068340301514 0.47215068340301514
0.14720058441162109 0.14720058441162109 0.14720058441162109
0.14890703558921814 0.14890703558921814 0.14890703558921814
0.15366631746292114 0.15366631746292114 0.15366631746292114
0.16214668750762939 0.16214668750762939 0.16214668750762939
0.17587974667549133 0.17587974667549133 0.17587974667549133
0.19559444487094879 0.19559444487094879 0.19559444487094879
0.22105638682842255 0.22105638682842255 0.22105638682842255
0.24940899014472961 0.24940899014472961 0.24940899014472961
0.2793964147567749 0.2793964147567749 0.2793964147567749
0.31317156553268433 0.31317156553268433 0.31317156553268433
0.35672423243522644 0.35672423243522644 0.35672423243522644
0.41317197680473328 0.41317197680473328 0.41317197680473328
0.48185640573501587 0.48185640573501587 0.48185640573501587
0.15768106281757355 0.15768106281757355 0.15768106281757355
0.16258403658866882 0.16258403658866882 0.16258403658866882
0.1704842746257782 0.1704842746257782 0.1704842746257782
0.18096962571144104 0.18096962571144104 0.18096962571144104
0.19525739550590515 0.19525739550590515 0.19525739550590515
0.21492810547351837 0.21492810547351837 0.21492810547351837
0.23982207477092743 0.23982207477092743 0.23982207477092743
0.26793205738067627 0.26793205738067627 0.26793205738067627
0.29779863357543945 0.29779863357543945 0.29779863357543945
0.3310682475566864 0.3310682475566864 0.3310682475566864
0.37471732497215271 0.37471732497215271 0.37471732497215271
0.43056443333625793 0.43056443333625793 0.43056443333625793
0.49940291047096252 0.49940291047096252 0.49940291047096252
0.17714761197566986 0.17714761197566986 0.17714761197566986
0.18500798940658569 0.18500798940658569 0.18500798940658569
0.1952240914106369 0.1952240914106369 0.1952240914106369
0.206311896443367 0.206311896443367 0.206311896443367
0.21943746507167816 0.21943746507167816 0.21943746507167816
0.23694534599781036 0.23694534599781036 0.23694534599781036
0.25973296165466309 0.25973296165466309 0.25973296165466309
0.28729146718978882 0.28729146718978882 0.28729146718978882
0.31806233525276184 0.31806233525276184 0.31806233525276184
0.35363399982452393 0.35363399982452393 0.35363399982452393
0.39865854382514954 0.39865854382514954 0.39865854382514954
0.45641705393791199 0.45641705393791199 0.45641705393791199
0.52728873491287231 0.52728873491287231 0.52728873491287231
0.20983581244945526 0.20983581244945526 0.20983581244945526
0.21957887709140778 0.21957887709140778 0.21957887709140778
0.23012459278106689 0.23012459278106689 0.23012459278106689
0.23970384895801544 0.23970384895801544 0.23970384895801544
0.24942976236343384 0.24942976236343384 0.24942976236343384
0.26193386316299438 0.26193386316299438 0.26193386316299438
0.28016579151153564 0.28016579151153564 0.28016579151153564
0.30566436052322388 0.30566436052322388 0.30566436052322388
0.33777159452438354 0.33777159452438354 0.33777159452438354
0.37731096148490906 0.37731096148490906 0.37731096148490906
0.42853161692619324 0.42853161692619324 0.42853161692619324
0.49253898859024048 0.49253898859024048 0.49253898859024048
0.56792670488357544 0.56792670488357544 0.56792670488357544
0.25581136345863342 0.25581136345863342 0.25581136345863342
0.26656123995780945 0.26656123995780945 0.26656123995780945
0.27607336640357971 0.27607336640357971 0.27607336640357971
0.28283518552780151 0.28283518552780151 0.28283518552780151
0.28762120008468628 0.28762120008468628 0.28762120008468628
0.29314514994621277 0.29314514994621277 0.29314514994621277
0.30340149998664856 0.30340149998664856 0.30340149998664856
0.32411658763885498 0.32411658763885498 0.32411658763885498
0.35631760954856873 0.35631760954856873 0.35631760954856873
0.40126407146453857 0.40126407146453857 0.40126407146453857
0.46140593290328979 0.46140593290328979 0.46140593290328979
0.53564870357513428 0.53564870357513428 0.53564870357513428
0.61775499582290649 0.61775499582290649 0.61775499582290649
0.31148669123649597 0.31148669123649597 0.31148669123649597
0.32311555743217468 0.32311555743217468 0.32311555743217468
0.33231216669082642 0.33231216669082642 0.33231216669082642
0.33703777194023132 0.33703777194023132 0.33703777194023132
0.33839854598045349 0.33839854598045349 0.33839854598045349
0.33728596568107605 0.33728596568107605 0.33728596568107605
0.33903515338897705 0.33903515338897705 0.33903515338897705
0.35217475891113281 0.35217475891113281 0.35217475891113281
0.38051086664199829 0.38051086664199829 0.38051086664199829
0.42620387673377991 0.42620387673377991 0.42620387673377991
0.49234402179718018 0.49234402179718018 0.49234402179718018
0.5759701132774353 0.5759701132774353 0.5759701132774353
0.66601443290710449 0.66601443290710449 0.66601443290710449
0.37581732869148254 0.37581732869148254 0.37581732869148254
0.38819551467895508 0.38819551467895508 0.38819551467895508
0.39887115359306335 0.39887115359306335 0.39887115359306335
0.4039357602596283 0.4039357602596283 0.4039357602596283
0.40396988391876221 0.40396988391876221 0.40396988391876221
0.40042856335639954 0.40042856335639954 0.40042856335639954
0.39743059873580933 0.39743059873580933 0.39743059873580933
0.40195122361183167 0.40195122361183167 0.40195122361183167
0.41989937424659729 0.41989937424659729 0.41989937424659729
0.45690008997917175 0.45690008997917175 0.45690008997917175
0.52012383937835693 0.52012383937835693 0.52012383937835693
0.60639065504074097 0.60639065504074097 0.60639065504074097
0.70087212324142456 0.70087212324142456 0.70087212324142456
0.45341455936431885 0.45341455936431885 0.45341455936431885
0.46619352698326111 0.46619352698326111 0.46619352698326111
0.47802814841270447 0.47802814841270447 0.47802814841270447
0.48469722270965576 0.48469722270965576 0.48469722270965576
0.48590531945228577 0.48590531945228577 0.48590531945228577
0.48250749707221985 0.48250749707221985 0.48250749707221985
0.47834339737892151 0.47834339737892151 0.47834339737892151
0.47739702463150024 0.47739702463150024 0.47739702463150024
0.4845062792301178 0.4845062792301178 0.4845062792301178
0.50682401657104492 0.50682401657104492 0.50682401657104492
0.55492037534713745 0.55492037534713745 0.55492037534713745
0.63209295272827148 0.63209295272827148 0.63209295272827148
0.72330069541931152 0.72330069541931152 0.72330069541931152
0.54937565326690674 0.54937565326690674 0.54937565326690674
0.56036204099655151 0.56036204099655151 0.56036204099655151
0.57067853212356567 0.57067853212356567 0.57067853212356567
0.57742202281951904 0.57742202281951904 0.57742202281951904
0.57993799448013306 0.57993799448013306 0.57993799448013306
0.57944267988204956 0.57944267988204956 0.57944267988204956
0.57791537046432495 0.57791537046432495 0.57791537046432495
0.57787543535232544 0.57787543535232544 0.57787543535232544
0.58114498853683472 0.58114498853683472 0.58114498853683472
0.59131193161010742 0.59131193161010742 0.59131193161010742
0.61674541234970093 0.61674541234970093 0.61674541234970093
0.67189067602157593 0.67189067602157593 0.67189067602157593
0.74919193983078003 0.74919193983078003 0.74919193983078003
0.65953564643859863 0.65953564643859863 0.65953564643859863
0.66675209999084473 0.66675209999084473 0.66675209999084473
0.67323994636535645 0.67323994636535645 0.67323994636535645
0.67812734842300415 0.67812734842300415 0.67812734842300415
0.68144911527633667 0.68144911527633667 0.68144911527633667
0.68447297811508179 0.68447297811508179 0.68447297811508179
0.6883014440536499 0.6883014440536499 0.6883014440536499
0.69351494312286377 0.69351494312286377 0.69351494312286377
0.70031130313873291 0.70031130313873291 0.70031130313873291
0.70690512657165527 0.70690512657165527 0.70690512657165527
0.71482902765274048 0.71482902765274048 0.71482902765274048
0.7413945198059082 0.7413945198059082 0.7413945198059082
0.79343634843826294 0.79343634843826294 0.79343634843826294
0.77320140600204468 0.77320140600204468 0.77320140600204468
0.77646094560623169 0.77646094560623169 0.77646094560623169
0.77846300601959229 0.77846300601959229 0.77846300601959229
0.78054285049438477 0.78054285049438477 0.78054285049438477
0.7836725115776062 0.7836725115776062 0.7836725115776062
0.7895844578742981 0.7895844578742981 0.7895844578742981
0.79839777946472168 0.79839777946472168 0.79839777946472168
0.80898219347000122 0.80898219347000122 0.80898219347000122
0.81920462846755981 0.81920462846755981 0.81920462846755981
0.82473385334014893 0.82473385334014893 0.82473385334014893
0.8232191801071167 0.8232191801071167 0.8232191801071167
0.82883095741271973 0.82883095741271973 0.82883095741271973
0.85579997301101685 0.85579997301101685 0.85579997301101685
0.88095283508300781 0.88095283508300781 0.88095283508300781
0.88123619556427002 0.88123619556427002 0.88123619556427002
0.88001531362533569 0.88001531362533569 0.88001531362533569
0.8794558048248291 0.8794558048248291 0.8794558048248291
0.881805419921875 0.881805419921875 0.881805419921875
0.88859260082244873 0.88859260082244873 0.88859260082244873
0.89921623468399048 0.89921623468399048 0.89921623468399048
0.91109150648117065 0.91109150648117065 0.91109150648117065
0.92032158374786377 0.92032158374786377 0.92032158374786377
0.92260164022445679 0.92260164022445679 0.92260164022445679
0.9171067476272583 0.9171067476272583 0.9171067476272583
0.91401559114456177 0.91401559114456177 0.91401559114456177
0.92552739381790161 0.92552739381790161 0.92552739381790161
0.15661460161209106 0.15661460161209106 0.15661460161209106
0.15557882189750671 0.15557882189750671 0.15557882189750671
0.15752041339874268 0.15752041339874268 0.15752041339874268
0.16333834826946259 0.16333834826946259 0.16333834826946259
0.17549563944339752 0.17549563944339752 0.17549563944339752
0.19582390785217285 0.19582390785217285 0.19582390785217285
0.22442540526390076 0.22442540526390076 0.22442540526390076
0.256783127784729 0.256783127784729 0.256783127784729
0.28953206539154053 0.28953206539154053 0.28953206539154053
0.32451999187469482 0.32451999187469482 0.32451999187469482
0.36752545833587646 0.36752545833587646 0.36752545833587646
0.42264094948768616 0.42264094948768616 0.42264094948768616
0.48955732583999634 0.48955732583999634 0.48955732583999634
0.16243457794189453 0.16243457794189453 0.16243457794189453
0.16460913419723511 0.16460913419723511 0.16460913419723511
0.16951368749141693 0.16951368749141693 0.16951368749141693
0.17756778001785278 0.17756778001785278 0.17756778001785278
0.19052852690219879 0.19052852690219879 0.19052852690219879
0.21222858130931854 0.21222858130931854 0.21222858130931854
0.24117186665534973 0.24117186665534973 0.24117186665534973
0.27309641242027283 0.27309641242027283 0.27309641242027283
0.30438482761383057 0.30438482761383057 0.30438482761383057
0.33748853206634521 0.33748853206634521 0.33748853206634521
0.37904080748558044 0.37904080748558044 0.37904080748558044
0.43320178985595703 0.43320178985595703 0.43320178985595703
0.50001752376556396 0.50001752376556396 0.50001752376556396
0.17185628414154053 0.17185628414154053 0.17185628414154053
0.17854757606983185 0.17854757606983185 0.17854757606983185
0.18718923628330231 0.18718923628330231 0.18718923628330231
0.19778203964233398 0.19778203964233398 0.19778203964233398
0.21214170753955841 0.21214170753955841 0.21214170753955841
0.23249588906764984 0.23249588906764984 0.23249588906764984
0.25920319557189941 0.25920319557189941 0.25920319557189941
0.28945767879486084 0.28945767879486084 0.28945767879486084
0.32005944848060608 0.32005944848060608 0.32005944848060608
0.35363712906837463 0.35363712906837463 0.35363712906837463
0.3960098922252655 0.3960098922252655 0.3960098922252655
0.45059856772422791 0.45059856772422791 0.45059856772422791
0.51786661148071289 0.51786661148071289 0.51786661148071289
0.18930405378341675 0.18930405378341675 0.18930405378341675
0.20053315162658691 0.20053315162658691 0.20053315162658691
0.21293480694293976 0.21293480694293976 0.21293480694293976
0.22451373934745789 0.22451373934745789 0.22451373934745789
0.2375473827123642 0.2375473827123642 0.2375473827123642
0.25476756691932678 0.25476756691932678 0.25476756691932678
0.27750203013420105 0.27750203013420105 0.27750203013420105
0.3052884042263031 0.3052884042263031 0.3052884042263031
0.33665323257446289 0.33665323257446289 0.33665323257446289
0.37343251705169678 0.37343251705169678 0.37343251705169678
0.41896650195121765 0.41896650195121765 0.41896650195121765
0.47661995887756348 0.47661995887756348 0.47661995887756348
0.54537886381149292 0.54537886381149292 0.54537886381149292
0.22288261353969574 0.22288261353969574 0.22288261353969574
0.23682880401611328 0.23682880401611328 0.23682880401611328
0.24950481951236725 0.24950481951236725 0.24950481951236725
0.25930285453796387 0.25930285453796387 0.25930285453796387
0.268349289894104 0.268349289894104 0.268349289894104
0.27976870536804199 0.27976870536804199 0.27976870536804199
0.29642459750175476 0.29642459750175476 0.29642459750175476
0.32142794132232666 0.32142794132232666 0.32142794132232666
0.35451430082321167 0.35451430082321167 0.35451430082321167
