luts/instant_pro/polaroid_690_cold_+.cube
# Created by: G'MIC (https://gmic.eu)
TITLE "polaroid_690_cold_+"
# LUT size
LUT_3D_SIZE 7
# Data domain
DOMAIN_MIN 0.0 0.0 0.0
DOMAIN_MAX 1.0 1.0 1.0
# LUT data points
0.0054534315131604671 0.21445213258266449 0.21544823050498962
0.017547877505421638 0.21311512589454651 0.21182498335838318
0.16306599974632263 0.20462381839752197 0.20705285668373108
0.38370248675346375 0.17389924824237823 0.2032197117805481
0.59975403547286987 0.11795878410339355 0.200155109167099
0.79664671421051025 0.0076018539257347584 0.19260838627815247
0.9476667046546936 0.0040991241112351418 0.1904960572719574
0.0032885831315070391 0.22809389233589172 0.21067427098751068
0.037442166358232498 0.24335893988609314 0.21049037575721741
0.21778024733066559 0.24296633899211884 0.20587173104286194
0.44428214430809021 0.23199978470802307 0.200025275349617
0.66242676973342896 0.18026188015937805 0.19173680245876312
0.83845359086990356 0.10761719942092896 0.18372750282287598
0.97309756278991699 0.034153267741203308 0.17418985068798065
0.0017703636549413204 0.32600420713424683 0.20665910840034485
0.042933743447065353 0.32137608528137207 0.20042389631271362
0.26931342482566833 0.35047587752342224 0.18944279849529266
0.52345579862594604 0.37579163908958435 0.17748840153217316
0.74987822771072388 0.37872418761253357 0.16916090250015259
0.88729697465896606 0.34879186749458313 0.17166109383106232
0.98629564046859741 0.3239884078502655 0.16333644092082977
0.0026605941820889711 0.48939397931098938 0.17395417392253876
0.013647415675222874 0.47762781381607056 0.17078906297683716
0.2524227499961853 0.50310486555099487 0.15582534670829773
0.50635802745819092 0.54202961921691895 0.11915866285562515
0.73037689924240112 0.56794959306716919 0.078259289264678955
0.89555925130844116 0.59018385410308838 0.11974388360977173
0.99166989326477051 0.58557009696960449 0.18948674201965332
0.00045149560901336372 0.66055864095687866 0.13172674179077148
0.0098161734640598297 0.6496807336807251 0.12208946049213409
0.22299663722515106 0.65136259794235229 0.10657981783151627
0.4722311794757843 0.67672199010848999 0.061950936913490295
0.69625365734100342 0.70796620845794678 0.022260239347815514
0.8678438663482666 0.72139102220535278 0.035084504634141922
0.98496484756469727 0.72612857818603516 0.17956066131591797
0.036780577152967453 0.79450291395187378 0.13280579447746277
0.13355372846126556 0.79140454530715942 0.11901149153709412
0.32494920492172241 0.78497976064682007 0.10290221869945526
0.5184360146522522 0.78733921051025391 0.084402047097682953
0.69881135225296021 0.80215281248092651 0.081848099827766418
0.85501235723495483 0.8150288462638855 0.098086535930633545
0.97258228063583374 0.82212692499160767 0.19560928642749786
0.40202432870864868 0.90707731246948242 0.31623822450637817
0.44396615028381348 0.90693885087966919 0.30174160003662109
0.52522814273834229 0.90480124950408936 0.29122212529182434
0.63194137811660767 0.90164434909820557 0.27624303102493286
0.75144511461257935 0.91047108173370361 0.29478853940963745
0.86347538232803345 0.92020004987716675 0.31802546977996826
0.95644950866699219 0.93084084987640381 0.35722336173057556
0.0014959297841414809 0.2110326886177063 0.22619074583053589
0.01827208511531353 0.20872315764427185 0.23258653283119202
0.167923703789711 0.20124301314353943 0.23664498329162598
0.3728802502155304 0.16663536429405212 0.23865883052349091
0.58202981948852539 0.07414679229259491 0.23191992938518524
0.77881836891174316 0.005606423132121563 0.21668221056461334
0.9516109824180603 0.00091284955851733685 0.20795553922653198
0.0012441448634490371 0.23104304075241089 0.23886138200759888
0.03190937265753746 0.23617488145828247 0.24470163881778717
0.22340454161167145 0.2281663566827774 0.23967595398426056
0.4446130096912384 0.20422761142253876 0.23611980676651001
0.6427847146987915 0.13132338225841522 0.23037213087081909
0.82692855596542358 0.031894639134407043 0.21803379058837891
0.97035932540893555 0.0096658747643232346 0.20795084536075592
0.0019688026513904333 0.33631855249404907 0.25512880086898804
0.028850959613919258 0.34034621715545654 0.25213909149169922
0.27257201075553894 0.35437306761741638 0.24747887253761292
0.53419429063796997 0.36978051066398621 0.2518366277217865
0.73768991231918335 0.35201177000999451 0.24205751717090607
0.88129633665084839 0.31116163730621338 0.23194389045238495
0.98431837558746338 0.2804286777973175 0.21669861674308777
0.0018684985116124153 0.51135706901550293 0.25349104404449463
0.010459316894412041 0.49771073460578918 0.23702329397201538
0.24119003117084503 0.51663661003112793 0.22918422520160675
0.50846678018569946 0.54736685752868652 0.21724173426628113
0.73344534635543823 0.57122409343719482 0.21517816185951233
0.89646178483963013 0.58960521221160889 0.25791284441947937
0.9908941388130188 0.57291638851165771 0.27316990494728088
0.0015816482482478023 0.67423409223556519 0.2210722416639328
0.01186834555119276 0.66744697093963623 0.21226823329925537
0.21582570672035217 0.66787576675415039 0.19837325811386108
0.47358295321464539 0.683829665184021 0.18589839339256287
0.69768363237380981 0.70559215545654297 0.18630917370319366
0.86699914932250977 0.72416406869888306 0.21645465493202209
0.9835696816444397 0.72807192802429199 0.30526533722877502
0.037330850958824158 0.799224853515625 0.23572683334350586
0.1233438104391098 0.7956128716468811 0.22418747842311859
0.32640752196311951 0.78869825601577759 0.2155013382434845
0.51906281709671021 0.79066306352615356 0.20567873120307922
0.69582593441009521 0.80410087108612061 0.21522517502307892
0.85520815849304199 0.81570857763290405 0.23289778828620911
0.96354633569717407 0.82468962669372559 0.30430915951728821
0.39964711666107178 0.90878665447235107 0.38129058480262756
0.43377283215522766 0.90685015916824341 0.37402200698852539
0.51999258995056152 0.90408492088317871 0.35445025563240051
0.62694114446640015 0.90407609939575195 0.34160551428794861
0.74611347913742065 0.9094008207321167 0.3619500994682312
0.86050403118133545 0.91928517818450928 0.38274028897285461
0.95090019702911377 0.9288029670715332 0.41628450155258179
0.00052656285697594285 0.21093973517417908 0.34295600652694702
0.014444553293287754 0.2059427946805954 0.35710537433624268
0.20790071785449982 0.19250853359699249 0.37448424100875854
0.41176044940948486 0.16160303354263306 0.36619952321052551
0.60272872447967529 0.07894974946975708 0.35805091261863708
0.77868533134460449 0.0049877841956913471 0.33754727244377136
0.93794667720794678 0.0010543673997744918 0.32304191589355469
0.0012208227999508381 0.2387857586145401 0.3580833375453949
0.01432373933494091 0.23642612993717194 0.37580344080924988
0.24627695977687836 0.2329598069190979 0.40212497115135193
0.45028293132781982 0.20913545787334442 0.38358062505722046
0.63562583923339844 0.12918886542320251 0.35888943076133728
0.80059522390365601 0.0085693811997771263 0.32625594735145569
0.9519726037979126 0.00067348108859732747 0.29582750797271729
0.0019589292351156473 0.35327363014221191 0.38799959421157837
0.015649279579520226 0.35372433066368103 0.4024958610534668
0.28635081648826599 0.36778068542480469 0.42882061004638672
0.5241692066192627 0.34876731038093567 0.40811768174171448
0.69834029674530029 0.29027709364891052 0.37949967384338379
0.8550911545753479 0.21509091556072235 0.34422135353088379
0.98139756917953491 0.13566431403160095 0.31152573227882385
0.00087097764480859041 0.54131561517715454 0.42048770189285278
0.0054081035777926445 0.5432509183883667 0.42001044750213623
0.25690498948097229 0.54092150926589966 0.40660017728805542
0.52681154012680054 0.55695438385009766 0.4059637188911438
0.73617470264434814 0.5833469033241272 0.4308641254901886
0.88412117958068848 0.57416599988937378 0.43432360887527466
0.986733078956604 0.53443288803100586 0.40721315145492554
0.0039153452962636948 0.69971621036529541 0.41638410091400146
0.011177452281117439 0.69663077592849731 0.40295889973640442
0.22935281693935394 0.69187873601913452 0.38635620474815369
0.47907343506813049 0.69372409582138062 0.3741767406463623
0.69396710395812988 0.71473491191864014 0.38493558764457703
0.86258399486541748 0.72649574279785156 0.4313775897026062
0.97644585371017456 0.73260068893432617 0.49564060568809509
0.043397508561611176 0.80897825956344604 0.41435703635215759
0.13564158976078033 0.80689525604248047 0.40168803930282593
0.32151362299919128 0.80221700668334961 0.39605578780174255
0.51298201084136963 0.79557627439498901 0.37208729982376099
0.69111377000808716 0.80503958463668823 0.39072415232658386
0.85017001628875732 0.81691282987594604 0.41888043284416199
0.96618151664733887 0.82852965593338013 0.47136825323104858
0.39443174004554749 0.91223162412643433 0.50827276706695557
0.43775483965873718 0.91151344776153564 0.50197631120681763
0.5158880352973938 0.90968948602676392 0.48888674378395081
0.61770308017730713 0.90556460618972778 0.46221223473548889
0.73561066389083862 0.91087734699249268 0.47558578848838806
0.85354316234588623 0.92153632640838623 0.4994361400604248
0.94588738679885864 0.93239116668701172 0.53337991237640381
0.0017986821476370096 0.21120743453502655 0.54907333850860596
0.0053970785811543465 0.19891546666622162 0.56977921724319458
0.21825322508811951 0.17503853142261505 0.61424285173416138
0.52011263370513916 0.12477361410856247 0.63925457000732422
0.67460334300994873 0.06467418372631073 0.57722121477127075
0.8085705041885376 0.0054244096390902996 0.52846276760101318
0.94337594509124756 0.0022208867594599724 0.51451349258422852
0.0011867897119373083 0.24002671241760254 0.57223081588745117
0.010303497314453125 0.23803903162479401 0.5895504355430603
0.24145910143852234 0.23384407162666321 0.62619626522064209
0.53618180751800537 0.2148006409406662 0.64591628313064575
0.69008487462997437 0.17190973460674286 0.58361852169036865
0.82055163383483887 0.066267825663089752 0.53516429662704468
0.95063543319702148 0.0053085177205502987 0.50600802898406982
0.00081444537499919534 0.34254267811775208 0.5606083869934082
0.0079488717019557953 0.35475710034370422 0.58238703012466431
0.25149351358413696 0.36522960662841797 0.62311637401580811
0.54877227544784546 0.38063773512840271 0.64855778217315674
0.71106046438217163 0.34004002809524536 0.5876958966255188
0.8392869234085083 0.24551571905612946 0.53073090314865112
0.96217882633209229 0.04256337508559227 0.47719410061836243
0.00029646928305737674 0.55506843328475952 0.60817956924438477
0.007095979992300272 0.55769520998001099 0.61422109603881836
0.29528853297233582 0.56465786695480347 0.63042420148849487
0.54437363147735596 0.58833485841751099 0.64620673656463623
0.71796238422393799 0.55589497089385986 0.61961156129837036
0.85895335674285889 0.48198989033699036 0.56640732288360596
0.97483557462692261 0.39838927984237671 0.51368856430053711
0.006803564727306366 0.72651010751724243 0.63320684432983398
0.078221701085567474 0.72764390707015991 0.62898111343383789
0.32867473363876343 0.72085416316986084 0.62385517358779907
0.52172261476516724 0.71024298667907715 0.60992991924285889
0.70719826221466064 0.72518187761306763 0.62267863750457764
0.85992348194122314 0.73460608720779419 0.65725284814834595
0.96576231718063354 0.72647470235824585 0.66445612907409668
0.18213200569152832 0.82333898544311523 0.62698948383331299
0.24283042550086975 0.82154649496078491 0.61747455596923828
0.37757566571235657 0.81748116016387939 0.61353063583374023
0.52838999032974243 0.80790239572525024 0.58443832397460938
0.69426721334457397 0.80932080745697021 0.58573669195175171
0.84277474880218506 0.82121390104293823 0.62181675434112549
0.94665253162384033 0.83507281541824341 0.66063773632049561
0.42844337224960327 0.91644579172134399 0.66640216112136841
0.46353361010551453 0.91692143678665161 0.66432446241378784
0.5307621955871582 0.91291981935501099 0.65572619438171387
0.61378532648086548 0.91206353902816772 0.63099300861358643
0.72552788257598877 0.90857374668121338 0.61529785394668579
0.8397107720375061 0.92009973526000977 0.63955008983612061
0.93286937475204468 0.93449676036834717 0.67484068870544434
0.00043424719478935003 0.19981010258197784 0.75816214084625244
0.0046451343223452568 0.19190870225429535 0.77275770902633667
0.21282002329826355 0.1715855598449707 0.79835766553878784
0.54308789968490601 0.12931257486343384 0.82875555753707886
0.7564200758934021 0.064313508570194244 0.83100616931915283
0.86883389949798584 0.025635723024606705 0.77467566728591919
0.96396529674530029 0.030099023133516312 0.72093147039413452
6.6779641201719642e-05 0.24198634922504425 0.76579105854034424
0.0057855644263327122 0.240780308842659 0.77701634168624878
0.23229539394378662 0.23925432562828064 0.79485070705413818
0.55446791648864746 0.23987430334091187 0.82584923505783081
0.75505644083023071 0.23693326115608215 0.82668459415435791
0.87064659595489502 0.19822944700717926 0.77270722389221191
0.96384644508361816 0.16380542516708374 0.72066450119018555
0.00073529413202777505 0.3520406186580658 0.74117672443389893
0.0095746805891394615 0.35739251971244812 0.76193177700042725
0.25044214725494385 0.36672362685203552 0.78858679533004761
0.54643410444259644 0.40370360016822815 0.81465941667556763
0.74574106931686401 0.435566246509552 0.81940490007400513
0.85972511768341064 0.39057329297065735 0.76528060436248779
0.95984107255935669 0.31747066974639893 0.71713650226593018
0.0035854862071573734 0.5158507227897644 0.74045795202255249
0.0044690747745335102 0.51868247985839844 0.74762433767318726
0.22666390240192413 0.52805912494659424 0.76158797740936279
0.51702237129211426 0.58044058084487915 0.79242485761642456
0.72871166467666626 0.62136632204055786 0.81231993436813354
0.83503949642181396 0.56978827714920044 0.75987553596496582
0.95263701677322388 0.45818740129470825 0.68715804815292358
0.029811739921569824 0.71720618009567261 0.77894550561904907
0.12772940099239349 0.7193063497543335 0.7791445255279541
0.36464440822601318 0.71727579832077026 0.78517419099807739
0.55787205696105957 0.72325724363327026 0.79667955636978149
0.72690087556838989 0.74300247430801392 0.81538844108581543
0.84010607004165649 0.71566617488861084 0.7890593409538269
0.95078539848327637 0.64903527498245239 0.73024392127990723
0.39519417285919189 0.83129912614822388 0.80124866962432861
0.43139994144439697 0.82949995994567871 0.79988503456115723
0.51064068078994751 0.82897675037384033 0.79795002937316895
0.60977637767791748 0.82661426067352295 0.79043728113174438
0.7215006947517395 0.82344675064086914 0.77249914407730103
0.83864063024520874 0.83162516355514526 0.79067164659500122
0.93573534488677979 0.84026032686233521 0.82121062278747559
0.52277106046676636 0.9184192419052124 0.81097579002380371
0.54080551862716675 0.91950219869613647 0.80587786436080933
0.577190101146698 0.91930001974105835 0.80417048931121826
0.6448284387588501 0.91743695735931396 0.79633224010467529
0.72817373275756836 0.91662311553955078 0.7717251181602478
0.82878750562667847 0.92083674669265747 0.77459174394607544
0.91831064224243164 0.93564748764038086 0.81215989589691162
0.0049256416969001293 0.2107340544462204 0.90369433164596558
0.014114678837358952 0.19754673540592194 0.91238617897033691
0.29648870229721069 0.19120894372463226 0.91743332147598267
0.55504649877548218 0.18056598305702209 0.93234992027282715
0.76214230060577393 0.22549517452716827 0.94339597225189209
0.90164297819137573 0.25900399684906006 0.93528562784194946
0.98728108406066895 0.2565535306930542 0.90735578536987305
0.003197643905878067 0.26341536641120911 0.90156263113021851
0.01865915022790432 0.25409749150276184 0.91200935840606689
0.30894151329994202 0.26279142498970032 0.91515970230102539
0.55941075086593628 0.27901700139045715 0.9259752631187439
0.76351279020309448 0.33681955933570862 0.94171178340911865
0.89292865991592407 0.3745570182800293 0.92976301908493042
0.97867250442504883 0.36018967628479004 0.90849381685256958
0.0024835923686623573 0.37042286992073059 0.89497750997543335
0.028736667707562447 0.36986806988716125 0.90173852443695068
0.31745448708534241 0.39344999194145203 0.90774405002593994
0.55747485160827637 0.43362101912498474 0.91691607236862183
0.74839287996292114 0.51092898845672607 0.92974084615707397
0.87743580341339111 0.54125344753265381 0.92468357086181641
0.95531517267227173 0.50842171907424927 0.90280270576477051
0.0014670129166916013 0.50759387016296387 0.87009966373443604
0.0087232254445552826 0.50888830423355103 0.87883144617080688
0.27502366900444031 0.53530526161193848 0.88995373249053955
0.53497606515884399 0.58922815322875977 0.9020836353302002
0.73538649082183838 0.65683215856552124 0.91702187061309814
0.85859662294387817 0.67316979169845581 0.91017347574234009
0.94070029258728027 0.63127511739730835 0.88723099231719971
0.0060871196910738945 0.68836104869842529 0.87581157684326172
0.015263411216437817 0.68835902214050293 0.87606453895568848
0.25086876749992371 0.68602907657623291 0.87635785341262817
0.49838945269584656 0.70055276155471802 0.88249439001083374
0.70709490776062012 0.73689186573028564 0.90204322338104248
0.8529667854309082 0.76173645257949829 0.91184526681900024
0.92978429794311523 0.71685731410980225 0.8729860782623291
0.37747785449028015 0.82189667224884033 0.89187163114547729
0.42374449968338013 0.82085883617401123 0.89302623271942139
0.52032172679901123 0.8205375075340271 0.89395296573638916
0.62376230955123901 0.82146435976028442 0.89742481708526611
0.73622351884841919 0.82921582460403442 0.90127933025360107
0.85159409046173096 0.84512460231781006 0.90981853008270264
0.92835110425949097 0.81523507833480835 0.89353710412979126
0.62316596508026123 0.92188555002212524 0.91079854965209961
0.64015811681747437 0.92282038927078247 0.91042131185531616
0.66849076747894287 0.92272675037384033 0.90836071968078613
0.71379691362380981 0.92170733213424683 0.90436482429504395
0.76994192600250244 0.92458492517471313 0.90273487567901611
0.83204400539398193 0.92670577764511108 0.88726633787155151
0.91099840402603149 0.93061608076095581 0.90290939807891846
0.26651683449745178 0.27616974711418152 0.9922257661819458
0.34291040897369385 0.2796032726764679 0.98849058151245117
0.47669672966003418 0.28597873449325562 0.98772132396697998
0.63634854555130005 0.31429392099380493 0.98887830972671509
0.77699536085128784 0.37348130345344543 0.991721510887146
0.89287388324737549 0.47553789615631104 0.99201780557632446
0.97517973184585571 0.52229475975036621 0.98330116271972656
0.29593923687934875 0.34125235676765442 0.98934829235076904
0.36252069473266602 0.34603437781333923 0.98771238327026367
0.49396821856498718 0.35658463835716248 0.98801112174987793
0.63965660333633423 0.38637813925743103 0.98789560794830322
0.7741209864616394 0.45621740818023682 0.99028956890106201
0.88515299558639526 0.54600906372070312 0.98778772354125977
0.96864765882492065 0.57749152183532715 0.98090267181396484
0.31963297724723816 0.46368744969367981 0.98558026552200317
0.38187837600708008 0.47165536880493164 0.98374629020690918
0.49955469369888306 0.48640280961990356 0.98160421848297119
0.63937127590179443 0.51553010940551758 0.98267024755477905
0.76424241065979004 0.56990295648574829 0.98146629333496094
0.87610501050949097 0.63860994577407837 0.98349213600158691
0.95585459470748901 0.65738034248352051 0.97752642631530762
0.27296939492225647 0.59201300144195557 0.97586578130722046
0.33849871158599854 0.5980563759803772 0.97376686334609985
0.47630125284194946 0.61662626266479492 0.9719042181968689
0.61778593063354492 0.63924270868301392 0.9706379771232605
0.75796538591384888 0.67871546745300293 0.97330713272094727
0.8697274923324585 0.71605867147445679 0.97589737176895142
0.94622737169265747 0.7262192964553833 0.97223836183547974
0.15776711702346802 0.70676755905151367 0.96444535255432129
0.22607308626174927 0.70344245433807373 0.96324360370635986
0.41118362545967102 0.70970338582992554 0.96213942766189575
0.58264732360839844 0.72291159629821777 0.96244221925735474
0.74981915950775146 0.75426822900772095 0.96565908193588257
0.86273425817489624 0.78195315599441528 0.96841722726821899
0.9274335503578186 0.8003355860710144 0.96575039625167847
0.45380908250808716 0.82354575395584106 0.96025288105010986
0.47752732038497925 0.82181143760681152 0.96074962615966797
0.53960925340652466 0.81770718097686768 0.9593086838722229
0.62792640924453735 0.81398564577102661 0.95833909511566162
0.72682720422744751 0.81711280345916748 0.96032583713531494
0.85104131698608398 0.84592342376708984 0.96385639905929565
0.92855799198150635 0.87262803316116333 0.96321547031402588
0.65490543842315674 0.92530983686447144 0.96054905652999878
0.67483413219451904 0.9263574481010437 0.96106666326522827
0.69686484336853027 0.92723977565765381 0.96091949939727783
0.74434655904769897 0.92478340864181519 0.95675754547119141
0.79546970129013062 0.91621303558349609 0.94890713691711426
0.8540118932723999 0.93287914991378784 0.95783865451812744
0.91564905643463135 0.95171135663986206 0.96108615398406982
