luts/instant_pro/polaroid_665_--.cube
# Created by: G'MIC (https://gmic.eu)
TITLE "polaroid_665_--"
# LUT size
LUT_3D_SIZE 5
# Data domain
DOMAIN_MIN 0.0 0.0 0.0
DOMAIN_MAX 1.0 1.0 1.0
# LUT data points
0.015839235857129097 0.015839235857129097 0.015839235857129097
0.10467793792486191 0.10467793792486191 0.10467793792486191
0.23461543023586273 0.23461543023586273 0.23461543023586273
0.34379220008850098 0.34379220008850098 0.34379220008850098
0.4856221079826355 0.4856221079826355 0.4856221079826355
0.19356410205364227 0.19356410205364227 0.19356410205364227
0.21457384526729584 0.21457384526729584 0.21457384526729584
0.31006884574890137 0.31006884574890137 0.31006884574890137
0.38827240467071533 0.38827240467071533 0.38827240467071533
0.51974779367446899 0.51974779367446899 0.51974779367446899
0.36610063910484314 0.36610063910484314 0.36610063910484314
0.35807508230209351 0.35807508230209351 0.35807508230209351
0.37474435567855835 0.37474435567855835 0.37474435567855835
0.44488045573234558 0.44488045573234558 0.44488045573234558
0.62945771217346191 0.62945771217346191 0.62945771217346191
0.53069019317626953 0.53069019317626953 0.53069019317626953
0.53432244062423706 0.53432244062423706 0.53432244062423706
0.54077255725860596 0.54077255725860596 0.54077255725860596
0.56009161472320557 0.56009161472320557 0.56009161472320557
0.68126928806304932 0.68126928806304932 0.68126928806304932
0.80069911479949951 0.80069911479949951 0.80069911479949951
0.79736924171447754 0.79736924171447754 0.79736924171447754
0.81447404623031616 0.81447404623031616 0.81447404623031616
0.83754545450210571 0.83754545450210571 0.83754545450210571
0.85622572898864746 0.85622572898864746 0.85622572898864746
0.20519712567329407 0.20519712567329407 0.20519712567329407
0.23208491504192352 0.23208491504192352 0.23208491504192352
0.32359218597412109 0.32359218597412109 0.32359218597412109
0.40606492757797241 0.40606492757797241 0.40606492757797241
0.52304327487945557 0.52304327487945557 0.52304327487945557
0.25700470805168152 0.25700470805168152 0.25700470805168152
0.30032345652580261 0.30032345652580261 0.30032345652580261
0.36782017350196838 0.36782017350196838 0.36782017350196838
0.44289663434028625 0.44289663434028625 0.44289663434028625
0.56470119953155518 0.56470119953155518 0.56470119953155518
0.41844356060028076 0.41844356060028076 0.41844356060028076
0.41635751724243164 0.41635751724243164 0.41635751724243164
0.43598836660385132 0.43598836660385132 0.43598836660385132
0.51144278049468994 0.51144278049468994 0.51144278049468994
0.66153568029403687 0.66153568029403687 0.66153568029403687
0.58946371078491211 0.58946371078491211 0.58946371078491211
0.59486699104309082 0.59486699104309082 0.59486699104309082
0.5922735333442688 0.5922735333442688 0.5922735333442688
0.60559147596359253 0.60559147596359253 0.60559147596359253
0.71085494756698608 0.71085494756698608 0.71085494756698608
0.81364351511001587 0.81364351511001587 0.81364351511001587
0.82455736398696899 0.82455736398696899 0.82455736398696899
0.83939206600189209 0.83939206600189209 0.83939206600189209
0.84525161981582642 0.84525161981582642 0.84525161981582642
0.85790705680847168 0.85790705680847168 0.85790705680847168
0.38710874319076538 0.38710874319076538 0.38710874319076538
0.40055134892463684 0.40055134892463684 0.40055134892463684
0.40981975197792053 0.40981975197792053 0.40981975197792053
0.50574970245361328 0.50574970245361328 0.50574970245361328
0.64030343294143677 0.64030343294143677 0.64030343294143677
0.45059889554977417 0.45059889554977417 0.45059889554977417
0.4731144905090332 0.4731144905090332 0.4731144905090332
0.47882568836212158 0.47882568836212158 0.47882568836212158
0.55301403999328613 0.55301403999328613 0.55301403999328613
0.66078931093215942 0.66078931093215942 0.66078931093215942
0.46560892462730408 0.46560892462730408 0.46560892462730408
0.49770191311836243 0.49770191311836243 0.49770191311836243
0.54917383193969727 0.54917383193969727 0.54917383193969727
0.60856229066848755 0.60856229066848755 0.60856229066848755
0.70874381065368652 0.70874381065368652 0.70874381065368652
0.62513989210128784 0.62513989210128784 0.62513989210128784
0.64996159076690674 0.64996159076690674 0.64996159076690674
0.67515581846237183 0.67515581846237183 0.67515581846237183
0.68601411581039429 0.68601411581039429 0.68601411581039429
0.7688336968421936 0.7688336968421936 0.7688336968421936
0.8447381854057312 0.8447381854057312 0.8447381854057312
0.85267806053161621 0.85267806053161621 0.85267806053161621
0.8706514835357666 0.8706514835357666 0.8706514835357666
0.85919004678726196 0.85919004678726196 0.85919004678726196
0.87864798307418823 0.87864798307418823 0.87864798307418823
0.63113284111022949 0.63113284111022949 0.63113284111022949
0.63948827981948853 0.63948827981948853 0.63948827981948853
0.64221847057342529 0.64221847057342529 0.64221847057342529
0.6230393648147583 0.6230393648147583 0.6230393648147583
0.72275006771087646 0.72275006771087646 0.72275006771087646
0.67569494247436523 0.67569494247436523 0.67569494247436523
0.68766361474990845 0.68766361474990845 0.68766361474990845
0.68494802713394165 0.68494802713394165 0.68494802713394165
0.6598135232925415 0.6598135232925415 0.6598135232925415
0.74879032373428345 0.74879032373428345 0.74879032373428345
0.67596340179443359 0.67596340179443359 0.67596340179443359
0.70097118616104126 0.70097118616104126 0.70097118616104126
0.70711547136306763 0.70711547136306763 0.70711547136306763
0.71973592042922974 0.71973592042922974 0.71973592042922974
0.80202478170394897 0.80202478170394897 0.80202478170394897
0.68958175182342529 0.68958175182342529 0.68958175182342529
0.6958242654800415 0.6958242654800415 0.6958242654800415
0.73457628488540649 0.73457628488540649 0.73457628488540649
0.78121566772460938 0.78121566772460938 0.78121566772460938
0.84548825025558472 0.84548825025558472 0.84548825025558472
0.84715944528579712 0.84715944528579712 0.84715944528579712
0.8450852632522583 0.8450852632522583 0.8450852632522583
0.87936097383499146 0.87936097383499146 0.87936097383499146
0.89096707105636597 0.89096707105636597 0.89096707105636597
0.91408967971801758 0.91408967971801758 0.91408967971801758
0.86299878358840942 0.86299878358840942 0.86299878358840942
0.85782426595687866 0.85782426595687866 0.85782426595687866
0.86466246843338013 0.86466246843338013 0.86466246843338013
0.87188208103179932 0.87188208103179932 0.87188208103179932
0.86944448947906494 0.86944448947906494 0.86944448947906494
0.87862485647201538 0.87862485647201538 0.87862485647201538
0.87223690748214722 0.87223690748214722 0.87223690748214722
0.88552510738372803 0.88552510738372803 0.88552510738372803
0.88374310731887817 0.88374310731887817 0.88374310731887817
0.87438374757766724 0.87438374757766724 0.87438374757766724
0.89441698789596558 0.89441698789596558 0.89441698789596558
0.89771485328674316 0.89771485328674316 0.89771485328674316
0.89285039901733398 0.89285039901733398 0.89285039901733398
0.88600367307662964 0.88600367307662964 0.88600367307662964
0.8817482590675354 0.8817482590675354 0.8817482590675354
0.88095545768737793 0.88095545768737793 0.88095545768737793
0.88866734504699707 0.88866734504699707 0.88866734504699707
0.89651018381118774 0.89651018381118774 0.89651018381118774
0.91394335031509399 0.91394335031509399 0.91394335031509399
0.93506759405136108 0.93506759405136108 0.93506759405136108
0.90672200918197632 0.90672200918197632 0.90672200918197632
0.90147525072097778 0.90147525072097778 0.90147525072097778
0.91967159509658813 0.91967159509658813 0.91967159509658813
0.94835448265075684 0.94835448265075684 0.94835448265075684
0.97211509943008423 0.97211509943008423 0.97211509943008423
