luts/instant_pro/polaroid_690.cube
# Created by: G'MIC (https://gmic.eu)
TITLE "polaroid_690"
# LUT size
LUT_3D_SIZE 5
# Data domain
DOMAIN_MIN 0.0 0.0 0.0
DOMAIN_MAX 1.0 1.0 1.0
# LUT data points
0.052494511008262634 0.062631092965602875 0.058821540325880051
0.17367862164974213 0.04483509436249733 0.057134486734867096
0.46429482102394104 0.0047639287076890469 0.057457644492387772
0.76995974779129028 0.0013521680375561118 0.026734162122011185
0.98878419399261475 0 0.0030940636061131954
0.025057354941964149 0.19749192893505096 0.048468288034200668
0.22391873598098755 0.20911766588687897 0.030297910794615746
0.58463501930236816 0.19769944250583649 0.017150010913610458
0.85758614540100098 0.079862423241138458 0.00060694076819345355
0.99907928705215454 0.038444697856903076 0
0.0015918656717985868 0.47235521674156189 0.0036937340628355742
0.19612510502338409 0.47945013642311096 0.0031657051295042038
0.57982265949249268 0.52278667688369751 0.0043614106252789497
0.86794841289520264 0.56931787729263306 0.0050283842720091343
0.99822032451629639 0.58176743984222412 0.0075521133840084076
0.023046920076012611 0.72996640205383301 0
0.25092747807502747 0.72469371557235718 2.1003274014219642e-05
0.54965084791183472 0.73476094007492065 0.0021823807619512081
0.82261842489242554 0.76274210214614868 0.0064682457596063614
0.99039047956466675 0.78223711252212524 0.0036512936931103468
0.49300578236579895 0.92191684246063232 0.12694498896598816
0.55340254306793213 0.91927725076675415 0.09583689272403717
0.68725699186325073 0.91981816291809082 0.058017522096633911
0.83890092372894287 0.93505382537841797 0.068491511046886444
0.97041356563568115 0.95431041717529297 0.080003596842288971
0.017561040818691254 0.066772222518920898 0.19874601066112518
0.18692713975906372 0.04704800620675087 0.22079043090343475
0.46388295292854309 0.00024598065647296607 0.20542995631694794
0.74189400672912598 0.00038188858889043331 0.18463918566703796
0.97605502605438232 3.7339155824156478e-05 0.12947084009647369
0.0067343618720769882 0.20837010443210602 0.23227378726005554
0.24662570655345917 0.22633455693721771 0.25441369414329529
0.55875349044799805 0.14539754390716553 0.23049001395702362
0.82845723628997803 0.022676430642604828 0.18937768042087555
0.99273264408111572 0.0061495760455727577 0.14023548364639282
0.0028152766171842813 0.52658945322036743 0.2434193342924118
0.2224707156419754 0.51749569177627563 0.22468748688697815
0.58981943130493164 0.53854644298553467 0.18723121285438538
0.87712931632995605 0.58164650201797485 0.23650304973125458
0.99866646528244019 0.55581319332122803 0.2415318489074707
0.036375485360622406 0.75165927410125732 0.200333371758461
0.2794138491153717 0.74081647396087646 0.15614473819732666
0.55906182527542114 0.74054509401321411 0.1119842529296875
0.82772946357727051 0.7652815580368042 0.13079945743083954
0.98570311069488525 0.78484112024307251 0.26005810499191284
0.47615796327590942 0.9253389835357666 0.34209099411964417
0.54133284091949463 0.92223185300827026 0.31958475708961487
0.67489719390869141 0.91930228471755981 0.2776789665222168
0.82893776893615723 0.93278855085372925 0.2870337963104248
0.96382582187652588 0.95376551151275635 0.32519063353538513
0.0033739276695996523 0.064374066889286041 0.53817522525787354
0.12777073681354523 0.021547982469201088 0.58108162879943848
0.59337335824966431 0.0016553093446418643 0.62118792533874512
0.80887830257415771 0.0055444752797484398 0.53309673070907593
0.9761500358581543 0.0045748990960419178 0.46518036723136902
0.0018432168290019035 0.22097092866897583 0.55443483591079712
0.20367623865604401 0.23228336870670319 0.59079086780548096
0.6183285117149353 0.23339995741844177 0.63714224100112915
0.81726008653640747 0.12371398508548737 0.53663140535354614
0.97965413331985474 0.0059903012588620186 0.46186813712120056
0.0069960053078830242 0.55161213874816895 0.59289324283599854
0.28680810332298279 0.55376178026199341 0.59825378656387329
0.61301028728485107 0.58203125 0.62677925825119019
0.83682829141616821 0.50564396381378174 0.56636542081832886
0.9976198673248291 0.38785520195960999 0.46743172407150269
0.23023262619972229 0.7794424295425415 0.59433490037918091
0.37968984246253967 0.76465117931365967 0.57951980829238892
0.58884531259536743 0.75695997476577759 0.55039626359939575
0.81429767608642578 0.77296799421310425 0.56951719522476196
0.97456985712051392 0.79403132200241089 0.63452726602554321
0.47363832592964172 0.93047100305557251 0.61530476808547974
0.53276675939559937 0.92418044805526733 0.60921436548233032
0.65288066864013672 0.92599314451217651 0.5727965235710144
0.80665129423141479 0.93411338329315186 0.56636101007461548
0.94713854789733887 0.9561011791229248 0.59989863634109497
0.0027131622191518545 0.056707106530666351 0.83945143222808838
0.21448470652103424 0.014556660316884518 0.85443466901779175
0.63195079565048218 0.0063791163265705109 0.87918591499328613
0.89602327346801758 0.037039946764707565 0.88989901542663574
0.99607932567596436 0.047969307750463486 0.81605488061904907
0.0067089153453707695 0.24649527668952942 0.83339637517929077
0.26704868674278259 0.25130981206893921 0.84486281871795654
0.6378752589225769 0.27828046679496765 0.87164002656936646
0.87953686714172363 0.36071035265922546 0.87847095727920532
0.98997038602828979 0.30753082036972046 0.80675554275512695
0.001455464051105082 0.4926210343837738 0.7958378791809082
0.21585956215858459 0.50462502241134644 0.80530107021331787
0.59304773807525635 0.57230925559997559 0.83361142873764038
0.84188741445541382 0.64437758922576904 0.8670659065246582
0.96439236402511597 0.54737728834152222 0.79155880212783813
0.33783245086669922 0.77238720655441284 0.82847899198532104
0.44593247771263123 0.76812541484832764 0.82928836345672607
0.63978320360183716 0.77169650793075562 0.83869624137878418
0.82645970582962036 0.7989877462387085 0.85682529211044312
0.95531255006790161 0.73756986856460571 0.80617684125900269
0.59647536277770996 0.94034820795059204 0.8560788631439209
0.62377041578292847 0.93814218044281006 0.84917140007019043
0.69784629344940186 0.93875378370285034 0.83314031362533569
0.79528927803039551 0.94035875797271729 0.81214594841003418
0.92370408773422241 0.96273899078369141 0.8339577317237854
0.41769582033157349 0.22793962061405182 0.98871529102325439
0.52332311868667603 0.22270806133747101 0.98954838514328003
0.71275299787521362 0.26188129186630249 0.98917752504348755
0.88640022277832031 0.40743470191955566 0.99247580766677856
0.99383538961410522 0.50646382570266724 0.98945659399032593
0.44543573260307312 0.3843589723110199 0.98695683479309082
0.53886610269546509 0.38727930188179016 0.98628038167953491
0.70772397518157959 0.43514606356620789 0.98601603507995605
0.86500090360641479 0.54052865505218506 0.98764705657958984
0.98140525817871094 0.60303235054016113 0.98569416999816895
0.39916893839836121 0.59548079967498779 0.97559070587158203
0.5042412281036377 0.60682368278503418 0.97125107049942017
0.69188576936721802 0.64243602752685547 0.97625398635864258
0.85164034366607666 0.69744002819061279 0.97721284627914429
0.96443456411361694 0.7287524938583374 0.97890830039978027
0.41858306527137756 0.76902920007705688 0.96203851699829102
0.48185333609580994 0.76451164484024048 0.96047592163085938
0.62962406873703003 0.76305633783340454 0.96412879228591919
0.81928753852844238 0.80093705654144287 0.96830350160598755
0.94361048936843872 0.84853911399841309 0.97058933973312378
0.65401023626327515 0.94534975290298462 0.96465033292770386
0.68347936868667603 0.94636398553848267 0.96656668186187744
0.74684613943099976 0.94996470212936401 0.9658583402633667
0.82942259311676025 0.9551081657409668 0.96571975946426392
0.92137664556503296 0.97560113668441772 0.96828073263168335
