luts/instant_pro/polaroid_669_++.cube
# Created by: G'MIC (https://gmic.eu)
TITLE "polaroid_669_++"
# LUT size
LUT_3D_SIZE 5
# Data domain
DOMAIN_MIN 0.0 0.0 0.0
DOMAIN_MAX 1.0 1.0 1.0
# LUT data points
0.2573581337928772 0.21389339864253998 0.12119811028242111
0.3154265284538269 0.21741843223571777 0.13448043167591095
0.44746282696723938 0.22531232237815857 0.16125090420246124
0.64400142431259155 0.23478850722312927 0.20207934081554413
0.86976653337478638 0.25412678718566895 0.26305392384529114
0.2895260751247406 0.28356358408927917 0.16695895791053772
0.34540098905563354 0.28162357211112976 0.16643191874027252
0.50142472982406616 0.30160537362098694 0.20596224069595337
0.68397361040115356 0.30856361985206604 0.24104122817516327
0.8920404314994812 0.33929765224456787 0.29977485537528992
0.33679288625717163 0.40396004915237427 0.22904029488563538
0.37621518969535828 0.40204071998596191 0.22929272055625916
0.50155293941497803 0.41620954871177673 0.22997614741325378
0.69720232486724854 0.4549412727355957 0.28001430630683899
0.91120719909667969 0.53898763656616211 0.39854499697685242
0.36351090669631958 0.58441722393035889 0.29493197798728943
0.40123474597930908 0.57359951734542847 0.29284775257110596
0.50063121318817139 0.58088165521621704 0.28929078578948975
0.67672640085220337 0.62625187635421753 0.2946072518825531
0.88338303565979004 0.69312024116516113 0.37654802203178406
0.46760031580924988 0.87757253646850586 0.46643504500389099
0.49915939569473267 0.87225610017776489 0.46022194623947144
0.58912950754165649 0.87142139673233032 0.46061629056930542
0.75022834539413452 0.89733529090881348 0.49667027592658997
0.91715466976165771 0.92648255825042725 0.55573320388793945
0.25579574704170227 0.22762258350849152 0.21355745196342468
0.31738916039466858 0.23280273377895355 0.23658861219882965
0.46584644913673401 0.24377326667308807 0.27587926387786865
0.66008275747299194 0.23989163339138031 0.30315646529197693
0.87447547912597656 0.25318169593811035 0.35519629716873169
0.28976020216941833 0.2999369204044342 0.26905640959739685
0.36238151788711548 0.30735489726066589 0.29754537343978882
0.51066219806671143 0.31766372919082642 0.32451173663139343
0.69146227836608887 0.32110941410064697 0.34838053584098816
0.89332675933837891 0.34226846694946289 0.38406503200531006
0.3458537757396698 0.45599323511123657 0.34750977158546448
0.39387214183807373 0.44224333763122559 0.34604701399803162
0.52110421657562256 0.44472441077232361 0.34193983674049377
0.72440183162689209 0.48785185813903809 0.39802238345146179
0.91391080617904663 0.54889595508575439 0.47779995203018188
0.36870855093002319 0.62818539142608643 0.38692286610603333
0.41011974215507507 0.61833173036575317 0.38174426555633545
0.50706189870834351 0.609142005443573 0.37175276875495911
0.6868516206741333 0.64026033878326416 0.37705409526824951
0.88788688182830811 0.71342223882675171 0.46882763504981995
0.47555872797966003 0.88743752241134644 0.52649849653244019
0.50768160820007324 0.88294303417205811 0.52171570062637329
0.59064280986785889 0.87942385673522949 0.51509225368499756
0.74690216779708862 0.90105360746383667 0.54148393869400024
0.91626846790313721 0.92803710699081421 0.59532082080841064
0.21340876817703247 0.25930199027061462 0.42942050099372864
0.29414990544319153 0.26150143146514893 0.45855265855789185
0.494394451379776 0.29144373536109924 0.51850301027297974
0.70600056648254395 0.32516536116600037 0.56657153367996216
0.9041982889175415 0.34734544157981873 0.58732980489730835
0.2729494571685791 0.35098129510879517 0.48739871382713318
0.34389245510101318 0.35256144404411316 0.51920604705810547
0.53322356939315796 0.37570279836654663 0.56540977954864502
0.72799956798553467 0.40608185529708862 0.59208446741104126
0.90907537937164307 0.39685326814651489 0.58606171607971191
0.31256720423698425 0.5195581316947937 0.56489795446395874
0.39567685127258301 0.52137160301208496 0.57193917036056519
0.56353330612182617 0.53231441974639893 0.59950029850006104
0.73911571502685547 0.53487598896026611 0.6073722243309021
0.90458518266677856 0.54748404026031494 0.61166417598724365
0.35959017276763916 0.7160264253616333 0.58234471082687378
0.42359349131584167 0.70844447612762451 0.58356648683547974
0.54367971420288086 0.6837766170501709 0.57694220542907715
0.71372562646865845 0.6941489577293396 0.57432395219802856
0.89328622817993164 0.76226615905761719 0.65634113550186157
0.49883106350898743 0.91145700216293335 0.66186171770095825
0.52798360586166382 0.90906250476837158 0.65601152181625366
0.60478037595748901 0.9019966721534729 0.6431695818901062
0.73654806613922119 0.90629708766937256 0.64024525880813599
0.91471892595291138 0.93323123455047607 0.68214720487594604
0.0044727250933647156 0.33163875341415405 0.72988033294677734
0.15962746739387512 0.32196015119552612 0.74395334720611572
0.50725382566452026 0.36324813961982727 0.77232271432876587
0.762950599193573 0.44082969427108765 0.79619282484054565
0.90973317623138428 0.54974073171615601 0.80945664644241333
0.19240358471870422 0.43201825022697449 0.74732905626296997
0.28401085734367371 0.41542777419090271 0.75639396905899048
0.53732335567474365 0.45388501882553101 0.78087133169174194
0.77043938636779785 0.53586941957473755 0.80071932077407837
0.90571916103363037 0.62222969532012939 0.81681352853775024
0.25616288185119629 0.58152341842651367 0.73888522386550903
0.36775973439216614 0.58796900510787964 0.74778097867965698
0.56428498029708862 0.60138636827468872 0.78032577037811279
0.77598667144775391 0.68476533889770508 0.81233114004135132
0.89890128374099731 0.72856616973876953 0.82356494665145874
0.40192052721977234 0.77908015251159668 0.78113329410552979
0.46355020999908447 0.78017729520797729 0.78213775157928467
0.60461825132369995 0.78591132164001465 0.79305094480514526
0.77176231145858765 0.80486041307449341 0.81142771244049072
0.9000016450881958 0.80452686548233032 0.809253990650177
0.59354430437088013 0.9443366527557373 0.80607682466506958
0.61721599102020264 0.9426645040512085 0.8047986626625061
0.67418062686920166 0.93998485803604126 0.80325901508331299
0.75811076164245605 0.92802602052688599 0.78983563184738159
0.91761249303817749 0.94230574369430542 0.7998548150062561
0.26746875047683716 0.50954604148864746 0.90234220027923584
0.36032941937446594 0.49792271852493286 0.90264225006103516
0.60534793138504028 0.55420440435409546 0.89957994222640991
0.82008266448974609 0.6725614070892334 0.89592063426971436
0.9367058277130127 0.75624895095825195 0.88952732086181641
0.38778266310691833 0.60054856538772583 0.89511692523956299
0.44970157742500305 0.59124529361724854 0.89615356922149658
0.63269931077957153 0.62343513965606689 0.89674645662307739
0.82205104827880859 0.72232949733734131 0.89253330230712891
0.93209385871887207 0.79220104217529297 0.8864281177520752
0.47313538193702698 0.74456846714019775 0.87935501337051392
0.53184777498245239 0.73916006088256836 0.87993377447128296
0.64994621276855469 0.73306554555892944 0.88638579845428467
0.82261711359024048 0.79741263389587402 0.88630706071853638
0.93032097816467285 0.85212785005569458 0.88345623016357422
0.49160182476043701 0.8691028356552124 0.87430137395858765
0.53237015008926392 0.86355757713317871 0.87377125024795532
0.64092576503753662 0.86128193140029907 0.87572920322418213
0.81392586231231689 0.87894755601882935 0.88076025247573853
0.93878388404846191 0.9176706075668335 0.88373821973800659
0.71336919069290161 0.97585475444793701 0.87726396322250366
0.73000621795654297 0.97222399711608887 0.87799364328384399
0.78286415338516235 0.97051107883453369 0.87844443321228027
0.86118656396865845 0.96701645851135254 0.87985068559646606
0.96347391605377197 0.96996158361434937 0.88219135999679565
