luts/instant_pro/polaroid_669_cold.cube
# Created by: G'MIC (https://gmic.eu)
TITLE "polaroid_669_cold"
# LUT size
LUT_3D_SIZE 5
# Data domain
DOMAIN_MIN 0.0 0.0 0.0
DOMAIN_MAX 1.0 1.0 1.0
# LUT data points
0.001486550085246563 0.19557704031467438 0.25195115804672241
0.0065309260971844196 0.20241107046604156 0.26451006531715393
0.26962769031524658 0.20958833396434784 0.28756916522979736
0.56940829753875732 0.19914287328720093 0.32245033979415894
0.84130215644836426 0.20748472213745117 0.36573797464370728
0.0025324353482574224 0.25614446401596069 0.30018016695976257
0.059660010039806366 0.25841465592384338 0.29226592183113098
0.36765572428703308 0.2720026969909668 0.32160776853561401
0.63955289125442505 0.28115564584732056 0.35550037026405334
0.86624014377593994 0.31302624940872192 0.39818421006202698
0.06663927435874939 0.38236263394355774 0.34619474411010742
0.19026580452919006 0.37545034289360046 0.34618487954139709
0.40496110916137695 0.38886091113090515 0.34802314639091492
0.66701614856719971 0.44410005211830139 0.38623437285423279
0.87795418500900269 0.55146318674087524 0.48054009675979614
0.21969808638095856 0.59456771612167358 0.39857494831085205
0.28727057576179504 0.57618707418441772 0.39461216330528259
0.43825438618659973 0.59300804138183594 0.39786145091056824
0.64161068201065063 0.64230245351791382 0.40027973055839539
0.83317321538925171 0.73553448915481567 0.47254776954650879
0.38733527064323425 0.92088812589645386 0.55190205574035645
0.42258056998252869 0.91731798648834229 0.54388642311096191
0.52109968662261963 0.91813695430755615 0.54701578617095947
0.67582833766937256 0.93995261192321777 0.58241158723831177
0.83355212211608887 0.96566343307495117 0.65336161851882935
0.00010272755025653169 0.20621025562286377 0.31499740481376648
0.0044546537101268768 0.21456287801265717 0.33309203386306763
0.30666857957839966 0.21991060674190521 0.3656260073184967
0.59783840179443359 0.19582511484622955 0.39165925979614258
0.84631943702697754 0.1997448205947876 0.42934200167655945
0.0020503473933786154 0.27683606743812561 0.36458727717399597
0.098891988396644592 0.27963310480117798 0.38117620348930359
0.39633184671401978 0.28592798113822937 0.40462169051170349
0.65209281444549561 0.2845911979675293 0.43096324801445007
0.86806255578994751 0.31681489944458008 0.46281135082244873
0.10948062688112259 0.4267534613609314 0.42417603731155396
0.24073916673660278 0.42155629396438599 0.42979168891906738
0.45222100615501404 0.42230421304702759 0.42921990156173706
0.69663369655609131 0.47640693187713623 0.47329255938529968
0.87097656726837158 0.56460046768188477 0.54658335447311401
0.2408430427312851 0.64283019304275513 0.46610081195831299
0.31304249167442322 0.6273186206817627 0.46191856265068054
0.45726755261421204 0.62596654891967773 0.46018156409263611
0.6523250937461853 0.66934376955032349 0.46432885527610779
0.83060109615325928 0.75949835777282715 0.54631596803665161
0.4000912606716156 0.92930096387863159 0.60152536630630493
0.43435066938400269 0.92366760969161987 0.59363603591918945
0.5245739221572876 0.9204401969909668 0.59083634614944458
0.67536711692810059 0.94577318429946899 0.62094676494598389
0.83244681358337402 0.96860986948013306 0.68035042285919189
0 0.23281230032444 0.46475943922996521
0.0071439258754253387 0.23663164675235748 0.49339577555656433
0.37782445549964905 0.25201931595802307 0.54877662658691406
0.66288793087005615 0.2758752703666687 0.59727185964584351
0.87792432308197021 0.31329324841499329 0.62526899576187134
0.0022951762657612562 0.32181784510612488 0.5230829119682312
0.057782504707574844 0.31211835145950317 0.54813677072525024
0.45572325587272644 0.33498957753181458 0.59390199184417725
0.69562315940856934 0.3688814640045166 0.62246227264404297
0.87849229574203491 0.37860989570617676 0.62626916170120239
0.065850049257278442 0.49535489082336426 0.59891372919082642
0.27741503715515137 0.49892279505729675 0.60651916265487671
0.51881211996078491 0.51867789030075073 0.63795429468154907
0.71252822875976562 0.53326082229614258 0.64662915468215942
0.86722147464752197 0.57123452425003052 0.65971416234970093
0.24777188897132874 0.7428402304649353 0.62909042835235596
0.34554752707481384 0.73443543910980225 0.63153171539306641
0.49574831128120422 0.71100151538848877 0.62506401538848877
0.67103111743927002 0.73074191808700562 0.62678229808807373
0.82213681936264038 0.81725966930389404 0.70262038707733154
0.4323420524597168 0.949798583984375 0.71092033386230469
0.46864047646522522 0.94748842716217041 0.70723366737365723
0.54152542352676392 0.94305318593978882 0.6997377872467041
0.67243224382400513 0.95082134008407593 0.70884591341018677
0.82973861694335938 0.97148525714874268 0.74350380897521973
0 0.30213090777397156 0.73263335227966309
0.00072673725662752986 0.29447448253631592 0.75107944011688232
0.42962741851806641 0.31791520118713379 0.78655844926834106
0.73289966583251953 0.40729719400405884 0.81434649229049683
0.86631214618682861 0.55779427289962769 0.82959401607513428
0.0033174401614814997 0.40276649594306946 0.7595706582069397
0.015645824372768402 0.38272339105606079 0.77287596464157104
0.48546904325485229 0.41876706480979919 0.80068117380142212
0.73522555828094482 0.53232783079147339 0.82169950008392334
0.8521004319190979 0.65240186452865601 0.83496361970901489
0.0061212279833853245 0.57697999477386475 0.76415449380874634
0.2519201934337616 0.57986962795257568 0.77098530530929565
0.51466220617294312 0.60329186916351318 0.79804849624633789
0.72190237045288086 0.70867705345153809 0.82742446660995483
0.83044707775115967 0.77604883909225464 0.83938384056091309
0.31637299060821533 0.81347477436065674 0.80089622735977173
0.39120602607727051 0.8166581392288208 0.80507194995880127
0.54997813701629639 0.82856482267379761 0.81671601533889771
0.70207494497299194 0.85322344303131104 0.82825398445129395
0.82073003053665161 0.86582207679748535 0.83310955762863159
0.53603196144104004 0.97775125503540039 0.8337714672088623
0.56027847528457642 0.97533619403839111 0.83162564039230347
0.61472463607788086 0.97487896680831909 0.83254098892211914
0.69605004787445068 0.96991139650344849 0.82134878635406494
0.83139961957931519 0.97604000568389893 0.8336072564125061
0.069023147225379944 0.47589284181594849 0.92349010705947876
0.19068726897239685 0.46167799830436707 0.92659211158752441
0.5587807297706604 0.53922957181930542 0.92273628711700439
0.75936830043792725 0.69767659902572632 0.9190603494644165
0.85117602348327637 0.80390506982803345 0.91305148601531982
0.26216006278991699 0.58868193626403809 0.91989022493362427
0.36434704065322876 0.58083885908126831 0.91828888654708862
0.57950329780578613 0.62614023685455322 0.91940033435821533
0.75399541854858398 0.76111304759979248 0.91379654407501221
0.84461492300033569 0.84755569696426392 0.91012942790985107
0.37481892108917236 0.76740473508834839 0.90239405632019043
0.45256480574607849 0.76244771480560303 0.90322566032409668
0.58990168571472168 0.76792252063751221 0.9077945351600647
0.7365303635597229 0.84090369939804077 0.90776342153549194
0.83735376596450806 0.91090905666351318 0.90932714939117432
0.39793556928634644 0.91091632843017578 0.89471596479415894
0.44996809959411621 0.90736210346221924 0.89478689432144165
0.56138372421264648 0.9042670726776123 0.8967100977897644
0.725272536277771 0.9252505898475647 0.90483945608139038
0.84339386224746704 0.96098071336746216 0.91211003065109253
0.64626771211624146 0.98975628614425659 0.90628141164779663
0.66772615909576416 0.9905550479888916 0.90697962045669556
0.70059973001480103 0.98914593458175659 0.9054877758026123
0.78156882524490356 0.99084794521331787 0.91069579124450684
0.87365210056304932 0.99325406551361084 0.9161689281463623
