luts/instant_pro/polaroid_665_negative.cube
# Created by: G'MIC (https://gmic.eu)
TITLE "polaroid_665_negative"
# LUT size
LUT_3D_SIZE 13
# Data domain
DOMAIN_MIN 0.0 0.0 0.0
DOMAIN_MAX 1.0 1.0 1.0
# LUT data points
0.035117264837026596 0.035117264837026596 0.035117264837026596
0.039087019860744476 0.039087019860744476 0.039087019860744476
0.052510488778352737 0.052510488778352737 0.052510488778352737
0.078842014074325562 0.078842014074325562 0.078842014074325562
0.11813128739595413 0.11813128739595413 0.11813128739595413
0.16580548882484436 0.16580548882484436 0.16580548882484436
0.21605932712554932 0.21605932712554932 0.21605932712554932
0.2677236795425415 0.2677236795425415 0.2677236795425415
0.32113409042358398 0.32113409042358398 0.32113409042358398
0.3761233389377594 0.3761233389377594 0.3761233389377594
0.43330943584442139 0.43330943584442139 0.43330943584442139
0.49359524250030518 0.49359524250030518 0.49359524250030518
0.55628526210784912 0.55628526210784912 0.55628526210784912
0.068824306130409241 0.068824306130409241 0.068824306130409241
0.071482382714748383 0.071482382714748383 0.071482382714748383
0.082985579967498779 0.082985579967498779 0.082985579967498779
0.10579412430524826 0.10579412430524826 0.10579412430524826
0.14008735120296478 0.14008735120296478 0.14008735120296478
0.18251611292362213 0.18251611292362213 0.18251611292362213
0.22954331338405609 0.22954331338405609 0.22954331338405609
0.27925711870193481 0.27925711870193481 0.27925711870193481
0.33104702830314636 0.33104702830314636 0.33104702830314636
0.38463759422302246 0.38463759422302246 0.38463759422302246
0.44010722637176514 0.44010722637176514 0.44010722637176514
0.4992973804473877 0.4992973804473877 0.4992973804473877
0.56181931495666504 0.56181931495666504 0.56181931495666504
0.11598453670740128 0.11598453670740128 0.11598453670740128
0.11755041778087616 0.11755041778087616 0.11755041778087616
0.12686158716678619 0.12686158716678619 0.12686158716678619
0.14462888240814209 0.14462888240814209 0.14462888240814209
0.17176122963428497 0.17176122963428497 0.17176122963428497
0.20722460746765137 0.20722460746765137 0.20722460746765137
0.24897503852844238 0.24897503852844238 0.24897503852844238
0.2952997088432312 0.2952997088432312 0.2952997088432312
0.34516331553459167 0.34516331553459167 0.34516331553459167
0.39720058441162109 0.39720058441162109 0.39720058441162109
0.45171347260475159 0.45171347260475159 0.45171347260475159
0.51004773378372192 0.51004773378372192 0.51004773378372192
0.57191812992095947 0.57191812992095947 0.57191812992095947
0.17495186626911163 0.17495186626911163 0.17495186626911163
0.17547690868377686 0.17547690868377686 0.17547690868377686
0.18127334117889404 0.18127334117889404 0.18127334117889404
0.19354675710201263 0.19354675710201263 0.19354675710201263
0.21323959529399872 0.21323959529399872 0.21323959529399872
0.24090951681137085 0.24090951681137085 0.24090951681137085
0.27626848220825195 0.27626848220825195 0.27626848220825195
0.31802734732627869 0.31802734732627869 0.31802734732627869
0.36479991674423218 0.36479991674423218 0.36479991674423218
0.41546362638473511 0.41546362638473511 0.41546362638473511
0.46964535117149353 0.46964535117149353 0.46964535117149353
0.52807140350341797 0.52807140350341797 0.52807140350341797
0.58904075622558594 0.58904075622558594 0.58904075622558594
0.24371393024921417 0.24371393024921417 0.24371393024921417
0.24305692315101624 0.24305692315101624 0.24305692315101624
0.24509319663047791 0.24509319663047791 0.24509319663047791
0.25133085250854492 0.25133085250854492 0.25133085250854492
0.26349145174026489 0.26349145174026489 0.26349145174026489
0.28336772322654724 0.28336772322654724 0.28336772322654724
0.31170061230659485 0.31170061230659485 0.31170061230659485
0.3481614887714386 0.3481614887714386 0.3481614887714386
0.39104750752449036 0.39104750752449036 0.39104750752449036
0.43965697288513184 0.43965697288513184 0.43965697288513184
0.49367058277130127 0.49367058277130127 0.49367058277130127
0.55173796415328979 0.55173796415328979 0.55173796415328979
0.61195534467697144 0.61195534467697144 0.61195534467697144
0.31908276677131653 0.31908276677131653 0.31908276677131653
0.31690171360969543 0.31690171360969543 0.31690171360969543
0.31529220938682556 0.31529220938682556 0.31529220938682556
0.3163067102432251 0.3163067102432251 0.3163067102432251
0.32213923335075378 0.32213923335075378 0.32213923335075378
0.33498284220695496 0.33498284220695496 0.33498284220695496
0.35640090703964233 0.35640090703964233 0.35640090703964233
0.3863709568977356 0.3863709568977356 0.3863709568977356
0.42422130703926086 0.42422130703926086 0.42422130703926086
0.46945953369140625 0.46945953369140625 0.46945953369140625
0.52217334508895874 0.52217334508895874 0.52217334508895874
0.57986360788345337 0.57986360788345337 0.57986360788345337
0.63957279920578003 0.63957279920578003 0.63957279920578003
0.39670732617378235 0.39670732617378235 0.39670732617378235
0.39327177405357361 0.39327177405357361 0.39327177405357361
0.38936802744865417 0.38936802744865417 0.38936802744865417
0.3866780698299408 0.3866780698299408 0.3866780698299408
0.38774740695953369 0.38774740695953369 0.38774740695953369
0.39489591121673584 0.39489591121673584 0.39489591121673584
0.40949723124504089 0.40949723124504089 0.40949723124504089
0.43207928538322449 0.43207928538322449 0.43207928538322449
0.46328896284103394 0.46328896284103394 0.46328896284103394
0.50395327806472778 0.50395327806472778 0.50395327806472778
0.55422395467758179 0.55422395467758179 0.55422395467758179
0.61104321479797363 0.61104321479797363 0.61104321479797363
0.66949355602264404 0.66949355602264404 0.66949355602264404
0.47365066409111023 0.47365066409111023 0.47365066409111023
0.46980872750282288 0.46980872750282288 0.46980872750282288
0.46435850858688354 0.46435850858688354 0.46435850858688354
0.45992386341094971 0.45992386341094971 0.45992386341094971
0.45815294981002808 0.45815294981002808 0.45815294981002808
0.46103963255882263 0.46103963255882263 0.46103963255882263
0.46986123919487 0.46986123919487 0.46986123919487
0.48561647534370422 0.48561647534370422 0.48561647534370422
0.50899791717529297 0.50899791717529297 0.50899791717529297
0.54341089725494385 0.54341089725494385 0.54341089725494385
0.58967161178588867 0.58967161178588867 0.58967161178588867
0.64364653825759888 0.64364653825759888 0.64364653825759888
0.6993870735168457 0.6993870735168457 0.6993870735168457
0.5493658185005188 0.5493658185005188 0.5493658185005188
0.54484844207763672 0.54484844207763672 0.54484844207763672
0.53951597213745117 0.53951597213745117 0.53951597213745117
0.53457140922546387 0.53457140922546387 0.53457140922546387
0.5314871072769165 0.5314871072769165 0.5314871072769165
0.53198975324630737 0.53198975324630737 0.53198975324630737
0.5367133617401123 0.5367133617401123 0.5367133617401123
0.54666566848754883 0.54666566848754883 0.54666566848754883
0.56289589405059814 0.56289589405059814 0.56289589405059814
0.59025579690933228 0.59025579690933228 0.59025579690933228
0.63076204061508179 0.63076204061508179 0.63076204061508179
0.67878401279449463 0.67878401279449463 0.67878401279449463
0.72863298654556274 0.72863298654556274 0.72863298654556274
0.62382882833480835 0.62382882833480835 0.62382882833480835
0.61936795711517334 0.61936795711517334 0.61936795711517334
0.61440998315811157 0.61440998315811157 0.61440998315811157
0.60994118452072144 0.60994118452072144 0.60994118452072144
0.6070132851600647 0.6070132851600647 0.6070132851600647
0.60630059242248535 0.60630059242248535 0.60630059242248535
0.60910850763320923 0.60910850763320923 0.60910850763320923
0.61561334133148193 0.61561334133148193 0.61561334133148193
0.62754154205322266 0.62754154205322266 0.62754154205322266
0.64830517768859863 0.64830517768859863 0.64830517768859863
0.68018031120300293 0.68018031120300293 0.68018031120300293
0.71915966272354126 0.71915966272354126 0.71915966272354126
0.76125919818878174 0.76125919818878174 0.76125919818878174
0.69837695360183716 0.69837695360183716 0.69837695360183716
0.69407540559768677 0.69407540559768677 0.69407540559768677
0.68951785564422607 0.68951785564422607 0.68951785564422607
0.68561989068984985 0.68561989068984985 0.68561989068984985
0.68330675363540649 0.68330675363540649 0.68330675363540649
0.68298876285552979 0.68298876285552979 0.68298876285552979
0.68488991260528564 0.68488991260528564 0.68488991260528564
0.6900489330291748 0.6900489330291748 0.6900489330291748
0.69852310419082642 0.69852310419082642 0.69852310419082642
0.71335595846176147 0.71335595846176147 0.71335595846176147
0.7358698844909668 0.7358698844909668 0.7358698844909668
0.76482731103897095 0.76482731103897095 0.76482731103897095
0.79853588342666626 0.79853588342666626 0.79853588342666626
0.77324795722961426 0.77324795722961426 0.77324795722961426
0.76896953582763672 0.76896953582763672 0.76896953582763672
0.76426196098327637 0.76426196098327637 0.76426196098327637
0.76078104972839355 0.76078104972839355 0.76078104972839355
0.75917387008666992 0.75917387008666992 0.75917387008666992
0.75923573970794678 0.75923573970794678 0.75923573970794678
0.76168155670166016 0.76168155670166016 0.76168155670166016
0.76580631732940674 0.76580631732940674 0.76580631732940674
0.77174872159957886 0.77174872159957886 0.77174872159957886
0.78048890829086304 0.78048890829086304 0.78048890829086304
0.79454207420349121 0.79454207420349121 0.79454207420349121
0.81434023380279541 0.81434023380279541 0.81434023380279541
0.83987796306610107 0.83987796306610107 0.83987796306610107
0.84657585620880127 0.84657585620880127 0.84657585620880127
0.84198397397994995 0.84198397397994995 0.84198397397994995
0.83720362186431885 0.83720362186431885 0.83720362186431885
0.83382773399353027 0.83382773399353027 0.83382773399353027
0.83238393068313599 0.83238393068313599 0.83238393068313599
0.83300083875656128 0.83300083875656128 0.83300083875656128
0.83566534519195557 0.83566534519195557 0.83566534519195557
0.8395807147026062 0.8395807147026062 0.8395807147026062
0.84283196926116943 0.84283196926116943 0.84283196926116943
0.84627252817153931 0.84627252817153931 0.84627252817153931
0.85361200571060181 0.85361200571060181 0.85361200571060181
0.86618030071258545 0.86618030071258545 0.86618030071258545
0.88466298580169678 0.88466298580169678 0.88466298580169678
0.06572829931974411 0.06572829931974411 0.06572829931974411
0.066829219460487366 0.066829219460487366 0.066829219460487366
0.07606920599937439 0.07606920599937439 0.07606920599937439
0.098534435033798218 0.098534435033798218 0.098534435033798218
0.13757430016994476 0.13757430016994476 0.13757430016994476
0.18600577116012573 0.18600577116012573 0.18600577116012573
0.23542244732379913 0.23542244732379913 0.23542244732379913
0.28656286001205444 0.28656286001205444 0.28656286001205444
0.33889764547348022 0.33889764547348022 0.33889764547348022
0.39157062768936157 0.39157062768936157 0.39157062768936157
0.44548842310905457 0.44548842310905457 0.44548842310905457
0.50262999534606934 0.50262999534606934 0.50262999534606934
0.56334930658340454 0.56334930658340454 0.56334930658340454
0.09529036283493042 0.09529036283493042 0.09529036283493042
0.096435561776161194 0.096435561776161194 0.096435561776161194
0.10551942139863968 0.10551942139863968 0.10551942139863968
0.1257755309343338 0.1257755309343338 0.1257755309343338
0.15848517417907715 0.15848517417907715 0.15848517417907715
0.20016224682331085 0.20016224682331085 0.20016224682331085
0.24664877355098724 0.24664877355098724 0.24664877355098724
0.29644405841827393 0.29644405841827393 0.29644405841827393
0.34742847084999084 0.34742847084999084 0.34742847084999084
0.3983910083770752 0.3983910083770752 0.3983910083770752
0.45038869976997375 0.45038869976997375 0.45038869976997375
0.50609350204467773 0.50609350204467773 0.50609350204467773
0.56777161359786987 0.56777161359786987 0.56777161359786987
0.1394975483417511 0.1394975483417511 0.1394975483417511
0.14068245887756348 0.14068245887756348 0.14068245887756348
0.14876358211040497 0.14876358211040497 0.14876358211040497
0.16485902667045593 0.16485902667045593 0.16485902667045593
0.18988995254039764 0.18988995254039764 0.18988995254039764
0.22362683713436127 0.22362683713436127 0.22362683713436127
0.26433244347572327 0.26433244347572327 0.26433244347572327
0.31045854091644287 0.31045854091644287 0.31045854091644287
0.35924670100212097 0.35924670100212097 0.35924670100212097
0.40900316834449768 0.40900316834449768 0.40900316834449768
0.46051928400993347 0.46051928400993347 0.46051928400993347
0.51576882600784302 0.51576882600784302 0.51576882600784302
0.57716304063796997 0.57716304063796997 0.57716304063796997
0.1977277547121048 0.1977277547121048 0.1977277547121048
0.19804845750331879 0.19804845750331879 0.19804845750331879
0.2029721587896347 0.2029721587896347 0.2029721587896347
0.21321062743663788 0.21321062743663788 0.21321062743663788
0.2303440123796463 0.2303440123796463 0.2303440123796463
0.25562134385108948 0.25562134385108948 0.25562134385108948
0.28964847326278687 0.28964847326278687 0.28964847326278687
0.33080679178237915 0.33080679178237915 0.33080679178237915
0.3765377402305603 0.3765377402305603 0.3765377402305603
0.42544436454772949 0.42544436454772949 0.42544436454772949
0.47744405269622803 0.47744405269622803 0.47744405269622803
0.5334363579750061 0.5334363579750061 0.5334363579750061
0.59390991926193237 0.59390991926193237 0.59390991926193237
0.26730409264564514 0.26730409264564514 0.26730409264564514
0.26617312431335449 0.26617312431335449 0.26617312431335449
0.26685598492622375 0.26685598492622375 0.26685598492622375
0.27063873410224915 0.27063873410224915 0.27063873410224915
0.27955734729766846 0.27955734729766846 0.27955734729766846
0.29651814699172974 0.29651814699172974 0.29651814699172974
0.32348412275314331 0.32348412275314331 0.32348412275314331
0.35898101329803467 0.35898101329803467 0.35898101329803467
0.40077537298202515 0.40077537298202515 0.40077537298202515
0.44793593883514404 0.44793593883514404 0.44793593883514404
0.50005996227264404 0.50005996227264404 0.50005996227264404
0.55652761459350586 0.55652761459350586 0.55652761459350586
0.61570793390274048 0.61570793390274048 0.61570793390274048
0.34439033269882202 0.34439033269882202 0.34439033269882202
0.34153848886489868 0.34153848886489868 0.34153848886489868
0.33778467774391174 0.33778467774391174 0.33778467774391174
0.335410475730896 0.335410475730896 0.335410475730896
0.33756467700004578 0.33756467700004578 0.33756467700004578
0.3473084568977356 0.3473084568977356 0.3473084568977356
0.36684024333953857 0.36684024333953857 0.36684024333953857
0.39569702744483948 0.39569702744483948 0.39569702744483948
0.43229076266288757 0.43229076266288757 0.43229076266288757
0.47618940472602844 0.47618940472602844 0.47618940472602844
0.52700954675674438 0.52700954675674438 0.52700954675674438
0.58289486169815063 0.58289486169815063 0.58289486169815063
0.64109140634536743 0.64109140634536743 0.64109140634536743
0.42248493432998657 0.42248493432998657 0.42248493432998657
0.41839498281478882 0.41839498281478882 0.41839498281478882
0.4116828441619873 0.4116828441619873 0.4116828441619873
0.40543243288993835 0.40543243288993835 0.40543243288993835
0.40288048982620239 0.40288048982620239 0.40288048982620239
0.40697202086448669 0.40697202086448669 0.40697202086448669
0.41973990201950073 0.41973990201950073 0.41973990201950073
0.44079163670539856 0.44079163670539856 0.44079163670539856
0.47042405605316162 0.47042405605316162 0.47042405605316162
0.50939738750457764 0.50939738750457764 0.50939738750457764
0.55755466222763062 0.55755466222763062 0.55755466222763062
0.6121181845664978 0.6121181845664978 0.6121181845664978
0.66870176792144775 0.66870176792144775 0.66870176792144775
0.49749290943145752 0.49749290943145752 0.49749290943145752
0.49273169040679932 0.49273169040679932 0.49273169040679932
0.48509994149208069 0.48509994149208069 0.48509994149208069
0.47735407948493958 0.47735407948493958 0.47735407948493958
0.47262099385261536 0.47262099385261536 0.47262099385261536
0.47294828295707703 0.47294828295707703 0.47294828295707703
0.47958642244338989 0.47958642244338989 0.47958642244338989
0.49337804317474365 0.49337804317474365 0.49337804317474365
0.51527225971221924 0.51527225971221924 0.51527225971221924
0.54794812202453613 0.54794812202453613 0.54794812202453613
0.59209960699081421 0.59209960699081421 0.59209960699081421
0.64349889755249023 0.64349889755249023 0.64349889755249023
0.69702708721160889 0.69702708721160889 0.69702708721160889
0.56892555952072144 0.56892555952072144 0.56892555952072144
0.563820481300354 0.563820481300354 0.563820481300354
0.55673801898956299 0.55673801898956299 0.55673801898956299
0.54963254928588867 0.54963254928588867 0.54963254928588867
0.54443800449371338 0.54443800449371338 0.54443800449371338
0.54277068376541138 0.54277068376541138 0.54277068376541138
0.54551470279693604 0.54551470279693604 0.54551470279693604
0.55350291728973389 0.55350291728973389 0.55350291728973389
0.56837093830108643 0.56837093830108643 0.56837093830108643
0.59389334917068481 0.59389334917068481 0.59389334917068481
0.63221555948257446 0.63221555948257446 0.63221555948257446
0.67821812629699707 0.67821812629699707 0.67821812629699707
0.72626662254333496 0.72626662254333496 0.72626662254333496
0.63835197687149048 0.63835197687149048 0.63835197687149048
0.63321834802627563 0.63321834802627563 0.63321834802627563
0.62747091054916382 0.62747091054916382 0.62747091054916382
0.62203031778335571 0.62203031778335571 0.62203031778335571
0.61765480041503906 0.61765480041503906 0.61765480041503906
0.61570608615875244 0.61570608615875244 0.61570608615875244
0.6164863109588623 0.6164863109588623 0.6164863109588623
0.62116950750350952 0.62116950750350952 0.62116950750350952
0.63150215148925781 0.63150215148925781 0.63150215148925781
0.65068626403808594 0.65068626403808594 0.65068626403808594
0.68075549602508545 0.68075549602508545 0.68075549602508545
0.71799880266189575 0.71799880266189575 0.71799880266189575
0.75956708192825317 0.75956708192825317 0.75956708192825317
0.70794570446014404 0.70794570446014404 0.70794570446014404
0.70300567150115967 0.70300567150115967 0.70300567150115967
0.69837814569473267 0.69837814569473267 0.69837814569473267
0.69449985027313232 0.69449985027313232 0.69449985027313232
0.69152647256851196 0.69152647256851196 0.69152647256851196
0.68993473052978516 0.68993473052978516 0.68993473052978516
0.69055092334747314 0.69055092334747314 0.69055092334747314
0.69360387325286865 0.69360387325286865 0.69360387325286865
0.70074307918548584 0.70074307918548584 0.70074307918548584
0.71415990591049194 0.71415990591049194 0.71415990591049194
0.73529577255249023 0.73529577255249023 0.73529577255249023
0.76302933692932129 0.76302933692932129 0.76302933692932129
0.79584014415740967 0.79584014415740967 0.79584014415740967
0.77886837720870972 0.77886837720870972 0.77886837720870972
0.77422440052032471 0.77422440052032471 0.77422440052032471
0.77006763219833374 0.77006763219833374 0.77006763219833374
0.76695060729980469 0.76695060729980469 0.76695060729980469
0.7649378776550293 0.7649378776550293 0.7649378776550293
0.76411306858062744 0.76411306858062744 0.76411306858062744
0.76476162672042847 0.76476162672042847 0.76476162672042847
0.76717692613601685 0.76717692613601685 0.76717692613601685
0.77146202325820923 0.77146202325820923 0.77146202325820923
0.77949404716491699 0.77949404716491699 0.77949404716491699
0.79297608137130737 0.79297608137130737 0.79297608137130737
0.81206214427947998 0.81206214427947998 0.81206214427947998
0.83697289228439331 0.83697289228439331 0.83697289228439331
0.8495098352432251 0.8495098352432251 0.8495098352432251
0.84521710872650146 0.84521710872650146 0.84521710872650146
0.8409804105758667 0.8409804105758667 0.8409804105758667
0.83789557218551636 0.83789557218551636 0.83789557218551636
0.83603233098983765 0.83603233098983765 0.83603233098983765
0.83546918630599976 0.83546918630599976 0.83546918630599976
0.83628123998641968 0.83628123998641968 0.83628123998641968
0.83833569288253784 0.83833569288253784 0.83833569288253784
0.84020650386810303 0.84020650386810303 0.84020650386810303
0.84358638525009155 0.84358638525009155 0.84358638525009155
0.85083359479904175 0.85083359479904175 0.85083359479904175
0.863242506980896 0.863242506980896 0.863242506980896
0.88172531127929688 0.88172531127929688 0.88172531127929688
0.11098387837409973 0.11098387837409973 0.11098387837409973
0.11262901127338409 0.11262901127338409 0.11262901127338409
0.11932995170354843 0.11932995170354843 0.11932995170354843
0.13645912706851959 0.13645912706851959 0.13645912706851959
0.16968001425266266 0.16968001425266266 0.16968001425266266
0.21030324697494507 0.21030324697494507 0.21030324697494507
0.25770047307014465 0.25770047307014465 0.25770047307014465
0.31024390459060669 0.31024390459060669 0.31024390459060669
0.36262586712837219 0.36262586712837219 0.36262586712837219
0.41264930367469788 0.41264930367469788 0.41264930367469788
0.46297332644462585 0.46297332644462585 0.46297332644462585
0.51732587814331055 0.51732587814331055 0.51732587814331055
0.57524436712265015 0.57524436712265015 0.57524436712265015
0.13494716584682465 0.13494716584682465 0.13494716584682465
0.13721850514411926 0.13721850514411926 0.13721850514411926
0.14615260064601898 0.14615260064601898 0.14615260064601898
0.16302327811717987 0.16302327811717987 0.16302327811717987
0.19015079736709595 0.19015079736709595 0.19015079736709595
0.22533802688121796 0.22533802688121796 0.22533802688121796
0.26935750246047974 0.26935750246047974 0.26935750246047974
0.31999680399894714 0.31999680399894714 0.31999680399894714
0.3708861768245697 0.3708861768245697 0.3708861768245697
0.41907915472984314 0.41907915472984314 0.41907915472984314
0.46788841485977173 0.46788841485977173 0.46788841485977173
0.52080774307250977 0.52080774307250977 0.52080774307250977
0.57997864484786987 0.57997864484786987 0.57997864484786987
0.17336031794548035 0.17336031794548035 0.17336031794548035
0.17626780271530151 0.17626780271530151 0.17626780271530151
0.18510283529758453 0.18510283529758453 0.18510283529758453
0.19988492131233215 0.19988492131233215 0.19988492131233215
0.22090733051300049 0.22090733051300049 0.22090733051300049
0.249689981341362 0.249689981341362 0.249689981341362
0.28752705454826355 0.28752705454826355 0.28752705454826355
0.33278459310531616 0.33278459310531616 0.33278459310531616
0.38064569234848022 0.38064569234848022 0.38064569234848022
0.42816045880317688 0.42816045880317688 0.42816045880317688
0.47696071863174438 0.47696071863174438 0.47696071863174438
0.5302281379699707 0.5302281379699707 0.5302281379699707
0.58930712938308716 0.58930712938308716 0.58930712938308716
0.22769425809383392 0.22769425809383392 0.22769425809383392
0.22960437834262848 0.22960437834262848 0.22960437834262848
0.23550470173358917 0.23550470173358917 0.23550470173358917
0.24511605501174927 0.24511605501174927 0.24511605501174927
0.25952860713005066 0.25952860713005066 0.25952860713005066
0.28145185112953186 0.28145185112953186 0.28145185112953186
0.31262850761413574 0.31262850761413574 0.31262850761413574
0.35177621245384216 0.35177621245384216 0.35177621245384216
0.39583966135978699 0.39583966135978699 0.39583966135978699
0.44261044263839722 0.44261044263839722 0.44261044263839722
0.49234661459922791 0.49234661459922791 0.49234661459922791
0.54618042707443237 0.54618042707443237 0.54618042707443237
0.60450583696365356 0.60450583696365356 0.60450583696365356
0.29634469747543335 0.29634469747543335 0.29634469747543335
0.29659387469291687 0.29659387469291687 0.29659387469291687
0.29717192053794861 0.29717192053794861 0.29717192053794861
0.2998039722442627 0.2998039722442627 0.2998039722442627
0.30667582154273987 0.30667582154273987 0.30667582154273987
0.32086306810379028 0.32086306810379028 0.32086306810379028
0.34551346302032471 0.34551346302032471 0.34551346302032471
0.37899625301361084 0.37899625301361084 0.37899625301361084
