luts/instant_pro/polaroid_665_++.cube
# Created by: G'MIC (https://gmic.eu)
TITLE "polaroid_665_++"
# LUT size
LUT_3D_SIZE 5
# Data domain
DOMAIN_MIN 0.0 0.0 0.0
DOMAIN_MAX 1.0 1.0 1.0
# LUT data points
0.13520921766757965 0.13520921766757965 0.13520921766757965
0.14113797247409821 0.14113797247409821 0.14113797247409821
0.19302564859390259 0.19302564859390259 0.19302564859390259
0.28463965654373169 0.28463965654373169 0.28463965654373169
0.46186283230781555 0.46186283230781555 0.46186283230781555
0.1723407506942749 0.1723407506942749 0.1723407506942749
0.19653154909610748 0.19653154909610748 0.19653154909610748
0.25190138816833496 0.25190138816833496 0.25190138816833496
0.34301847219467163 0.34301847219467163 0.34301847219467163
0.5139305591583252 0.5139305591583252 0.5139305591583252
0.29798248410224915 0.29798248410224915 0.29798248410224915
0.32298272848129272 0.32298272848129272 0.32298272848129272
0.33650451898574829 0.33650451898574829 0.33650451898574829
0.41432380676269531 0.41432380676269531 0.41432380676269531
0.65944588184356689 0.65944588184356689 0.65944588184356689
0.53734749555587769 0.53734749555587769 0.53734749555587769
0.56354218721389771 0.56354218721389771 0.56354218721389771
0.56944245100021362 0.56944245100021362 0.56944245100021362
0.58524197340011597 0.58524197340011597 0.58524197340011597
0.73840451240539551 0.73840451240539551 0.73840451240539551
0.87679892778396606 0.87679892778396606 0.87679892778396606
0.87446773052215576 0.87446773052215576 0.87446773052215576
0.89612740278244019 0.89612740278244019 0.89612740278244019
0.91916465759277344 0.91916465759277344 0.91916465759277344
0.92045944929122925 0.92045944929122925 0.92045944929122925
0.182377889752388 0.182377889752388 0.182377889752388
0.18646858632564545 0.18646858632564545 0.18646858632564545
0.24965256452560425 0.24965256452560425 0.24965256452560425
0.3554750382900238 0.3554750382900238 0.3554750382900238
0.51627552509307861 0.51627552509307861 0.51627552509307861
0.21257410943508148 0.21257410943508148 0.21257410943508148
0.25286808609962463 0.25286808609962463 0.25286808609962463
0.3065529465675354 0.3065529465675354 0.3065529465675354
0.40138557553291321 0.40138557553291321 0.40138557553291321
0.56808078289031982 0.56808078289031982 0.56808078289031982
0.3565412163734436 0.3565412163734436 0.3565412163734436
0.38584515452384949 0.38584515452384949 0.38584515452384949
0.39112266898155212 0.39112266898155212 0.39112266898155212
0.48949173092842102 0.48949173092842102 0.48949173092842102
0.70063227415084839 0.70063227415084839 0.70063227415084839
0.59987348318099976 0.59987348318099976 0.59987348318099976
0.62552165985107422 0.62552165985107422 0.62552165985107422
0.62191742658615112 0.62191742658615112 0.62191742658615112
0.63431155681610107 0.63431155681610107 0.63431155681610107
0.79445582628250122 0.79445582628250122 0.79445582628250122
0.89887577295303345 0.89887577295303345 0.89887577295303345
0.89374077320098877 0.89374077320098877 0.89374077320098877
0.90784537792205811 0.90784537792205811 0.90784537792205811
0.92617565393447876 0.92617565393447876 0.92617565393447876
0.93869674205780029 0.93869674205780029 0.93869674205780029
0.32828941941261292 0.32828941941261292 0.32828941941261292
0.3412497341632843 0.3412497341632843 0.3412497341632843
0.36232820153236389 0.36232820153236389 0.36232820153236389
0.47094419598579407 0.47094419598579407 0.47094419598579407
0.67978298664093018 0.67978298664093018 0.67978298664093018
0.38336488604545593 0.38336488604545593 0.38336488604545593
0.41670975089073181 0.41670975089073181 0.41670975089073181
0.43697434663772583 0.43697434663772583 0.43697434663772583
0.53680932521820068 0.53680932521820068 0.53680932521820068
0.69825756549835205 0.69825756549835205 0.69825756549835205
0.42508307099342346 0.42508307099342346 0.42508307099342346
0.46456700563430786 0.46456700563430786 0.46456700563430786
0.54059666395187378 0.54059666395187378 0.54059666395187378
0.6307489275932312 0.6307489275932312 0.6307489275932312
0.76320260763168335 0.76320260763168335 0.76320260763168335
0.65694063901901245 0.65694063901901245 0.65694063901901245
0.68190377950668335 0.68190377950668335 0.68190377950668335
0.72718578577041626 0.72718578577041626 0.72718578577041626
0.7551044225692749 0.7551044225692749 0.7551044225692749
0.86588400602340698 0.86588400602340698 0.86588400602340698
0.91483765840530396 0.91483765840530396 0.91483765840530396
0.92690032720565796 0.92690032720565796 0.92690032720565796
0.94458097219467163 0.94458097219467163 0.94458097219467163
0.93413698673248291 0.93413698673248291 0.93413698673248291
0.94359958171844482 0.94359958171844482 0.94359958171844482
0.62464684247970581 0.62464684247970581 0.62464684247970581
0.63387978076934814 0.63387978076934814 0.63387978076934814
0.64652645587921143 0.64652645587921143 0.64652645587921143
0.65384739637374878 0.65384739637374878 0.65384739637374878
0.78698748350143433 0.78698748350143433 0.78698748350143433
0.67215651273727417 0.67215651273727417 0.67215651273727417
0.69140362739562988 0.69140362739562988 0.69140362739562988
0.68949776887893677 0.68949776887893677 0.68949776887893677
0.70154273509979248 0.70154273509979248 0.70154273509979248
0.82598602771759033 0.82598602771759033 0.82598602771759033
0.71114718914031982 0.71114718914031982 0.71114718914031982
0.72591149806976318 0.72591149806976318 0.72591149806976318
0.75732594728469849 0.75732594728469849 0.75732594728469849
0.78293406963348389 0.78293406963348389 0.78293406963348389
0.85649985074996948 0.85649985074996948 0.85649985074996948
0.75307333469390869 0.75307333469390869 0.75307333469390869
0.75747954845428467 0.75747954845428467 0.75747954845428467
0.80620896816253662 0.80620896816253662 0.80620896816253662
0.87073147296905518 0.87073147296905518 0.87073147296905518
0.90888410806655884 0.90888410806655884 0.90888410806655884
0.90421867370605469 0.90421867370605469 0.90421867370605469
0.91671603918075562 0.91671603918075562 0.91671603918075562
0.94526296854019165 0.94526296854019165 0.94526296854019165
0.95677781105041504 0.95677781105041504 0.95677781105041504
0.96091300249099731 0.96091300249099731 0.96091300249099731
0.9263617992401123 0.9263617992401123 0.9263617992401123
0.91573441028594971 0.91573441028594971 0.91573441028594971
0.91308915615081787 0.91308915615081787 0.91308915615081787
0.93179482221603394 0.93179482221603394 0.93179482221603394
0.9321897029876709 0.9321897029876709 0.9321897029876709
0.92295569181442261 0.92295569181442261 0.92295569181442261
0.93072068691253662 0.93072068691253662 0.93072068691253662
0.92878192663192749 0.92878192663192749 0.92878192663192749
0.94347918033599854 0.94347918033599854 0.94347918033599854
0.93845021724700928 0.93845021724700928 0.93845021724700928
0.93002700805664062 0.93002700805664062 0.93002700805664062
0.94629120826721191 0.94629120826721191 0.94629120826721191
0.95379215478897095 0.95379215478897095 0.95379215478897095
0.94192582368850708 0.94192582368850708 0.94192582368850708
0.93773996829986572 0.93773996829986572 0.93773996829986572
0.9368317723274231 0.9368317723274231 0.9368317723274231
0.94529944658279419 0.94529944658279419 0.94529944658279419
0.94474339485168457 0.94474339485168457 0.94474339485168457
0.94889628887176514 0.94889628887176514 0.94889628887176514
0.95527499914169312 0.95527499914169312 0.95527499914169312
0.95774364471435547 0.95774364471435547 0.95774364471435547
0.96097421646118164 0.96097421646118164 0.96097421646118164
0.96309971809387207 0.96309971809387207 0.96309971809387207
0.97382485866546631 0.97382485866546631 0.97382485866546631
0.9822385311126709 0.9822385311126709 0.9822385311126709
