luts/instant_pro/polaroid_690_++.cube
# Created by: G'MIC (https://gmic.eu)
TITLE "polaroid_690_++"
# LUT size
LUT_3D_SIZE 7
# Data domain
DOMAIN_MIN 0.0 0.0 0.0
DOMAIN_MAX 1.0 1.0 1.0
# LUT data points
0.32745379209518433 0.27254930138587952 0.23192854225635529
0.35050672292709351 0.27173137664794922 0.23273640871047974
0.4165286123752594 0.2669835090637207 0.23246198892593384
0.53333353996276855 0.25553390383720398 0.23210784792900085
0.68638432025909424 0.22676537930965424 0.2309969961643219
0.84032595157623291 0.19106937944889069 0.22371737658977509
0.98344874382019043 0.15109889209270477 0.2143712192773819
0.33216351270675659 0.29936528205871582 0.23413483798503876
0.36273092031478882 0.3057563304901123 0.23546490073204041
0.44371619820594788 0.30751001834869385 0.23166035115718842
0.58138436079025269 0.3037760853767395 0.22994372248649597
0.73187905550003052 0.28708532452583313 0.22579576075077057
0.88190764188766479 0.26278543472290039 0.21741101145744324
0.99379783868789673 0.24758446216583252 0.21068054437637329
0.34260249137878418 0.38147985935211182 0.23179343342781067
0.3763979971408844 0.38237327337265015 0.22920261323451996
0.46783250570297241 0.40087991952896118 0.22409866750240326
0.62227159738540649 0.42145058512687683 0.21732674539089203
0.79954427480697632 0.43590056896209717 0.21295654773712158
0.92809879779815674 0.4253024160861969 0.20591220259666443
0.99782818555831909 0.41739413142204285 0.19953867793083191
0.35267442464828491 0.5042412281036377 0.2199653685092926
0.38991472125053406 0.50164878368377686 0.21728943288326263
0.47542732954025269 0.50904792547225952 0.20952075719833374
0.61468833684921265 0.53995949029922485 0.194661945104599
0.79365187883377075 0.57904064655303955 0.17885230481624603
0.95355474948883057 0.60098844766616821 0.18791103363037109
0.99913758039474487 0.60125863552093506 0.21588267385959625
0.37171348929405212 0.64115405082702637 0.1996283233165741
0.41163456439971924 0.63999658823013306 0.19672872126102448
0.49030205607414246 0.63745796680450439 0.1869702935218811
0.62088769674301147 0.66156017780303955 0.17172503471374512
0.77411788702011108 0.68632709980010986 0.15030896663665771
0.93166792392730713 0.71000856161117554 0.14562781155109406
0.99933582544326782 0.72407811880111694 0.21193300187587738
0.44827169179916382 0.77335441112518311 0.1893337219953537
0.48140695691108704 0.77228868007659912 0.1845761239528656
0.5516936182975769 0.76884549856185913 0.17362730205059052
0.65917360782623291 0.77403920888900757 0.16373397409915924
0.7959820032119751 0.78850603103637695 0.15905185043811798
0.92383211851119995 0.80477941036224365 0.1582733541727066
0.99894726276397705 0.81986814737319946 0.2040935605764389
0.59317934513092041 0.90241461992263794 0.29337024688720703
0.61669141054153442 0.89984422922134399 0.28648126125335693
0.67014390230178833 0.89803332090377808 0.27041465044021606
0.75117319822311401 0.89871793985366821 0.2587185800075531
0.84388500452041626 0.90584856271743774 0.27380144596099854
0.93547940254211426 0.917228102684021 0.29252839088439941
0.99648076295852661 0.93241280317306519 0.32144325971603394
0.33007374405860901 0.27504733204841614 0.2601102888584137
0.35567009449005127 0.27491992712020874 0.26643872261047363
0.41755115985870361 0.26863008737564087 0.26321148872375488
0.53799223899841309 0.24832113087177277 0.26553353667259216
0.67477941513061523 0.21089456975460052 0.26012507081031799
0.82974779605865479 0.14837481081485748 0.25115647912025452
0.98066884279251099 0.052230492234230042 0.23894031345844269
0.33261263370513916 0.30287492275238037 0.26664447784423828
0.36434563994407654 0.30364906787872314 0.27371031045913696
0.44052216410636902 0.30036598443984985 0.26955282688140869
0.57454210519790649 0.28709879517555237 0.26539641618728638
0.7176697850227356 0.25794067978858948 0.26060763001441956
0.86524045467376709 0.22318051755428314 0.25488513708114624
0.9907526969909668 0.18422387540340424 0.24001897871494293
0.34042906761169434 0.39570647478103638 0.27520725131034851
0.38028842210769653 0.39444664120674133 0.27468842267990112
0.47204962372779846 0.40276578068733215 0.26947736740112305
0.6345551609992981 0.41934791207313538 0.27188357710838318
0.79168879985809326 0.41502690315246582 0.27014616131782532
0.92308515310287476 0.39639991521835327 0.25739806890487671
0.99608296155929565 0.38485434651374817 0.24642738699913025
0.34520792961120605 0.52326095104217529 0.26923766732215881
0.38671442866325378 0.51736122369766235 0.26729068160057068
0.47800529003143311 0.52038228511810303 0.25850057601928711
0.6281132698059082 0.54771977663040161 0.25141540169715881
0.80238622426986694 0.58086085319519043 0.24949465692043304
0.95480602979660034 0.60001188516616821 0.2706027626991272
0.99974578619003296 0.59098649024963379 0.28414377570152283
0.36258044838905334 0.65773004293441772 0.25524142384529114
0.40766969323158264 0.65321940183639526 0.25222927331924438
0.49117353558540344 0.64782911539077759 0.24106644093990326
0.62161475419998169 0.66767877340316772 0.23288443684577942
0.78465527296066284 0.69435608386993408 0.22975808382034302
0.93473750352859497 0.71222603321075439 0.23917549848556519
0.99819159507751465 0.72383004426956177 0.29504945874214172
0.44339209794998169 0.78209680318832397 0.25557857751846313
0.47891965508460999 0.7775338888168335 0.24993397295475006
0.55232405662536621 0.77534198760986328 0.23726034164428711
0.66139096021652222 0.77747642993927002 0.22790038585662842
0.79844397306442261 0.79332774877548218 0.23443181812763214
0.92609810829162598 0.80833727121353149 0.2404198944568634
0.99787712097167969 0.81835281848907471 0.28273078799247742
0.58675599098205566 0.90393966436386108 0.34894320368766785
0.61063915491104126 0.90338212251663208 0.34223875403404236
0.66431283950805664 0.8996274471282959 0.32930591702461243
0.74546664953231812 0.89946556091308594 0.31348168849945068
0.84093010425567627 0.90539932250976562 0.32428714632987976
0.93190270662307739 0.91727173328399658 0.34619858860969543
0.99665623903274536 0.93343180418014526 0.37357661128044128
0.32919430732727051 0.27598714828491211 0.35587236285209656
0.36260411143302917 0.27174043655395508 0.36595669388771057
0.44693973660469055 0.26739829778671265 0.37889224290847778
0.55549830198287964 0.25786373019218445 0.36726254224777222
0.68151122331619263 0.2287963330745697 0.36362141370773315
0.81998032331466675 0.15675675868988037 0.35232353210449219
0.96233129501342773 0.0056549818255007267 0.32805377244949341
0.329843670129776 0.30478736758232117 0.36074373126029968
0.3672105073928833 0.30805370211601257 0.37696292996406555
0.46269789338111877 0.30909654498100281 0.39480152726173401
0.57722288370132446 0.29609283804893494 0.3763347864151001
0.70468133687973022 0.2596607506275177 0.36504685878753662
0.84015297889709473 0.18627786636352539 0.341715008020401
0.97985786199569702 0.024237899109721184 0.31172436475753784
0.33810964226722717 0.39768970012664795 0.38607987761497498
0.38007631897926331 0.40366977453231812 0.39199206233024597
0.48222613334655762 0.41070613265037537 0.40983617305755615
0.62349563837051392 0.3990720808506012 0.39498469233512878
0.7601284384727478 0.36464038491249084 0.37005361914634705
0.8951687216758728 0.3284507691860199 0.34650713205337524
0.99771308898925781 0.28790652751922607 0.32027563452720642
0.33953189849853516 0.55187660455703735 0.40844601392745972
0.38661900162696838 0.5481753945350647 0.40485396981239319
0.48479384183883667 0.54335582256317139 0.39345124363899231
0.63714134693145752 0.55936175584793091 0.3960038423538208
0.80996161699295044 0.58346635103225708 0.40869536995887756
0.95060902833938599 0.58211767673492432 0.41504880785942078
0.99967437982559204 0.55768758058547974 0.3857218325138092
0.34994739294052124 0.68487793207168579 0.39787933230400085
0.39755645394325256 0.68141400814056396 0.39020517468452454
0.49197375774383545 0.67284226417541504 0.3742235004901886
0.62210142612457275 0.67562758922576904 0.36610853672027588
0.78666311502456665 0.69764775037765503 0.37647524476051331
0.93609416484832764 0.71522170305252075 0.40036112070083618
0.99845021963119507 0.72780990600585938 0.45753768086433411
0.42843100428581238 0.7922896146774292 0.38907015323638916
0.46382078528404236 0.7921636700630188 0.38398000597953796
0.54249191284179688 0.78627187013626099 0.36978688836097717
0.64898771047592163 0.78212225437164307 0.35008469223976135
0.78848785161972046 0.79525601863861084 0.36198058724403381
0.92169970273971558 0.81024849414825439 0.38459700345993042
0.9984317421913147 0.82157319784164429 0.41935473680496216
0.57135653495788574 0.90770012140274048 0.46299946308135986
0.59379249811172485 0.90506136417388916 0.45526832342147827
0.6491929292678833 0.90337282419204712 0.44075113534927368
0.73021233081817627 0.90203320980072021 0.42180576920509338
0.83192282915115356 0.90633487701416016 0.42470312118530273
0.92539185285568237 0.91865485906600952 0.45199927687644958
0.99114745855331421 0.93325412273406982 0.48398599028587341
0.32287469506263733 0.27557629346847534 0.52918428182601929
0.37181264162063599 0.27090561389923096 0.54230380058288574
0.48263037204742432 0.26361250877380371 0.57755833864212036
0.63476991653442383 0.24494121968746185 0.60360097885131836
0.73556649684906006 0.23644113540649414 0.54773789644241333
0.85252374410629272 0.20248502492904663 0.51454079151153564
0.97852784395217896 0.054610054939985275 0.50045680999755859
0.31978940963745117 0.31109052896499634 0.53384602069854736
0.36746498942375183 0.31331127882003784 0.55016285181045532
0.4878067672252655 0.31248831748962402 0.58397561311721802
0.64166605472564697 0.30514657497406006 0.61252081394195557
0.74830180406570435 0.29129818081855774 0.55464392900466919
0.86234176158905029 0.24534900486469269 0.5125238299369812
0.98423594236373901 0.11397601664066315 0.49467605352401733
0.32216578722000122 0.39754852652549744 0.53020113706588745
0.36638417840003967 0.39879658818244934 0.54399341344833374
0.48695173859596252 0.41374510526657104 0.57696837186813354
0.65094637870788574 0.42895129323005676 0.61674565076828003
0.76180374622344971 0.39720728993415833 0.55871695280075073
0.88429814577102661 0.33060863614082336 0.5079236626625061
0.98788255453109741 0.21838924288749695 0.46695521473884583
0.34393218159675598 0.55263340473175049 0.57161349058151245
0.39662861824035645 0.55856853723526001 0.58001065254211426
0.50449240207672119 0.56839054822921753 0.58787614107131958
0.65120333433151245 0.5863196849822998 0.61119097471237183
0.79263401031494141 0.55602359771728516 0.58373928070068359
0.91746383905410767 0.49953493475914001 0.5338592529296875
0.99929535388946533 0.44254365563392639 0.47663268446922302
0.38850951194763184 0.70946931838989258 0.59813219308853149
0.43142583966255188 0.70941638946533203 0.59346765279769897
0.51915591955184937 0.70660984516143799 0.59189295768737793
0.63776123523712158 0.69939196109771729 0.57368367910385132
0.79439336061477661 0.70871210098266602 0.58377397060394287
0.93434762954711914 0.72415816783905029 0.61367988586425781
0.99961560964584351 0.7197185754776001 0.63115143775939941
0.43809491395950317 0.81208878755569458 0.58470386266708374
0.47238120436668396 0.81017488241195679 0.58106726408004761
0.54856568574905396 0.80426442623138428 0.56864422559738159
0.65014898777008057 0.79603725671768188 0.54483151435852051
0.77971744537353516 0.7983778715133667 0.53536760807037354
0.91665709018707275 0.81470435857772827 0.56827151775360107
0.99547606706619263 0.82835894823074341 0.61701744794845581
0.56893420219421387 0.91494941711425781 0.62846899032592773
0.59157717227935791 0.91300016641616821 0.62003713846206665
0.64126265048980713 0.91005569696426392 0.60563439130783081
0.71686720848083496 0.90443944931030273 0.58534008264541626
0.81259846687316895 0.90767890214920044 0.56363958120346069
0.91140210628509521 0.91824793815612793 0.59043759107589722
0.97926419973373413 0.93450653553009033 0.63027745485305786
0.32035365700721741 0.27372351288795471 0.72787326574325562
0.37796697020530701 0.26868295669555664 0.7332230806350708
0.50031107664108276 0.26039090752601624 0.76348268985748291
0.67333918809890747 0.24726393818855286 0.79830318689346313
0.82438564300537109 0.23897364735603333 0.80298095941543579
0.92261606454849243 0.23106385767459869 0.74806618690490723
0.99167716503143311 0.21603149175643921 0.69775879383087158
0.31043609976768494 0.31524401903152466 0.73333734273910522
0.37152674794197083 0.31553000211715698 0.74355477094650269
0.49779883027076721 0.31437727808952332 0.7618221640586853
0.67186111211776733 0.31680923700332642 0.79712468385696411
0.8298114538192749 0.31761455535888672 0.80422794818878174
0.92410141229629517 0.2978413999080658 0.74478083848953247
0.99357682466506958 0.27405884861946106 0.7027134895324707
0.29725024104118347 0.40148398280143738 0.71834701299667358
0.35684946179389954 0.40305858850479126 0.72761809825897217
0.48837009072303772 0.4179147481918335 0.74981468915939331
0.6626054048538208 0.43886467814445496 0.78799057006835938
0.82511979341506958 0.45921590924263 0.8018035888671875
0.91668546199798584 0.42090067267417908 0.74259960651397705
0.99301135540008545 0.36483004689216614 0.69482523202896118
0.30408060550689697 0.53363221883773804 0.70804810523986816
0.3574613630771637 0.52924239635467529 0.71292167901992798
0.46834918856620789 0.53867077827453613 0.72398936748504639
0.64000457525253296 0.58119690418243408 0.7649761438369751
0.81412535905838013 0.61514359712600708 0.79696732759475708
0.90663164854049683 0.55989235639572144 0.73761320114135742
0.99612045288085938 0.46216163039207458 0.67611551284790039
0.38906723260879517 0.70316654443740845 0.7484239935874939
0.43831679224967957 0.70263111591339111 0.75082510709762573
0.53708875179290771 0.70446759462356567 0.75677508115768433
0.66885590553283691 0.71405786275863647 0.7714347243309021
0.8123357892036438 0.73166376352310181 0.79056334495544434
0.91455048322677612 0.69960319995880127 0.76122909784317017
0.99731218814849854 0.63613295555114746 0.69711184501647949
0.54225414991378784 0.82453924417495728 0.77777016162872314
0.56862455606460571 0.82189685106277466 0.77410554885864258
0.62336164712905884 0.81963568925857544 0.77441287040710449
0.70536744594573975 0.81803637742996216 0.76904976367950439
0.79455465078353882 0.81110697984695435 0.75171399116516113
0.90723890066146851 0.82368659973144531 0.76204937696456909
0.98669159412384033 0.83744192123413086 0.79080045223236084
0.62958753108978271 0.91734731197357178 0.7890859842300415
0.64477378129959106 0.91649109125137329 0.78839898109436035
0.67807281017303467 0.91637688875198364 0.78009235858917236
0.73770946264266968 0.91530191898345947 0.77104479074478149
0.80621862411499023 0.91252243518829346 0.74893587827682495
0.89233654737472534 0.92163437604904175 0.74507606029510498
0.96264463663101196 0.94106745719909668 0.78105461597442627
0.37452062964439392 0.27923363447189331 0.88768297433853149
0.43120962381362915 0.27794891595840454 0.8871580958366394
0.54045158624649048 0.27120918035507202 0.89713376760482788
0.68902373313903809 0.2731010913848877 0.906607985496521
0.84695655107498169 0.29809558391571045 0.91993528604507446
0.96895891427993774 0.32438558340072632 0.91436982154846191
0.99995511770248413 0.31782758235931396 0.88669085502624512
0.36860814690589905 0.3255152702331543 0.88502341508865356
0.42621743679046631 0.32558909058570862 0.88751542568206787
0.54059398174285889 0.3272627592086792 0.89390325546264648
0.6872556209564209 0.33745250105857849 0.90739423036575317
0.84511297941207886 0.37726482748985291 0.91654974222183228
0.96207189559936523 0.40285265445709229 0.91143393516540527
0.99999463558197021 0.38054344058036804 0.88409197330474854
0.33866620063781738 0.41419404745101929 0.87551331520080566
0.40117928385734558 0.41615664958953857 0.87685054540634155
0.52400761842727661 0.42823109030723572 0.8816978931427002
0.6770593523979187 0.45346373319625854 0.89637839794158936
0.83846205472946167 0.50763654708862305 0.9078783392906189
0.95025265216827393 0.53250235319137573 0.90654212236404419
0.99830824136734009 0.49879845976829529 0.88138347864151001
0.28342220187187195 0.52441513538360596 0.85169565677642822
0.35056549310684204 0.52858579158782959 0.85473781824111938
0.47705173492431641 0.54135584831237793 0.86472862958908081
0.65413171052932739 0.5796964168548584 0.88269257545471191
0.82580339908599854 0.63375222682952881 0.89854878187179565
0.9372367262840271 0.65714788436889648 0.8993954062461853
0.99604147672653198 0.61686283349990845 0.87432539463043213
0.32965445518493652 0.6801716685295105 0.85222792625427246
0.3753131628036499 0.67768359184265137 0.85273033380508423
0.47432088851928711 0.67464381456375122 0.85472190380096436
0.6160813570022583 0.68160176277160645 0.86242830753326416
0.8015444278717041 0.72408390045166016 0.88397598266601562
0.9281536340713501 0.75454235076904297 0.89397287368774414
0.98748117685317993 0.70673686265945435 0.86450344324111938
0.536579430103302 0.81262868642807007 0.87246119976043701
0.56809061765670776 0.80952292680740356 0.87319529056549072
0.6339646577835083 0.81145751476287842 0.87464821338653564
0.72986316680908203 0.81438201665878296 0.87962985038757324
0.82651597261428833 0.82243603467941284 0.88506382703781128
0.91860973834991455 0.84067356586456299 0.88975793123245239
0.98166310787200928 0.81037074327468872 0.87339872121810913
0.7271498441696167 0.92242550849914551 0.88910448551177979
0.73802608251571655 0.92112547159194946 0.88730478286743164
0.76260471343994141 0.92092406749725342 0.88521355390548706
0.802967369556427 0.92255973815917969 0.88174796104431152
0.8481871485710144 0.92630809545516968 0.88186085224151611
0.89446777105331421 0.92603015899658203 0.86937832832336426
0.95166867971420288 0.93974274396896362 0.87629121541976929
0.52803522348403931 0.3402615487575531 0.9610939621925354
0.56261122226715088 0.33881524205207825 0.96027714014053345
0.64046937227249146 0.34263747930526733 0.96218705177307129
0.7444649338722229 0.35453405976295471 0.96135526895523071
0.86356884241104126 0.39930236339569092 0.96049976348876953
0.96741503477096558 0.47595575451850891 0.95702946186065674
1 0.51438277959823608 0.95025992393493652
0.52734041213989258 0.38986337184906006 0.95947378873825073
0.56380397081375122 0.39041462540626526 0.96059739589691162
0.64095902442932129 0.39614510536193848 0.95980346202850342
0.74691492319107056 0.41536858677864075 0.96069574356079102
0.86224937438964844 0.46143004298210144 0.95868408679962158
0.96214622259140015 0.53568845987319946 0.95572853088378906
1 0.55845677852630615 0.94827443361282349
0.51959466934204102 0.48317167162895203 0.95225423574447632
0.5553816556930542 0.48391041159629822 0.95414113998413086
0.63760161399841309 0.49477222561836243 0.95490354299545288
0.7409171462059021 0.51946163177490234 0.95202046632766724
0.85861384868621826 0.56102263927459717 0.95253872871398926
0.95444333553314209 0.62226909399032593 0.94930535554885864
0.9977913498878479 0.63431209325790405 0.94317138195037842
0.48065125942230225 0.58766591548919678 0.9461590051651001
0.52363568544387817 0.5888177752494812 0.94513863325119019
0.61606293916702271 0.60364913940429688 0.94486403465270996
0.730457603931427 0.62445956468582153 0.94362890720367432
0.85292470455169678 0.6602434515953064 0.94486492872238159
0.94824779033660889 0.70685040950775146 0.94371950626373291
0.99637830257415771 0.71804243326187134 0.93923962116241455
0.4383857250213623 0.69366651773452759 0.93519270420074463
0.47411173582077026 0.69246172904968262 0.93554973602294922
0.55605745315551758 0.69174480438232422 0.93581032752990723
0.69601958990097046 0.70922011137008667 0.93504518270492554
0.84037607908248901 0.74074101448059082 0.93559455871582031
0.93739968538284302 0.77724170684814453 0.93632817268371582
0.99022787809371948 0.79862809181213379 0.93283367156982422
0.59081238508224487 0.81681692600250244 0.92878597974777222
0.61226135492324829 0.8143889307975769 0.92890816926956177
0.65675747394561768 0.81330776214599609 0.92919552326202393
0.72514361143112183 0.80904841423034668 0.92950284481048584
0.81350964307785034 0.80829417705535889 0.92948818206787109
0.91757774353027344 0.83989483118057251 0.93000894784927368
0.97406446933746338 0.87109607458114624 0.92671191692352295
0.75290131568908691 0.92553567886352539 0.92349898815155029
0.75990736484527588 0.92477619647979736 0.92416387796401978
0.78749018907546997 0.92701375484466553 0.92412930727005005
0.8306121826171875 0.93002903461456299 0.92250919342041016
0.86960113048553467 0.93136882781982422 0.92311781644821167
0.91357642412185669 0.93746644258499146 0.92243272066116333
0.95403861999511719 0.95981454849243164 0.92165052890777588
