luts/instant_pro/polaroid_665_negative_hc.cube
# Created by: G'MIC (https://gmic.eu)
TITLE "polaroid_665_negative_hc"
# LUT size
LUT_3D_SIZE 7
# Data domain
DOMAIN_MIN 0.0 0.0 0.0
DOMAIN_MAX 1.0 1.0 1.0
# LUT data points
0.021278141066431999 0.021278141066431999 0.021278141066431999
0.028232753276824951 0.028232753276824951 0.028232753276824951
0.093252666294574738 0.093252666294574738 0.093252666294574738
0.21111704409122467 0.21111704409122467 0.21111704409122467
0.3307177722454071 0.3307177722454071 0.3307177722454071
0.45169097185134888 0.45169097185134888 0.45169097185134888
0.60182386636734009 0.60182386636734009 0.60182386636734009
0.096790313720703125 0.096790313720703125 0.096790313720703125
0.0903053879737854 0.0903053879737854 0.0903053879737854
0.14437894523143768 0.14437894523143768 0.14437894523143768
0.25840672850608826 0.25840672850608826 0.25840672850608826
0.37228891253471375 0.37228891253471375 0.37228891253471375
0.48700395226478577 0.48700395226478577 0.48700395226478577
0.62428098917007446 0.62428098917007446 0.62428098917007446
0.24369688332080841 0.24369688332080841 0.24369688332080841
0.22776538133621216 0.22776538133621216 0.22776538133621216
0.25694859027862549 0.25694859027862549 0.25694859027862549
0.33978942036628723 0.33978942036628723 0.33978942036628723
0.43407735228538513 0.43407735228538513 0.43407735228538513
0.54402381181716919 0.54402381181716919 0.54402381181716919
0.67109483480453491 0.67109483480453491 0.67109483480453491
0.41105911135673523 0.41105911135673523 0.41105911135673523
0.39840492606163025 0.39840492606163025 0.39840492606163025
0.40521454811096191 0.40521454811096191 0.40521454811096191
0.440940260887146 0.440940260887146 0.440940260887146
0.50482594966888428 0.50482594966888428 0.50482594966888428
0.61048001050949097 0.61048001050949097 0.61048001050949097
0.73202472925186157 0.73202472925186157 0.73202472925186157
0.58436727523803711 0.58436727523803711 0.58436727523803711
0.57450908422470093 0.57450908422470093 0.57450908422470093
0.570148766040802 0.570148766040802 0.570148766040802
0.58010947704315186 0.58010947704315186 0.58010947704315186
0.61672842502593994 0.61672842502593994 0.61672842502593994
0.69632160663604736 0.69632160663604736 0.69632160663604736
0.79156684875488281 0.79156684875488281 0.79156684875488281
0.74858951568603516 0.74858951568603516 0.74858951568603516
0.74242579936981201 0.74242579936981201 0.74242579936981201
0.73732525110244751 0.73732525110244751 0.73732525110244751
0.74290996789932251 0.74290996789932251 0.74290996789932251
0.76029485464096069 0.76029485464096069 0.76029485464096069
0.79692000150680542 0.79692000150680542 0.79692000150680542
0.85210150480270386 0.85210150480270386 0.85210150480270386
0.89194327592849731 0.89194327592849731 0.89194327592849731
0.88704591989517212 0.88704591989517212 0.88704591989517212
0.88355916738510132 0.88355916738510132 0.88355916738510132
0.88815873861312866 0.88815873861312866 0.88815873861312866
0.89049369096755981 0.89049369096755981 0.89049369096755981
0.89591854810714722 0.89591854810714722 0.89591854810714722
0.91906195878982544 0.91906195878982544 0.91906195878982544
0.083473727107048035 0.083473727107048035 0.083473727107048035
0.10793325304985046 0.10793325304985046 0.10793325304985046
0.15346907079219818 0.15346907079219818 0.15346907079219818
0.27150654792785645 0.27150654792785645 0.27150654792785645
0.38493451476097107 0.38493451476097107 0.38493451476097107
0.49546906352043152 0.49546906352043152 0.49546906352043152
0.6286436915397644 0.6286436915397644 0.6286436915397644
0.15249162912368774 0.15249162912368774 0.15249162912368774
0.17074637115001678 0.17074637115001678 0.17074637115001678
0.21518102288246155 0.21518102288246155 0.21518102288246155
0.31263256072998047 0.31263256072998047 0.31263256072998047
0.41612491011619568 0.41612491011619568 0.41612491011619568
0.52007496356964111 0.52007496356964111 0.52007496356964111
0.64602535963058472 0.64602535963058472 0.64602535963058472
0.30986058712005615 0.30986058712005615 0.30986058712005615
0.30057629942893982 0.30057629942893982 0.30057629942893982
0.31998527050018311 0.31998527050018311 0.31998527050018311
0.38323894143104553 0.38323894143104553 0.38323894143104553
0.46612286567687988 0.46612286567687988 0.46612286567687988
0.56665527820587158 0.56665527820587158 0.56665527820587158
0.68389135599136353 0.68389135599136353 0.68389135599136353
0.47148844599723816 0.47148844599723816 0.47148844599723816
0.45760425925254822 0.45760425925254822 0.45760425925254822
0.45496088266372681 0.45496088266372681 0.45496088266372681
0.47852158546447754 0.47852158546447754 0.47852158546447754
0.53289079666137695 0.53289079666137695 0.53289079666137695
0.62585759162902832 0.62585759162902832 0.62585759162902832
0.73399835824966431 0.73399835824966431 0.73399835824966431
0.63592731952667236 0.63592731952667236 0.63592731952667236
0.6216738224029541 0.6216738224029541 0.6216738224029541
0.60797828435897827 0.60797828435897827 0.60797828435897827
0.60865771770477295 0.60865771770477295 0.60865771770477295
0.63741284608840942 0.63741284608840942 0.63741284608840942
0.70523196458816528 0.70523196458816528 0.70523196458816528
0.79022085666656494 0.79022085666656494 0.79022085666656494
0.78197741508483887 0.78197741508483887 0.78197741508483887
0.77225410938262939 0.77225410938262939 0.77225410938262939
0.76064109802246094 0.76064109802246094 0.76064109802246094
0.75692141056060791 0.75692141056060791 0.75692141056060791
0.76793974637985229 0.76793974637985229 0.76793974637985229
0.80026400089263916 0.80026400089263916 0.80026400089263916
0.85128927230834961 0.85128927230834961 0.85128927230834961
0.90252131223678589 0.90252131223678589 0.90252131223678589
0.89765793085098267 0.89765793085098267 0.89765793085098267
0.89143890142440796 0.89143890142440796 0.89143890142440796
0.88738346099853516 0.88738346099853516 0.88738346099853516
0.88680791854858398 0.88680791854858398 0.88680791854858398
0.89390331506729126 0.89390331506729126 0.89390331506729126
0.91781944036483765 0.91781944036483765 0.91781944036483765
0.245966836810112 0.245966836810112 0.245966836810112
0.28937754034996033 0.28937754034996033 0.28937754034996033
0.30519413948059082 0.30519413948059082 0.30519413948059082
0.35786867141723633 0.35786867141723633 0.35786867141723633
0.45870715379714966 0.45870715379714966 0.45870715379714966
0.5632660984992981 0.5632660984992981 0.5632660984992981
0.67858290672302246 0.67858290672302246 0.67858290672302246
0.28450244665145874 0.28450244665145874 0.28450244665145874
0.31308484077453613 0.31308484077453613 0.31308484077453613
0.33727869391441345 0.33727869391441345 0.33727869391441345
0.39587026834487915 0.39587026834487915 0.39587026834487915
0.48036432266235352 0.48036432266235352 0.48036432266235352
0.57536453008651733 0.57536453008651733 0.57536453008651733
0.68549925088882446 0.68549925088882446 0.68549925088882446
0.39379897713661194 0.39379897713661194 0.39379897713661194
0.40027487277984619 0.40027487277984619 0.40027487277984619
0.41593897342681885 0.41593897342681885 0.41593897342681885
0.45896324515342712 0.45896324515342712 0.45896324515342712
0.52656501531600952 0.52656501531600952 0.52656501531600952
0.61207419633865356 0.61207419633865356 0.61207419633865356
0.71184045076370239 0.71184045076370239 0.71184045076370239
0.54462862014770508 0.54462862014770508 0.54462862014770508
0.53444445133209229 0.53444445133209229 0.53444445133209229
0.5283082127571106 0.5283082127571106 0.5283082127571106
0.547474205493927 0.547474205493927 0.547474205493927
0.59448623657226562 0.59448623657226562 0.59448623657226562
0.66660290956497192 0.66660290956497192 0.66660290956497192
0.75301748514175415 0.75301748514175415 0.75301748514175415
0.70015603303909302 0.70015603303909302 0.70015603303909302
0.68254244327545166 0.68254244327545166 0.68254244327545166
0.66440647840499878 0.66440647840499878 0.66440647840499878
0.66420048475265503 0.66420048475265503 0.66420048475265503
0.68806749582290649 0.68806749582290649 0.68806749582290649
0.73735326528549194 0.73735326528549194 0.73735326528549194
0.80325663089752197 0.80325663089752197 0.80325663089752197
0.81899547576904297 0.81899547576904297 0.81899547576904297
0.80835652351379395 0.80835652351379395 0.80835652351379395
0.79475933313369751 0.79475933313369751 0.79475933313369751
0.78877484798431396 0.78877484798431396 0.78877484798431396
0.79418164491653442 0.79418164491653442 0.79418164491653442
0.81836181879043579 0.81836181879043579 0.81836181879043579
0.85991752147674561 0.85991752147674561 0.85991752147674561
0.90984433889389038 0.90984433889389038 0.90984433889389038
0.90689224004745483 0.90689224004745483 0.90689224004745483
0.90213191509246826 0.90213191509246826 0.90213191509246826
0.89605170488357544 0.89605170488357544 0.89605170488357544
0.89273405075073242 0.89273405075073242 0.89273405075073242
0.89928215742111206 0.89928215742111206 0.89928215742111206
0.92167443037033081 0.92167443037033081 0.92167443037033081
0.44412145018577576 0.44412145018577576 0.44412145018577576
0.47836878895759583 0.47836878895759583 0.47836878895759583
0.50919806957244873 0.50919806957244873 0.50919806957244873
0.51532435417175293 0.51532435417175293 0.51532435417175293
0.53217488527297974 0.53217488527297974 0.53217488527297974
0.62673419713973999 0.62673419713973999 0.62673419713973999
0.73080390691757202 0.73080390691757202 0.73080390691757202
0.45839998126029968 0.45839998126029968 0.45839998126029968
0.48447468876838684 0.48447468876838684 0.48447468876838684
0.50829803943634033 0.50829803943634033 0.50829803943634033
0.53257274627685547 0.53257274627685547 0.53257274627685547
0.56660181283950806 0.56660181283950806 0.56660181283950806
0.63810873031616211 0.63810873031616211 0.63810873031616211
0.73054212331771851 0.73054212331771851 0.73054212331771851
0.50661385059356689 0.50661385059356689 0.50661385059356689
0.52434563636779785 0.52434563636779785 0.52434563636779785
0.53977233171463013 0.53977233171463013 0.53977233171463013
0.56882786750793457 0.56882786750793457 0.56882786750793457
0.61477112770080566 0.61477112770080566 0.61477112770080566
0.67710417509078979 0.67710417509078979 0.67710417509078979
0.75394332408905029 0.75394332408905029 0.75394332408905029
0.61948347091674805 0.61948347091674805 0.61948347091674805
0.61866015195846558 0.61866015195846558 0.61866015195846558
0.61534780263900757 0.61534780263900757 0.61534780263900757
0.63507997989654541 0.63507997989654541 0.63507997989654541
0.67458391189575195 0.67458391189575195 0.67458391189575195
0.72680234909057617 0.72680234909057617 0.72680234909057617
0.78971207141876221 0.78971207141876221 0.78971207141876221
0.75799894332885742 0.75799894332885742 0.75799894332885742
0.74194562435150146 0.74194562435150146 0.74194562435150146
0.7297290563583374 0.7297290563583374 0.7297290563583374
0.73345398902893066 0.73345398902893066 0.73345398902893066
0.75113958120346069 0.75113958120346069 0.75113958120346069
0.78413718938827515 0.78413718938827515 0.78413718938827515
0.83087718486785889 0.83087718486785889 0.83087718486785889
0.85574924945831299 0.85574924945831299 0.85574924945831299
0.84647345542907715 0.84647345542907715 0.84647345542907715
0.83716297149658203 0.83716297149658203 0.83716297149658203
0.83282250165939331 0.83282250165939331 0.83282250165939331
0.8329474925994873 0.8329474925994873 0.8329474925994873
0.84686744213104248 0.84686744213104248 0.84686744213104248
0.87705129384994507 0.87705129384994507 0.87705129384994507
0.92636746168136597 0.92636746168136597 0.92636746168136597
0.92316716909408569 0.92316716909408569 0.92316716909408569
0.91960632801055908 0.91960632801055908 0.91960632801055908
0.913565993309021 0.913565993309021 0.913565993309021
0.90780997276306152 0.90780997276306152 0.90780997276306152
0.91086095571517944 0.91086095571517944 0.91086095571517944
0.92865830659866333 0.92865830659866333 0.92865830659866333
0.6237676739692688 0.6237676739692688 0.6237676739692688
0.64716964960098267 0.64716964960098267 0.64716964960098267
0.67173516750335693 0.67173516750335693 0.67173516750335693
0.68685120344161987 0.68685120344161987 0.68685120344161987
0.68708896636962891 0.68708896636962891 0.68708896636962891
0.70905649662017822 0.70905649662017822 0.70905649662017822
0.77437674999237061 0.77437674999237061 0.77437674999237061
0.63906121253967285 0.63906121253967285 0.63906121253967285
0.65478557348251343 0.65478557348251343 0.65478557348251343
0.67386919260025024 0.67386919260025024 0.67386919260025024
0.68976384401321411 0.68976384401321411 0.68976384401321411
0.69729328155517578 0.69729328155517578 0.69729328155517578
0.72287118434906006 0.72287118434906006 0.72287118434906006
0.78089827299118042 0.78089827299118042 0.78089827299118042
0.66052025556564331 0.66052025556564331 0.66052025556564331
0.66965609788894653 0.66965609788894653 0.66965609788894653
0.68036085367202759 0.68036085367202759 0.68036085367202759
0.70057564973831177 0.70057564973831177 0.70057564973831177
0.7283521294593811 0.7283521294593811 0.7283521294593811
0.7630307674407959 0.7630307674407959 0.7630307674407959
0.80942243337631226 0.80942243337631226 0.80942243337631226
0.70058035850524902 0.70058035850524902 0.70058035850524902
0.71257477998733521 0.71257477998733521 0.71257477998733521
0.72002363204956055 0.72002363204956055 0.72002363204956055
0.73899281024932861 0.73899281024932861 0.73899281024932861
0.76811772584915161 0.76811772584915161 0.76811772584915161
0.80121541023254395 0.80121541023254395 0.80121541023254395
0.83933931589126587 0.83933931589126587 0.83933931589126587
0.77191144227981567 0.77191144227981567 0.77191144227981567
0.79032313823699951 0.79032313823699951 0.79032313823699951
0.7969164252281189 0.7969164252281189 0.7969164252281189
0.80608820915222168 0.80608820915222168 0.80608820915222168
0.81853067874908447 0.81853067874908447 0.81853067874908447
0.83801984786987305 0.83801984786987305 0.83801984786987305
0.86776173114776611 0.86776173114776611 0.86776173114776611
0.88533318042755127 0.88533318042755127 0.88533318042755127
0.87799209356307983 0.87799209356307983 0.87799209356307983
0.87650316953659058 0.87650316953659058 0.87650316953659058
0.87599962949752808 0.87599962949752808 0.87599962949752808
0.87332665920257568 0.87332665920257568 0.87332665920257568
0.8791574239730835 0.8791574239730835 0.8791574239730835
0.89913994073867798 0.89913994073867798 0.89913994073867798
0.94588106870651245 0.94588106870651245 0.94588106870651245
0.94126921892166138 0.94126921892166138 0.94126921892166138
0.93754500150680542 0.93754500150680542 0.93754500150680542
0.93244165182113647 0.93244165182113647 0.93244165182113647
0.92556130886077881 0.92556130886077881 0.92556130886077881
0.92480099201202393 0.92480099201202393 0.92480099201202393
0.93804818391799927 0.93804818391799927 0.93804818391799927
0.78109002113342285 0.78109002113342285 0.78109002113342285
0.79245090484619141 0.79245090484619141 0.79245090484619141
0.8042837381362915 0.8042837381362915 0.8042837381362915
0.82581025362014771 0.82581025362014771 0.82581025362014771
0.83986622095108032 0.83986622095108032 0.83986622095108032
0.82158738374710083 0.82158738374710083 0.82158738374710083
0.84228026866912842 0.84228026866912842 0.84228026866912842
0.80069470405578613 0.80069470405578613 0.80069470405578613
0.80331277847290039 0.80331277847290039 0.80331277847290039
0.80745679140090942 0.80745679140090942 0.80745679140090942
0.82060760259628296 0.82060760259628296 0.82060760259628296
0.8299826979637146 0.8299826979637146 0.8299826979637146
0.82913601398468018 0.82913601398468018 0.82913601398468018
0.85054141283035278 0.85054141283035278 0.85054141283035278
0.81658852100372314 0.81658852100372314 0.81658852100372314
0.80992656946182251 0.80992656946182251 0.80992656946182251
0.81050997972488403 0.81050997972488403 0.81050997972488403
0.82321226596832275 0.82321226596832275 0.82321226596832275
0.84297275543212891 0.84297275543212891 0.84297275543212891
0.85910236835479736 0.85910236835479736 0.85910236835479736
0.87594270706176758 0.87594270706176758 0.87594270706176758
0.81482702493667603 0.81482702493667603 0.81482702493667603
0.81985050439834595 0.81985050439834595 0.81985050439834595
0.82639771699905396 0.82639771699905396 0.82639771699905396
0.83989447355270386 0.83989447355270386 0.83989447355270386
0.85931909084320068 0.85931909084320068 0.85931909084320068
0.87708407640457153 0.87708407640457153 0.87708407640457153
0.89516866207122803 0.89516866207122803 0.89516866207122803
0.84354442358016968 0.84354442358016968 0.84354442358016968
0.85348343849182129 0.85348343849182129 0.85348343849182129
0.86305350065231323 0.86305350065231323 0.86305350065231323
0.87197273969650269 0.87197273969650269 0.87197273969650269
0.8809095025062561 0.8809095025062561 0.8809095025062561
0.89131182432174683 0.89131182432174683 0.89131182432174683
0.90846818685531616 0.90846818685531616 0.90846818685531616
0.90487766265869141 0.90487766265869141 0.90487766265869141
0.90616220235824585 0.90616220235824585 0.90616220235824585
0.90895462036132812 0.90895462036132812 0.90895462036132812
0.91111844778060913 0.91111844778060913 0.91111844778060913
0.90979182720184326 0.90979182720184326 0.90979182720184326
0.91137248277664185 0.91137248277664185 0.91137248277664185
0.92424905300140381 0.92424905300140381 0.92424905300140381
0.95338326692581177 0.95338326692581177 0.95338326692581177
0.95263338088989258 0.95263338088989258 0.95263338088989258
0.95250660181045532 0.95250660181045532 0.95250660181045532
0.94955801963806152 0.94955801963806152 0.94955801963806152
0.94363892078399658 0.94363892078399658 0.94363892078399658
0.94081920385360718 0.94081920385360718 0.94081920385360718
0.95000427961349487 0.95000427961349487 0.95000427961349487
0.90855258703231812 0.90855258703231812 0.90855258703231812
0.91132891178131104 0.91132891178131104 0.91132891178131104
0.91126185655593872 0.91126185655593872 0.91126185655593872
0.91960740089416504 0.91960740089416504 0.91960740089416504
0.92649823427200317 0.92649823427200317 0.92649823427200317
0.91890829801559448 0.91890829801559448 0.91890829801559448
0.92403453588485718 0.92403453588485718 0.92403453588485718
0.9186210036277771 0.9186210036277771 0.9186210036277771
0.91690522432327271 0.91690522432327271 0.91690522432327271
0.91173648834228516 0.91173648834228516 0.91173648834228516
0.91575103998184204 0.91575103998184204 0.91575103998184204
0.92257547378540039 0.92257547378540039 0.92257547378540039
0.92151123285293579 0.92151123285293579 0.92151123285293579
0.92798507213592529 0.92798507213592529 0.92798507213592529
0.91956406831741333 0.91956406831741333 0.91956406831741333
0.91620528697967529 0.91620528697967529 0.91620528697967529
0.91243875026702881 0.91243875026702881 0.91243875026702881
0.91716575622558594 0.91716575622558594 0.91716575622558594
0.92787021398544312 0.92787021398544312 0.92787021398544312
0.93405705690383911 0.93405705690383911 0.93405705690383911
0.94103485345840454 0.94103485345840454 0.94103485345840454
0.91188907623291016 0.91188907623291016 0.91188907623291016
0.91334176063537598 0.91334176063537598 0.91334176063537598
0.91420489549636841 0.91420489549636841 0.91420489549636841
0.92100977897644043 0.92100977897644043 0.92100977897644043
0.93123912811279297 0.93123912811279297 0.93123912811279297
0.9392627477645874 0.9392627477645874 0.9392627477645874
0.9488404393196106 0.9488404393196106 0.9488404393196106
0.91610336303710938 0.91610336303710938 0.91610336303710938
0.91971021890640259 0.91971021890640259 0.91971021890640259
0.92486846446990967 0.92486846446990967 0.92486846446990967
0.93033242225646973 0.93033242225646973 0.93033242225646973
0.93521797657012939 0.93521797657012939 0.93521797657012939
0.94014304876327515 0.94014304876327515 0.94014304876327515
0.95109206438064575 0.95109206438064575 0.95109206438064575
0.93730151653289795 0.93730151653289795 0.93730151653289795
0.9403267502784729 0.9403267502784729 0.9403267502784729
0.94481521844863892 0.94481521844863892 0.94481521844863892
0.94661843776702881 0.94661843776702881 0.94661843776702881
0.94597607851028442 0.94597607851028442 0.94597607851028442
0.94610786437988281 0.94610786437988281 0.94610786437988281
0.9551512598991394 0.9551512598991394 0.9551512598991394
0.96509230136871338 0.96509230136871338 0.96509230136871338
0.96851783990859985 0.96851783990859985 0.96851783990859985
0.97185283899307251 0.97185283899307251 0.97185283899307251
0.97126448154449463 0.97126448154449463 0.97126448154449463
0.96706676483154297 0.96706676483154297 0.96706676483154297
0.96380996704101562 0.96380996704101562 0.96380996704101562
0.96995925903320312 0.96995925903320312 0.96995925903320312
