luts/instant_pro/polaroid_690_warm_--.cube
# Created by: G'MIC (https://gmic.eu)
TITLE "polaroid_690_warm_--"
# LUT size
LUT_3D_SIZE 5
# Data domain
DOMAIN_MIN 0.0 0.0 0.0
DOMAIN_MAX 1.0 1.0 1.0
# LUT data points
0.038615822792053223 0.019441312178969383 0.014511212706565857
0.29061505198478699 0.0028933656867593527 0.0138943986967206
0.58807367086410522 0.00027916103135794401 0.0051272823475301266
0.81565743684768677 0 0.0006759344250895083
0.99349623918533325 0 0
0.0084185730665922165 0.26868680119514465 0.0012573242420330644
0.32934314012527466 0.28230133652687073 0.0036911759525537491
0.67304867506027222 0.23014275729656219 0.00055217370390892029
0.87886583805084229 0.078922897577285767 0
0.99959665536880493 0.014066389761865139 0
0.0070938407443463802 0.53161913156509399 0
0.27339130640029907 0.52905404567718506 0.002536713844165206
0.61211198568344116 0.54648470878601074 0.0023885241243988276
0.88145112991333008 0.54863399267196655 0.0040175644680857658
0.99874961376190186 0.54911911487579346 0.0044670705683529377
0.1926940381526947 0.72008013725280762 0.0017942092381417751
0.34121346473693848 0.71421021223068237 0.0018815284129232168
0.57368731498718262 0.72143667936325073 0.0021071191877126694
0.84034758806228638 0.7473219633102417 0.00048612707178108394
0.99698615074157715 0.76967084407806396 0.0033844292629510164
0.50388991832733154 0.9414905309677124 0.064274266362190247
0.56778281927108765 0.94017124176025391 0.041106190532445908
0.70529425144195557 0.93492203950881958 0.0074938605539500713
0.87790572643280029 0.94231873750686646 0.0009212269214913249
0.99824064970016479 0.95743089914321899 0
0.0091569637879729271 0.022346166893839836 0.26422473788261414
0.31390237808227539 0.0049828025512397289 0.28579899668693542
0.58181428909301758 0.002374372212216258 0.22671030461788177
0.78267210721969604 0.00061953673139214516 0.17652638256549835
0.97637063264846802 0 0.11238783597946167
0.10968243330717087 0.28181347250938416 0.27663347125053406
0.36838525533676147 0.30208292603492737 0.29686975479125977
0.63224709033966064 0.23462216556072235 0.26221176981925964
0.83322131633758545 0.08308112621307373 0.19953623414039612
0.99768704175949097 0.0056694182567298412 0.13978153467178345
0.18703801929950714 0.54998964071273804 0.27187570929527283
0.35700115561485291 0.54746240377426147 0.25593888759613037
0.61968272924423218 0.55516225099563599 0.23486147820949554
0.88111042976379395 0.56517070531845093 0.25995269417762756
0.99931067228317261 0.53847557306289673 0.2507908046245575
0.26961669325828552 0.73281818628311157 0.22391889989376068
0.37618961930274963 0.72740525007247925 0.20203572511672974
0.58106786012649536 0.72547316551208496 0.15536902844905853
0.83357816934585571 0.7546355128288269 0.13467507064342499
0.99867469072341919 0.78309226036071777 0.18509620428085327
0.48755037784576416 0.94066941738128662 0.28425157070159912
0.55467325448989868 0.93980324268341064 0.27218925952911377
0.69284248352050781 0.93565261363983154 0.20912005007266998
0.87177151441574097 0.94532835483551025 0.16074216365814209
0.99945235252380371 0.96012586355209351 0.068744778633117676
0.0030727761331945658 0.040078960359096527 0.56987476348876953
0.27394530177116394 0.028281925246119499 0.59955626726150513
0.64977651834487915 0.012198115698993206 0.62614613771438599
0.80742728710174561 0.0064467187039554119 0.50471007823944092
0.97427260875701904 0.0023677153512835503 0.44775250554084778
0.15594619512557983 0.2806611955165863 0.5596088171005249
0.37101566791534424 0.3119124174118042 0.58913660049438477
0.65839266777038574 0.3322889506816864 0.62106037139892578
0.80906707048416138 0.26165783405303955 0.51309514045715332
0.98056536912918091 0.019168734550476074 0.44704046845436096
0.27167114615440369 0.55608278512954712 0.56934982538223267
0.42210167646408081 0.56770062446594238 0.58205127716064453
0.64773321151733398 0.58236026763916016 0.60308349132537842
0.83781689405441284 0.51118999719619751 0.53763210773468018
0.9925696849822998 0.40236088633537292 0.44776651263237
0.34234142303466797 0.75812315940856934 0.55385911464691162
0.43681681156158447 0.76047629117965698 0.54879236221313477
0.60328227281570435 0.74447000026702881 0.51620477437973022
0.83433586359024048 0.76459133625030518 0.51097327470779419
0.99852496385574341 0.78881776332855225 0.56075358390808105
0.45285922288894653 0.94815915822982788 0.55510210990905762
0.52211755514144897 0.94494271278381348 0.53855741024017334
0.66078537702560425 0.93759012222290039 0.50175529718399048
0.84809225797653198 0.94323444366455078 0.46793708205223083
0.99587208032608032 0.95858567953109741 0.4743463397026062
0.075079746544361115 0.11948960274457932 0.81531053781509399
0.34071129560470581 0.13085660338401794 0.82227110862731934
0.64352887868881226 0.15918442606925964 0.8480600118637085
0.88892477750778198 0.2149428129196167 0.84848552942276001
0.99433273077011108 0.18592122197151184 0.7639232873916626
0.24957016110420227 0.31478804349899292 0.79828226566314697
0.40339016914367676 0.32953611016273499 0.8080298900604248
0.66468977928161621 0.36709505319595337 0.83847928047180176
0.88598418235778809 0.39649093151092529 0.84621357917785645
0.9939039945602417 0.33996421098709106 0.77070242166519165
0.23498310148715973 0.50660032033920288 0.75537264347076416
0.3760339617729187 0.5223572850227356 0.76785969734191895
0.6322135329246521 0.56425344944000244 0.80244451761245728
0.8676992654800415 0.61015713214874268 0.83487147092819214
0.98522603511810303 0.50799441337585449 0.75207728147506714
0.39309418201446533 0.75179171562194824 0.78895694017410278
0.48586609959602356 0.75795292854309082 0.79594695568084717
0.65224629640579224 0.76362699270248413 0.80384147167205811
0.84808576107025146 0.7881171703338623 0.82166188955307007
0.99346435070037842 0.70711630582809448 0.75244832038879395
0.5598873496055603 0.95242959260940552 0.82245999574661255
0.60042494535446167 0.95493090152740479 0.81768745183944702
0.69009917974472046 0.95161378383636475 0.79929864406585693
0.82467532157897949 0.9481276273727417 0.75981676578521729
0.98375457525253296 0.96003955602645874 0.77091091871261597
0.46323740482330322 0.30170959234237671 0.98097330331802368
0.55236691236495972 0.31064826250076294 0.97939741611480713
0.71778523921966553 0.3250519335269928 0.98538124561309814
0.90388709306716919 0.38324287533760071 0.98580360412597656
0.99965870380401611 0.4393196702003479 0.979339599609375
0.48251640796661377 0.42497026920318604 0.97682154178619385
0.56356531381607056 0.42898464202880859 0.98026174306869507
0.72342324256896973 0.4460320770740509 0.98197472095489502
0.90191644430160522 0.49896508455276489 0.98337632417678833
0.99908328056335449 0.52878236770629883 0.97807794809341431
0.4281885027885437 0.57439637184143066 0.9682157039642334
0.52103763818740845 0.58037185668945312 0.9700285792350769
0.70054799318313599 0.59951549768447876 0.97081905603408813
0.88646680116653442 0.64969855546951294 0.9771430492401123
0.9977526068687439 0.68543654680252075 0.97804379463195801
0.37892460823059082 0.75723230838775635 0.95584195852279663
0.44916039705276489 0.75191158056259155 0.95568227767944336
0.60515272617340088 0.74256706237792969 0.9575202465057373
0.84703981876373291 0.78832656145095825 0.97005879878997803
0.99346959590911865 0.840404212474823 0.97681140899658203
0.61467438936233521 0.95374703407287598 0.96461904048919678
0.65972107648849487 0.95505827665328979 0.96889853477478027
0.74877989292144775 0.95406472682952881 0.97009402513504028
0.86247676610946655 0.95372098684310913 0.97086423635482788
0.98129713535308838 0.96824747323989868 0.97375249862670898
