luts/instant_pro/polaroid_665_+.cube
# Created by: G'MIC (https://gmic.eu)
TITLE "polaroid_665_+"
# LUT size
LUT_3D_SIZE 7
# Data domain
DOMAIN_MIN 0.0 0.0 0.0
DOMAIN_MAX 1.0 1.0 1.0
# LUT data points
0.071587793529033661 0.071587793529033661 0.071587793529033661
0.0783873051404953 0.0783873051404953 0.0783873051404953
0.11036005616188049 0.11036005616188049 0.11036005616188049
0.1684478223323822 0.1684478223323822 0.1684478223323822
0.24397003650665283 0.24397003650665283 0.24397003650665283
0.33675515651702881 0.33675515651702881 0.33675515651702881
0.46479940414428711 0.46479940414428711 0.46479940414428711
0.11235261708498001 0.11235261708498001 0.11235261708498001
0.12147557735443115 0.12147557735443115 0.12147557735443115
0.15219643712043762 0.15219643712043762 0.15219643712043762
0.20784054696559906 0.20784054696559906 0.20784054696559906
0.27959686517715454 0.27959686517715454 0.27959686517715454
0.3613591194152832 0.3613591194152832 0.3613591194152832
0.48901224136352539 0.48901224136352539 0.48901224136352539
0.184584841132164 0.184584841132164 0.184584841132164
0.19377307593822479 0.19377307593822479 0.19377307593822479
0.21552136540412903 0.21552136540412903 0.21552136540412903
0.26062184572219849 0.26062184572219849 0.26062184572219849
0.33466252684593201 0.33466252684593201 0.33466252684593201
0.42528596520423889 0.42528596520423889 0.42528596520423889
0.5634651780128479 0.5634651780128479 0.5634651780128479
0.29135939478874207 0.29135939478874207 0.29135939478874207
0.29811254143714905 0.29811254143714905 0.29811254143714905
0.30711543560028076 0.30711543560028076 0.30711543560028076
0.32471919059753418 0.32471919059753418 0.32471919059753418
0.3789973258972168 0.3789973258972168 0.3789973258972168
0.48887467384338379 0.48887467384338379 0.48887467384338379
0.65577638149261475 0.65577638149261475 0.65577638149261475
0.44112968444824219 0.44112968444824219 0.44112968444824219
0.44523322582244873 0.44523322582244873 0.44523322582244873
0.45204341411590576 0.45204341411590576 0.45204341411590576
0.45631417632102966 0.45631417632102966 0.45631417632102966
0.47166356444358826 0.47166356444358826 0.47166356444358826
0.54809218645095825 0.54809218645095825 0.54809218645095825
0.70229178667068481 0.70229178667068481 0.70229178667068481
0.64633911848068237 0.64633911848068237 0.64633911848068237
0.64491230249404907 0.64491230249404907 0.64491230249404907
0.65333116054534912 0.65333116054534912 0.65333116054534912
0.66509455442428589 0.66509455442428589 0.66509455442428589
0.67228591442108154 0.67228591442108154 0.67228591442108154
0.69299167394638062 0.69299167394638062 0.69299167394638062
0.76873981952667236 0.76873981952667236 0.76873981952667236
0.86941611766815186 0.86941611766815186 0.86941611766815186
0.86609178781509399 0.86609178781509399 0.86609178781509399
0.8735925555229187 0.8735925555229187 0.8735925555229187
0.89362609386444092 0.89362609386444092 0.89362609386444092
0.90699547529220581 0.90699547529220581 0.90699547529220581
0.90253013372421265 0.90253013372421265 0.90253013372421265
0.91695290803909302 0.91695290803909302 0.91695290803909302
0.11077367514371872 0.11077367514371872 0.11077367514371872
0.11523386836051941 0.11523386836051941 0.11523386836051941
0.14458182454109192 0.14458182454109192 0.14458182454109192
0.20563617348670959 0.20563617348670959 0.20563617348670959
0.28354233503341675 0.28354233503341675 0.28354233503341675
0.36777141690254211 0.36777141690254211 0.36777141690254211
0.48616421222686768 0.48616421222686768 0.48616421222686768
0.14895971119403839 0.14895971119403839 0.14895971119403839
0.15994872152805328 0.15994872152805328 0.15994872152805328
0.18814109265804291 0.18814109265804291 0.18814109265804291
0.24088740348815918 0.24088740348815918 0.24088740348815918
0.31479203701019287 0.31479203701019287 0.31479203701019287
0.39818230271339417 0.39818230271339417 0.39818230271339417
0.51445508003234863 0.51445508003234863 0.51445508003234863
0.21924234926700592 0.21924234926700592 0.21924234926700592
0.23767223954200745 0.23767223954200745 0.23767223954200745
0.25570601224899292 0.25570601224899292 0.25570601224899292
0.28954702615737915 0.28954702615737915 0.28954702615737915
0.366484135389328 0.366484135389328 0.366484135389328
0.46458566188812256 0.46458566188812256 0.46458566188812256
0.58754140138626099 0.58754140138626099 0.58754140138626099
0.32887080311775208 0.32887080311775208 0.32887080311775208
0.34706979990005493 0.34706979990005493 0.34706979990005493
0.35101482272148132 0.35101482272148132 0.35101482272148132
0.35569021105766296 0.35569021105766296 0.35569021105766296
0.42219799757003784 0.42219799757003784 0.42219799757003784
0.53014415502548218 0.53014415502548218 0.53014415502548218
0.66785889863967896 0.66785889863967896 0.66785889863967896
0.48301905393600464 0.48301905393600464 0.48301905393600464
0.48436388373374939 0.48436388373374939 0.48436388373374939
0.49174949526786804 0.49174949526786804 0.49174949526786804
0.494789719581604 0.494789719581604 0.494789719581604
0.51962685585021973 0.51962685585021973 0.51962685585021973
0.59126675128936768 0.59126675128936768 0.59126675128936768
0.71981370449066162 0.71981370449066162 0.71981370449066162
0.67662173509597778 0.67662173509597778 0.67662173509597778
0.6715388298034668 0.6715388298034668 0.6715388298034668
0.6806715726852417 0.6806715726852417 0.6806715726852417
0.68989342451095581 0.68989342451095581 0.68989342451095581
0.70005357265472412 0.70005357265472412 0.70005357265472412
0.72043925523757935 0.72043925523757935 0.72043925523757935
0.78628849983215332 0.78628849983215332 0.78628849983215332
0.88279074430465698 0.88279074430465698 0.88279074430465698
0.88249766826629639 0.88249766826629639 0.88249766826629639
0.88688433170318604 0.88688433170318604 0.88688433170318604
0.90039849281311035 0.90039849281311035 0.90039849281311035
0.91607379913330078 0.91607379913330078 0.91607379913330078
0.92283862829208374 0.92283862829208374 0.92283862829208374
0.93447446823120117 0.93447446823120117 0.93447446823120117
0.18978980183601379 0.18978980183601379 0.18978980183601379
0.19537670910358429 0.19537670910358429 0.19537670910358429
0.22077019512653351 0.22077019512653351 0.22077019512653351
0.27718082070350647 0.27718082070350647 0.27718082070350647
0.36265546083450317 0.36265546083450317 0.36265546083450317
0.44067394733428955 0.44067394733428955 0.44067394733428955
0.55393415689468384 0.55393415689468384 0.55393415689468384
0.222569540143013 0.222569540143013 0.222569540143013
0.23802708089351654 0.23802708089351654 0.23802708089351654
0.26473152637481689 0.26473152637481689 0.26473152637481689
0.31019195914268494 0.31019195914268494 0.31019195914268494
0.38547021150588989 0.38547021150588989 0.38547021150588989
0.47487539052963257 0.47487539052963257 0.47487539052963257
0.58110040426254272 0.58110040426254272 0.58110040426254272
0.27624127268791199 0.27624127268791199 0.27624127268791199
0.30757918953895569 0.30757918953895569 0.30757918953895569
0.33222314715385437 0.33222314715385437 0.33222314715385437
0.36466124653816223 0.36466124653816223 0.36466124653816223
0.43518304824829102 0.43518304824829102 0.43518304824829102
0.5307801365852356 0.5307801365852356 0.5307801365852356
0.63396042585372925 0.63396042585372925 0.63396042585372925
0.36686277389526367 0.36686277389526367 0.36686277389526367
0.40654835104942322 0.40654835104942322 0.40654835104942322
0.42715182900428772 0.42715182900428772 0.42715182900428772
0.44937333464622498 0.44937333464622498 0.44937333464622498
0.50256597995758057 0.50256597995758057 0.50256597995758057
0.59124445915222168 0.59124445915222168 0.59124445915222168
0.70573967695236206 0.70573967695236206 0.70573967695236206
0.5355944037437439 0.5355944037437439 0.5355944037437439
0.53791862726211548 0.53791862726211548 0.53791862726211548
0.55888676643371582 0.55888676643371582 0.55888676643371582
0.57415330410003662 0.57415330410003662 0.57415330410003662
0.59183061122894287 0.59183061122894287 0.59183061122894287
0.64796620607376099 0.64796620607376099 0.64796620607376099
0.7724529504776001 0.7724529504776001 0.7724529504776001
0.72221732139587402 0.72221732139587402 0.72221732139587402
0.72205555438995361 0.72205555438995361 0.72205555438995361
0.72944587469100952 0.72944587469100952 0.72944587469100952
0.73495829105377197 0.73495829105377197 0.73495829105377197
0.73929303884506226 0.73929303884506226 0.73929303884506226
0.7525097131729126 0.7525097131729126 0.7525097131729126
0.82555025815963745 0.82555025815963745 0.82555025815963745
0.90385311841964722 0.90385311841964722 0.90385311841964722
0.90967482328414917 0.90967482328414917 0.90967482328414917
0.9071919322013855 0.9071919322013855 0.9071919322013855
0.91020745038986206 0.91020745038986206 0.91020745038986206
0.92313730716705322 0.92313730716705322 0.92313730716705322
0.92604011297225952 0.92604011297225952 0.92604011297225952
0.94489109516143799 0.94489109516143799 0.94489109516143799
0.31683036684989929 0.31683036684989929 0.31683036684989929
0.3283613920211792 0.3283613920211792 0.3283613920211792
0.34854823350906372 0.34854823350906372 0.34854823350906372
0.37573522329330444 0.37573522329330444 0.37573522329330444
0.43156340718269348 0.43156340718269348 0.43156340718269348
0.53978043794631958 0.53978043794631958 0.53978043794631958
0.67147684097290039 0.67147684097290039 0.67147684097290039
0.34977579116821289 0.34977579116821289 0.34977579116821289
0.36856552958488464 0.36856552958488464 0.36856552958488464
0.38958060741424561 0.38958060741424561 0.38958060741424561
0.41224291920661926 0.41224291920661926 0.41224291920661926
0.4659879207611084 0.4659879207611084 0.4659879207611084
0.57959103584289551 0.57959103584289551 0.57959103584289551
0.69511967897415161 0.69511967897415161 0.69511967897415161
0.39091837406158447 0.39091837406158447 0.39091837406158447
0.41678604483604431 0.41678604483604431 0.41678604483604431
0.44251838326454163 0.44251838326454163 0.44251838326454163
0.46326526999473572 0.46326526999473572 0.46326526999473572
0.51055449247360229 0.51055449247360229 0.51055449247360229
0.62068778276443481 0.62068778276443481 0.62068778276443481
0.70602160692214966 0.70602160692214966 0.70602160692214966
0.42871284484863281 0.42871284484863281 0.42871284484863281
0.45372471213340759 0.45372471213340759 0.45372471213340759
0.50122594833374023 0.50122594833374023 0.50122594833374023
0.54652851819992065 0.54652851819992065 0.54652851819992065
0.58712464570999146 0.58712464570999146 0.58712464570999146
0.66361391544342041 0.66361391544342041 0.66361391544342041
0.75302469730377197 0.75302469730377197 0.75302469730377197
0.55820071697235107 0.55820071697235107 0.55820071697235107
0.56217497587203979 0.56217497587203979 0.56217497587203979
0.60955584049224854 0.60955584049224854 0.60955584049224854
0.65249139070510864 0.65249139070510864 0.65249139070510864
0.67396765947341919 0.67396765947341919 0.67396765947341919
0.71893727779388428 0.71893727779388428 0.71893727779388428
0.82054728269577026 0.82054728269577026 0.82054728269577026
0.74408668279647827 0.74408668279647827 0.74408668279647827
0.75685983896255493 0.75685983896255493 0.75685983896255493
0.77517807483673096 0.77517807483673096 0.77517807483673096
0.78733581304550171 0.78733581304550171 0.78733581304550171
0.79538959264755249 0.79538959264755249 0.79538959264755249
0.80658185482025146 0.80658185482025146 0.80658185482025146
0.87258583307266235 0.87258583307266235 0.87258583307266235
0.918609619140625 0.918609619140625 0.918609619140625
0.9318433403968811 0.9318433403968811 0.9318433403968811
0.9324040412902832 0.9324040412902832 0.9324040412902832
0.93248671293258667 0.93248671293258667 0.93248671293258667
0.93717014789581299 0.93717014789581299 0.93717014789581299
0.93687921762466431 0.93687921762466431 0.93687921762466431
0.96126037836074829 0.96126037836074829 0.96126037836074829
0.49074563384056091 0.49074563384056091 0.49074563384056091
0.50808292627334595 0.50808292627334595 0.50808292627334595
0.52488201856613159 0.52488201856613159 0.52488201856613159
0.53576374053955078 0.53576374053955078 0.53576374053955078
0.54275673627853394 0.54275673627853394 0.54275673627853394
0.61503595113754272 0.61503595113754272 0.61503595113754272
0.75659537315368652 0.75659537315368652 0.75659537315368652
0.5284879207611084 0.5284879207611084 0.5284879207611084
0.54915159940719604 0.54915159940719604 0.54915159940719604
0.56488174200057983 0.56488174200057983 0.56488174200057983
0.56999492645263672 0.56999492645263672 0.56999492645263672
0.57858878374099731 0.57858878374099731 0.57858878374099731
0.63628113269805908 0.63628113269805908 0.63628113269805908
0.77055585384368896 0.77055585384368896 0.77055585384368896
0.57683902978897095 0.57683902978897095 0.57683902978897095
0.59541743993759155 0.59541743993759155 0.59541743993759155
0.61094081401824951 0.61094081401824951 0.61094081401824951
0.60741603374481201 0.60741603374481201 0.60741603374481201
0.61570298671722412 0.61570298671722412 0.61570298671722412
0.69563502073287964 0.69563502073287964 0.69563502073287964
0.80240941047668457 0.80240941047668457 0.80240941047668457
0.59777408838272095 0.59777408838272095 0.59777408838272095
0.60470354557037354 0.60470354557037354 0.60470354557037354
0.6359562873840332 0.6359562873840332 0.6359562873840332
0.66399377584457397 0.66399377584457397 0.66399377584457397
0.69272124767303467 0.69272124767303467 0.69272124767303467
0.75091928243637085 0.75091928243637085 0.75091928243637085
0.8270576000213623 0.8270576000213623 0.8270576000213623
0.62732082605361938 0.62732082605361938 0.62732082605361938
0.63073045015335083 0.63073045015335083 0.63073045015335083
0.67000108957290649 0.67000108957290649 0.67000108957290649
0.72152400016784668 0.72152400016784668 0.72152400016784668
0.76722383499145508 0.76722383499145508 0.76722383499145508
0.80558454990386963 0.80558454990386963 0.80558454990386963
0.86561739444732666 0.86561739444732666 0.86561739444732666
0.75868934392929077 0.75868934392929077 0.75868934392929077
0.7672615647315979 0.7672615647315979 0.7672615647315979
0.78633326292037964 0.78633326292037964 0.78633326292037964
0.82456481456756592 0.82456481456756592 0.82456481456756592
0.86252498626708984 0.86252498626708984 0.86252498626708984
0.87488418817520142 0.87488418817520142 0.87488418817520142
0.91150438785552979 0.91150438785552979 0.91150438785552979
0.91821789741516113 0.91821789741516113 0.91821789741516113
0.92567712068557739 0.92567712068557739 0.92567712068557739
0.92894625663757324 0.92894625663757324 0.92894625663757324
0.94423991441726685 0.94423991441726685 0.94423991441726685
0.95772814750671387 0.95772814750671387 0.95772814750671387
0.9569476842880249 0.9569476842880249 0.9569476842880249
0.97401648759841919 0.97401648759841919 0.97401648759841919
0.7009270191192627 0.7009270191192627 0.7009270191192627
0.71243321895599365 0.71243321895599365 0.71243321895599365
0.72576892375946045 0.72576892375946045 0.72576892375946045
0.74093139171600342 0.74093139171600342 0.74093139171600342
0.75449627637863159 0.75449627637863159 0.75449627637863159
0.75908958911895752 0.75908958911895752 0.75908958911895752
0.80847024917602539 0.80847024917602539 0.80847024917602539
0.7270430326461792 0.7270430326461792 0.7270430326461792
0.74236667156219482 0.74236667156219482 0.74236667156219482
0.75539803504943848 0.75539803504943848 0.75539803504943848
0.76568937301635742 0.76568937301635742 0.76568937301635742
0.77232497930526733 0.77232497930526733 0.77232497930526733
0.76160675287246704 0.76160675287246704 0.76160675287246704
0.81502807140350342 0.81502807140350342 0.81502807140350342
0.75932592153549194 0.75932592153549194 0.75932592153549194
0.77556043863296509 0.77556043863296509 0.77556043863296509
0.7874571681022644 0.7874571681022644 0.7874571681022644
0.78908067941665649 0.78908067941665649 0.78908067941665649
0.78735452890396118 0.78735452890396118 0.78735452890396118
0.79456371068954468 0.79456371068954468 0.79456371068954468
0.84988319873809814 0.84988319873809814 0.84988319873809814
0.78308427333831787 0.78308427333831787 0.78308427333831787
0.79225879907608032 0.79225879907608032 0.79225879907608032
0.80606997013092041 0.80606997013092041 0.80606997013092041
0.82215040922164917 0.82215040922164917 0.82215040922164917
0.82806330919265747 0.82806330919265747 0.82806330919265747
0.8417174220085144 0.8417174220085144 0.8417174220085144
0.87971979379653931 0.87971979379653931 0.87971979379653931
0.80711990594863892 0.80711990594863892 0.80711990594863892
0.80365264415740967 0.80365264415740967 0.80365264415740967
0.80752938985824585 0.80752938985824585 0.80752938985824585
0.83979636430740356 0.83979636430740356 0.83979636430740356
0.86918818950653076 0.86918818950653076 0.86918818950653076
0.88562357425689697 0.88562357425689697 0.88562357425689697
0.91192007064819336 0.91192007064819336 0.91192007064819336
0.84077781438827515 0.84077781438827515 0.84077781438827515
0.84604072570800781 0.84604072570800781 0.84604072570800781
0.84553080797195435 0.84553080797195435 0.84553080797195435
0.87247258424758911 0.87247258424758911 0.87247258424758911
0.9122234582901001 0.9122234582901001 0.9122234582901001
0.92747318744659424 0.92747318744659424 0.92747318744659424
0.94268453121185303 0.94268453121185303 0.94268453121185303
0.92184305191040039 0.92184305191040039 0.92184305191040039
0.9259987473487854 0.9259987473487854 0.9259987473487854
0.92749202251434326 0.92749202251434326 0.92749202251434326
0.94217073917388916 0.94217073917388916 0.94217073917388916
0.96303325891494751 0.96303325891494751 0.96303325891494751
0.96961730718612671 0.96961730718612671 0.96961730718612671
0.97905099391937256 0.97905099391937256 0.97905099391937256
0.90330398082733154 0.90330398082733154 0.90330398082733154
0.9051368236541748 0.9051368236541748 0.9051368236541748
0.91211026906967163 0.91211026906967163 0.91211026906967163
0.9276127815246582 0.9276127815246582 0.9276127815246582
0.94130557775497437 0.94130557775497437 0.94130557775497437
0.93146038055419922 0.93146038055419922 0.93146038055419922
0.92226612567901611 0.92226612567901611 0.92226612567901611
0.90966635942459106 0.90966635942459106 0.90966635942459106
0.91409474611282349 0.91409474611282349 0.91409474611282349
0.9225965142250061 0.9225965142250061 0.9225965142250061
0.93827635049819946 0.93827635049819946 0.93827635049819946
0.94712716341018677 0.94712716341018677 0.94712716341018677
0.92597407102584839 0.92597407102584839 0.92597407102584839
0.91735947132110596 0.91735947132110596 0.91735947132110596
0.92036432027816772 0.92036432027816772 0.92036432027816772
0.92264664173126221 0.92264664173126221 0.92264664173126221
0.92918968200683594 0.92918968200683594 0.92918968200683594
0.94387024641036987 0.94387024641036987 0.94387024641036987
0.9424431324005127 0.9424431324005127 0.9424431324005127
0.9235004186630249 0.9235004186630249 0.9235004186630249
0.92202019691467285 0.92202019691467285 0.92202019691467285
0.93750655651092529 0.93750655651092529 0.93750655651092529
0.94048643112182617 0.94048643112182617 0.94048643112182617
0.94485282897949219 0.94485282897949219 0.94485282897949219
0.95719558000564575 0.95719558000564575 0.95719558000564575
0.95131403207778931 0.95131403207778931 0.95131403207778931
0.93616968393325806 0.93616968393325806 0.93616968393325806
0.93806010484695435 0.93806010484695435 0.93806010484695435
0.95039254426956177 0.95039254426956177 0.95039254426956177
0.95297747850418091 0.95297747850418091 0.95297747850418091
0.94675779342651367 0.94675779342651367 0.94675779342651367
0.95762425661087036 0.95762425661087036 0.95762425661087036
0.96085071563720703 0.96085071563720703 0.96085071563720703
0.95674538612365723 0.95674538612365723 0.95674538612365723
0.9601019024848938 0.9601019024848938 0.9601019024848938
0.94456249475479126 0.94456249475479126 0.94456249475479126
0.9470515251159668 0.9470515251159668 0.9470515251159668
0.94066601991653442 0.94066601991653442 0.94066601991653442
0.94786518812179565 0.94786518812179565 0.94786518812179565
0.96441519260406494 0.96441519260406494 0.96441519260406494
0.97228103876113892 0.97228103876113892 0.97228103876113892
0.97406017780303955 0.97406017780303955 0.97406017780303955
0.95592057704925537 0.95592057704925537 0.95592057704925537
0.96070820093154907 0.96070820093154907 0.96070820093154907
0.95928466320037842 0.95928466320037842 0.95928466320037842
0.9621349573135376 0.9621349573135376 0.9621349573135376
0.97824710607528687 0.97824710607528687 0.97824710607528687
0.98484569787979126 0.98484569787979126 0.98484569787979126
0.98717725276947021 0.98717725276947021 0.98717725276947021
