luts/instant_pro/polaroid_665_-.cube
# Created by: G'MIC (https://gmic.eu)
TITLE "polaroid_665_-"
# LUT size
LUT_3D_SIZE 13
# Data domain
DOMAIN_MIN 0.0 0.0 0.0
DOMAIN_MAX 1.0 1.0 1.0
# LUT data points
0.040451094508171082 0.040451094508171082 0.040451094508171082
0.054581120610237122 0.054581120610237122 0.054581120610237122
0.076723180711269379 0.076723180711269379 0.076723180711269379
0.10604172945022583 0.10604172945022583 0.10604172945022583
0.14229688048362732 0.14229688048362732 0.14229688048362732
0.18353156745433807 0.18353156745433807 0.18353156745433807
0.22618995606899261 0.22618995606899261 0.22618995606899261
0.26706668734550476 0.26706668734550476 0.26706668734550476
0.30527713894844055 0.30527713894844055 0.30527713894844055
0.3420378565788269 0.3420378565788269 0.3420378565788269
0.37953585386276245 0.37953585386276245 0.37953585386276245
0.42153918743133545 0.42153918743133545 0.42153918743133545
0.46946871280670166 0.46946871280670166 0.46946871280670166
0.064071789383888245 0.064071789383888245 0.064071789383888245
0.076076403260231018 0.076076403260231018 0.076076403260231018
0.094458669424057007 0.094458669424057007 0.094458669424057007
0.12008278071880341 0.12008278071880341 0.12008278071880341
0.15485866367816925 0.15485866367816925 0.15485866367816925
0.19549396634101868 0.19549396634101868 0.19549396634101868
0.23826888203620911 0.23826888203620911 0.23826888203620911
0.27915674448013306 0.27915674448013306 0.27915674448013306
0.31640741229057312 0.31640741229057312 0.31640741229057312
0.35098642110824585 0.35098642110824585 0.35098642110824585
0.38615238666534424 0.38615238666534424 0.38615238666534424
0.42664697766304016 0.42664697766304016 0.42664697766304016
0.47458118200302124 0.47458118200302124 0.47458118200302124
0.10851069539785385 0.10851069539785385 0.10851069539785385
0.11592783033847809 0.11592783033847809 0.11592783033847809
0.1265643835067749 0.1265643835067749 0.1265643835067749
0.14497999846935272 0.14497999846935272 0.14497999846935272
0.17598618566989899 0.17598618566989899 0.17598618566989899
0.21481791138648987 0.21481791138648987 0.21481791138648987
0.25651848316192627 0.25651848316192627 0.25651848316192627
0.29711794853210449 0.29711794853210449 0.29711794853210449
0.33287540078163147 0.33287540078163147 0.33287540078163147
0.36484441161155701 0.36484441161155701 0.36484441161155701
0.39736440777778625 0.39736440777778625 0.39736440777778625
0.43627673387527466 0.43627673387527466 0.43627673387527466
0.48518773913383484 0.48518773913383484 0.48518773913383484
0.17093448340892792 0.17093448340892792 0.17093448340892792
0.17334063351154327 0.17334063351154327 0.17334063351154327
0.175363689661026 0.175363689661026 0.175363689661026
0.18518854677677155 0.18518854677677155 0.18518854677677155
0.20921073853969574 0.20921073853969574 0.20921073853969574
0.24260511994361877 0.24260511994361877 0.24260511994361877
0.28082704544067383 0.28082704544067383 0.28082704544067383
0.31969237327575684 0.31969237327575684 0.31969237327575684
0.35426047444343567 0.35426047444343567 0.35426047444343567
0.38318458199501038 0.38318458199501038 0.38318458199501038
0.41344180703163147 0.41344180703163147 0.41344180703163147
0.45181658864021301 0.45181658864021301 0.45181658864021301
0.5033002495765686 0.5033002495765686 0.5033002495765686
0.2404177188873291 0.2404177188873291 0.2404177188873291
0.23915229737758636 0.23915229737758636 0.23915229737758636
0.23501917719841003 0.23501917719841003 0.23501917719841003
0.23761086165904999 0.23761086165904999 0.23761086165904999
0.25195086002349854 0.25195086002349854 0.25195086002349854
0.27663862705230713 0.27663862705230713 0.27663862705230713
0.30793270468711853 0.30793270468711853 0.30793270468711853
0.34270137548446655 0.34270137548446655 0.34270137548446655
0.37502118945121765 0.37502118945121765 0.37502118945121765
0.40251445770263672 0.40251445770263672 0.40251445770263672
0.43416336178779602 0.43416336178779602 0.43416336178779602
0.47661271691322327 0.47661271691322327 0.47661271691322327
0.53282350301742554 0.53282350301742554 0.53282350301742554
0.30211421847343445 0.30211421847343445 0.30211421847343445
0.3000108003616333 0.3000108003616333 0.3000108003616333
0.29379215836524963 0.29379215836524963 0.29379215836524963
0.2917875349521637 0.2917875349521637 0.2917875349521637
0.29839178919792175 0.29839178919792175 0.29839178919792175
0.31371000409126282 0.31371000409126282 0.31371000409126282
0.33555853366851807 0.33555853366851807 0.33555853366851807
0.36171993613243103 0.36171993613243103 0.36171993613243103
0.38944002985954285 0.38944002985954285 0.38944002985954285
0.41896915435791016 0.41896915435791016 0.41896915435791016
0.45710203051567078 0.45710203051567078 0.45710203051567078
0.50873541831970215 0.50873541831970215 0.50873541831970215
0.57183533906936646 0.57183533906936646 0.57183533906936646
0.35316908359527588 0.35316908359527588 0.35316908359527588
0.3517996072769165 0.3517996072769165 0.3517996072769165
0.34692525863647461 0.34692525863647461 0.34692525863647461
0.34387117624282837 0.34387117624282837 0.34387117624282837
0.34601104259490967 0.34601104259490967 0.34601104259490967
0.35405620932579041 0.35405620932579041 0.35405620932579041
0.36676546931266785 0.36676546931266785 0.36676546931266785
0.38336145877838135 0.38336145877838135 0.38336145877838135
0.40515622496604919 0.40515622496604919 0.40515622496604919
0.4353083074092865 0.4353083074092865 0.4353083074092865
0.47890883684158325 0.47890883684158325 0.47890883684158325
0.53880995512008667 0.53880995512008667 0.53880995512008667
0.61006885766983032 0.61006885766983032 0.61006885766983032
0.40162131190299988 0.40162131190299988 0.40162131190299988
0.40118259191513062 0.40118259191513062 0.40118259191513062
0.39877283573150635 0.39877283573150635 0.39877283573150635
0.39686426520347595 0.39686426520347595 0.39686426520347595
0.39769971370697021 0.39769971370697021 0.39769971370697021
0.40165743231773376 0.40165743231773376 0.40165743231773376
0.40794381499290466 0.40794381499290466 0.40794381499290466
0.41701763868331909 0.41701763868331909 0.41701763868331909
0.43164157867431641 0.43164157867431641 0.43164157867431641
0.45654860138893127 0.45654860138893127 0.45654860138893127
0.49750551581382751 0.49750551581382751 0.49750551581382751
0.55923295021057129 0.55923295021057129 0.55923295021057129
0.63453847169876099 0.63453847169876099 0.63453847169876099
0.45529305934906006 0.45529305934906006 0.45529305934906006
0.4560757577419281 0.4560757577419281 0.4560757577419281
0.45608016848564148 0.45608016848564148 0.45608016848564148
0.45621222257614136 0.45621222257614136 0.45621222257614136
0.45763781666755676 0.45763781666755676 0.45763781666755676
0.46071740984916687 0.46071740984916687 0.46071740984916687
0.46441683173179626 0.46441683173179626 0.46441683173179626
0.46920356154441833 0.46920356154441833 0.46920356154441833
0.47724708914756775 0.47724708914756775 0.47724708914756775
0.49178719520568848 0.49178719520568848 0.49178719520568848
0.52060723304748535 0.52060723304748535 0.52060723304748535
0.57442200183868408 0.57442200183868408 0.57442200183868408
0.64593958854675293 0.64593958854675293 0.64593958854675293
0.52207291126251221 0.52207291126251221 0.52207291126251221
0.52331113815307617 0.52331113815307617 0.52331113815307617
0.5254596471786499 0.5254596471786499 0.5254596471786499
0.52683287858963013 0.52683287858963013 0.52683287858963013
0.52955681085586548 0.52955681085586548 0.52955681085586548
0.53321129083633423 0.53321129083633423 0.53321129083633423
0.53732955455780029 0.53732955455780029 0.53732955455780029
0.54155707359313965 0.54155707359313965 0.54155707359313965
0.54646432399749756 0.54646432399749756 0.54646432399749756
0.55248022079467773 0.55248022079467773 0.55248022079467773
0.56524574756622314 0.56524574756622314 0.56524574756622314
0.60506272315979004 0.60506272315979004 0.60506272315979004
0.66738545894622803 0.66738545894622803 0.66738545894622803
0.60502010583877563 0.60502010583877563 0.60502010583877563
0.60596352815628052 0.60596352815628052 0.60596352815628052
0.60758298635482788 0.60758298635482788 0.60758298635482788
0.60941743850708008 0.60941743850708008 0.60941743850708008
0.61269307136535645 0.61269307136535645 0.61269307136535645
0.61742007732391357 0.61742007732391357 0.61742007732391357
0.62331974506378174 0.62331974506378174 0.62331974506378174
0.62977153062820435 0.62977153062820435 0.62977153062820435
0.6366240382194519 0.6366240382194519 0.6366240382194519
0.64303052425384521 0.64303052425384521 0.64303052425384521
0.64950162172317505 0.64950162172317505 0.64950162172317505
0.66941523551940918 0.66941523551940918 0.66941523551940918
0.7130202054977417 0.7130202054977417 0.7130202054977417
0.70019084215164185 0.70019084215164185 0.70019084215164185
0.69951719045639038 0.69951719045639038 0.69951719045639038
0.69896107912063599 0.69896107912063599 0.69896107912063599
0.69988739490509033 0.69988739490509033 0.69988739490509033
0.70281457901000977 0.70281457901000977 0.70281457901000977
0.70811003446578979 0.70811003446578979 0.70811003446578979
0.71566921472549438 0.71566921472549438 0.71566921472549438
0.72493398189544678 0.72493398189544678 0.72493398189544678
0.73420137166976929 0.73420137166976929 0.73420137166976929
0.74185073375701904 0.74185073375701904 0.74185073375701904
0.74619364738464355 0.74619364738464355 0.74619364738464355
0.75389546155929565 0.75389546155929565 0.75389546155929565
0.78017401695251465 0.78017401695251465 0.78017401695251465
0.79717463254928589 0.79717463254928589 0.79717463254928589
0.79536563158035278 0.79536563158035278 0.79536563158035278
0.79327094554901123 0.79327094554901123 0.79327094554901123
0.79288607835769653 0.79288607835769653 0.79288607835769653
0.79487431049346924 0.79487431049346924 0.79487431049346924
0.79985505342483521 0.79985505342483521 0.79985505342483521
0.8077203631401062 0.8077203631401062 0.8077203631401062
0.81744062900543213 0.81744062900543213 0.81744062900543213
0.82637089490890503 0.82637089490890503 0.82637089490890503
0.83170044422149658 0.83170044422149658 0.83170044422149658
0.83429384231567383 0.83429384231567383 0.83429384231567383
0.83992332220077515 0.83992332220077515 0.83992332220077515
0.85767477750778198 0.85767477750778198 0.85767477750778198
0.072970479726791382 0.072970479726791382 0.072970479726791382
0.088428318500518799 0.088428318500518799 0.088428318500518799
0.1104145273566246 0.1104145273566246 0.1104145273566246
0.1385200023651123 0.1385200023651123 0.1385200023651123
0.1729329526424408 0.1729329526424408 0.1729329526424408
0.21230831742286682 0.21230831742286682 0.21230831742286682
0.25269278883934021 0.25269278883934021 0.25269278883934021
0.29041090607643127 0.29041090607643127 0.29041090607643127
0.32458585500717163 0.32458585500717163 0.32458585500717163
0.35701119899749756 0.35701119899749756 0.35701119899749756
0.39111736416816711 0.39111736416816711 0.39111736416816711
0.43021288514137268 0.43021288514137268 0.43021288514137268
0.4764154851436615 0.4764154851436615 0.4764154851436615
0.091859273612499237 0.091859273612499237 0.091859273612499237
0.10725098848342896 0.10725098848342896 0.10725098848342896
0.12710829079151154 0.12710829079151154 0.12710829079151154
0.15221819281578064 0.15221819281578064 0.15221819281578064
0.18406488001346588 0.18406488001346588 0.18406488001346588
0.22161175310611725 0.22161175310611725 0.22161175310611725
0.26112321019172668 0.26112321019172668 0.26112321019172668
0.29840219020843506 0.29840219020843506 0.29840219020843506
0.33200544118881226 0.33200544118881226 0.33200544118881226
0.36306488513946533 0.36306488513946533 0.36306488513946533
0.39545524120330811 0.39545524120330811 0.39545524120330811
0.43349382281303406 0.43349382281303406 0.43349382281303406
0.48005756735801697 0.48005756735801697 0.48005756735801697
0.13233298063278198 0.13233298063278198 0.13233298063278198
0.14435814321041107 0.14435814321041107 0.14435814321041107
0.15824879705905914 0.15824879705905914 0.15824879705905914
0.17681078612804413 0.17681078612804413 0.17681078612804413
0.20417746901512146 0.20417746901512146 0.20417746901512146
0.2381657212972641 0.2381657212972641 0.2381657212972641
0.27520957589149475 0.27520957589149475 0.27520957589149475
0.31158071756362915 0.31158071756362915 0.31158071756362915
0.34449940919876099 0.34449940919876099 0.34449940919876099
0.37421700358390808 0.37421700358390808 0.37421700358390808
0.40503072738647461 0.40503072738647461 0.40503072738647461
0.4425652027130127 0.4425652027130127 0.4425652027130127
0.4904768168926239 0.4904768168926239 0.4904768168926239
0.19368113577365875 0.19368113577365875 0.19368113577365875
0.20017096400260925 0.20017096400260925 0.20017096400260925
0.20533308386802673 0.20533308386802673 0.20533308386802673
0.21521779894828796 0.21521779894828796 0.21521779894828796
0.23514506220817566 0.23514506220817566 0.23514506220817566
0.26311960816383362 0.26311960816383362 0.26311960816383362
0.29599118232727051 0.29599118232727051 0.29599118232727051
0.32978254556655884 0.32978254556655884 0.32978254556655884
0.3611089289188385 0.3611089289188385 0.3611089289188385
0.38960912823677063 0.38960912823677063 0.38960912823677063
0.42027094960212708 0.42027094960212708 0.42027094960212708
0.45901685953140259 0.45901685953140259 0.45901685953140259
0.50914478302001953 0.50914478302001953 0.50914478302001953
0.26491886377334595 0.26491886377334595 0.26491886377334595
0.26557397842407227 0.26557397842407227 0.26557397842407227
0.26199078559875488 0.26199078559875488 0.26199078559875488
0.2634749710559845 0.2634749710559845 0.2634749710559845
0.27422720193862915 0.27422720193862915 0.27422720193862915
0.29400324821472168 0.29400324821472168 0.29400324821472168
0.31964513659477234 0.31964513659477234 0.31964513659477234
0.34881311655044556 0.34881311655044556 0.34881311655044556
0.37767526507377625 0.37767526507377625 0.37767526507377625
0.40635725855827332 0.40635725855827332 0.40635725855827332
0.4397720992565155 0.4397720992565155 0.4397720992565155
0.48305779695510864 0.48305779695510864 0.48305779695510864
0.53781157732009888 0.53781157732009888 0.53781157732009888
0.32410094141960144 0.32410094141960144 0.32410094141960144
0.32360988855361938 0.32360988855361938 0.32360988855361938
0.31704452633857727 0.31704452633857727 0.31704452633857727
0.313393235206604 0.313393235206604 0.313393235206604
0.316925048828125 0.316925048828125 0.316925048828125
0.32775938510894775 0.32775938510894775 0.32775938510894775
0.3447759747505188 0.3447759747505188 0.3447759747505188
0.36601483821868896 0.36601483821868896 0.36601483821868896
0.39101287722587585 0.39101287722587585 0.39101287722587585
0.42154374718666077 0.42154374718666077 0.42154374718666077
0.46131101250648499 0.46131101250648499 0.46131101250648499
0.51233989000320435 0.51233989000320435 0.51233989000320435
0.57316428422927856 0.57316428422927856 0.57316428422927856
0.37065610289573669 0.37065610289573669 0.37065610289573669
0.370931476354599 0.370931476354599 0.370931476354599
0.3660125732421875 0.3660125732421875 0.3660125732421875
0.36134546995162964 0.36134546995162964 0.36134546995162964
0.36127617955207825 0.36127617955207825 0.36127617955207825
0.36587166786193848 0.36587166786193848 0.36587166786193848
0.37405526638031006 0.37405526638031006 0.37405526638031006
0.38624200224876404 0.38624200224876404 0.38624200224876404
0.4056849479675293 0.4056849479675293 0.4056849479675293
0.43691143393516541 0.43691143393516541 0.43691143393516541
0.48161834478378296 0.48161834478378296 0.48161834478378296
0.53993493318557739 0.53993493318557739 0.53993493318557739
0.60712176561355591 0.60712176561355591 0.60712176561355591
0.4141143262386322 0.4141143262386322 0.4141143262386322
0.4150938093662262 0.4150938093662262 0.4150938093662262
0.41295862197875977 0.41295862197875977 0.41295862197875977
0.41007697582244873 0.41007697582244873 0.41007697582244873
0.40970650315284729 0.40970650315284729 0.40970650315284729
0.41141876578330994 0.41141876578330994 0.41141876578330994
0.41415467858314514 0.41415467858314514 0.41415467858314514
0.41898947954177856 0.41898947954177856 0.41898947954177856
0.43198725581169128 0.43198725581169128 0.43198725581169128
0.45920363068580627 0.45920363068580627 0.45920363068580627
0.50204193592071533 0.50204193592071533 0.50204193592071533
0.56098341941833496 0.56098341941833496 0.56098341941833496
0.6308627724647522 0.6308627724647522 0.6308627724647522
0.46337476372718811 0.46337476372718811 0.46337476372718811
0.46552449464797974 0.46552449464797974 0.46552449464797974
0.46595776081085205 0.46595776081085205 0.46595776081085205
0.46519315242767334 0.46519315242767334 0.46519315242767334
0.46666637063026428 0.46666637063026428 0.46666637063026428
0.46907326579093933 0.46907326579093933 0.46907326579093933
0.47046884894371033 0.47046884894371033 0.47046884894371033
0.47254276275634766 0.47254276275634766 0.47254276275634766
0.48031806945800781 0.48031806945800781 0.48031806945800781
0.49807566404342651 0.49807566404342651 0.49807566404342651
0.5298805832862854 0.5298805832862854 0.5298805832862854
0.58036249876022339 0.58036249876022339 0.58036249876022339
0.64603525400161743 0.64603525400161743 0.64603525400161743
0.52636432647705078 0.52636432647705078 0.52636432647705078
0.53030276298522949 0.53030276298522949 0.53030276298522949
0.53275382518768311 0.53275382518768311 0.53275382518768311
0.53391170501708984 0.53391170501708984 0.53391170501708984
0.53697264194488525 0.53697264194488525 0.53697264194488525
0.54052174091339111 0.54052174091339111 0.54052174091339111
0.54351413249969482 0.54351413249969482 0.54351413249969482
0.54635965824127197 0.54635965824127197 0.54635965824127197
0.55171048641204834 0.55171048641204834 0.55171048641204834
0.56139117479324341 0.56139117479324341 0.56139117479324341
0.57829141616821289 0.57829141616821289 0.57829141616821289
0.61255836486816406 0.61255836486816406 0.61255836486816406
0.66776436567306519 0.66776436567306519 0.66776436567306519
0.60936897993087769 0.60936897993087769 0.60936897993087769
0.61196720600128174 0.61196720600128174 0.61196720600128174
0.61431467533111572 0.61431467533111572 0.61431467533111572
0.6164821982383728 0.6164821982383728 0.6164821982383728
0.61961477994918823 0.61961477994918823 0.61961477994918823
0.62409043312072754 0.62409043312072754 0.62409043312072754
0.62896084785461426 0.62896084785461426 0.62896084785461426
0.63440972566604614 0.63440972566604614 0.63440972566604614
0.64109891653060913 0.64109891653060913 0.64109891653060913
0.64899373054504395 0.64899373054504395 0.64899373054504395
0.65612971782684326 0.65612971782684326 0.65612971782684326
0.67066049575805664 0.67066049575805664 0.67066049575805664
0.70938962697982788 0.70938962697982788 0.70938962697982788
0.70464521646499634 0.70464521646499634 0.70464521646499634
0.70493054389953613 0.70493054389953613 0.70493054389953613
0.70562481880187988 0.70562481880187988 0.70562481880187988
0.70672464370727539 0.70672464370727539 0.70672464370727539
0.70932936668395996 0.70932936668395996 0.70932936668395996
0.71376460790634155 0.71376460790634155 0.71376460790634155
0.72014260292053223 0.72014260292053223 0.72014260292053223
0.72804337739944458 0.72804337739944458 0.72804337739944458
0.73637354373931885 0.73637354373931885 0.73637354373931885
0.74364662170410156 0.74364662170410156 0.74364662170410156
0.74640053510665894 0.74640053510665894 0.74640053510665894
0.75045216083526611 0.75045216083526611 0.75045216083526611
0.77435928583145142 0.77435928583145142 0.77435928583145142
0.80137139558792114 0.80137139558792114 0.80137139558792114
0.80032622814178467 0.80032622814178467 0.80032622814178467
0.79907554388046265 0.79907554388046265 0.79907554388046265
0.79876792430877686 0.79876792430877686 0.79876792430877686
0.80034077167510986 0.80034077167510986 0.80034077167510986
0.80439466238021851 0.80439466238021851 0.80439466238021851
0.81093442440032959 0.81093442440032959 0.81093442440032959
0.81926757097244263 0.81926757097244263 0.81926757097244263
0.82713574171066284 0.82713574171066284 0.82713574171066284
0.8321349024772644 0.8321349024772644 0.8321349024772644
0.83330458402633667 0.83330458402633667 0.83330458402633667
0.83640903234481812 0.83640903234481812 0.83640903234481812
0.85231298208236694 0.85231298208236694 0.85231298208236694
0.12421268969774246 0.12421268969774246 0.12421268969774246
0.13721802830696106 0.13721802830696106 0.13721802830696106
0.15522274374961853 0.15522274374961853 0.15522274374961853
0.17907081544399261 0.17907081544399261 0.17907081544399261
0.20925697684288025 0.20925697684288025 0.20925697684288025
0.24531622231006622 0.24531622231006622 0.24531622231006622
0.28287240862846375 0.28287240862846375 0.28287240862846375
0.31679239869117737 0.31679239869117737 0.31679239869117737
0.34650671482086182 0.34650671482086182 0.34650671482086182
0.37489408254623413 0.37489408254623413 0.37489408254623413
0.40593412518501282 0.40593412518501282 0.40593412518501282
0.44221645593643188 0.44221645593643188 0.44221645593643188
0.48716536164283752 0.48716536164283752 0.48716536164283752
0.13988162577152252 0.13988162577152252 0.13988162577152252
0.15396785736083984 0.15396785736083984 0.15396785736083984
0.17138086259365082 0.17138086259365082 0.17138086259365082
0.19224949181079865 0.19224949181079865 0.19224949181079865
0.21918456256389618 0.21918456256389618 0.21918456256389618
0.25195139646530151 0.25195139646530151 0.25195139646530151
0.28708881139755249 0.28708881139755249 0.28708881139755249
0.32050088047981262 0.32050088047981262 0.32050088047981262
0.35031923651695251 0.35031923651695251 0.35031923651695251
0.37850666046142578 0.37850666046142578 0.37850666046142578
0.40827834606170654 0.40827834606170654 0.40827834606170654
0.44386708736419678 0.44386708736419678 0.44386708736419678
0.48925238847732544 0.48925238847732544 0.48925238847732544
0.16738715767860413 0.16738715767860413 0.16738715767860413
0.18329042196273804 0.18329042196273804 0.18329042196273804
0.19901606440544128 0.19901606440544128 0.19901606440544128
0.21586297452449799 0.21586297452449799 0.21586297452449799
0.23816198110580444 0.23816198110580444 0.23816198110580444
0.26600545644760132 0.26600545644760132 0.26600545644760132
0.29792484641075134 0.29792484641075134 0.29792484641075134
0.32998207211494446 0.32998207211494446 0.32998207211494446
0.35963252186775208 0.35963252186775208 0.35963252186775208
0.38764789700508118 0.38764789700508118 0.38764789700508118
0.41728469729423523 0.41728469729423523 0.41728469729423523
0.45318508148193359 0.45318508148193359 0.45318508148193359
0.49958202242851257 0.49958202242851257 0.49958202242851257
0.21502062678337097 0.21502062678337097 0.21502062678337097
0.23012334108352661 0.23012334108352661 0.23012334108352661
0.24028220772743225 0.24028220772743225 0.24028220772743225
0.25101554393768311 0.25101554393768311 0.25101554393768311
0.26658910512924194 0.26658910512924194 0.26658910512924194
0.28885719180107117 0.28885719180107117 0.28885719180107117
0.31597727537155151 0.31597727537155151 0.31597727537155151
0.34499001502990723 0.34499001502990723 0.34499001502990723
0.37356492877006531 0.37356492877006531 0.37356492877006531
0.40178486704826355 0.40178486704826355 0.40178486704826355
0.43262621760368347 0.43262621760368347 0.43262621760368347
0.47072905302047729 0.47072905302047729 0.47072905302047729
0.51909607648849487 0.51909607648849487 0.51909607648849487
0.2857782244682312 0.2857782244682312 0.2857782244682312
0.29117649793624878 0.29117649793624878 0.29117649793624878
0.29158702492713928 0.29158702492713928 0.29158702492713928
0.29389119148254395 0.29389119148254395 0.29389119148254395
0.30234959721565247 0.30234959721565247 0.30234959721565247
0.31729397177696228 0.31729397177696228 0.31729397177696228
0.33803725242614746 0.33803725242614746 0.33803725242614746
0.36231276392936707 0.36231276392936707 0.36231276392936707
