luts/instant_pro/polaroid_690_cold_+.cube
# Created by: G'MIC (https://gmic.eu)
TITLE "polaroid_690_cold_+"
# LUT size
LUT_3D_SIZE 5
# Data domain
DOMAIN_MIN 0.0 0.0 0.0
DOMAIN_MAX 1.0 1.0 1.0
# LUT data points
0.0054534315131604671 0.21445213258266449 0.21544823050498962
0.070231400430202484 0.21022120118141174 0.20984333753585815
0.38370248675346375 0.17389924824237823 0.2032197117805481
0.70339834690093994 0.054990671575069427 0.19623415172100067
0.9476667046546936 0.0040991241112351418 0.1904960572719574
0.0019340364960953593 0.26327088475227356 0.20869924128055573
0.13853529095649719 0.27540820837020874 0.20302271842956543
0.49686998128890991 0.29819807410240173 0.19358885288238525
0.79229515790939331 0.24650157988071442 0.17884902656078339
0.98079931735992432 0.18520432710647583 0.16821169853210449
0.0026605941820889711 0.48939397931098938 0.17395417392253876
0.11943900585174561 0.48213997483253479 0.16847172379493713
0.50635802745819092 0.54202961921691895 0.11915866285562515
0.82230848073959351 0.57808691263198853 0.083388246595859528
0.99166989326477051 0.58557009696960449 0.18948674201965332
0.00080862606409937143 0.73397952318191528 0.11194959282875061
0.10970693826675415 0.72757524251937866 0.090910173952579498
0.48325270414352417 0.73448801040649414 0.056679341942071915
0.78093463182449341 0.76388800144195557 0.030518446117639542
0.97658354043960571 0.77451944351196289 0.17476625740528107
0.40202432870864868 0.90707731246948242 0.31623822450637817
0.48065707087516785 0.90583592653274536 0.2975609302520752
0.63194137811660767 0.90164434909820557 0.27624303102493286
0.80796432495117188 0.9140663743019104 0.30752000212669373
0.95644950866699219 0.93084084987640381 0.35722336173057556
0 0.20955604314804077 0.2668616771697998
0.10052572190761566 0.20422153174877167 0.28801214694976807
0.38344094157218933 0.16566126048564911 0.28926712274551392
0.68376237154006958 0.011210632510483265 0.27452591061592102
0.94182038307189941 0.00013714958913624287 0.23872873187065125
0.0015266119735315442 0.27740710973739624 0.30041849613189697
0.13097101449966431 0.2828904390335083 0.31442219018936157
0.48347669839859009 0.2530897855758667 0.29985705018043518
0.76004785299301147 0.13841468095779419 0.27549216151237488
0.97580701112747192 0.039997730404138565 0.24573527276515961
0.0018826952436938882 0.5245053768157959 0.32127410173416138
0.082035601139068604 0.5193137526512146 0.30569720268249512
0.51846015453338623 0.55192399024963379 0.30099678039550781
0.82364910840988159 0.58611750602722168 0.33225858211517334
0.99206745624542236 0.5600200891494751 0.33570879697799683
0.0056589911691844463 0.74828594923019409 0.30720338225364685
0.10068670660257339 0.74506717920303345 0.28224313259124756
0.48486325144767761 0.74383676052093506 0.27427440881729126
0.77831006050109863 0.76628178358078003 0.29660391807556152
0.9734378457069397 0.77814233303070068 0.38026481866836548
0.39522841572761536 0.91093677282333374 0.44410759210586548
0.46840766072273254 0.90482532978057861 0.41689029335975647
0.62249863147735596 0.90229141712188721 0.39698222279548645
0.80140405893325806 0.91398757696151733 0.42566218972206116
0.94818496704101562 0.93088227510452271 0.46907645463943481
0.0017986821476370096 0.21120743453502655 0.54907333850860596
0.043907508254051208 0.18944486975669861 0.58779066801071167
0.52011263370513916 0.12477361410856247 0.63925457000732422
0.74028295278549194 0.027344692498445511 0.54683572053909302
0.94337594509124756 0.0022208867594599724 0.51451349258422852
0.00047360587632283568 0.27794551849365234 0.56709808111190796
0.049666579812765121 0.28621599078178406 0.60508710145950317
0.54224556684494019 0.29220369458198547 0.64802044630050659
0.7653813362121582 0.21071022748947144 0.56042373180389404
0.95507276058197021 0.011785993352532387 0.49618092179298401
0.00029646928305737674 0.55506843328475952 0.60817956924438477
0.11593764275312424 0.55721110105514526 0.621440589427948
0.54437363147735596 0.58833485841751099 0.64620673656463623
0.7904631495475769 0.52080821990966797 0.59455406665802002
0.97483557462692261 0.39838927984237671 0.51368856430053711
0.05158749595284462 0.77823555469512939 0.62794512510299683
0.2596067488193512 0.7749946117401123 0.61918741464614868
0.51915967464447021 0.76013094186782837 0.5925058126449585
0.77920866012573242 0.7726253867149353 0.62387925386428833
0.95699781179428101 0.78867000341415405 0.67484372854232788
0.42844337224960327 0.91644579172134399 0.66640216112136841
0.49464726448059082 0.91543114185333252 0.66298985481262207
0.61378532648086548 0.91206353902816772 0.63099300861358643
0.78391832113265991 0.91160005331039429 0.6270376443862915
0.93286937475204468 0.93449676036834717 0.67484068870544434
0.0025614120531827211 0.20000201463699341 0.84194087982177734
0.049233485013246536 0.18444472551345825 0.85894536972045898
0.540915846824646 0.15108156204223633 0.88765799999237061
0.83533781766891479 0.13907043635845184 0.88993740081787109
0.97911351919174194 0.14641964435577393 0.82481008768081665
0.00070944393519312143 0.30018925666809082 0.83596980571746826
0.06858062744140625 0.29434409737586975 0.85527336597442627
0.55197453498840332 0.32803863286972046 0.87864601612091064
0.82675790786743164 0.38203519582748413 0.88331913948059082
0.96718668937683105 0.34296506643295288 0.82251477241516113
0.0020383796654641628 0.5050855278968811 0.80378133058547974
0.028875971212983131 0.50738799571990967 0.81935292482376099
0.51635241508483887 0.58128392696380615 0.85025817155838013
0.80009943246841431 0.64878386259078979 0.8687509298324585
0.93896943330764771 0.5618475079536438 0.80354166030883789
0.20359529554843903 0.77518618106842041 0.84357279539108276
0.35892423987388611 0.77090579271316528 0.84475505352020264
0.58838021755218506 0.77606922388076782 0.85441756248474121
0.79567909240722656 0.79337668418884277 0.8696521520614624
0.93570935726165771 0.73572337627410889 0.8232308030128479
0.57519853115081787 0.91898983716964722 0.86884105205535889
0.61006379127502441 0.92078286409378052 0.86028969287872314
0.67781895399093628 0.92031610012054443 0.85947495698928833
0.7810666561126709 0.92051535844802856 0.83354121446609497
0.91404056549072266 0.92922478914260864 0.86082571744918823
0.26651683449745178 0.27616974711418152 0.9922257661819458
0.40389043092727661 0.2829856276512146 0.98791909217834473
0.63634854555130005 0.31429392099380493 0.98887830972671509
0.83867025375366211 0.42457973957061768 0.99209368228912354
0.97517973184585571 0.52229475975036621 0.98330116271972656
0.31075948476791382 0.39844837784767151 0.98836958408355713
0.43433099985122681 0.40505573153495789 0.98747426271438599
0.64133632183074951 0.44603151082992554 0.98662447929382324
0.82611197233200073 0.55640316009521484 0.9856681227684021
0.9628223180770874 0.61076956987380981 0.97924220561981201
0.27296939492225647 0.59201300144195557 0.97586578130722046
0.40626588463783264 0.60522305965423584 0.97217875719070435
0.61778593063354492 0.63924270868301392 0.9706379771232605
0.81597357988357544 0.69791698455810547 0.97477459907531738
0.94622737169265747 0.7262192964553833 0.97223836183547974
0.30466485023498535 0.76791834831237793 0.9614679217338562
0.39846554398536682 0.76334422826766968 0.96007770299911499
0.57621997594833374 0.76174968481063843 0.96006715297698975
0.80106943845748901 0.79781436920166016 0.96372562646865845
0.92682868242263794 0.83776450157165527 0.96428388357162476
0.65490543842315674 0.92530983686447144 0.96054905652999878
0.68411922454833984 0.92763280868530273 0.96135377883911133
0.74434655904769897 0.92478340864181519 0.95675754547119141
0.8219415545463562 0.92198598384857178 0.95084661245346069
0.91564905643463135 0.95171135663986206 0.96108615398406982
