luts/instant_pro/polaroid_669_+++.cube
# Created by: G'MIC (https://gmic.eu)
TITLE "polaroid_669_+++"
# LUT size
LUT_3D_SIZE 5
# Data domain
DOMAIN_MIN 0.0 0.0 0.0
DOMAIN_MAX 1.0 1.0 1.0
# LUT data points
0.31850564479827881 0.23420290648937225 0.1877693235874176
0.34868717193603516 0.23921152949333191 0.19533760845661163
0.46792548894882202 0.24270199239253998 0.20970733463764191
0.64914447069168091 0.24655769765377045 0.23424951732158661
0.86462539434432983 0.2705991268157959 0.28703004121780396
0.33791983127593994 0.29176798462867737 0.20291653275489807
0.38226577639579773 0.29988762736320496 0.21157661080360413
0.5073121190071106 0.31529122591018677 0.23869070410728455
0.6892428994178772 0.32320764660835266 0.2701570987701416
0.87831771373748779 0.34758523106575012 0.31531700491905212
0.36687824130058289 0.40798506140708923 0.25831112265586853
0.40303692221641541 0.40359339118003845 0.25007423758506775
0.50671952962875366 0.41886374354362488 0.25410035252571106
0.70665615797042847 0.46658870577812195 0.3098236620426178
0.90194940567016602 0.53631329536437988 0.42162734270095825
0.37283119559288025 0.58857548236846924 0.31460553407669067
0.40576609969139099 0.57668864727020264 0.30532801151275635
0.5023840069770813 0.58545935153961182 0.31199461221694946
0.67243915796279907 0.6264159083366394 0.31517684459686279
0.86920452117919922 0.68230217695236206 0.39645776152610779
0.46222695708274841 0.86230146884918213 0.48232546448707581
0.49292707443237305 0.85855597257614136 0.47991305589675903
0.57482731342315674 0.85484564304351807 0.48089215159416199
0.72269511222839355 0.88170117139816284 0.50546729564666748
0.87585043907165527 0.91136759519577026 0.55679184198379517
0.30907976627349854 0.22924630343914032 0.25286826491355896
0.35008513927459717 0.23575937747955322 0.26605981588363647
0.47501948475837708 0.25154665112495422 0.30021262168884277
0.66185426712036133 0.25035777688026428 0.32457956671714783
0.8646012544631958 0.27175208926200867 0.36471456289291382
0.33279263973236084 0.30193963646888733 0.29555124044418335
0.3874419629573822 0.31841945648193359 0.31835576891899109
0.52353018522262573 0.32888326048851013 0.34573313593864441
0.69266539812088013 0.32010436058044434 0.35371315479278564
0.88519084453582764 0.35807302594184875 0.40054547786712646
0.36871197819709778 0.46788179874420166 0.37545943260192871
0.40783703327178955 0.44713678956031799 0.36302754282951355
0.52725648880004883 0.45360514521598816 0.35727220773696899
0.72987484931945801 0.50091260671615601 0.42218947410583496
0.90002501010894775 0.55135244131088257 0.49358877539634705
0.37995347380638123 0.62775921821594238 0.40427067875862122
0.41493058204650879 0.61372637748718262 0.39489483833312988
0.5027051568031311 0.62049812078475952 0.38221690058708191
0.68426680564880371 0.64357143640518188 0.38917684555053711
0.87275999784469604 0.70006728172302246 0.48246082663536072
0.4698936939239502 0.87076830863952637 0.53664672374725342
0.49738344550132751 0.86571258306503296 0.53216880559921265
0.57214021682739258 0.86108565330505371 0.519847571849823
0.71519118547439575 0.8864324688911438 0.54496008157730103
0.88141769170761108 0.91117638349533081 0.60724186897277832
0.27964439988136292 0.26503434777259827 0.43862679600715637
0.33517351746559143 0.26455986499786377 0.47934502363204956
0.50674164295196533 0.2951413094997406 0.53271245956420898
0.70621442794799805 0.33279144763946533 0.57156121730804443
0.89445501565933228 0.35138925909996033 0.5831303596496582
0.30591076612472534 0.35661900043487549 0.49824804067611694
0.37072804570198059 0.35633084177970886 0.53511172533035278
0.53803062438964844 0.38106179237365723 0.57684481143951416
0.72417545318603516 0.41993227601051331 0.60170382261276245
0.89475429058074951 0.41043317317962646 0.58930987119674683
0.33063864707946777 0.52757894992828369 0.57587498426437378
0.4103960394859314 0.53101098537445068 0.58238095045089722
0.56294387578964233 0.53660601377487183 0.60928332805633545
0.73689967393875122 0.53879344463348389 0.61463373899459839
0.88983154296875 0.55047941207885742 0.61857515573501587
0.3773365318775177 0.71442252397537231 0.58640605211257935
0.43472138047218323 0.70743626356124878 0.59071189165115356
0.5468372106552124 0.68764752149581909 0.58329492807388306
0.70484828948974609 0.68822836875915527 0.57470381259918213
0.87291485071182251 0.75116842985153198 0.65581917762756348
0.49855777621269226 0.89727693796157837 0.66152465343475342
0.52584171295166016 0.89545637369155884 0.66101592779159546
0.59656614065170288 0.88599866628646851 0.64784818887710571
0.70445078611373901 0.88969612121582031 0.64666521549224854
0.8793448805809021 0.91628259420394897 0.669505774974823
0.080788269639015198 0.3307289183139801 0.72576767206192017
0.22793181240558624 0.32447299361228943 0.74036878347396851
0.51689064502716064 0.37299349904060364 0.77073252201080322
0.75966936349868774 0.44819343090057373 0.7840612530708313
0.88711941242218018 0.5533982515335083 0.79948467016220093
0.24857403337955475 0.44052961468696594 0.74811983108520508
0.32398560643196106 0.42116999626159668 0.75662755966186523
0.5413556694984436 0.46055829524993896 0.78322321176528931
0.76897811889648438 0.54438668489456177 0.7903820276260376
0.88305765390396118 0.61860048770904541 0.80568790435791016
0.2868761420249939 0.58442771434783936 0.73639106750488281
0.39258819818496704 0.59254634380340576 0.74565213918685913
0.57266557216644287 0.60687661170959473 0.77260470390319824
0.7618333101272583 0.67377573251724243 0.79337888956069946
0.87058383226394653 0.73617064952850342 0.80891281366348267
0.43161585927009583 0.77501600980758667 0.77004778385162354
0.48743155598640442 0.77153551578521729 0.77345561981201172
0.61434668302536011 0.77873408794403076 0.78264117240905762
0.75755536556243896 0.7984510064125061 0.79242807626724243
0.86779326200485229 0.79234963655471802 0.79247677326202393
0.60768812894821167 0.92749500274658203 0.78177338838577271
0.61639523506164551 0.92821729183197021 0.78385078907012939
0.66959673166275024 0.92778146266937256 0.78220361471176147
0.7278713583946228 0.90868562459945679 0.76827776432037354
0.87053078413009644 0.92587220668792725 0.77337998151779175
0.32842913269996643 0.50994032621383667 0.87071079015731812
0.40550193190574646 0.51091134548187256 0.87220585346221924
0.60428720712661743 0.55293822288513184 0.87065130472183228
0.80154931545257568 0.67489445209503174 0.8683171272277832
0.89843487739562988 0.74836206436157227 0.8573986291885376
0.42757105827331543 0.59720480442047119 0.86566615104675293
0.48367410898208618 0.58859968185424805 0.8705676794052124
0.63415449857711792 0.62332957983016968 0.86577242612838745
0.80800837278366089 0.72734916210174561 0.86213892698287964
0.90387451648712158 0.79127925634384155 0.85875588655471802
0.49445250630378723 0.72823214530944824 0.85129719972610474
0.56101566553115845 0.72839421033859253 0.85635781288146973
0.66727632284164429 0.72217613458633423 0.85852622985839844
0.80351555347442627 0.79652869701385498 0.85710650682449341
0.89780694246292114 0.83683627843856812 0.85134106874465942
0.52402257919311523 0.85471093654632568 0.84341853857040405
0.54972332715988159 0.84951013326644897 0.84367120265960693
0.64434599876403809 0.84563755989074707 0.84401959180831909
0.78076225519180298 0.87190091609954834 0.84765332937240601
0.90258228778839111 0.91082179546356201 0.85521787405014038
0.6904488205909729 0.96085083484649658 0.84536457061767578
0.70937609672546387 0.96395045518875122 0.84578001499176025
0.74142986536026001 0.95680224895477295 0.84542679786682129
0.8162376880645752 0.96013146638870239 0.85070210695266724
0.93124425411224365 0.96353614330291748 0.85179859399795532
