luts/instant_pro/polaroid_690_cold.cube
# Created by: G'MIC (https://gmic.eu)
TITLE "polaroid_690_cold"
# LUT size
LUT_3D_SIZE 5
# Data domain
DOMAIN_MIN 0.0 0.0 0.0
DOMAIN_MAX 1.0 1.0 1.0
# LUT data points
0.0031378353014588356 0.14469912648200989 0.13477452099323273
0.14223875105381012 0.14217691123485565 0.13570922613143921
0.41598102450370789 0.083384796977043152 0.1381123960018158
0.74411571025848389 0.0042972937226295471 0.12906065583229065
0.97229313850402832 0.0022224425338208675 0.11605758965015411
0.0039630364626646042 0.24135173857212067 0.14825296401977539
0.16633982956409454 0.24843853712081909 0.13886831700801849
0.53646159172058105 0.26923522353172302 0.13031747937202454
0.81653362512588501 0.18251626193523407 0.11616484820842743
0.99279522895812988 0.11415001004934311 0.093142718076705933
0.001592538901604712 0.47077208757400513 0.11223316937685013
0.13164998590946198 0.47758549451828003 0.095429077744483948
0.52005249261856079 0.53448355197906494 0.01930631697177887
0.84482711553573608 0.58579158782958984 0.0081299729645252228
0.99918609857559204 0.5910261869430542 0.067175246775150299
0.0067386254668235779 0.7306860089302063 0.0032816869206726551
0.16373071074485779 0.72672098875045776 0.0020413717720657587
0.52769231796264648 0.73716115951538086 0.0046052071265876293
0.80359941720962524 0.7634093165397644 0.0088834427297115326
0.98779600858688354 0.7767297625541687 0.0091198189184069633
0.43728357553482056 0.91764873266220093 0.21267656981945038
0.51011306047439575 0.91458970308303833 0.18345564603805542
0.65763115882873535 0.91184759140014648 0.13018643856048584
0.83147704601287842 0.92743122577667236 0.14196681976318359
0.97721034288406372 0.94701743125915527 0.16414906084537506
0.00040449254447594285 0.14788846671581268 0.24941250681877136
0.1286890059709549 0.14879707992076874 0.26983547210693359
0.42046773433685303 0.096533142030239105 0.26552888751029968
0.72004461288452148 0.0039215688593685627 0.24438028037548065
0.96447491645812988 0 0.20147354900836945
0.0026428969576954842 0.24697133898735046 0.27579477429389954
0.1687999814748764 0.26249629259109497 0.29859283566474915
0.5170930027961731 0.2149321585893631 0.2844814658164978
0.79100054502487183 0.071978487074375153 0.24220740795135498
0.99099695682525635 0.013879544101655483 0.21063032746315002
0.0014939401298761368 0.5165175199508667 0.30078402161598206
0.12030774354934692 0.51742202043533325 0.28193533420562744
0.54292994737625122 0.55275869369506836 0.26593947410583496
0.84654378890991211 0.58457440137863159 0.28099730610847473
0.9936484694480896 0.5660443902015686 0.29581108689308167
0.0034258675295859575 0.7522544264793396 0.26171904802322388
0.16035689413547516 0.74556326866149902 0.23391793668270111
0.52236789464950562 0.74192804098129272 0.20155598223209381
0.80414354801177979 0.76350080966949463 0.21102374792098999
0.98873108625411987 0.78026998043060303 0.30436107516288757
0.4211391806602478 0.91979140043258667 0.37851688265800476
0.49662014842033386 0.91600364446640015 0.35468336939811707
0.64462411403656006 0.9128413200378418 0.3180755078792572
0.8210984468460083 0.92546999454498291 0.32623636722564697
0.97028166055679321 0.94769394397735596 0.35793828964233398
0.0037096808664500713 0.16344964504241943 0.55388063192367554
0.070487037301063538 0.13803236186504364 0.59647715091705322
0.55554389953613281 0.01700776070356369 0.6460985541343689
0.77299016714096069 0.0080220242962241173 0.54954057931900024
0.96005344390869141 0.0065949982963502407 0.49763274192810059
0.0011011011665686965 0.2661060094833374 0.57034415006637573
0.098654970526695251 0.26610681414604187 0.60823804140090942
0.57375645637512207 0.26672196388244629 0.65040600299835205
0.78329354524612427 0.17558774352073669 0.55048412084579468
0.97128051519393921 0.0038719924632459879 0.48222103714942932
0.0045295418240129948 0.55474084615707397 0.60932415723800659
0.17257590591907501 0.55690592527389526 0.61789757013320923
0.56849908828735352 0.58520746231079102 0.64396440982818604
0.81490457057952881 0.51208949089050293 0.58552783727645874
0.99232977628707886 0.38502243161201477 0.48795327544212341
0.06766471266746521 0.78158020973205566 0.61657321453094482
0.27792099118232727 0.77426314353942871 0.60421454906463623
0.54651808738708496 0.76079642772674561 0.57575780153274536
0.79736948013305664 0.77236783504486084 0.59356904029846191
0.97852921485900879 0.78783988952636719 0.64614486694335938
0.42304453253746033 0.9293094277381897 0.64295125007629395
0.49117609858512878 0.92048734426498413 0.62251079082489014
0.62191909551620483 0.91964519023895264 0.59384894371032715
0.80084741115570068 0.92477619647979736 0.57346057891845703
0.94563353061676025 0.9491545557975769 0.62352627515792847
0.0034080056939274073 0.15628731250762939 0.85951405763626099
0.10944972187280655 0.13471332192420959 0.87332212924957275
0.58564108610153198 0.052073400467634201 0.89986658096313477
0.87023502588272095 0.073119759559631348 0.90648794174194336
0.98861908912658691 0.065429821610450745 0.83460915088653564
0.001982071902602911 0.28169164061546326 0.85350316762924194
0.14312119781970978 0.27666196227073669 0.86621969938278198
0.58715999126434326 0.32112607359886169 0.89116382598876953
0.85718256235122681 0.36734545230865479 0.89827883243560791
0.98317968845367432 0.31486403942108154 0.82157140970230103
0.00058098585577681661 0.49389103055000305 0.81716370582580566
0.057539410889148712 0.50525617599487305 0.82732903957366943
0.5514715313911438 0.58216392993927002 0.86167925596237183
0.825092613697052 0.64019608497619629 0.88534724712371826
0.96091455221176147 0.55155187845230103 0.81460577249526978
0.21273025870323181 0.77699863910675049 0.85016065835952759
0.37078583240509033 0.7729296088218689 0.85164684057235718
0.60285693407058716 0.77519607543945312 0.8624262809753418
0.81516557931900024 0.79614359140396118 0.87583839893341064
0.95457082986831665 0.73521238565444946 0.8256717324256897
0.56815522909164429 0.93282032012939453 0.87569135427474976
0.60322469472885132 0.93012523651123047 0.85914462804794312
0.67707687616348267 0.93196260929107666 0.85691660642623901
0.788097083568573 0.93279659748077393 0.83487141132354736
0.92691004276275635 0.94709533452987671 0.85593986511230469
0.34760448336601257 0.26150715351104736 0.99537950754165649
0.46671345829963684 0.25906664133071899 0.99631291627883911
0.67077010869979858 0.28879040479660034 0.99680525064468384
0.86823630332946777 0.40588769316673279 0.99519807100296021
0.98851162195205688 0.5092778205871582 0.99074912071228027
0.37794500589370728 0.39300507307052612 0.99571114778518677
0.48313325643539429 0.40162774920463562 0.99178427457809448
0.67146652936935425 0.44360136985778809 0.99065303802490234
0.857124924659729 0.54439085721969604 0.99172091484069824
0.98273164033889771 0.59858042001724243 0.98831754922866821
0.31445366144180298 0.59678739309310913 0.98692995309829712
0.43935111165046692 0.60956436395645142 0.98489183187484741
0.65750861167907715 0.64648807048797607 0.98441487550735474
0.83858096599578857 0.69416457414627075 0.98126333951950073
0.96211689710617065 0.72540968656539917 0.98665112257003784
0.32737424969673157 0.7722441554069519 0.97392761707305908
0.4138583242893219 0.76541805267333984 0.97391408681869507
0.59004169702529907 0.76311242580413818 0.97450053691864014
0.82293933629989624 0.80105257034301758 0.97808229923248291
0.94998842477798462 0.83657693862915039 0.9788784384727478
0.65398699045181274 0.9415898323059082 0.97382199764251709
0.67987668514251709 0.94066524505615234 0.97380071878433228
0.74656075239181519 0.93990200757980347 0.97110277414321899
0.83293235301971436 0.94821310043334961 0.97158521413803101
0.92725920677185059 0.97052133083343506 0.97220563888549805
