luts/instant_pro/polaroid_669_-.cube
# Created by: G'MIC (https://gmic.eu)
TITLE "polaroid_669_-"
# LUT size
LUT_3D_SIZE 13
# Data domain
DOMAIN_MIN 0.0 0.0 0.0
DOMAIN_MAX 1.0 1.0 1.0
# LUT data points
0.076111257076263428 0.14074255526065826 0.14292514324188232
0.10070747137069702 0.14583173394203186 0.14582550525665283
0.12763476371765137 0.14838846027851105 0.1463000476360321
0.1665353924036026 0.14993126690387726 0.14657795429229736
0.22678862512111664 0.15372325479984283 0.15108035504817963
0.29263317584991455 0.1571032851934433 0.1553264856338501
0.36133062839508057 0.15760569274425507 0.15780854225158691
0.45165213942527771 0.16005721688270569 0.16110387444496155
0.55670458078384399 0.15987348556518555 0.16502951085567474
0.65845233201980591 0.15793149173259735 0.16746757924556732
0.75487387180328369 0.15569233894348145 0.16642732918262482
0.84487885236740112 0.16325327754020691 0.16710002720355988
0.93032169342041016 0.19149975478649139 0.17108848690986633
0.077562429010868073 0.16294050216674805 0.14792078733444214
0.099583014845848083 0.16579633951187134 0.14921835064888
0.12728734314441681 0.16889457404613495 0.14981041848659515
0.17183059453964233 0.17148813605308533 0.15203553438186646
0.23010841012001038 0.17370842397212982 0.15514010190963745
0.29243871569633484 0.17427602410316467 0.15708664059638977
0.37032619118690491 0.17646025121212006 0.15963268280029297
0.47274875640869141 0.18682561814785004 0.16413731873035431
0.57701593637466431 0.19435638189315796 0.1665647029876709
0.67516100406646729 0.19335690140724182 0.16846036911010742
0.7687448263168335 0.18968038260936737 0.16717280447483063
0.85468339920043945 0.19804984331130981 0.16767950356006622
0.93434351682662964 0.22416512668132782 0.17098988592624664
0.076062098145484924 0.18686281144618988 0.15203370153903961
0.098711036145687103 0.18946251273155212 0.15178224444389343
0.1272922158241272 0.19090171158313751 0.15183548629283905
0.17791089415550232 0.19653607904911041 0.15505944192409515
0.23656116425991058 0.20265048742294312 0.15848265588283539
0.29764187335968018 0.20621035993099213 0.16011543571949005
0.38250839710235596 0.21154990792274475 0.16094014048576355
0.49060159921646118 0.22177591919898987 0.16450341045856476
0.59730708599090576 0.23293404281139374 0.16658900678157806
0.69334053993225098 0.23659823834896088 0.16874599456787109
0.78132081031799316 0.24387650191783905 0.17003647983074188
0.86316806077957153 0.25873485207557678 0.17128203809261322
0.93971443176269531 0.27644509077072144 0.17247484624385834
0.069649972021579742 0.22728732228279114 0.15663358569145203
0.093890950083732605 0.22904974222183228 0.15628761053085327
0.12611877918243408 0.23143218457698822 0.15551917254924774
0.1815459281206131 0.241525799036026 0.1571948379278183
0.24143542349338531 0.25189509987831116 0.16027747094631195
0.30590814352035522 0.25932592153549194 0.16093207895755768
0.39526349306106567 0.26846033334732056 0.15969456732273102
0.50634390115737915 0.27628061175346375 0.16281066834926605
0.61291086673736572 0.28182411193847656 0.16479070484638214
0.70480823516845703 0.29073378443717957 0.1685512363910675
0.78858482837677002 0.30758374929428101 0.17219069600105286
0.86931371688842773 0.32278543710708618 0.17430673539638519
0.94457632303237915 0.336771160364151 0.17474517226219177
0.050792694091796875 0.27957820892333984 0.16124357283115387
0.081559062004089355 0.28043189644813538 0.16306827962398529
0.12160865962505341 0.28429129719734192 0.16343905031681061
0.17814439535140991 0.29432624578475952 0.16148164868354797
0.24173742532730103 0.30418789386749268 0.16139025986194611
0.31312668323516846 0.31291946768760681 0.15931184589862823
0.40201613306999207 0.32378110289573669 0.15443749725818634
0.51441633701324463 0.33999413251876831 0.15731669962406158
0.62830525636672974 0.353840172290802 0.16033057868480682
0.7154543399810791 0.36763244867324829 0.1645066887140274
0.79588747024536133 0.38107043504714966 0.16809706389904022
0.87510120868682861 0.39550095796585083 0.17286711931228638
0.94703680276870728 0.40927532315254211 0.1787104457616806
0.022690074518322945 0.3347313404083252 0.16162072122097015
0.055339019745588303 0.33880192041397095 0.16283680498600006
0.10601805150508881 0.33803901076316833 0.16374163329601288
0.16642965376377106 0.34483152627944946 0.16272902488708496
0.23708222806453705 0.35387882590293884 0.1608358770608902
0.31589552760124207 0.36439639329910278 0.1539541631937027
0.39877936244010925 0.37264978885650635 0.14478369057178497
0.49744021892547607 0.38566523790359497 0.14205077290534973
0.6110721230506897 0.41023576259613037 0.14140067994594574
0.71383178234100342 0.43763136863708496 0.14695267379283905
0.80402636528015137 0.45511353015899658 0.15551191568374634
0.88177573680877686 0.47160837054252625 0.16829633712768555
0.94995027780532837 0.48836785554885864 0.1843818873167038
0.0040038162842392921 0.40246492624282837 0.15643039345741272
0.020738953724503517 0.40347659587860107 0.15777112543582916
0.075239114463329315 0.39818185567855835 0.15914583206176758
0.15028837323188782 0.39612874388694763 0.1590120792388916
0.22860760986804962 0.40691342949867249 0.15348933637142181
0.30729681253433228 0.41882732510566711 0.14562475681304932
0.39060580730438232 0.42531374096870422 0.13470263779163361
0.47742339968681335 0.43090653419494629 0.12106034159660339
0.57945758104324341 0.45517793297767639 0.1092611700296402
0.68839991092681885 0.48668411374092102 0.10984033346176147
0.79736357927322388 0.51661157608032227 0.12804274260997772
0.8837096095085144 0.54517722129821777 0.16008411347866058
0.95246517658233643 0.56809043884277344 0.19354298710823059
0.0020670571830123663 0.47541797161102295 0.14464202523231506
0.0047767190262675285 0.47274655103683472 0.14682617783546448
0.041475556790828705 0.46679425239562988 0.14670929312705994
0.12774167954921722 0.46302655339241028 0.14472609758377075
0.2150561660528183 0.46827471256256104 0.14032904803752899
0.29333329200744629 0.47642785310745239 0.13409800827503204
0.37731590867042542 0.48286575078964233 0.12300672382116318
0.47106379270553589 0.49468347430229187 0.096836432814598083
0.56410300731658936 0.50948858261108398 0.068585336208343506
0.66064494848251343 0.5294870138168335 0.05490754172205925
0.76810139417648315 0.56147509813308716 0.065649591386318207
0.86426794528961182 0.59748512506484985 0.10034468770027161
0.94303321838378906 0.63248986005783081 0.16892945766448975
0.00041479969513602555 0.54835480451583862 0.12686619162559509
0.0037803798913955688 0.54706054925918579 0.12695020437240601
0.01633402518928051 0.54108017683029175 0.12836015224456787
0.098416529595851898 0.53718751668930054 0.12639528512954712
0.20040141046047211 0.53672534227371216 0.12097151577472687
0.28637915849685669 0.54355275630950928 0.11127425730228424
0.37212973833084106 0.55088120698928833 0.095437280833721161
0.46622356772422791 0.56223767995834351 0.064871586859226227
0.55804729461669922 0.57449400424957275 0.036721758544445038
0.64543992280960083 0.58384674787521362 0.016777142882347107
0.73956179618835449 0.60438448190689087 0.014401095919311047
0.83995503187179565 0.64130485057830811 0.025621227920055389
0.92670834064483643 0.67922341823577881 0.091670438647270203
0.0013716155663132668 0.62874984741210938 0.08918839693069458
0.0034672755282372236 0.62697440385818481 0.088513962924480438
0.012455509975552559 0.62223076820373535 0.087760567665100098
0.090727604925632477 0.61509263515472412 0.08948497474193573
0.19020989537239075 0.60756820440292358 0.091777786612510681
0.28495824337005615 0.61562842130661011 0.076109074056148529
0.37622356414794922 0.62696266174316406 0.049694091081619263
0.46508380770683289 0.63446855545043945 0.025229405611753464
0.55504739284515381 0.64402943849563599 0.010918007232248783
0.64538973569869995 0.65494030714035034 0.0072494507767260075
0.72771930694580078 0.66520774364471436 0.0027765310369431973
0.81669217348098755 0.69145619869232178 0.004913749173283577
0.90916764736175537 0.72849541902542114 0.01481450442224741
0.0029258579015731812 0.72229623794555664 0.033194314688444138
0.0046874699182808399 0.71837997436523438 0.03542061522603035
0.019586255773901939 0.71244180202484131 0.02849985845386982
0.11557226628065109 0.70440053939819336 0.031143488362431526
0.21425105631351471 0.69989782571792603 0.029842555522918701
0.30049759149551392 0.70030504465103149 0.023640725761651993
0.38767552375793457 0.70472389459609985 0.011714426800608635
0.48028740286827087 0.7149847149848938 0.0051867165602743626
0.56614404916763306 0.72485065460205078 0.0044188257306814194
0.65446490049362183 0.7372933030128479 0.0041230893693864346
0.73983711004257202 0.74936848878860474 0.0037193149328231812
0.81730538606643677 0.76167911291122437 0.0034286647569388151
0.89745539426803589 0.78550273180007935 0.0032053180038928986
0.044692739844322205 0.82153266668319702 0.012591148726642132
0.071610167622566223 0.81989037990570068 0.013067462481558323
0.13399308919906616 0.81562072038650513 0.012803695164620876
0.212416872382164 0.80803734064102173 0.011206638067960739
0.28801900148391724 0.80618000030517578 0.0088414512574672699
0.35395854711532593 0.80229479074478149 0.00808690395206213
0.43639698624610901 0.80708003044128418 0.0056066326797008514
0.52674871683120728 0.81547629833221436 0.0063853096216917038
0.60813015699386597 0.8219950795173645 0.0091341203078627586
0.69128125905990601 0.83210539817810059 0.0079851038753986359
0.77265560626983643 0.84325635433197021 0.0056237163953483105
0.84531867504119873 0.85263049602508545 0.0066087013110518456
0.91199773550033569 0.86348170042037964 0.0052687101997435093
0.29376024007797241 0.9228978157043457 0.1493285596370697
0.30902722477912903 0.92074793577194214 0.14718972146511078
0.33887025713920593 0.91852307319641113 0.14199048280715942
0.37910866737365723 0.91613566875457764 0.14299580454826355
0.42308062314987183 0.91456228494644165 0.13336633145809174
0.47367286682128906 0.91310465335845947 0.12693570554256439
0.5314527153968811 0.91444402933120728 0.1187107190489769
0.60235518217086792 0.91894984245300293 0.11020243167877197
0.67583614587783813 0.92406678199768066 0.11000514030456543
0.74854135513305664 0.93027687072753906 0.11245616525411606
0.81711345911026001 0.93695175647735596 0.11154526472091675
0.88280123472213745 0.9432225227355957 0.11339328438043594
0.94072020053863525 0.94927901029586792 0.11532661318778992
0.069712318480014801 0.14877644181251526 0.16656123101711273
0.09820062667131424 0.15190090239048004 0.16815277934074402
0.12742316722869873 0.15405154228210449 0.1680145263671875
0.16598911583423615 0.15511494874954224 0.16847173869609833
0.2246406078338623 0.1567690372467041 0.17052668333053589
0.28920173645019531 0.15755446255207062 0.17262463271617889
0.37163850665092468 0.15724380314350128 0.17730972170829773
0.46784365177154541 0.15642955899238586 0.18213225901126862
0.56855607032775879 0.15191823244094849 0.185909703373909
0.66597276926040649 0.14609420299530029 0.1892470121383667
0.75983554124832153 0.14263348281383514 0.19135017693042755
0.84614270925521851 0.14968219399452209 0.1957976222038269
0.92468917369842529 0.1783657968044281 0.19789332151412964
0.073119267821311951 0.16858533024787903 0.16696149110794067
0.097998946905136108 0.17208234965801239 0.16949509084224701
0.12745796144008636 0.17494070529937744 0.17203572392463684
0.17188037931919098 0.17569229006767273 0.17413584887981415
0.22953252494335175 0.17584499716758728 0.17666886746883392
0.29629367589950562 0.17654091119766235 0.17841589450836182
0.38451513648033142 0.17772373557090759 0.18216569721698761
0.48586872220039368 0.18338562548160553 0.18601040542125702
0.58735424280166626 0.18555377423763275 0.18870210647583008
0.68299996852874756 0.18125730752944946 0.19111311435699463
0.77255946397781372 0.17730200290679932 0.19478002190589905
0.85519659519195557 0.18832449615001678 0.19648833572864532
0.93157380819320679 0.21726097166538239 0.19578813016414642
0.072460263967514038 0.1928369551897049 0.1697118878364563
0.095885559916496277 0.19704839587211609 0.17274752259254456
0.12734581530094147 0.20077921450138092 0.17745810747146606
0.17750577628612518 0.20256833732128143 0.17917989194393158
0.23534522950649261 0.20596420764923096 0.180535688996315
0.30367839336395264 0.21072594821453094 0.18204365670681
0.39739853143692017 0.21479408442974091 0.18531970679759979
0.50307440757751465 0.22082322835922241 0.18848775327205658
0.60622447729110718 0.22565235197544098 0.19146168231964111
0.6987076997756958 0.22540870308876038 0.19626624882221222
0.78391754627227783 0.23336409032344818 0.19905906915664673
0.86475026607513428 0.25178372859954834 0.19759079813957214
0.93965107202529907 0.27019008994102478 0.19545970857143402
0.066480763256549835 0.23633682727813721 0.17470371723175049
0.091298110783100128 0.23736962676048279 0.17591622471809387
0.12591162323951721 0.2397826761007309 0.17957389354705811
0.18153974413871765 0.24921856820583344 0.18112649023532867
0.24285425245761871 0.25791651010513306 0.18221591413021088
0.3152163028717041 0.26482275128364563 0.18220822513103485
0.40973395109176636 0.27296674251556396 0.18388718366622925
0.51761436462402344 0.28142088651657104 0.18694715201854706
0.62063306570053101 0.28500786423683167 0.19183382391929626
0.70997625589370728 0.28842899203300476 0.19702355563640594
0.79174309968948364 0.30125683546066284 0.19846834242343903
0.87103110551834106 0.31758403778076172 0.19848570227622986
0.94174015522003174 0.33237004280090332 0.19935370981693268
0.051092829555273056 0.29119199514389038 0.18055649101734161
0.079718075692653656 0.28733944892883301 0.17798946797847748
0.12290713936090469 0.28919821977615356 0.17925706505775452
0.18313468992710114 0.30317214131355286 0.18218153715133667
0.25058111548423767 0.31249269843101501 0.18293957412242889
0.32660114765167236 0.318715900182724 0.18141496181488037
0.41777807474136353 0.32948735356330872 0.17969980835914612
0.52494454383850098 0.34639209508895874 0.18221516907215118
0.63277733325958252 0.35874247550964355 0.18596641719341278
0.72059816122055054 0.36853566765785217 0.19070948660373688
0.79907065629959106 0.37756282091140747 0.1946178525686264
0.876789391040802 0.38868001103401184 0.19831281900405884
0.94466632604598999 0.40323060750961304 0.20452170073986053
0.022156525403261185 0.35388487577438354 0.1826329380273819
0.046240292489528656 0.3519260585308075 0.17873077094554901
0.10097114741802216 0.35123226046562195 0.18037740886211395
0.16954672336578369 0.35814967751502991 0.18487930297851562
0.24239717423915863 0.36494696140289307 0.18418309092521667
0.32698255777359009 0.37027552723884583 0.17740590870380402
0.41210862994194031 0.37884435057640076 0.16797846555709839
0.51033025979995728 0.39381867647171021 0.16504380106925964
0.62251549959182739 0.41723355650901794 0.16809394955635071
0.72146344184875488 0.44199216365814209 0.17595940828323364
0.80850082635879517 0.45801904797554016 0.18735791742801666
0.88415634632110596 0.47014674544334412 0.19845098257064819
0.94743770360946655 0.48396953940391541 0.21137556433677673
0.0053116744384169579 0.42326852679252625 0.17705002427101135
0.012913842685520649 0.42114293575286865 0.17541547119617462
0.065755359828472137 0.41792681813240051 0.17780190706253052
0.14585384726524353 0.41489580273628235 0.1804986298084259
0.22632212936878204 0.41863751411437988 0.17460829019546509
0.31275352835655212 0.42572075128555298 0.16637164354324341
0.39937838912010193 0.43071368336677551 0.15462106466293335
0.4876495897769928 0.43845680356025696 0.14100858569145203
0.59066969156265259 0.46175655722618103 0.13481609523296356
0.69737160205841064 0.49225956201553345 0.14205503463745117
0.80216741561889648 0.52255731821060181 0.16213986277580261
0.88700568675994873 0.5492669939994812 0.1933417022228241
0.95011669397354126 0.56625634431838989 0.22173886001110077
0.0028138253837823868 0.49451223015785217 0.1658988893032074
0.0045777265913784504 0.49082833528518677 0.16460064053535461
0.033434461802244186 0.48240593075752258 0.16289301216602325
0.12026425451040268 0.47485142946243286 0.16344514489173889
0.21039319038391113 0.47527408599853516 0.15988366305828094
0.29638153314590454 0.48448938131332397 0.15269742906093597
0.38543212413787842 0.49168550968170166 0.14106693863868713
0.47859269380569458 0.50009560585021973 0.11622197926044464
0.57128173112869263 0.51267087459564209 0.093486189842224121
0.6692318320274353 0.53484237194061279 0.086691886186599731
0.77373117208480835 0.5670427680015564 0.098507240414619446
0.86766153573989868 0.60266280174255371 0.13445070385932922
0.94553762674331665 0.63548183441162109 0.20078212022781372
0.0011584712192416191 0.56642228364944458 0.14928187429904938
0.0039215688593685627 0.56216609477996826 0.14512231945991516
0.014092493802309036 0.55325436592102051 0.14297392964363098
0.094220571219921112 0.54572135210037231 0.14246957004070282
0.20026567578315735 0.54323357343673706 0.13861635327339172
0.28953903913497925 0.55321764945983887 0.13168911635875702
0.37982067465782166 0.56253397464752197 0.11882488429546356
0.47532778978347778 0.57097733020782471 0.088376842439174652
0.56412220001220703 0.57866448163986206 0.061609305441379547
0.64960002899169922 0.5863717794418335 0.03295522928237915
0.74262768030166626 0.60871285200119019 0.028453003615140915
0.84275752305984497 0.64585691690444946 0.048625856637954712
0.9285656213760376 0.68230146169662476 0.12811467051506042
0.0033071180805563927 0.64776748418807983 0.11687932908535004
0.004031746182590723 0.64203357696533203 0.11299960315227509
0.0091868080198764801 0.63226979970932007 0.11198141425848007
0.080055996775627136 0.62473219633102417 0.1103307232260704
0.19489948451519012 0.62280046939849854 0.10436742752790451
0.29185587167739868 0.62738704681396484 0.098379306495189667
0.38266542553901672 0.63538450002670288 0.078189998865127563
0.4755096435546875 0.64347141981124878 0.05204029381275177
0.56316757202148438 0.65056115388870239 0.032149355858564377
0.64990413188934326 0.65798556804656982 0.012099561281502247
0.73247027397155762 0.67124801874160767 0.0069677163846790791
0.82066458463668823 0.6953125 0.0085280472412705421
0.91101986169815063 0.73010069131851196 0.034160211682319641
0.0054116044193506241 0.73760354518890381 0.072468899190425873
0.0050417580641806126 0.73193931579589844 0.065021678805351257
0.01869131438434124 0.72063285112380981 0.063464418053627014
0.11391764879226685 0.71363598108291626 0.06249624490737915
0.21428079903125763 0.70892494916915894 0.05525347962975502
0.30268609523773193 0.70595502853393555 0.052134227007627487
0.39025142788887024 0.71028804779052734 0.035453286021947861
0.47940927743911743 0.71815705299377441 0.014663681387901306
0.57086235284805298 0.72818475961685181 0.011620929464697838
0.66088002920150757 0.74155783653259277 0.0082718795165419579
0.74360179901123047 0.75393503904342651 0.0063387854024767876
0.81574702262878418 0.76201814413070679 0.0041010687127709389
0.89663732051849365 0.78629374504089355 0.0054871351458132267
0.041562668979167938 0.82769519090652466 0.045992307364940643
0.06582825630903244 0.82501155138015747 0.041952230036258698
0.13052284717559814 0.81899595260620117 0.039818841964006424
0.20786584913730621 0.8135066032409668 0.032044876366853714
0.2818603515625 0.80967563390731812 0.025486292317509651
0.3532731831073761 0.80472075939178467 0.022671299055218697
0.43319049477577209 0.80773556232452393 0.013916404917836189
0.52005636692047119 0.81576740741729736 0.010058384388685226
0.60837996006011963 0.82586199045181274 0.011457391083240509
0.69443166255950928 0.8365638256072998 0.011389114893972874
0.77366179227828979 0.84668916463851929 0.0099585438147187233
0.8431469202041626 0.85305094718933105 0.0068946541287004948
0.90743535757064819 0.86306816339492798 0.0048249787651002407
0.29559758305549622 0.92556285858154297 0.18280868232250214
0.3068297803401947 0.92198807001113892 0.17932181060314178
0.33601841330528259 0.91765689849853516 0.17430602014064789
0.37680065631866455 0.91623461246490479 0.17016087472438812
0.42228984832763672 0.91471892595291138 0.16300307214260101
0.47247704863548279 0.911449134349823 0.15641461312770844
0.5306694507598877 0.91270953416824341 0.14664992690086365
0.60118663311004639 0.91805553436279297 0.13844220340251923
0.67488515377044678 0.92433983087539673 0.13408419489860535
0.74841499328613281 0.93019074201583862 0.13277122378349304
0.81764733791351318 0.93672549724578857 0.13084448873996735
0.88267093896865845 0.94384872913360596 0.13399218022823334
0.94042164087295532 0.94980841875076294 0.13227178156375885
0.055732652544975281 0.15515714883804321 0.19194579124450684
0.088557437062263489 0.15795399248600006 0.1934867799282074
0.12324016541242599 0.15869221091270447 0.19176647067070007
0.16194993257522583 0.15821829438209534 0.19118481874465942
0.22173644602298737 0.15954191982746124 0.19529837369918823
0.28957322239875793 0.15929675102233887 0.19842596352100372
0.38004529476165771 0.15493586659431458 0.20217391848564148
0.47611233592033386 0.14752726256847382 0.2052408903837204
0.57849997282028198 0.1359538733959198 0.21050140261650085
0.67215651273727417 0.12921185791492462 0.21394890546798706
0.76204401254653931 0.12341254949569702 0.21841384470462799
0.84864944219589233 0.12969879806041718 0.22439655661582947
0.92485725879669189 0.16012704372406006 0.22600828111171722
0.062944434583187103 0.17482230067253113 0.19181959331035614
0.092734754085540771 0.17927727103233337 0.19595170021057129
0.12447238713502884 0.1827913373708725 0.1990390419960022
0.17096038162708282 0.18215471506118774 0.20078200101852417
0.22896645963191986 0.17816700041294098 0.20185871422290802
0.30294442176818848 0.17744353413581848 0.20457358658313751
0.39664652943611145 0.17612671852111816 0.20838816463947296
0.49480542540550232 0.17470389604568481 0.21157586574554443
0.59479272365570068 0.16955865919589996 0.21573422849178314
0.68823087215423584 0.16479191184043884 0.22057446837425232
0.77365928888320923 0.15808451175689697 0.22537972033023834
0.85521394014358521 0.16944107413291931 0.22715309262275696
0.93221521377563477 0.20042827725410461 0.22443954646587372
0.064168371260166168 0.19738598167896271 0.19323211908340454
0.09127914160490036 0.20505902171134949 0.20034940540790558
0.12515689432621002 0.20935265719890594 0.20559127628803253
0.17824749648571014 0.21029159426689148 0.20914740860462189
0.23693636059761047 0.21023540198802948 0.20872335135936737
0.31465703248977661 0.21227669715881348 0.20818638801574707
0.4095287024974823 0.21277731657028198 0.21153657138347626
0.51067674160003662 0.2153158038854599 0.21491672098636627
0.61050212383270264 0.21560513973236084 0.22290046513080597
0.70163404941558838 0.21457871794700623 0.22987851500511169
0.78420233726501465 0.2165171355009079 0.23198586702346802
0.86454987525939941 0.23544403910636902 0.22960788011550903
0.94186073541641235 0.25775954127311707 0.22513334453105927
0.052574470639228821 0.24416659772396088 0.20125392079353333
0.084246270358562469 0.24451027810573578 0.20482492446899414
0.12598903477191925 0.24754334986209869 0.20909382402896881
0.18498897552490234 0.25836014747619629 0.21559424698352814
0.24879468977451324 0.26605439186096191 0.21710734069347382
0.32773879170417786 0.26876461505889893 0.21114037930965424
0.42328774929046631 0.27190408110618591 0.21198755502700806
0.52619397640228271 0.28135141730308533 0.21609528362751007
0.62561464309692383 0.28414067625999451 0.2234119325876236
0.7140887975692749 0.28473290801048279 0.22997210919857025
0.79439717531204224 0.29057222604751587 0.23206755518913269
0.87277084589004517 0.30719134211540222 0.22922042012214661
0.9434012770652771 0.32729858160018921 0.22957244515419006
0.032840054482221603 0.30686789751052856 0.20986971259117126
0.062708772718906403 0.30734440684318542 0.21308895945549011
0.11987778544425964 0.30969852209091187 0.2160048633813858
0.18353959918022156 0.31934240460395813 0.22013269364833832
0.25552794337272644 0.32244664430618286 0.21808363497257233
