luts/instant_pro/polaroid_690_+.cube
# Created by: G'MIC (https://gmic.eu)
TITLE "polaroid_690_+"
# LUT size
LUT_3D_SIZE 7
# Data domain
DOMAIN_MIN 0.0 0.0 0.0
DOMAIN_MAX 1.0 1.0 1.0
# LUT data points
0.082138761878013611 0.10257411003112793 0.066447839140892029
0.1523110419511795 0.10266391187906265 0.0658721923828125
0.27321356534957886 0.087307125329971313 0.069091841578483582
0.45515745878219604 0.012761344201862812 0.066889204084873199
0.66786491870880127 0.0033272537402808666 0.058293286710977554
0.84171229600906372 0.00097547046607360244 0.04045003280043602
0.97941052913665771 0.00011435116175562143 0.016623986884951591
0.088376335799694061 0.17052155733108521 0.071959428489208221
0.16064275801181793 0.17125317454338074 0.068066373467445374
0.31617158651351929 0.17876750230789185 0.062742345035076141
0.52975016832351685 0.13210301101207733 0.055947203189134598
0.72288131713867188 0.035594355314970016 0.041240394115447998
0.88566875457763672 0.0077861263416707516 0.016476769000291824
0.99026143550872803 0.0022174310870468616 0.0059099681675434113
0.067248702049255371 0.30432936549186707 0.05140502005815506
0.17807389795780182 0.308351069688797 0.045960430055856705
0.35538670420646667 0.32651582360267639 0.019097061827778816
0.5939948558807373 0.34998929500579834 0.0051253675483167171
0.80005937814712524 0.34629708528518677 0.0031257180962711573
0.92903381586074829 0.31545332074165344 0.0026729956734925508
0.99390476942062378 0.29407045245170593 0.0023840512149035931
0.006932875607162714 0.48323437571525574 0.003458419581875205
0.15557922422885895 0.47804728150367737 0.0020914564374834299
0.35153713822364807 0.49107128381729126 0.001942309201695025
0.57185721397399902 0.52656185626983643 0.0034330480266362429
0.78087037801742554 0.56125789880752563 0.0018202688079327345
0.92919337749481201 0.5771300196647644 0.0076140756718814373
0.99644416570663452 0.58267545700073242 0.010512198321521282
0.011850065551698208 0.65331298112869263 0
0.14911916851997375 0.64916461706161499 0.00043810677016153932
0.35713174939155579 0.64728766679763794 0.0014587402110919356
0.55278521776199341 0.66838628053665161 0.001502302591688931
0.74315029382705688 0.69155651330947876 0.001378422137349844
0.89866262674331665 0.71210849285125732 0.0031722125131636858
0.99124288558959961 0.72895097732543945 0.018523167818784714
0.2716064453125 0.79048317670822144 0.0011981739662587643
0.33469778299331665 0.78585278987884521 0.0049995719455182552
0.45386549830436707 0.77879035472869873 0.0039331172592937946
0.59723401069641113 0.78245741128921509 0.0006847156910225749
0.75207376480102539 0.7962300181388855 0.0038041057996451855
0.88447171449661255 0.8137967586517334 0.0068072150461375713
0.98654240369796753 0.82810080051422119 0.022225473076105118
0.52334046363830566 0.91194111108779907 0.2147674560546875
0.54923164844512939 0.91057902574539185 0.1957811713218689
0.61063319444656372 0.90733027458190918 0.16888830065727234
0.69644850492477417 0.9076046347618103 0.13999393582344055
0.79450857639312744 0.91730600595474243 0.17140473425388336
0.88624447584152222 0.93184775114059448 0.21161346137523651
0.9679490327835083 0.94700610637664795 0.27163273096084595
0.085774458944797516 0.10707132518291473 0.13135133683681488
0.15394105017185211 0.11115135997533798 0.14148016273975372
0.27405902743339539 0.096846640110015869 0.13631995022296906
0.45344856381416321 0.016313126310706139 0.13552287220954895
0.64780694246292114 0.0027449962217360735 0.13776567578315735
0.82116234302520752 9.4604489277116954e-05 0.11969133466482162
0.9757685661315918 0 0.09129517525434494
0.094728447496891022 0.17227573692798615 0.14383643865585327
0.1701984703540802 0.17562945187091827 0.15034906566143036
0.3194878101348877 0.1635226309299469 0.14863081276416779
0.51551920175552368 0.097045153379440308 0.13737507164478302
0.70905548334121704 0.017378250136971474 0.1287832111120224
0.8695099949836731 0.0053549371659755707 0.11230207234621048
0.98522108793258667 0.00229619350284338 0.084991723299026489
0.057348065078258514 0.32279583811759949 0.16209772229194641
0.17538818717002869 0.32173150777816772 0.1540260910987854
0.36658835411071777 0.33320721983909607 0.14658607542514801
0.59931707382202148 0.34622812271118164 0.13706184923648834
0.7919001579284668 0.324257493019104 0.13874790072441101
0.92143869400024414 0.27700722217559814 0.11113059520721436
0.99810457229614258 0.25245001912117004 0.080786474049091339
0.0086279623210430145 0.505848228931427 0.12976537644863129
0.15356551110744476 0.50367283821105957 0.1128457635641098
0.35339957475662231 0.50668591260910034 0.092303663492202759
0.57558745145797729 0.53885006904602051 0.051403149962425232
0.78862404823303223 0.56911849975585938 0.059275384992361069
0.9322783350944519 0.5896567702293396 0.13336403667926788
0.99897509813308716 0.57960981130599976 0.16266334056854248
0.0077896718867123127 0.6713489294052124 0.062938854098320007
0.16280396282672882 0.66402852535247803 0.053424537181854248
0.35558435320854187 0.65819293260574341 0.035583332180976868
0.55557626485824585 0.67745697498321533 0.024685639888048172
0.74803590774536133 0.70206457376480103 0.023664211854338646
0.90258073806762695 0.71950501203536987 0.050710372626781464
0.98880881071090698 0.7311023473739624 0.21122828125953674
0.27457672357559204 0.79389113187789917 0.10100304335355759
0.33504009246826172 0.78848356008529663 0.072588331997394562
0.44871821999549866 0.78445124626159668 0.04906298965215683
0.59678059816360474 0.78489077091217041 0.027452416718006134
0.75215727090835571 0.7964245080947876 0.041452236473560333
0.88397443294525146 0.81446492671966553 0.080010481178760529
0.97825443744659424 0.82858014106750488 0.19891153275966644
0.51622605323791504 0.91270637512207031 0.31009286642074585
0.54345738887786865 0.91017371416091919 0.29972463846206665
0.60713750123977661 0.90838956832885742 0.27835971117019653
0.69002646207809448 0.90847551822662354 0.2530863881111145
0.79067486524581909 0.91810822486877441 0.27889880537986755
0.88311052322387695 0.93170475959777832 0.31072321534156799
0.96456420421600342 0.94668388366699219 0.35832896828651428
0.039423670619726181 0.11259568482637405 0.28407657146453857
0.14337849617004395 0.11194329708814621 0.30456095933914185
0.3163239061832428 0.093743704259395599 0.33418375253677368
0.48596081137657166 0.040650743991136551 0.29833817481994629
0.6623542308807373 0.0019220837857574224 0.2902558445930481
0.82385498285293579 0.00033932854421436787 0.27601301670074463
0.96696501970291138 0 0.23414728045463562
0.060230463743209839 0.17990922927856445 0.30024513602256775
0.16093321144580841 0.18333593010902405 0.32332068681716919
0.34334835410118103 0.17877848446369171 0.34997403621673584
0.52386218309402466 0.13984370231628418 0.31931653618812561
0.69405120611190796 0.02153390645980835 0.28907966613769531
0.84886127710342407 0.0028800065629184246 0.26132351160049438
0.97507697343826294 5.0563437980599701e-05 0.21551203727722168
0.049162726849317551 0.32941430807113647 0.34215274453163147
0.18320158123970032 0.33824336528778076 0.34890371561050415
0.38528048992156982 0.34703609347343445 0.3683171272277832
0.58714848756790161 0.32200446724891663 0.35158213973045349
0.75346678495407104 0.25566232204437256 0.31470838189125061
0.89806830883026123 0.16078869998455048 0.27474364638328552
0.99710261821746826 0.10496244579553604 0.23931650817394257
0.010470551438629627 0.54076945781707764 0.37033259868621826
0.18115758895874023 0.53866064548492432 0.36477982997894287
0.38402891159057617 0.53572475910186768 0.35387161374092102
0.59584623575210571 0.54844152927398682 0.34521949291229248
0.78333055973052979 0.57404643297195435 0.36685726046562195
0.91936129331588745 0.5704759955406189 0.38418906927108765
0.997031569480896 0.54374426603317261 0.34721130132675171
0.046491555869579315 0.70054876804351807 0.3552899956703186
0.2115485668182373 0.69173693656921387 0.350706547498703
0.3879944384098053 0.68317091464996338 0.32845962047576904
0.56898826360702515 0.68810856342315674 0.30270728468894958
0.75146979093551636 0.70622128248214722 0.31439599394798279
0.89654010534286499 0.71943056583404541 0.37543168663978577
0.98703759908676147 0.73500031232833862 0.45225298404693604
0.29390233755111694 0.80455738306045532 0.36059588193893433
0.34530067443847656 0.79791343212127686 0.35189685225486755
0.45877781510353088 0.79278868436813354 0.32359752058982849
0.59439051151275635 0.78960829973220825 0.29723182320594788
0.74589556455612183 0.80050539970397949 0.31522408127784729
0.87920182943344116 0.81505483388900757 0.35265415906906128
0.97537904977798462 0.83228081464767456 0.41920426487922668
0.50519996881484985 0.91592848300933838 0.46395233273506165
0.53020066022872925 0.91188836097717285 0.45320087671279907
0.59372413158416748 0.91247153282165527 0.43939271569252014
0.67919117212295532 0.91050046682357788 0.41472980380058289
0.77735978364944458 0.9164426326751709 0.42086923122406006
0.87222492694854736 0.93299514055252075 0.45525550842285156
0.95264679193496704 0.94853562116622925 0.48953619599342346
0.0061695920303463936 0.12040846794843674 0.52458447217941284
0.054229512810707092 0.11313964426517487 0.53978651762008667
0.33381369709968567 0.063735216856002808 0.58885127305984497
0.58618640899658203 0.0041020712815225124 0.60877281427383423
0.72828137874603271 0.0037048789672553539 0.54427957534790039
0.85199183225631714 0.0021473155356943607 0.4915844202041626
0.97312420606613159 0.0011642157332971692 0.470773845911026
0.0040536918677389622 0.18702070415019989 0.52675110101699829
0.078229703009128571 0.18707188963890076 0.5539323091506958
0.35447648167610168 0.18066495656967163 0.5997312068939209
0.59903323650360107 0.1482795774936676 0.62528771162033081
0.73894089460372925 0.095054879784584045 0.54835218191146851
0.86218684911727905 0.019806642085313797 0.49748843908309937
0.96688157320022583 0.0020592634100466967 0.46839141845703125
0.0081086251884698868 0.3225882351398468 0.54251313209533691
0.11356107145547867 0.32766962051391602 0.55204278230667114
0.38141945004463196 0.3494219183921814 0.59417510032653809
0.61428225040435791 0.37382900714874268 0.62652099132537842
0.74754458665847778 0.32447311282157898 0.55729609727859497
0.8734087347984314 0.2154720276594162 0.50000256299972534
0.9834669828414917 0.021855253726243973 0.4375058114528656
0.023134090006351471 0.54081600904464722 0.58330708742141724
0.20135992765426636 0.53901439905166626 0.58478498458862305
0.41142767667770386 0.55718201398849487 0.6010858416557312
0.61073923110961914 0.58228474855422974 0.62370759248733521
0.76615458726882935 0.54798620939254761 0.59224963188171387
0.88925313949584961 0.48214522004127502 0.53564012050628662
0.98869705200195312 0.40526831150054932 0.46668094396591187
0.22865916788578033 0.72152769565582275 0.6039963960647583
0.31403565406799316 0.71365129947662354 0.60262501239776611
0.45107460021972656 0.71141862869262695 0.59158098697662354
0.59233802556991577 0.71061497926712036 0.5833810567855835
0.7517082691192627 0.71603536605834961 0.58869147300720215
0.88429009914398193 0.72943490743637085 0.62866818904876709
0.97766745090484619 0.72795528173446655 0.64593088626861572
0.35548457503318787 0.81623560190200806 0.59436523914337158
0.40590870380401611 0.81235748529434204 0.59317398071289062
0.50137364864349365 0.80841308832168579 0.57397735118865967
0.61116814613342285 0.80458015203475952 0.55330872535705566
0.73148375749588013 0.80467826128005981 0.54741686582565308
0.86401069164276123 0.82354772090911865 0.59084784984588623
0.96224099397659302 0.83817452192306519 0.63399046659469604
0.51162517070770264 0.92166715860366821 0.64680570363998413
0.53202539682388306 0.91896325349807739 0.63964825868606567
0.58953690528869629 0.91644072532653809 0.62151157855987549
0.66481935977935791 0.91654402017593384 0.6011471152305603
0.75718027353286743 0.91696256399154663 0.58132195472717285
0.8565639853477478 0.93405342102050781 0.61077040433883667
0.93930280208587646 0.94852584600448608 0.64592921733856201
0.0011744181392714381 0.12306850403547287 0.75109052658081055
0.018915198743343353 0.1091022863984108 0.76152241230010986
0.33447781205177307 0.062917612493038177 0.78505039215087891
0.60501939058303833 0.0075675365515053272 0.82253646850585938
0.80006778240203857 0.010114692151546478 0.82049381732940674
0.90336042642593384 0.007163612637668848 0.75966453552246094
0.98310554027557373 0.014820757322013378 0.70713198184967041
0.0023072336334735155 0.19534417986869812 0.75260043144226074
0.038254905492067337 0.19268403947353363 0.76432991027832031
0.35989058017730713 0.18825986981391907 0.78853178024291992
0.61861443519592285 0.17728798091411591 0.82044649124145508
0.80486518144607544 0.19085840880870819 0.82443243265151978
0.90088450908660889 0.16007328033447266 0.76035386323928833
0.98250198364257812 0.13363531231880188 0.70421260595321655
0.0042463415302336216 0.32651954889297485 0.74057453870773315
0.088649973273277283 0.33260434865951538 0.75150537490844727
0.37763255834579468 0.34891489148139954 0.77318888902664185
0.61789888143539429 0.39762121438980103 0.80989557504653931
0.79324811697006226 0.43006789684295654 0.82171261310577393
0.8872373104095459 0.38433882594108582 0.75718402862548828
0.97727459669113159 0.30954572558403015 0.70260542631149292
0.0023055730853229761 0.50426048040390015 0.73116856813430786
0.11509605497121811 0.505440354347229 0.73281735181808472
0.36890468001365662 0.51801228523254395 0.74627882242202759
0.59527522325515747 0.5763666033744812 0.78206968307495117
0.77001917362213135 0.62149375677108765 0.81602722406387329
0.86491817235946655 0.56364160776138306 0.75434356927871704
0.97049719095230103 0.44928866624832153 0.68062251806259155
0.2359311580657959 0.70892548561096191 0.7691466212272644
0.33166953921318054 0.70540338754653931 0.76866316795349121
0.46627756953239441 0.70861160755157471 0.77070832252502441
0.62093067169189453 0.71725642681121826 0.78730261325836182
0.76022952795028687 0.73642992973327637 0.8092072606086731
0.86347848176956177 0.71210724115371704 0.7818114161491394
0.96375054121017456 0.64570873975753784 0.71553093194961548
0.48429971933364868 0.82729250192642212 0.79416400194168091
0.51117908954620361 0.82456779479980469 0.78925043344497681
0.57453984022140503 0.82565402984619141 0.78493237495422363
0.65856188535690308 0.82491195201873779 0.78676432371139526
0.74350392818450928 0.81866544485092163 0.77248185873031616
0.84967666864395142 0.83003127574920654 0.78262323141098022
0.94357800483703613 0.84692281484603882 0.81796032190322876
0.55849611759185791 0.92836904525756836 0.8119274377822876
0.57358860969543457 0.9246755838394165 0.80315309762954712
0.61076760292053223 0.92536473274230957 0.79871875047683716
0.67563837766647339 0.92812508344650269 0.79419326782226562
0.74905550479888916 0.92521673440933228 0.76507097482681274
0.83690530061721802 0.93210446834564209 0.76322931051254272
0.92548543214797974 0.95384293794631958 0.8005068302154541
0.016903312876820564 0.13422513008117676 0.91500437259674072
0.16144317388534546 0.12575614452362061 0.91878122091293335
0.41388848423957825 0.10821077227592468 0.92190694808959961
0.62596672773361206 0.084116898477077484 0.93562585115432739
0.81470227241516113 0.17462146282196045 0.95164352655410767
0.9292188286781311 0.24353446066379547 0.94422334432601929
0.99265307188034058 0.24686942994594574 0.91335099935531616
0.039769791066646576 0.21669505536556244 0.91357648372650146
0.20190656185150146 0.21960276365280151 0.91469794511795044
0.4242309033870697 0.21654084324836731 0.92225408554077148
0.63482910394668579 0.23880746960639954 0.93037211894989014
0.80609631538391113 0.31145846843719482 0.94697332382202148
0.91936153173446655 0.36073395609855652 0.93961507081985474
0.98826885223388672 0.35885733366012573 0.91128861904144287
0.05422598123550415 0.35131314396858215 0.90436166524887085
0.22010928392410278 0.36078476905822754 0.90363401174545288
0.43250471353530884 0.37312713265419006 0.91120791435241699
0.63145297765731812 0.42175018787384033 0.91965973377227783
0.79489564895629883 0.49896743893623352 0.93952292203903198
0.90028369426727295 0.52822369337081909 0.92998671531677246
0.9729422926902771 0.49741384387016296 0.90458565950393677
0.0098714195191860199 0.50008058547973633 0.87477535009384155
0.13123431801795959 0.50493460893630981 0.87819284200668335
0.40127015113830566 0.53136491775512695 0.88583290576934814
0.5998416543006897 0.58495670557022095 0.8961607813835144
0.77359604835510254 0.64641958475112915 0.9247710108757019
0.87969183921813965 0.66097652912139893 0.92511940002441406
0.95109319686889648 0.62420016527175903 0.89637720584869385
0.097143195569515228 0.68378210067749023 0.87572741508483887
0.22485087811946869 0.67960554361343384 0.875072181224823
0.39244380593299866 0.67857199907302856 0.87849628925323486
0.5613943338394165 0.69023627042770386 0.88580799102783203
0.73883944749832153 0.73002845048904419 0.90785151720046997
0.86780190467834473 0.76162612438201904 0.92274123430252075
0.93324297666549683 0.712696373462677 0.88454484939575195
0.47160369157791138 0.81932401657104492 0.90022212266921997
0.50725191831588745 0.81981980800628662 0.90015476942062378
0.56786125898361206 0.81553608179092407 0.90158402919769287
0.66500502824783325 0.8213767409324646 0.90450030565261841
0.76338249444961548 0.83007615804672241 0.91336268186569214
0.85655641555786133 0.84833395481109619 0.91708505153656006
0.93584704399108887 0.81784349679946899 0.90102958679199219
0.63935554027557373 0.93502891063690186 0.92043036222457886
0.65131503343582153 0.93287414312362671 0.91907012462615967
0.68125605583190918 0.93332600593566895 0.91957741975784302
0.72394686937332153 0.93727189302444458 0.91589200496673584
0.77407872676849365 0.94038879871368408 0.91197812557220459
0.83098959922790527 0.94094711542129517 0.89843535423278809
0.91575664281845093 0.96059679985046387 0.90831524133682251
0.39969721436500549 0.2398153692483902 0.99694114923477173
0.45522409677505493 0.23856915533542633 0.99615234136581421
0.56707853078842163 0.24651050567626953 0.99636286497116089
0.70168119668960571 0.28156894445419312 0.99646788835525513
0.82076752185821533 0.35196599364280701 0.99599343538284302
0.91705560684204102 0.46266826987266541 0.99398744106292725
0.98729056119918823 0.51645177602767944 0.99439764022827148
0.42123085260391235 0.32679808139801025 0.99175649881362915
0.47308307886123657 0.32206228375434875 0.99287557601928711
0.57711493968963623 0.33499601483345032 0.99466991424560547
0.70130252838134766 0.36665016412734985 0.99538028240203857
0.81495076417922974 0.43788644671440125 0.99191188812255859
0.91138696670532227 0.53205972909927368 0.9940456748008728
0.9832080602645874 0.57269078493118286 0.99262052774429321
0.4286704957485199 0.45381456613540649 0.98984181880950928
0.48133319616317749 0.45754483342170715 0.98897731304168701
0.57539248466491699 0.47283461689949036 0.9892391562461853
0.695587158203125 0.51179897785186768 0.98796325922012329
0.80666500329971313 0.56254661083221436 0.98982864618301392
0.89983612298965454 0.63051927089691162 0.99156099557876587
0.97043818235397339 0.64615851640701294 0.98831373453140259
0.38430735468864441 0.58887410163879395 0.98361313343048096
0.44329893589019775 0.59165406227111816 0.98347735404968262
0.55667901039123535 0.60870063304901123 0.98175656795501709
0.67945480346679688 0.63359189033508301 0.98405569791793823
0.79790383577346802 0.67576086521148682 0.98603379726409912
0.88917535543441772 0.71308004856109619 0.98812580108642578
0.9606635570526123 0.72570884227752686 0.9890977144241333
0.31790292263031006 0.70352721214294434 0.9732670783996582
0.37077301740646362 0.70078808069229126 0.97476470470428467
0.48000448942184448 0.70177340507507324 0.97323966026306152
0.63394856452941895 0.71681451797485352 0.97580832242965698
0.77254480123519897 0.74699616432189941 0.97848010063171387
0.87938815355300903 0.78278589248657227 0.98383212089538574
0.94287800788879395 0.79364335536956787 0.97601485252380371
0.51273179054260254 0.8239399790763855 0.97219425439834595
0.53527939319610596 0.82049131393432617 0.97341549396514893
0.5823667049407959 0.81959635019302368 0.97199016809463501
0.64709740877151489 0.81371390819549561 0.96838635206222534
0.74425601959228516 0.81473982334136963 0.97165000438690186
0.85925143957138062 0.84959417581558228 0.97707009315490723
0.93709659576416016 0.87715840339660645 0.97547394037246704
0.66056108474731445 0.94145351648330688 0.97417324781417847
0.67261463403701782 0.94168013334274292 0.97356146574020386
0.69994908571243286 0.94132184982299805 0.97353875637054443
0.7449001669883728 0.94306802749633789 0.97320109605789185
0.8018462061882019 0.93861210346221924 0.96512860059738159
0.85697942972183228 0.95486772060394287 0.97256577014923096
0.92381983995437622 0.9708259105682373 0.9745107889175415
