luts/instant_pro/polaroid_665_negative_hc.cube
# Created by: G'MIC (https://gmic.eu)
TITLE "polaroid_665_negative_hc"
# LUT size
LUT_3D_SIZE 5
# Data domain
DOMAIN_MIN 0.0 0.0 0.0
DOMAIN_MAX 1.0 1.0 1.0
# LUT data points
0.021278141066431999 0.021278141066431999 0.021278141066431999
0.051465906202793121 0.051465906202793121 0.051465906202793121
0.21111704409122467 0.21111704409122467 0.21111704409122467
0.38920119404792786 0.38920119404792786 0.38920119404792786
0.60182386636734009 0.60182386636734009 0.60182386636734009
0.16573943197727203 0.16573943197727203 0.16573943197727203
0.16095112264156342 0.16095112264156342 0.16095112264156342
0.29696327447891235 0.29696327447891235 0.29696327447891235
0.4558131992816925 0.4558131992816925 0.4558131992816925
0.64538204669952393 0.64538204669952393 0.64538204669952393
0.41105911135673523 0.41105911135673523 0.41105911135673523
0.39805305004119873 0.39805305004119873 0.39805305004119873
0.440940260887146 0.440940260887146 0.440940260887146
0.55348032712936401 0.55348032712936401 0.55348032712936401
0.73202472925186157 0.73202472925186157 0.73202472925186157
0.66862857341766357 0.66862857341766357 0.66862857341766357
0.65664809942245483 0.65664809942245483 0.65664809942245483
0.66124248504638672 0.66124248504638672 0.66124248504638672
0.71346569061279297 0.71346569061279297 0.71346569061279297
0.82099592685699463 0.82099592685699463 0.82099592685699463
0.89194327592849731 0.89194327592849731 0.89194327592849731
0.88439816236495972 0.88439816236495972 0.88439816236495972
0.88815873861312866 0.88815873861312866 0.88815873861312866
0.89142018556594849 0.89142018556594849 0.89142018556594849
0.91906195878982544 0.91906195878982544 0.91906195878982544
0.15379106998443604 0.15379106998443604 0.15379106998443604
0.20353630185127258 0.20353630185127258 0.20353630185127258
0.31235852837562561 0.31235852837562561 0.31235852837562561
0.47358828783035278 0.47358828783035278 0.47358828783035278
0.65214657783508301 0.65214657783508301 0.65214657783508301
0.27395430207252502 0.27395430207252502 0.27395430207252502
0.29504472017288208 0.29504472017288208 0.29504472017288208
0.38056862354278564 0.38056862354278564 0.38056862354278564
0.51349872350692749 0.51349872350692749 0.51349872350692749
0.6779053807258606 0.6779053807258606 0.6779053807258606
0.50679671764373779 0.50679671764373779 0.50679671764373779
0.48946234583854675 0.48946234583854675 0.48946234583854675
0.51023381948471069 0.51023381948471069 0.51023381948471069
0.59890192747116089 0.59890192747116089 0.59890192747116089
0.74098628759384155 0.74098628759384155 0.74098628759384155
0.73716026544570923 0.73716026544570923 0.73716026544570923
0.71456503868103027 0.71456503868103027 0.71456503868103027
0.70292001962661743 0.70292001962661743 0.70292001962661743
0.73765987157821655 0.73765987157821655 0.73765987157821655
0.8238905668258667 0.8238905668258667 0.8238905668258667
0.90597456693649292 0.90597456693649292 0.90597456693649292
0.89897006750106812 0.89897006750106812 0.89897006750106812
0.89073848724365234 0.89073848724365234 0.89073848724365234
0.8904305100440979 0.8904305100440979 0.8904305100440979
0.91943001747131348 0.91943001747131348 0.91943001747131348
0.44412145018577576 0.44412145018577576 0.44412145018577576
0.495128333568573 0.495128333568573 0.495128333568573
0.51532435417175293 0.51532435417175293 0.51532435417175293
0.57762223482131958 0.57762223482131958 0.57762223482131958
0.73080390691757202 0.73080390691757202 0.73080390691757202
0.47713002562522888 0.47713002562522888 0.47713002562522888
0.50879192352294922 0.50879192352294922 0.50879192352294922
0.54783821105957031 0.54783821105957031 0.54783821105957031
0.61968517303466797 0.61968517303466797 0.61968517303466797
0.7398112416267395 0.7398112416267395 0.7398112416267395
0.61948347091674805 0.61948347091674805 0.61948347091674805
0.6159820556640625 0.6159820556640625 0.6159820556640625
0.63507997989654541 0.63507997989654541 0.63507997989654541
0.69919568300247192 0.69919568300247192 0.69919568300247192
0.78971207141876221 0.78971207141876221 0.78971207141876221
0.80973118543624878 0.80973118543624878 0.80973118543624878
0.79078871011734009 0.79078871011734009 0.79078871011734009
0.78495293855667114 0.78495293855667114 0.78495293855667114
0.80168956518173218 0.80168956518173218 0.80168956518173218
0.85341155529022217 0.85341155529022217 0.85341155529022217
0.92636746168136597 0.92636746168136597 0.92636746168136597
0.92171198129653931 0.92171198129653931 0.92171198129653931
0.913565993309021 0.913565993309021 0.913565993309021
0.90768849849700928 0.90768849849700928 0.90768849849700928
0.92865830659866333 0.92865830659866333 0.92865830659866333
0.70584559440612793 0.70584559440612793 0.70584559440612793
0.73011666536331177 0.73011666536331177 0.73011666536331177
0.76213908195495605 0.76213908195495605 0.76213908195495605
0.76869457960128784 0.76869457960128784 0.76869457960128784
0.80429947376251221 0.80429947376251221 0.80429947376251221
0.73588502407073975 0.73588502407073975 0.73588502407073975
0.74008488655090332 0.74008488655090332 0.74008488655090332
0.76003730297088623 0.76003730297088623 0.76003730297088623
0.78396725654602051 0.78396725654602051 0.78396725654602051
0.82707172632217407 0.82707172632217407 0.82707172632217407
0.75708520412445068 0.75708520412445068 0.75708520412445068
0.77028536796569824 0.77028536796569824 0.77028536796569824
0.79137653112411499 0.79137653112411499 0.79137653112411499
0.82791173458099365 0.82791173458099365 0.82791173458099365
0.86712288856506348 0.86712288856506348 0.86712288856506348
0.85143578052520752 0.85143578052520752 0.85143578052520752
0.85947060585021973 0.85947060585021973 0.85947060585021973
0.86745941638946533 0.86745941638946533 0.86745941638946533
0.87423670291900635 0.87423670291900635 0.87423670291900635
0.89881891012191772 0.89881891012191772 0.89881891012191772
0.95078384876251221 0.95078384876251221 0.95078384876251221
0.94617259502410889 0.94617259502410889 0.94617259502410889
0.94090956449508667 0.94090956449508667 0.94090956449508667
0.93211787939071655 0.93211787939071655 0.93211787939071655
0.94365894794464111 0.94365894794464111 0.94365894794464111
0.90855258703231812 0.90855258703231812 0.90855258703231812
0.91080772876739502 0.91080772876739502 0.91080772876739502
0.91960740089416504 0.91960740089416504 0.91960740089416504
0.92359405755996704 0.92359405755996704 0.92359405755996704
0.92403453588485718 0.92403453588485718 0.92403453588485718
0.92048525810241699 0.92048525810241699 0.92048525810241699
0.91394603252410889 0.91394603252410889 0.91394603252410889
0.91615158319473267 0.91615158319473267 0.91615158319473267
0.92726731300354004 0.92726731300354004 0.92726731300354004
0.93456900119781494 0.93456900119781494 0.93456900119781494
0.91188907623291016 0.91188907623291016 0.91188907623291016
0.91352593898773193 0.91352593898773193 0.91352593898773193
0.92100977897644043 0.92100977897644043 0.92100977897644043
0.93579578399658203 0.93579578399658203 0.93579578399658203
0.9488404393196106 0.9488404393196106 0.9488404393196106
0.92546921968460083 0.92546921968460083 0.92546921968460083
0.93140876293182373 0.93140876293182373 0.93140876293182373
0.93773621320724487 0.93773621320724487 0.93773621320724487
0.94038790464401245 0.94038790464401245 0.94038790464401245
0.9524117112159729 0.9524117112159729 0.9524117112159729
0.96509230136871338 0.96509230136871338 0.96509230136871338
0.97049474716186523 0.97049474716186523 0.97049474716186523
0.97126448154449463 0.97126448154449463 0.97126448154449463
0.9647325873374939 0.9647325873374939 0.9647325873374939
0.96995925903320312 0.96995925903320312 0.96995925903320312
