luts/instant_pro/polaroid_690_-.cube
# Created by: G'MIC (https://gmic.eu)
TITLE "polaroid_690_-"
# LUT size
LUT_3D_SIZE 13
# Data domain
DOMAIN_MIN 0.0 0.0 0.0
DOMAIN_MAX 1.0 1.0 1.0
# LUT data points
0.040796510875225067 0.041725501418113708 0.036538500338792801
0.076315082609653473 0.042699463665485382 0.037176962941884995
0.11881648004055023 0.03959280252456665 0.036494161933660507
0.18546907603740692 0.027016164734959602 0.038644663989543915
0.25704711675643921 0.01118132658302784 0.037285555154085159
0.34898215532302856 0.0030251895077526569 0.034214437007904053
0.45021763443946838 0.00065594841726124287 0.030549202114343643
0.55876731872558594 0.0014601015718653798 0.026142360642552376
0.6598554253578186 0.0020831986330449581 0.020654596388339996
0.74844098091125488 0.0022520027123391628 0.015504306182265282
0.83236759901046753 0.0027537476271390915 0.012134701944887638
0.91416913270950317 0.0014929528115317225 0.0087083252146840096
0.97585159540176392 0 0.0078431377187371254
0.040981069207191467 0.076646067202091217 0.040251579135656357
0.079591862857341766 0.076143316924571991 0.04108879342675209
0.12507462501525879 0.074137717485427856 0.03978259488940239
0.19591957330703735 0.058917056769132614 0.038582820445299149
0.273519366979599 0.035482250154018402 0.036620061844587326
0.36969351768493652 0.012596998363733292 0.034007515758275986
0.47604948282241821 0.0048746597021818161 0.028031174093484879
0.58693724870681763 0.0075416415929794312 0.0212834682315588
0.68770402669906616 0.0071888342499732971 0.014806291088461876
0.7735939621925354 0.0040115057490766048 0.01195113267749548
0.85427576303482056 0.0051397285424172878 0.0097825592383742332
0.92861771583557129 0.0032373315189033747 0.0074164597317576408
0.97895538806915283 0 0.0055814255028963089
0.033483229577541351 0.12223198264837265 0.039433632045984268
0.07821839302778244 0.12781079113483429 0.039706181734800339
0.13065698742866516 0.12942312657833099 0.035440318286418915
0.20435222983360291 0.12186200171709061 0.03039022721350193
0.29502981901168823 0.11185361444950104 0.027722032740712166
0.40433642268180847 0.08504650741815567 0.028583092615008354
0.51695924997329712 0.046053897589445114 0.020054791122674942
0.62184816598892212 0.022183077409863472 0.011294540949165821
0.71809226274490356 0.0099868178367614746 0.0064642960205674171
0.80298590660095215 0.0052111907862126827 0.0068515553139150143
0.88052999973297119 0.0084819868206977844 0.005942624993622303
0.94758164882659912 0.00408935546875 0.0041859196498990059
0.98689895868301392 0.00012563070049509406 0.0034995584283024073
0.015756465494632721 0.19621682167053223 0.032032940536737442
0.051153279840946198 0.19891610741615295 0.030047651380300522
0.11997257173061371 0.20259366929531097 0.024565707892179489
0.2103378027677536 0.20655025541782379 0.015389147214591503
0.31440746784210205 0.20712555944919586 0.012127416208386421
0.44016379117965698 0.20637036859989166 0.013065039180219173
0.56327706575393677 0.19766826927661896 0.0083705531433224678
0.66826909780502319 0.16143560409545898 0.0034562952350825071
0.75612270832061768 0.11107994616031647 0.0008751064888201654
0.83647263050079346 0.070566572248935699 0.0018437105463817716
0.90914201736450195 0.052482575178146362 0.0011614032555371523
0.96964877843856812 0.036608602851629257 0.00049770576879382133
0.99649178981781006 0.035672850906848907 0.00011556288518477231
0.0067568612284958363 0.2856423556804657 0.017907729372382164
0.020071679726243019 0.2823241651058197 0.012557833455502987
0.094929277896881104 0.28860458731651306 0.0098658539354801178
0.2028893381357193 0.29622763395309448 0.005769392941147089
0.31978487968444824 0.30819305777549744 0.0047500161454081535
0.44701680541038513 0.31527447700500488 0.0064838184043765068
0.57477670907974243 0.32069230079650879 0.0051930597983300686
0.69636565446853638 0.32732370495796204 0.0027962478343397379
0.79089242219924927 0.31271699070930481 0.00097454292699694633
0.8675878643989563 0.2893345057964325 0.00067123712506145239
0.93100416660308838 0.27074608206748962 3.5184973967261612e-05
0.98283392190933228 0.25699606537818909 0
0.99794971942901611 0.25433564186096191 0
0.0044607273302972317 0.38711738586425781 0.0062998305074870586
0.0084644090384244919 0.38145989179611206 0.0042536566033959389
0.06307481974363327 0.37813293933868408 0.0028387780766934156
0.19022667407989502 0.38515645265579224 0.0028554580640047789
0.31284290552139282 0.40011590719223022 0.0045774569734930992
0.43885815143585205 0.41382062435150146 0.0063410140573978424
0.56485450267791748 0.42646327614784241 0.007418943103402853
0.68221920728683472 0.44091954827308655 0.0053291921503841877
0.7903439998626709 0.45458954572677612 0.0021247563418000937
0.87606281042098999 0.4612695574760437 0.00077616370981559157
0.94005036354064941 0.45562121272087097 0.0010870241094380617
0.98632222414016724 0.44247293472290039 0.00057555554667487741
0.99715584516525269 0.43584200739860535 0.00017046461289282888
0.0031426972709596157 0.48923742771148682 0.0039215688593685627
0.0050829420797526836 0.48081690073013306 0.0027201185002923012
0.028848476707935333 0.47362428903579712 0.0014206082560122013
0.16361311078071594 0.47587674856185913 0.00311430380679667
0.29983434081077576 0.48724755644798279 0.0044866376556456089
0.42419418692588806 0.50019091367721558 0.0051412992179393768
0.54586929082870483 0.51761972904205322 0.0067169787362217903
0.66357302665710449 0.54068636894226074 0.0048145968466997147
0.77048897743225098 0.55815654993057251 0.0020785911474376917
0.85308891534805298 0.56224519014358521 0.0027611376717686653
0.92587745189666748 0.57189381122589111 0.00258611049503088
0.98362016677856445 0.58441460132598877 0.0027034834492951632
0.99655580520629883 0.58204126358032227 0.0045280307531356812
0.0038358052261173725 0.58022964000701904 0.0034211103338748217
0.0047945356927812099 0.5735480785369873 0.00014536239905282855
0.01469771470874548 0.56755292415618896 1.2566061741381418e-05
0.13403403759002686 0.56573992967605591 0.0014999988488852978
0.2822536826133728 0.57096624374389648 0.003591874148696661
0.40623900294303894 0.58258765935897827 0.0036925820168107748
0.5257146954536438 0.59954923391342163 0.0044119441881775856
0.64095693826675415 0.61632943153381348 0.0040277969092130661
0.75060725212097168 0.630939781665802 0.0037784352898597717
0.83641976118087769 0.64256608486175537 0.0040094414725899696
0.91007488965988159 0.65198159217834473 0.0044910656288266182
0.96612459421157837 0.66228479146957397 0.0066295997239649296
0.99291878938674927 0.67329418659210205 0.0078886440023779869
0.0055108764208853245 0.65962976217269897 0.0009089750237762928
0.0071609648875892162 0.65798783302307129 0
0.012947965413331985 0.65506577491760254 0
0.13980822265148163 0.65118259191513062 0.00028655107598751783
0.28218299150466919 0.64927524328231812 0.0014741485938429832
0.40457645058631897 0.6594969630241394 0.0018261030782014132
0.51567190885543823 0.67178612947463989 0.0018683040980249643
0.62480837106704712 0.6819756031036377 0.003376066917553544
0.73542970418930054 0.69448906183242798 0.0039215688593685627
0.82594680786132812 0.70826566219329834 0.0039451299235224724
0.89640325307846069 0.71688759326934814 0.0048112156800925732
0.95527845621109009 0.72399085760116577 0.0056591257452964783
0.99263590574264526 0.73033863306045532 0.0057135787792503834
0.010856403969228268 0.73361474275588989 0
0.01894054003059864 0.73399311304092407 0
0.080351553857326508 0.73347491025924683 0
0.21167315542697906 0.7299884557723999 0
0.32717043161392212 0.72386014461517334 0.00027160643367096782
0.44210559129714966 0.7250792384147644 0.0012290655868127942
0.54438012838363647 0.73380750417709351 0.0015318627702072263
0.63966274261474609 0.74308925867080688 0.0022418901789933443
0.73566359281539917 0.75451147556304932 0.0039215688593685627
0.82054382562637329 0.76644498109817505 0.0039215688593685627
0.88652282953262329 0.77449560165405273 0.0039296466857194901
0.94730502367019653 0.78137683868408203 0.0039356607012450695
0.99077624082565308 0.78554666042327881 0.0026975444052368402
0.14864443242549896 0.80114054679870605 0.00011904847633559257
0.18360434472560883 0.79911577701568604 0.001311567728407681
0.24616047739982605 0.79860657453536987 0.0019760879222303629
0.31871050596237183 0.79667121171951294 0.0026073530316352844
0.40623170137405396 0.79292201995849609 0.002056376077234745
0.4917457103729248 0.79007226228713989 0.0019923790823668242
0.58434760570526123 0.79679584503173828 0.0014707976952195168
0.6759418249130249 0.80526310205459595 0.0033243366051465273
0.75439834594726562 0.81327551603317261 0.0042268941178917885
0.82580298185348511 0.82320582866668701 0.0050511825829744339
0.88455623388290405 0.83157908916473389 0.0067422902211546898
0.94053047895431519 0.83733654022216797 0.0057259355671703815
0.98397535085678101 0.84142857789993286 0.0018132677068933845
0.34067192673683167 0.86175805330276489 0.0035466211847960949
0.35972678661346436 0.86217743158340454 0.0065134982578456402
0.39390906691551208 0.86088031530380249 0.0058824429288506508
0.44272610545158386 0.86024552583694458 0.0070750666782259941
0.50385397672653198 0.85878944396972656 0.0048485402949154377
0.56550860404968262 0.8565211296081543 0.0041392305865883827
0.63651090860366821 0.86080920696258545 0.0029146980959922075
0.70866912603378296 0.86695897579193115 0.0033055923413485289
0.77309185266494751 0.8726000189781189 0.006803849246352911
0.83223634958267212 0.88072174787521362 0.0072118723765015602
0.8853723406791687 0.88859790563583374 0.0085417656227946281
0.93525129556655884 0.89365178346633911 0.0066612395457923412
0.97926855087280273 0.89895623922348022 0.004681022372096777
0.48927581310272217 0.92991620302200317 0.14673779904842377
0.5011289119720459 0.92944079637527466 0.14126434922218323
0.52230942249298096 0.92846018075942993 0.13420820236206055
0.55351483821868896 0.92851340770721436 0.11941381543874741
0.59350860118865967 0.92826664447784424 0.10767024755477905
0.63805675506591797 0.92636251449584961 0.087991021573543549
0.68800818920135498 0.92775952816009521 0.078098013997077942
0.74022257328033447 0.93188679218292236 0.081054225564002991
0.79088836908340454 0.93613666296005249 0.088203459978103638
0.83994251489639282 0.94165581464767456 0.088919200003147125
0.8866347074508667 0.94870525598526001 0.094335190951824188
0.93082249164581299 0.95379716157913208 0.098401658236980438
0.97239154577255249 0.9602515697479248 0.11212068796157837
0.040982820093631744 0.045516788959503174 0.070299215614795685
0.072221450507640839 0.047412440180778503 0.067483417689800262
0.11587751656770706 0.044369146227836609 0.066611304879188538
0.1843276172876358 0.031481411308050156 0.071857050061225891
0.25636029243469238 0.012182408012449741 0.068919926881790161
0.34759402275085449 0.003735650796443224 0.064875565469264984
0.446370929479599 0.0020336075685918331 0.058880958706140518
0.55337482690811157 0.0022564756218343973 0.055023897439241409
0.653148353099823 0.0023006214760243893 0.052087131887674332
0.74149090051651001 0.0027613320853561163 0.044623520225286484
0.82848924398422241 0.0028797672130167484 0.033463004976511002
0.9150121808052063 0.0013700447743758559 0.021358190104365349
0.98175007104873657 0 0.012046365067362785
0.044901620596647263 0.077998831868171692 0.073970481753349304
0.080464273691177368 0.084023900330066681 0.075292326509952545
0.12668882310390472 0.084505580365657806 0.075872845947742462
0.19674204289913177 0.067694887518882751 0.076778128743171692
0.27636873722076416 0.037952512502670288 0.072044745087623596
0.37105414271354675 0.01396580133587122 0.067605115473270416
0.47977018356323242 0.0079363808035850525 0.059792045503854752
0.58363246917724609 0.0077079473994672298 0.05470753088593483
0.68037301301956177 0.0064537199214100838 0.048235125839710236
0.76686769723892212 0.0043958029709756374 0.039248567074537277
0.85053014755249023 0.0049978219904005527 0.029817797243595123
0.92988920211791992 0.0025844648480415344 0.01997750997543335
0.98212552070617676 0.00095306098228320479 0.013047102838754654
0.036279253661632538 0.12916618585586548 0.075713187456130981
0.079630233347415924 0.13315090537071228 0.07777608186006546
0.13202126324176788 0.13181503117084503 0.075056202709674835
0.20943254232406616 0.12592414021492004 0.072053365409374237
0.30065342783927917 0.11233756691217422 0.068458378314971924
0.40976622700691223 0.087930656969547272 0.070387959480285645
0.51462161540985107 0.042214501649141312 0.059901442378759384
0.61699163913726807 0.018923845142126083 0.050425108522176743
0.71206474304199219 0.0087136514484882355 0.041294172406196594
0.79702180624008179 0.0060360180214047432 0.030900124460458755
0.87723219394683838 0.0073506073094904423 0.023000096902251244
0.94794565439224243 0.0023673712275922298 0.0155423479154706
0.987640380859375 0.0039635603316128254 0.010951636359095573
0.014269975014030933 0.19875010848045349 0.073437787592411041
0.059744905680418015 0.20201942324638367 0.073997229337692261
0.13014402985572815 0.20703253149986267 0.067008137702941895
0.22074787318706512 0.21272839605808258 0.059007082134485245
0.32617774605751038 0.21336963772773743 0.054145485162734985
0.44735711812973022 0.21138164401054382 0.057409651577472687
0.56086975336074829 0.1904369443655014 0.051271326839923859
0.66195100545883179 0.15169790387153625 0.037491921335458755
0.75022989511489868 0.10549561679363251 0.029372166842222214
0.83132541179656982 0.065406873822212219 0.019033094868063927
0.90563470125198364 0.044841676950454712 0.013501440174877644
0.96779698133468628 0.026989223435521126 0.0075835431925952435
0.99605977535247803 0.030293019488453865 0.0047354307025671005
0.0046302047558128834 0.29085835814476013 0.059765025973320007
0.027585452422499657 0.29125270247459412 0.055038765072822571
0.1104610338807106 0.29601794481277466 0.047741848975419998
0.21728476881980896 0.30332845449447632 0.038016211241483688
0.33461660146713257 0.31406906247138977 0.029715115204453468
0.45799213647842407 0.32350581884384155 0.02386055700480938
0.58272093534469604 0.32887652516365051 0.023927172645926476
0.69678264856338501 0.32659631967544556 0.017784342169761658
0.78605586290359497 0.30875232815742493 0.017852095887064934
0.86331778764724731 0.28468608856201172 0.010626175440847874
0.92858362197875977 0.26107469201087952 0.0081294337287545204
0.98081833124160767 0.24424640834331512 0.0038014580495655537
0.99901795387268066 0.24221499264240265 0.0013188680168241262
0.0041565690189599991 0.39250913262367249 0.034901607781648636
0.0074479049071669579 0.38917505741119385 0.029944116249680519
0.072936281561851501 0.38826447725296021 0.025078598409891129
0.19878615438938141 0.39535713195800781 0.018270529806613922
0.32030519843101501 0.40729168057441711 0.01226362306624651
0.44730296730995178 0.4209541380405426 0.010552664287388325
0.5727960467338562 0.43558147549629211 0.012788047082722187
0.69049626588821411 0.44732803106307983 0.013147196732461452
0.79329711198806763 0.45691061019897461 0.010124625638127327
0.87614148855209351 0.45762184262275696 0.0062456917949020863
0.94037425518035889 0.45015788078308105 0.0069258743897080421
0.98636496067047119 0.43808349967002869 0.0057621975429356098
0.99844837188720703 0.43249255418777466 0.0035194396041333675
0.0015246821567416191 0.49135386943817139 0.0097484216094017029
0.0048001906834542751 0.48672384023666382 0.011913913302123547
0.032807726413011551 0.48198583722114563 0.007413916289806366
0.17184066772460938 0.484315425157547 0.0058703105896711349
0.30538672208786011 0.49356198310852051 0.0082506071776151657
0.4315466582775116 0.50679057836532593 0.0081074284389615059
0.55401647090911865 0.52460384368896484 0.010854803025722504
0.67114198207855225 0.54388570785522461 0.010640133172273636
0.77399760484695435 0.55905663967132568 0.0075060827657580376
0.85860013961791992 0.56767475605010986 0.0058953529223799706
0.93123078346252441 0.57740122079849243 0.0057416278868913651
0.98396760225296021 0.58293807506561279 0.012798788025975227
0.99904245138168335 0.57933354377746582 0.019735492765903473
0.002243236405774951 0.58287447690963745 0.0037275427021086216
0.0049870507791638374 0.57996493577957153 0.0049552768468856812
0.016330959275364876 0.57541960477828979 0.0031261069234460592
0.13671709597110748 0.57374244928359985 0.0055357241071760654
0.28761360049247742 0.57400000095367432 0.0074639115482568741
0.41262996196746826 0.58650487661361694 0.0072131436318159103
0.53083091974258423 0.60357838869094849 0.0085173211991786957
0.64801597595214844 0.62192243337631226 0.008814418688416481
0.75364786386489868 0.63647711277008057 0.0073806610889732838
0.84075498580932617 0.64707368612289429 0.0067869746126234531
0.91471803188323975 0.65627127885818481 0.0076887840405106544
0.97209626436233521 0.66674435138702393 0.013173600658774376
0.99656528234481812 0.67704826593399048 0.055582936853170395
0.0036391313187777996 0.66467380523681641 0.0020657258573919535
0.0064169792458415031 0.66367924213409424 0.0024653265718370676
0.017850719392299652 0.66132479906082153 0.00054331758292391896
0.13604646921157837 0.65568870306015015 0.0028321510180830956
0.28764006495475769 0.65298348665237427 0.0074414270929992199
0.40980434417724609 0.66139829158782959 0.0055772671476006508
0.51950240135192871 0.67335039377212524 0.0056893592700362206
0.63225769996643066 0.687519371509552 0.0063576940447092056
0.73867213726043701 0.70098429918289185 0.0046083037741482258
0.82628744840621948 0.71241408586502075 0.0040635201148688793
0.90151333808898926 0.72041505575180054 0.0073037841357290745
0.95880818367004395 0.72806417942047119 0.0087811043485999107
0.99285280704498291 0.73485952615737915 0.025776926428079605
0.0067236954346299171 0.73746436834335327 0.0018437852850183845
0.021647898480296135 0.73755401372909546 0.0015396716771647334
0.086168058216571808 0.73659855127334595 1.7786960597732104e-05
0.21560488641262054 0.73177367448806763 0.0015275992918759584
0.33614715933799744 0.72703373432159424 0.0038376601878553629
0.44469627737998962 0.72905194759368896 0.0060442308895289898
0.54272419214248657 0.73599815368652344 0.0051076402887701988
0.64140021800994873 0.74519568681716919 0.0045327581465244293
0.73753207921981812 0.75587636232376099 0.0057481653057038784
0.81986629962921143 0.76723933219909668 0.0052555310539901257
0.88924461603164673 0.77500754594802856 0.0053450041450560093
0.94904345273971558 0.78242433071136475 0.0064720003865659237
0.9888802170753479 0.78832340240478516 0.01288134977221489
0.15001370012760162 0.80177497863769531 0.0015371284680441022
0.1887274831533432 0.79968798160552979 0.0027480032294988632
0.25215500593185425 0.79834532737731934 0.0015362907433882356
0.32694104313850403 0.79627740383148193 0.0035306743811815977
0.41209584474563599 0.79305911064147949 0.0043035917915403843
0.49697893857955933 0.7928428053855896 0.0077354582026600838
0.58337408304214478 0.79729157686233521 0.0060569015331566334
0.67135250568389893 0.80340957641601562 0.0048699025064706802
0.75135141611099243 0.81106311082839966 0.0048523847945034504
0.82218581438064575 0.82055807113647461 0.0072076832875609398
0.88400685787200928 0.82923221588134766 0.007447859738022089
0.94011741876602173 0.83604305982589722 0.010335720144212246
0.98595935106277466 0.8418126106262207 0.0075990264303982258
0.34459838271141052 0.86265599727630615 0.026942787691950798
0.36262702941894531 0.86254185438156128 0.023850608617067337
0.39509612321853638 0.86004179716110229 0.021141411736607552
0.44391980767250061 0.85807865858078003 0.014944577589631081
0.50205326080322266 0.85686439275741577 0.012120894156396389
0.5651283860206604 0.8569943904876709 0.010115829296410084
0.63316112756729126 0.85974109172821045 0.0060849958099424839
0.70546996593475342 0.86464798450469971 0.0053824777714908123
0.76974457502365112 0.87142801284790039 0.008428267203271389
0.82914000749588013 0.87795007228851318 0.0089169824495911598
0.88419532775878906 0.88583308458328247 0.010251902043819427
0.93517947196960449 0.89265364408493042 0.012848738580942154
0.98014748096466064 0.89875775575637817 0.026447117328643799
0.48600965738296509 0.92964422702789307 0.19605432450771332
0.49785560369491577 0.92972689867019653 0.18905475735664368
0.51715785264968872 0.92839086055755615 0.18305473029613495
0.55014288425445557 0.92815923690795898 0.16855843365192413
0.59068506956100464 0.9284050464630127 0.15402629971504211
0.63531780242919922 0.9270206093788147 0.13159893453121185
0.68541371822357178 0.92710977792739868 0.11368683725595474
0.73755091428756714 0.93074601888656616 0.11827507615089417
0.78925818204879761 0.93538087606430054 0.11880316585302353
0.83793556690216064 0.94011831283569336 0.12640944123268127
0.88495939970016479 0.94738095998764038 0.13738137483596802
0.93013030290603638 0.95334678888320923 0.14254173636436462
0.97178512811660767 0.9599495530128479 0.1650298684835434
0.032971028238534927 0.047473158687353134 0.11597435176372528
0.060660462826490402 0.050678655505180359 0.12532432377338409
0.1121438592672348 0.047313854098320007 0.12783297896385193
0.18219263851642609 0.037367653101682663 0.12188992649316788
0.25811749696731567 0.018648514524102211 0.12005468457937241
0.34800228476524353 0.0022233850322663784 0.1190367192029953
0.44596529006958008 0.0014478496741503477 0.11743373423814774
0.54637080430984497 0.00096980074886232615 0.10879411548376083
0.64121419191360474 0.00084521726239472628 0.098778620362281799
0.73066574335098267 0.00053327973000705242 0.089814983308315277
0.81975072622299194 0.00032596962410025299 0.081657379865646362
0.90724509954452515 1.2895172403659672e-05 0.071374021470546722
0.97765833139419556 0 0.056163683533668518
0.038904137909412384 0.0787353515625 0.12133365869522095
0.072832010686397552 0.086093023419380188 0.13009417057037354
0.12525506317615509 0.086500786244869232 0.13226436078548431
0.19819465279579163 0.077489010989665985 0.13036662340164185
0.2765251100063324 0.048873543739318848 0.124999038875103
0.36775794625282288 0.015080171637237072 0.12248053401708603
0.47350317239761353 0.0078141456469893456 0.11947762221097946
0.57047170400619507 0.0057758856564760208 0.11311043798923492
0.66339784860610962 0.0037601245567202568 0.10593197494745255
0.75210434198379517 0.0032980376854538918 0.094976656138896942
0.83645170927047729 0.0024867039173841476 0.08528359979391098
0.91739201545715332 0.0008346856920979917 0.07292523980140686
0.9768107533454895 0.0013415467692539096 0.056196548044681549
0.035042677074670792 0.1303166002035141 0.12751232087612152
0.077440105378627777 0.13453936576843262 0.13353127241134644
0.13438917696475983 0.13408662378787994 0.13513743877410889
0.21204480528831482 0.12990404665470123 0.1351456344127655
0.30189433693885803 0.11215987801551819 0.13298562169075012
0.4044937789440155 0.08071301132440567 0.13016654551029205
0.50683414936065674 0.035541579127311707 0.12207804620265961
0.60501241683959961 0.014811391942203045 0.1143193393945694
0.69712269306182861 0.0095754582434892654 0.1079273596405983
0.78347152471542358 0.0058146906085312366 0.097919046878814697
0.86516022682189941 0.004029247909784317 0.084474258124828339
0.93646204471588135 0.0035603393334895372 0.069100625813007355
0.98187589645385742 0.0038784998469054699 0.051623161882162094
0.017009435221552849 0.20338191092014313 0.13772955536842346
0.065331354737281799 0.20637805759906769 0.13875167071819305
0.13808606564998627 0.21198253333568573 0.1404171884059906
0.2284567654132843 0.21590809524059296 0.13920736312866211
0.33628043532371521 0.21749447286128998 0.13919526338577271
0.44788554310798645 0.20739763975143433 0.13897533714771271
0.55494874715805054 0.17487752437591553 0.13273003697395325
0.65041565895080566 0.1282658725976944 0.11993023753166199
0.73951935768127441 0.088845089077949524 0.10936237126588821
0.82149392366409302 0.048375446349382401 0.096274644136428833
0.89755171537399292 0.028668856248259544 0.080946557223796844
0.96128731966018677 0.015602650120854378 0.064202629029750824
0.99334102869033813 0.013796652667224407 0.044963236898183823
