luts/instant_pro/polaroid_665_--.cube
# Created by: G'MIC (https://gmic.eu)
TITLE "polaroid_665_--"
# LUT size
LUT_3D_SIZE 7
# Data domain
DOMAIN_MIN 0.0 0.0 0.0
DOMAIN_MAX 1.0 1.0 1.0
# LUT data points
0.015839235857129097 0.015839235857129097 0.015839235857129097
0.064727097749710083 0.064727097749710083 0.064727097749710083
0.14787028729915619 0.14787028729915619 0.14787028729915619
0.23461543023586273 0.23461543023586273 0.23461543023586273
0.30879956483840942 0.30879956483840942 0.30879956483840942
0.38321337103843689 0.38321337103843689 0.38321337103843689
0.4856221079826355 0.4856221079826355 0.4856221079826355
0.11638320982456207 0.11638320982456207 0.11638320982456207
0.13460390269756317 0.13460390269756317 0.13460390269756317
0.20509517192840576 0.20509517192840576 0.20509517192840576
0.28419783711433411 0.28419783711433411 0.28419783711433411
0.34161180257797241 0.34161180257797241 0.34161180257797241
0.40274691581726074 0.40274691581726074 0.40274691581726074
0.49748378992080688 0.49748378992080688 0.49748378992080688
0.25888547301292419 0.25888547301292419 0.25888547301292419
0.25589737296104431 0.25589737296104431 0.25589737296104431
0.28220191597938538 0.28220191597938538 0.28220191597938538
0.32994014024734497 0.32994014024734497 0.32994014024734497
0.37746015191078186 0.37746015191078186 0.37746015191078186
0.44788250327110291 0.44788250327110291 0.44788250327110291
0.55493819713592529 0.55493819713592529 0.55493819713592529
0.36610063910484314 0.36610063910484314 0.36610063910484314
0.35968652367591858 0.35968652367591858 0.35968652367591858
0.36058273911476135 0.36058273911476135 0.36058273911476135
0.37474435567855835 0.37474435567855835 0.37474435567855835
0.40917879343032837 0.40917879343032837 0.40917879343032837
0.49483069777488708 0.49483069777488708 0.49483069777488708
0.62945771217346191 0.62945771217346191 0.62945771217346191
0.46664917469024658 0.46664917469024658 0.46664917469024658
0.46482816338539124 0.46482816338539124 0.46482816338539124
0.46505779027938843 0.46505779027938843 0.46505779027938843
0.4673774242401123 0.4673774242401123 0.4673774242401123
0.48056814074516296 0.48056814074516296 0.48056814074516296
0.53493481874465942 0.53493481874465942 0.53493481874465942
0.66169583797454834 0.66169583797454834 0.66169583797454834
0.61211520433425903 0.61211520433425903 0.61211520433425903
0.61433655023574829 0.61433655023574829 0.61433655023574829
0.6194043755531311 0.6194043755531311 0.6194043755531311
0.62792766094207764 0.62792766094207764 0.62792766094207764
0.64070194959640503 0.64070194959640503 0.64070194959640503
0.65897148847579956 0.65897148847579956 0.65897148847579956
0.72339165210723877 0.72339165210723877 0.72339165210723877
0.80069911479949951 0.80069911479949951 0.80069911479949951
0.79690313339233398 0.79690313339233398 0.79690313339233398
0.80068832635879517 0.80068832635879517 0.80068832635879517
0.81447404623031616 0.81447404623031616 0.81447404623031616
0.83247083425521851 0.83247083425521851 0.83247083425521851
0.83970183134078979 0.83970183134078979 0.83970183134078979
0.85622572898864746 0.85622572898864746 0.85622572898864746
0.12801194190979004 0.12801194190979004 0.12801194190979004
0.16851173341274261 0.16851173341274261 0.16851173341274261
0.2163684070110321 0.2163684070110321 0.2163684070110321
0.2920377254486084 0.2920377254486084 0.2920377254486084
0.35590448975563049 0.35590448975563049 0.35590448975563049
0.40935397148132324 0.40935397148132324 0.40935397148132324
0.50344359874725342 0.50344359874725342 0.50344359874725342
0.18521085381507874 0.18521085381507874 0.18521085381507874
0.21712994575500488 0.21712994575500488 0.21712994575500488
0.25683623552322388 0.25683623552322388 0.25683623552322388
0.32551115751266479 0.32551115751266479 0.32551115751266479
0.38056707382202148 0.38056707382202148 0.38056707382202148
0.4315265417098999 0.4315265417098999 0.4315265417098999
0.52311128377914429 0.52311128377914429 0.52311128377914429
0.28967490792274475 0.28967490792274475 0.28967490792274475
0.30013695359230042 0.30013695359230042 0.30013695359230042
0.3210233747959137 0.3210233747959137 0.3210233747959137
0.36348739266395569 0.36348739266395569 0.36348739266395569
0.41518765687942505 0.41518765687942505 0.41518765687942505
0.48083016276359558 0.48083016276359558 0.48083016276359558
0.57877892255783081 0.57877892255783081 0.57877892255783081
0.40422555804252625 0.40422555804252625 0.40422555804252625
0.39599928259849548 0.39599928259849548 0.39599928259849548
0.3961605429649353 0.3961605429649353 0.3961605429649353
0.4073621928691864 0.4073621928691864 0.4073621928691864
0.44410485029220581 0.44410485029220581 0.44410485029220581
0.53083419799804688 0.53083419799804688 0.53083419799804688
0.64794552326202393 0.64794552326202393 0.64794552326202393
0.50165164470672607 0.50165164470672607 0.50165164470672607
0.49880290031433105 0.49880290031433105 0.49880290031433105
0.49892169237136841 0.49892169237136841 0.49892169237136841
0.49612778425216675 0.49612778425216675 0.49612778425216675
0.50583761930465698 0.50583761930465698 0.50583761930465698
0.57061421871185303 0.57061421871185303 0.57061421871185303
0.68321222066879272 0.68321222066879272 0.68321222066879272
0.63582736253738403 0.63582736253738403 0.63582736253738403
0.64074313640594482 0.64074313640594482 0.64074313640594482
0.64762133359909058 0.64762133359909058 0.64762133359909058
0.65131694078445435 0.65131694078445435 0.65131694078445435
0.65735387802124023 0.65735387802124023 0.65735387802124023
0.67325288057327271 0.67325288057327271 0.67325288057327271
0.72588658332824707 0.72588658332824707 0.72588658332824707
0.80561721324920654 0.80561721324920654 0.80561721324920654
0.80914521217346191 0.80914521217346191 0.80914521217346191
0.81838566064834595 0.81838566064834595 0.81838566064834595
0.82982021570205688 0.82982021570205688 0.82982021570205688
0.84070652723312378 0.84070652723312378 0.84070652723312378
0.84599202871322632 0.84599202871322632 0.84599202871322632
0.85613739490509033 0.85613739490509033 0.85613739490509033
0.27010470628738403 0.27010470628738403 0.27010470628738403
0.27597314119338989 0.27597314119338989 0.27597314119338989
0.28828725218772888 0.28828725218772888 0.28828725218772888
0.34917262196540833 0.34917262196540833 0.34917262196540833
0.42032709717750549 0.42032709717750549 0.42032709717750549
0.46774345636367798 0.46774345636367798 0.46774345636367798
0.55348199605941772 0.55348199605941772 0.55348199605941772
0.29588678479194641 0.29588678479194641 0.29588678479194641
0.31515499949455261 0.31515499949455261 0.31515499949455261
0.32478511333465576 0.32478511333465576 0.32478511333465576
0.37768080830574036 0.37768080830574036 0.37768080830574036
0.43363147974014282 0.43363147974014282 0.43363147974014282
0.48508426547050476 0.48508426547050476 0.48508426547050476
0.57200229167938232 0.57200229167938232 0.57200229167938232
0.33765265345573425 0.33765265345573425 0.33765265345573425
0.35786396265029907 0.35786396265029907 0.35786396265029907
0.38398730754852295 0.38398730754852295 0.38398730754852295
0.41949713230133057 0.41949713230133057 0.41949713230133057
0.46489337086677551 0.46489337086677551 0.46489337086677551
0.52224361896514893 0.52224361896514893 0.52224361896514893
0.6099923849105835 0.6099923849105835 0.6099923849105835
0.42916294932365417 0.42916294932365417 0.42916294932365417
0.42905968427658081 0.42905968427658081 0.42905968427658081
0.45516005158424377 0.45516005158424377 0.45516005158424377
0.4700256884098053 0.4700256884098053 0.4700256884098053
0.50222355127334595 0.50222355127334595 0.50222355127334595
0.57611185312271118 0.57611185312271118 0.57611185312271118
0.67283707857131958 0.67283707857131958 0.67283707857131958
0.54842877388000488 0.54842877388000488 0.54842877388000488
0.55216807126998901 0.55216807126998901 0.55216807126998901
0.56603080034255981 0.56603080034255981 0.56603080034255981
0.55653709173202515 0.55653709173202515 0.55653709173202515
0.5588754415512085 0.5588754415512085 0.5588754415512085
0.61871403455734253 0.61871403455734253 0.61871403455734253
0.71762394905090332 0.71762394905090332 0.71762394905090332
0.68184453248977661 0.68184453248977661 0.68184453248977661
0.68754243850708008 0.68754243850708008 0.68754243850708008
0.69866043329238892 0.69866043329238892 0.69866043329238892
0.69511884450912476 0.69511884450912476 0.69511884450912476
0.68799787759780884 0.68799787759780884 0.68799787759780884
0.70076954364776611 0.70076954364776611 0.70076954364776611
0.7542845606803894 0.7542845606803894 0.7542845606803894
0.82416051626205444 0.82416051626205444 0.82416051626205444
0.82967287302017212 0.82967287302017212 0.82967287302017212
0.84372037649154663 0.84372037649154663 0.84372037649154663
0.85049921274185181 0.85049921274185181 0.85049921274185181
0.84823781251907349 0.84823781251907349 0.84823781251907349
0.84680056571960449 0.84680056571960449 0.84680056571960449
0.86307501792907715 0.86307501792907715 0.86307501792907715
0.38710874319076538 0.38710874319076538 0.38710874319076538
0.40067866444587708 0.40067866444587708 0.40067866444587708
0.39800742268562317 0.39800742268562317 0.39800742268562317
0.40981975197792053 0.40981975197792053 0.40981975197792053
0.46557086706161499 0.46557086706161499 0.46557086706161499
0.55516082048416138 0.55516082048416138 0.55516082048416138
0.64030343294143677 0.64030343294143677 0.64030343294143677
0.42900019884109497 0.42900019884109497 0.42900019884109497
0.44842615723609924 0.44842615723609924 0.44842615723609924
0.4441782534122467 0.4441782534122467 0.4441782534122467
0.44862279295921326 0.44862279295921326 0.44862279295921326
0.48755007982254028 0.48755007982254028 0.48755007982254028
0.56754803657531738 0.56754803657531738 0.56754803657531738
0.65241670608520508 0.65241670608520508 0.65241670608520508
0.4609699547290802 0.4609699547290802 0.4609699547290802
0.47486194968223572 0.47486194968223572 0.47486194968223572
0.49360314011573792 0.49360314011573792 0.49360314011573792
0.50703561305999756 0.50703561305999756 0.50703561305999756
0.53803378343582153 0.53803378343582153 0.53803378343582153
0.60235369205474854 0.60235369205474854 0.60235369205474854
0.66761606931686401 0.66761606931686401 0.66761606931686401
0.46560892462730408 0.46560892462730408 0.46560892462730408
0.48311829566955566 0.48311829566955566 0.48311829566955566
0.51814109086990356 0.51814109086990356 0.51814109086990356
0.54917383193969727 0.54917383193969727 0.54917383193969727
0.57947385311126709 0.57947385311126709 0.57947385311126709
0.64152032136917114 0.64152032136917114 0.64152032136917114
0.70874381065368652 0.70874381065368652 0.70874381065368652
0.55071181058883667 0.55071181058883667 0.55071181058883667
0.57002907991409302 0.57002907991409302 0.57002907991409302
0.59983259439468384 0.59983259439468384 0.59983259439468384
0.61828470230102539 0.61828470230102539 0.61828470230102539
0.63062876462936401 0.63062876462936401 0.63062876462936401
0.67855483293533325 0.67855483293533325 0.67855483293533325
0.75227361917495728 0.75227361917495728 0.75227361917495728
0.70492029190063477 0.70492029190063477 0.70492029190063477
0.70874971151351929 0.70874971151351929 0.70874971151351929
0.73339074850082397 0.73339074850082397 0.73339074850082397
0.7385069727897644 0.7385069727897644 0.7385069727897644
0.73153054714202881 0.73153054714202881 0.73153054714202881
0.74354875087738037 0.74354875087738037 0.74354875087738037
0.79293632507324219 0.79293632507324219 0.79293632507324219
0.8447381854057312 0.8447381854057312 0.8447381854057312
0.84676027297973633 0.84676027297973633 0.84676027297973633
0.86095935106277466 0.86095935106277466 0.86095935106277466
0.8706514835357666 0.8706514835357666 0.8706514835357666
0.86421388387680054 0.86421388387680054 0.86421388387680054
0.85755884647369385 0.85755884647369385 0.85755884647369385
0.87864798307418823 0.87864798307418823 0.87864798307418823
0.53446954488754272 0.53446954488754272 0.53446954488754272
0.55469906330108643 0.55469906330108643 0.55469906330108643
0.55593770742416382 0.55593770742416382 0.55593770742416382
0.55429250001907349 0.55429250001907349 0.55429250001907349
0.544272780418396 0.544272780418396 0.544272780418396
0.59020602703094482 0.59020602703094482 0.59020602703094482
0.71326905488967896 0.71326905488967896 0.71326905488967896
0.57441329956054688 0.57441329956054688 0.57441329956054688
0.59337455034255981 0.59337455034255981 0.59337455034255981
0.59376686811447144 0.59376686811447144 0.59376686811447144
0.58549565076828003 0.58549565076828003 0.58549565076828003
0.56852465867996216 0.56852465867996216 0.56852465867996216
0.61142182350158691 0.61142182350158691 0.61142182350158691
0.71587920188903809 0.71587920188903809 0.71587920188903809
0.60793983936309814 0.60793983936309814 0.60793983936309814
0.62141484022140503 0.62141484022140503 0.62141484022140503
0.63157945871353149 0.63157945871353149 0.63157945871353149
0.62944620847702026 0.62944620847702026 0.62944620847702026
0.62354004383087158 0.62354004383087158 0.62354004383087158
0.65861409902572632 0.65861409902572632 0.65861409902572632
0.75018328428268433 0.75018328428268433 0.75018328428268433
0.58955800533294678 0.58955800533294678 0.58955800533294678
0.61072325706481934 0.61072325706481934 0.61072325706481934
0.63308495283126831 0.63308495283126831 0.63308495283126831
0.64934796094894409 0.64934796094894409 0.64934796094894409
0.66693621873855591 0.66693621873855591 0.66693621873855591
0.71208763122558594 0.71208763122558594 0.71208763122558594
0.77773237228393555 0.77773237228393555 0.77773237228393555
0.61316484212875366 0.61316484212875366 0.61316484212875366
0.62300324440002441 0.62300324440002441 0.62300324440002441
0.64168655872344971 0.64168655872344971 0.64168655872344971
0.67699098587036133 0.67699098587036133 0.67699098587036133
0.7048565149307251 0.7048565149307251 0.7048565149307251
0.74668288230895996 0.74668288230895996 0.74668288230895996
0.80702900886535645 0.80702900886535645 0.80702900886535645
0.70399594306945801 0.70399594306945801 0.70399594306945801
0.7109839916229248 0.7109839916229248 0.7109839916229248
0.72920787334442139 0.72920787334442139 0.72920787334442139
0.75676214694976807 0.75676214694976807 0.75676214694976807
0.77413612604141235 0.77413612604141235 0.77413612604141235
0.79396504163742065 0.79396504163742065 0.79396504163742065
0.83631736040115356 0.83631736040115356 0.83631736040115356
0.84763592481613159 0.84763592481613159 0.84763592481613159
0.84589946269989014 0.84589946269989014 0.84589946269989014
0.85547631978988647 0.85547631978988647 0.85547631978988647
0.87990480661392212 0.87990480661392212 0.87990480661392212
0.88396787643432617 0.88396787643432617 0.88396787643432617
0.87971645593643188 0.87971645593643188 0.87971645593643188
0.90074068307876587 0.90074068307876587 0.90074068307876587
0.71877068281173706 0.71877068281173706 0.71877068281173706
0.71990752220153809 0.71990752220153809 0.71990752220153809
0.719482421875 0.719482421875 0.719482421875
0.72460472583770752 0.72460472583770752 0.72460472583770752
0.7172355055809021 0.7172355055809021 0.7172355055809021
0.71393781900405884 0.71393781900405884 0.71393781900405884
0.74400460720062256 0.74400460720062256 0.74400460720062256
0.73556482791900635 0.73556482791900635 0.73556482791900635
0.74153035879135132 0.74153035879135132 0.74153035879135132
0.74283903837203979 0.74283903837203979 0.74283903837203979
0.7447320818901062 0.7447320818901062 0.7447320818901062
0.73211324214935303 0.73211324214935303 0.73211324214935303
0.72162187099456787 0.72162187099456787 0.72162187099456787
0.75365912914276123 0.75365912914276123 0.75365912914276123
0.75755584239959717 0.75755584239959717 0.75755584239959717
0.76500320434570312 0.76500320434570312 0.76500320434570312
0.76732563972473145 0.76732563972473145 0.76732563972473145
0.76402491331100464 0.76402491331100464 0.76402491331100464
0.74771910905838013 0.74771910905838013 0.74771910905838013
0.73586243391036987 0.73586243391036987 0.73586243391036987
0.78142452239990234 0.78142452239990234 0.78142452239990234
0.75764161348342896 0.75764161348342896 0.75764161348342896
0.76681792736053467 0.76681792736053467 0.76681792736053467
0.77116477489471436 0.77116477489471436 0.77116477489471436
0.76751399040222168 0.76751399040222168 0.76751399040222168
0.76446491479873657 0.76446491479873657 0.76446491479873657
0.77294439077377319 0.77294439077377319 0.77294439077377319
0.81642049551010132 0.81642049551010132 0.81642049551010132
0.75305211544036865 0.75305211544036865 0.75305211544036865
0.75129908323287964 0.75129908323287964 0.75129908323287964
0.75402051210403442 0.75402051210403442 0.75402051210403442
0.76678270101547241 0.76678270101547241 0.76678270101547241
0.78714478015899658 0.78714478015899658 0.78714478015899658
0.81578785181045532 0.81578785181045532 0.81578785181045532
0.85751307010650635 0.85751307010650635 0.85751307010650635
0.7565455436706543 0.7565455436706543 0.7565455436706543
0.76780885457992554 0.76780885457992554 0.76780885457992554
0.77775388956069946 0.77775388956069946 0.77775388956069946
0.79285675287246704 0.79285675287246704 0.79285675287246704
0.82511371374130249 0.82511371374130249 0.82511371374130249
0.85486751794815063 0.85486751794815063 0.85486751794815063
0.88619482517242432 0.88619482517242432 0.88619482517242432
0.8529168963432312 0.8529168963432312 0.8529168963432312
0.84952634572982788 0.84952634572982788 0.84952634572982788
0.85716456174850464 0.85716456174850464 0.85716456174850464
0.87851107120513916 0.87851107120513916 0.87851107120513916
0.89737451076507568 0.89737451076507568 0.89737451076507568
0.90928941965103149 0.90928941965103149 0.90928941965103149
0.92966103553771973 0.92966103553771973 0.92966103553771973
0.86299878358840942 0.86299878358840942 0.86299878358840942
0.85984581708908081 0.85984581708908081 0.85984581708908081
0.85858893394470215 0.85858893394470215 0.85858893394470215
0.86466246843338013 0.86466246843338013 0.86466246843338013
0.86910021305084229 0.86910021305084229 0.86910021305084229
0.87219715118408203 0.87219715118408203 0.87219715118408203
0.86944448947906494 0.86944448947906494 0.86944448947906494
0.87219446897506714 0.87219446897506714 0.87219446897506714
0.8667636513710022 0.8667636513710022 0.8667636513710022
0.86830013990402222 0.86830013990402222 0.86830013990402222
0.87961721420288086 0.87961721420288086 0.87961721420288086
0.88377094268798828 0.88377094268798828 0.88377094268798828
0.87976938486099243 0.87976938486099243 0.87976938486099243
0.87294876575469971 0.87294876575469971 0.87294876575469971
0.88550686836242676 0.88550686836242676 0.88550686836242676
0.88501477241516113 0.88501477241516113 0.88501477241516113
0.88548272848129272 0.88548272848129272 0.88548272848129272
0.88989138603210449 0.88989138603210449 0.88989138603210449
0.88681989908218384 0.88681989908218384 0.88681989908218384
0.88081729412078857 0.88081729412078857 0.88081729412078857
0.87573522329330444 0.87573522329330444 0.87573522329330444
0.89441698789596558 0.89441698789596558 0.89441698789596558
0.89895963668823242 0.89895963668823242 0.89895963668823242
0.89603525400161743 0.89603525400161743 0.89603525400161743
0.89285039901733398 0.89285039901733398 0.89285039901733398
0.88842290639877319 0.88842290639877319 0.88842290639877319
0.88317179679870605 0.88317179679870605 0.88317179679870605
0.8817482590675354 0.8817482590675354 0.8817482590675354
0.88928508758544922 0.88928508758544922 0.88928508758544922
0.8942599892616272 0.8942599892616272 0.8942599892616272
0.89268535375595093 0.89268535375595093 0.89268535375595093
0.89315026998519897 0.89315026998519897 0.89315026998519897
0.89770859479904175 0.89770859479904175 0.89770859479904175
0.90778499841690063 0.90778499841690063 0.90778499841690063
0.91846102476119995 0.91846102476119995 0.91846102476119995
0.8762633204460144 0.8762633204460144 0.8762633204460144
0.88198506832122803 0.88198506832122803 0.88198506832122803
0.89571952819824219 0.89571952819824219 0.89571952819824219
0.90317320823669434 0.90317320823669434 0.90317320823669434
0.91238927841186523 0.91238927841186523 0.91238927841186523
0.93498164415359497 0.93498164415359497 0.93498164415359497
0.94752055406570435 0.94752055406570435 0.94752055406570435
0.90672200918197632 0.90672200918197632 0.90672200918197632
0.89971917867660522 0.89971917867660522 0.89971917867660522
0.91039478778839111 0.91039478778839111 0.91039478778839111
0.91967159509658813 0.91967159509658813 0.91967159509658813
0.93713444471359253 0.93713444471359253 0.93713444471359253
0.95714706182479858 0.95714706182479858 0.95714706182479858
0.97211509943008423 0.97211509943008423 0.97211509943008423
