luts/instant_pro/polaroid_690_+.cube
# Created by: G'MIC (https://gmic.eu)
TITLE "polaroid_690_+"
# LUT size
LUT_3D_SIZE 5
# Data domain
DOMAIN_MIN 0.0 0.0 0.0
DOMAIN_MAX 1.0 1.0 1.0
# LUT data points
0.082138761878013611 0.10257411003112793 0.066447839140892029
0.20585866272449493 0.099096484482288361 0.067389875650405884
0.45515745878219604 0.012761344201862812 0.066889204084873199
0.76063317060470581 0.00076582666952162981 0.051663972437381744
0.97941052913665771 0.00011435116175562143 0.016623986884951591
0.08549894392490387 0.22590731084346771 0.067674495279788971
0.24989314377307892 0.23870721459388733 0.051546551287174225
0.57704228162765503 0.25021186470985413 0.027385396882891655
0.84033781290054321 0.15096719563007355 0.011221403256058693
0.99476540088653564 0.090304598212242126 0.00035548489540815353
0.006932875607162714 0.48323437571525574 0.003458419581875205
0.25089374184608459 0.48054602742195129 0.0015397913521155715
0.57185721397399902 0.52656185626983643 0.0034330480266362429
0.86222308874130249 0.56820940971374512 0.0045726699754595757
0.99644416570663452 0.58267545700073242 0.010512198321521282
0.094750948250293732 0.72974520921707153 0.00013714958913624287
0.30175745487213135 0.71993750333786011 0.0017434513429179788
0.56662791967391968 0.72652536630630493 0.0015318627702072263
0.82171308994293213 0.75466465950012207 0.0022856469731777906
0.98787820339202881 0.77813947200775146 0.010705476626753807
0.52334046363830566 0.91194111108779907 0.2147674560546875
0.57417255640029907 0.90847098827362061 0.18155556917190552
0.69644850492477417 0.9076046347618103 0.13999393582344055
0.84090030193328857 0.92389202117919922 0.19454129040241241
0.9679490327835083 0.94700610637664795 0.27163273096084595
0.074310988187789917 0.10944580286741257 0.19696100056171417
0.21466498076915741 0.10991673171520233 0.21571671962738037
0.46139046549797058 0.033944014459848404 0.19957511126995087
0.73175328969955444 0.00031868429505266249 0.19568751752376556
0.97027420997619629 0 0.1405167281627655
0.08460688591003418 0.24227586388587952 0.23327906429767609
0.26793152093887329 0.2484634667634964 0.24790585041046143
0.55289113521575928 0.20009538531303406 0.2277214378118515
0.81363451480865479 0.060926638543605804 0.19161731004714966
0.99255150556564331 0.014309318736195564 0.15235461294651031
0.010342392139136791 0.52788680791854858 0.2470773309469223
0.26070323586463928 0.51573091745376587 0.22462336719036102
0.58452129364013672 0.54134637117385864 0.19564376771450043
0.86607199907302856 0.58047455549240112 0.25006392598152161
0.99814927577972412 0.56676822900772095 0.2615320086479187
0.1334269642829895 0.74658995866775513 0.21507494151592255
0.32317870855331421 0.73339724540710449 0.18778964877128601
0.57144153118133545 0.73689121007919312 0.15341953933238983
0.8220360279083252 0.76039403676986694 0.18543872237205505
0.98563957214355469 0.78159016370773315 0.3126930296421051
0.5118371844291687 0.91409140825271606 0.38224947452545166
0.56610500812530518 0.91033613681793213 0.36281061172485352
0.68474715948104858 0.90828973054885864 0.33297267556190491
0.83233273029327393 0.92294979095458984 0.36186057329177856
0.95958858728408813 0.94757950305938721 0.42056658864021301
0.0061695920303463936 0.12040846794843674 0.52458447217941284
0.19657114148139954 0.099109232425689697 0.55977988243103027
0.58618640899658203 0.0041020712815225124 0.60877281427383423
0.789154052734375 0.0035159091930836439 0.51416057348251343
0.97312420606613159 0.0011642157332971692 0.470773845911026
0.0040758769027888775 0.24320192635059357 0.53194940090179443
0.23632243275642395 0.25608527660369873 0.57650405168533325
0.60731226205825806 0.26274716854095459 0.62788480520248413
0.80435514450073242 0.17773513495922089 0.52259647846221924
0.97225052118301392 0.0053608166053891182 0.45558655261993408
0.023134090006351471 0.54081600904464722 0.58330708742141724
0.30755999684333801 0.54455751180648804 0.58971554040908813
0.61073923110961914 0.58228474855422974 0.62370759248733521
0.82988399267196655 0.51542860269546509 0.56602704524993896
0.98869705200195312 0.40526831150054932 0.46668094396591187
0.2937488853931427 0.77053749561309814 0.59502792358398438
0.40560293197631836 0.7645268440246582 0.58806103467941284
0.5915113091468811 0.75750672817230225 0.56184983253479004
0.80925822257995605 0.76759463548660278 0.58789283037185669
0.97000497579574585 0.7897489070892334 0.65433192253112793
0.51162517070770264 0.92166715860366821 0.64680570363998413
0.55695158243179321 0.91997009515762329 0.6342918872833252
0.66481935977935791 0.91654402017593384 0.6011471152305603
0.80901378393173218 0.92668253183364868 0.59633344411849976
0.93930280208587646 0.94852584600448608 0.64592921733856201
0.00061515357811003923 0.12553441524505615 0.84470731019973755
0.21532668173313141 0.10420919954776764 0.8534119725227356
0.60922980308532715 0.025757225230336189 0.88630419969558716
0.87709462642669678 0.089608900249004364 0.89592427015304565
0.98859530687332153 0.11453451961278915 0.82054048776626587
0.0040635950863361359 0.26621919870376587 0.834633469581604
0.25577831268310547 0.27157485485076904 0.84941107034683228
0.61977303028106689 0.30512148141860962 0.87631773948669434
0.86303180456161499 0.36991813778877258 0.88662445545196533
0.98036342859268188 0.33662748336791992 0.81828886270523071
0.0034176546614617109 0.49057251214981079 0.7980351448059082
0.24055087566375732 0.50501167774200439 0.81164401769638062
0.59224802255630493 0.57578492164611816 0.8438270092010498
0.83061742782592773 0.64436674118041992 0.88036429882049561
0.95370525121688843 0.55568653345108032 0.8055841326713562
0.36400073766708374 0.76912742853164673 0.8424297571182251
0.45959994196891785 0.76371771097183228 0.84408563375473022
0.64171665906906128 0.7684740424156189 0.85587728023529053
0.81362652778625488 0.79287552833557129 0.87386280298233032
0.94626051187515259 0.73645424842834473 0.82140064239501953
0.60199350118637085 0.93136048316955566 0.87546366453170776
0.6278957724571228 0.92980152368545532 0.86932146549224854
0.69552963972091675 0.93274056911468506 0.86171692609786987
0.78861117362976074 0.92900019884109497 0.83288723230361938
0.91865617036819458 0.95599597692489624 0.85857170820236206
0.39969721436500549 0.2398153692483902 0.99694114923477173
0.50645244121551514 0.24222217500209808 0.99513715505599976
0.70168119668960571 0.28156894445419312 0.99646788835525513
0.87316441535949707 0.40748152136802673 0.99742418527603149
0.98729056119918823 0.51645177602767944 0.99439764022827148
0.42867693305015564 0.38102668523788452 0.9935334324836731
0.51951473951339722 0.38896447420120239 0.99196028709411621
0.69786381721496582 0.43708735704421997 0.9904894232749939
0.86049717664718628 0.5383034348487854 0.99159532785415649
0.97733259201049805 0.60810190439224243 0.98990237712860107
0.38430735468864441 0.58887410163879395 0.98361313343048096
0.49515950679779053 0.59875154495239258 0.98317855596542358
0.67945480346679688 0.63359189033508301 0.98405569791793823
0.84452289342880249 0.69533193111419678 0.98634940385818481
0.9606635570526123 0.72570884227752686 0.9890977144241333
0.4113316535949707 0.76650041341781616 0.97222059965133667
0.47527047991752625 0.75839167833328247 0.97212010622024536
0.61457914113998413 0.75764966011047363 0.97240829467773438
0.82260048389434814 0.79985702037811279 0.97968339920043945
0.93837791681289673 0.83258461952209473 0.97336328029632568
0.66056108474731445 0.94145351648330688 0.97417324781417847
0.68500328063964844 0.94093328714370728 0.97361963987350464
0.7449001669883728 0.94306802749633789 0.97320109605789185
0.82874935865402222 0.94326919317245483 0.96676754951477051
0.92381983995437622 0.9708259105682373 0.9745107889175415
