luts/instant_pro/polaroid_690_cold_++.cube
# Created by: G'MIC (https://gmic.eu)
TITLE "polaroid_690_cold_++"
# LUT size
LUT_3D_SIZE 13
# Data domain
DOMAIN_MIN 0.0 0.0 0.0
DOMAIN_MAX 1.0 1.0 1.0
# LUT data points
0.21922044456005096 0.32156863808631897 0.36731842160224915
0.22171631455421448 0.31853774189949036 0.36519184708595276
0.23595063388347626 0.31695204973220825 0.36345171928405762
0.26988741755485535 0.31374707818031311 0.36598780751228333
0.31257066130638123 0.31149902939796448 0.36625096201896667
0.36177051067352295 0.3090815544128418 0.36317446827888489
0.42419236898422241 0.30399051308631897 0.36139065027236938
0.50823545455932617 0.29607495665550232 0.36226445436477661
0.59043461084365845 0.28620252013206482 0.36113280057907104
0.66584151983261108 0.27261695265769958 0.35903847217559814
0.74502283334732056 0.25690543651580811 0.35647261142730713
0.83356577157974243 0.24107304215431213 0.35483026504516602
0.92042422294616699 0.22693093121051788 0.35296839475631714
0.21840913593769073 0.32476767897605896 0.36618873476982117
0.22071065008640289 0.32147395610809326 0.36398357152938843
0.23400308191776276 0.31829419732093811 0.36220845580101013
0.27199199795722961 0.31846466660499573 0.36443549394607544
0.31553316116333008 0.31775245070457458 0.36491081118583679
0.36577978730201721 0.31473734974861145 0.36248159408569336
0.43493595719337463 0.31122487783432007 0.36140352487564087
0.52213621139526367 0.30518230795860291 0.36198574304580688
0.60539203882217407 0.29754668474197388 0.36026802659034729
0.68281519412994385 0.28781566023826599 0.35773780941963196
0.76223516464233398 0.27448323369026184 0.35529223084449768
0.84755837917327881 0.26310279965400696 0.35431122779846191
0.93175679445266724 0.25145456194877625 0.35221418738365173
0.21405136585235596 0.3362824022769928 0.36606311798095703
0.22164975106716156 0.33397749066352844 0.36392679810523987
0.24067817628383636 0.33318746089935303 0.36298003792762756
0.27568188309669495 0.33295786380767822 0.36336934566497803
0.32248666882514954 0.33285695314407349 0.3629118800163269
0.38812941312789917 0.33434495329856873 0.36320722103118896
0.46656158566474915 0.33282393217086792 0.3631020188331604
0.54658615589141846 0.32758113741874695 0.36189895868301392
0.62827354669570923 0.32204791903495789 0.35964420437812805
0.70854061841964722 0.31293335556983948 0.35617285966873169
0.78746694326400757 0.30457839369773865 0.35422644019126892
0.86944174766540527 0.29735362529754639 0.35324233770370483
0.94833999872207642 0.28986737132072449 0.35034748911857605
0.21093223989009857 0.3508879542350769 0.36557847261428833
0.23019137978553772 0.356180340051651 0.36578908562660217
0.2536710798740387 0.35857883095741272 0.36442133784294128
0.28311619162559509 0.3575114905834198 0.36358237266540527
0.33985194563865662 0.36019566655158997 0.36352849006652832
0.41909998655319214 0.36566269397735596 0.36385676264762878
0.50233888626098633 0.37072637677192688 0.36312618851661682
0.59045064449310303 0.37600874900817871 0.36091235280036926
0.67072969675064087 0.37331908941268921 0.35859990119934082
0.746601402759552 0.36768355965614319 0.35550758242607117
0.82395225763320923 0.3590691089630127 0.35267692804336548
0.89635521173477173 0.35506650805473328 0.3502996563911438
0.96150064468383789 0.35225680470466614 0.34668555855751038
0.21043784916400909 0.38792252540588379 0.36545050144195557
0.23301327228546143 0.39084562659263611 0.36555942893028259
0.2573140561580658 0.3942863941192627 0.36437952518463135
0.28826057910919189 0.39716300368309021 0.36381381750106812
0.34627845883369446 0.40337997674942017 0.36343127489089966
0.42741882801055908 0.41043666005134583 0.36305788159370422
0.51774108409881592 0.41871005296707153 0.36191293597221375
0.61614060401916504 0.43063944578170776 0.3587195873260498
0.70801717042922974 0.44412446022033691 0.35598623752593994
0.78587228059768677 0.44494545459747314 0.35305595397949219
0.85402202606201172 0.43682283163070679 0.35098451375961304
0.91511398553848267 0.43920031189918518 0.34890326857566833
0.97060257196426392 0.44079530239105225 0.3470783531665802
0.20756120979785919 0.43664395809173584 0.36426326632499695
0.23042640089988708 0.43675830960273743 0.36406001448631287
0.25654792785644531 0.43717172741889954 0.36338070034980774
0.29068282246589661 0.43986183404922485 0.36245223879814148
0.3479536771774292 0.44896194338798523 0.36136895418167114
0.42291039228439331 0.4584711492061615 0.36065271496772766
0.51166409254074097 0.47240632772445679 0.35686001181602478
0.6073915958404541 0.49032074213027954 0.35290095210075378
0.71108609437942505 0.51457518339157104 0.34936758875846863
0.8032306432723999 0.53325861692428589 0.3482002317905426
0.87263643741607666 0.53762847185134888 0.34839639067649841
0.93022292852401733 0.5387037992477417 0.34834718704223633
0.97614514827728271 0.53362655639648438 0.35007688403129578
0.19977886974811554 0.49118661880493164 0.361960768699646
0.22340640425682068 0.4904656708240509 0.36218535900115967
0.25078111886978149 0.48916164040565491 0.36110642552375793
0.29175427556037903 0.48898971080780029 0.35931673645973206
0.34980282187461853 0.49889716506004333 0.3577982485294342
0.41951912641525269 0.51323980093002319 0.35516494512557983
0.50423425436019897 0.53155350685119629 0.34982970356941223
0.59483832120895386 0.5523531436920166 0.3442455530166626
0.6977686882019043 0.58034849166870117 0.3383202850818634
0.79036557674407959 0.60233986377716064 0.33595764636993408
0.8727414608001709 0.61672145128250122 0.34050646424293518
0.93656212091445923 0.62310314178466797 0.34737512469291687
0.98253244161605835 0.62267398834228516 0.35217729210853577
0.18066468834877014 0.56248563528060913 0.35539138317108154
0.20825003087520599 0.56289756298065186 0.35535851120948792
0.2393936812877655 0.56179279088973999 0.3545539379119873
0.2899843156337738 0.5592772364616394 0.3524228036403656
0.34993740916252136 0.56600654125213623 0.35068413615226746
0.41829138994216919 0.58028674125671387 0.34729108214378357
0.49846115708351135 0.59777241945266724 0.3423459529876709
0.58656167984008789 0.61597532033920288 0.33630287647247314
0.67946070432662964 0.63741183280944824 0.3298870325088501
0.77457505464553833 0.65828913450241089 0.32757171988487244
0.86308014392852783 0.67564725875854492 0.32842665910720825
0.93132674694061279 0.68266373872756958 0.33718854188919067
0.98244452476501465 0.68739485740661621 0.35189872980117798
0.16051019728183746 0.63930606842041016 0.34735202789306641
0.19332766532897949 0.63955628871917725 0.34717059135437012
0.23164026439189911 0.63802444934844971 0.3460327684879303
0.28782427310943604 0.63669437170028687 0.3440805971622467
0.34773653745651245 0.63670283555984497 0.34193894267082214
0.41925591230392456 0.64751458168029785 0.33795672655105591
0.49747928977012634 0.66185802221298218 0.33358877897262573
0.58500915765762329 0.67662650346755981 0.32922795414924622
0.67455458641052246 0.69198781251907349 0.32459163665771484
0.76546669006347656 0.70615226030349731 0.32474431395530701
0.85106539726257324 0.71956092119216919 0.32594558596611023
0.9249577522277832 0.7302933931350708 0.33024406433105469
0.97776377201080322 0.7351067066192627 0.34760007262229919
0.18052759766578674 0.71362698078155518 0.34149870276451111
0.21042421460151672 0.7109035849571228 0.34144645929336548
0.24939094483852386 0.70925194025039673 0.33911442756652832
0.30739733576774597 0.70657747983932495 0.3367939293384552
0.36876699328422546 0.70584839582443237 0.33404815196990967
0.43880435824394226 0.71273905038833618 0.33036839962005615
0.51428687572479248 0.72428488731384277 0.32775130867958069
0.59786927700042725 0.73360252380371094 0.32488429546356201
0.68178725242614746 0.74512553215026855 0.32163918018341064
0.7620546817779541 0.75317078828811646 0.32201921939849854
0.84419339895248413 0.76272016763687134 0.32442137598991394
0.91853666305541992 0.77269679307937622 0.33062198758125305
0.97191095352172852 0.78002464771270752 0.34506964683532715
0.26031756401062012 0.775565505027771 0.34440746903419495
0.28130900859832764 0.77651417255401611 0.34142348170280457
0.31026175618171692 0.77474701404571533 0.33750718832015991
0.35750365257263184 0.76970624923706055 0.33547183871269226
0.41217076778411865 0.77025455236434937 0.3313697874546051
0.48010751605033875 0.77376937866210938 0.3303392231464386
0.55328428745269775 0.78057295083999634 0.33022585511207581
0.62901383638381958 0.78939259052276611 0.32772311568260193
0.70255398750305176 0.79768204689025879 0.32837399840354919
0.77054601907730103 0.80312931537628174 0.32868131995201111
0.84506404399871826 0.80900925397872925 0.32563877105712891
0.91537868976593018 0.81759828329086304 0.3307299017906189
0.96897387504577637 0.82641083002090454 0.34420660138130188
0.35635602474212646 0.83970499038696289 0.35147687792778015
0.371389240026474 0.83983898162841797 0.35188841819763184
0.3954927921295166 0.83771353960037231 0.34752535820007324
0.43261945247650146 0.83344978094100952 0.34401437640190125
0.47950190305709839 0.83250540494918823 0.33889269828796387
0.53806346654891968 0.83531934022903442 0.3392065167427063
0.59947526454925537 0.83928334712982178 0.33855292201042175
0.66280961036682129 0.84539854526519775 0.3349202573299408
0.72832697629928589 0.85249000787734985 0.34005612134933472
0.79210078716278076 0.85852104425430298 0.34354212880134583
0.85681056976318359 0.86272662878036499 0.34056046605110168
0.91347372531890869 0.86860126256942749 0.34224283695220947
0.96202605962753296 0.87566256523132324 0.35393193364143372
0.45257425308227539 0.90564912557601929 0.38833260536193848
0.46391943097114563 0.90443903207778931 0.38644117116928101
0.48465049266815186 0.90265017747879028 0.38446146249771118
0.51245641708374023 0.90094566345214844 0.38176643848419189
0.55093163251876831 0.90014892816543579 0.37692266702651978
0.59816700220108032 0.90142822265625 0.3762061595916748
0.64782369136810303 0.90238481760025024 0.37484270334243774
0.70126104354858398 0.90716952085494995 0.37417009472846985
0.7575223445892334 0.91073024272918701 0.37831020355224609
0.81362360715866089 0.91527247428894043 0.38393738865852356
0.86540347337722778 0.92078816890716553 0.38921433687210083
0.91286075115203857 0.92588549852371216 0.39102256298065186
0.95450866222381592 0.93133187294006348 0.40344661474227905
0.21398641169071198 0.31960266828536987 0.37817779183387756
0.22114410996437073 0.31772738695144653 0.37630000710487366
0.23546969890594482 0.31551992893218994 0.37284049391746521
0.26301044225692749 0.31285339593887329 0.37243038415908813
0.30575773119926453 0.30951753258705139 0.37220567464828491
0.3590444028377533 0.30501800775527954 0.37020993232727051
0.42200416326522827 0.29902228713035583 0.36861437559127808
0.50326961278915405 0.28950628638267517 0.36936014890670776
0.58305209875106812 0.27705773711204529 0.36991038918495178
0.65907555818557739 0.26241394877433777 0.36882016062736511
0.73817211389541626 0.24422988295555115 0.36649376153945923
0.82934588193893433 0.22212013602256775 0.36277911067008972
0.91509842872619629 0.20473767817020416 0.35944181680679321
0.21269293129444122 0.32652318477630615 0.37739130854606628
0.21850472688674927 0.32258892059326172 0.37722346186637878
0.23602619767189026 0.3198244571685791 0.3754238486289978
0.26629096269607544 0.3173268735408783 0.37265264987945557
0.30910250544548035 0.3150249719619751 0.37136629223823547
0.36496919393539429 0.31102797389030457 0.37020599842071533
0.43567457795143127 0.30764341354370117 0.36973020434379578
0.51765447854995728 0.29996606707572937 0.3710777759552002
0.59831333160400391 0.28936457633972168 0.37073436379432678
0.67566633224487305 0.2772500216960907 0.36768826842308044
0.75546044111251831 0.26118510961532593 0.36506760120391846
0.84265416860580444 0.24593394994735718 0.36307415366172791
0.92616897821426392 0.22997342050075531 0.36012753844261169
0.20845694839954376 0.33868488669395447 0.375833660364151
0.21883469820022583 0.33657023310661316 0.37663239240646362
0.24113461375236511 0.33550992608070374 0.37682065367698669
0.27405059337615967 0.33349287509918213 0.3745996356010437
0.32406219840049744 0.33056411147117615 0.37293276190757751
0.38927415013313293 0.32864570617675781 0.37274238467216492
0.46790274977684021 0.32918283343315125 0.37306764721870422
0.54601520299911499 0.32466280460357666 0.37427821755409241
0.62513017654418945 0.31463634967803955 0.37155541777610779
0.70290845632553101 0.3030666708946228 0.36749309301376343
0.78271150588989258 0.29077383875846863 0.36453536152839661
0.86562645435333252 0.28123229742050171 0.36232098937034607
0.94235891103744507 0.27323481440544128 0.35990267992019653
0.20631496608257294 0.35423111915588379 0.374410480260849
0.22624173760414124 0.35822325944900513 0.37597167491912842
0.25109127163887024 0.36026713252067566 0.37680885195732117
0.28389903903007507 0.35978168249130249 0.37671729922294617
0.34315454959869385 0.35979995131492615 0.37670454382896423
0.41806340217590332 0.36317700147628784 0.37621632218360901
0.50303947925567627 0.36836335062980652 0.37583667039871216
0.5850600004196167 0.36942526698112488 0.37489780783653259
0.66326820850372314 0.36057731509208679 0.37103271484375
0.74008774757385254 0.3521479070186615 0.36705580353736877
0.81788456439971924 0.3433367908000946 0.36388051509857178
0.89219182729721069 0.33980053663253784 0.36061486601829529
0.95610851049423218 0.33952194452285767 0.35694399476051331
0.20509316027164459 0.39302882552146912 0.37531068921089172
0.22798624634742737 0.3963417112827301 0.37639087438583374
0.25347298383712769 0.39827197790145874 0.37688535451889038
0.28832793235778809 0.39989092946052551 0.37692925333976746
0.35349833965301514 0.40475696325302124 0.37857198715209961
0.43374159932136536 0.4094332754611969 0.37995666265487671
0.52208054065704346 0.41812038421630859 0.37914517521858215
0.61404693126678467 0.42952096462249756 0.37589487433433533
0.7012668251991272 0.43593287467956543 0.37165558338165283
0.78061705827713013 0.43371236324310303 0.3680117130279541
0.84875881671905518 0.42791944742202759 0.3656916618347168
0.91109490394592285 0.42765763401985168 0.36056038737297058
0.97032040357589722 0.42622357606887817 0.35414165258407593
0.20027156174182892 0.44261685013771057 0.3755432665348053
0.22419774532318115 0.44421902298927307 0.37685823440551758
0.25296607613563538 0.44424846768379211 0.3770197331905365
0.29209336638450623 0.44491499662399292 0.37622323632240295
0.35233813524246216 0.45201140642166138 0.3761436939239502
0.43096014857292175 0.46015959978103638 0.3767244815826416
0.51891541481018066 0.47578838467597961 0.37352091073989868
0.61327409744262695 0.49272570013999939 0.36991885304450989
0.71232438087463379 0.51190292835235596 0.36677491664886475
0.79971158504486084 0.5273786187171936 0.36571276187896729
0.86848551034927368 0.53193110227584839 0.36446663737297058
0.92935770750045776 0.5322834849357605 0.36202284693717957
0.97954553365707397 0.52586841583251953 0.3585706353187561
0.18502147495746613 0.5034671425819397 0.37327694892883301
0.20867325365543365 0.50296580791473389 0.37580776214599609
0.24139639735221863 0.50112032890319824 0.37856021523475647
0.29253250360488892 0.49818176031112671 0.3750813901424408
0.35243064165115356 0.50361663103103638 0.37257567048072815
0.42639049887657166 0.51821887493133545 0.37004059553146362
0.51259315013885498 0.53874379396438599 0.3647288978099823
0.60412865877151489 0.55810439586639404 0.36021462082862854
0.70186513662338257 0.58059835433959961 0.35558915138244629
0.79117375612258911 0.60063058137893677 0.35342225432395935
0.87331646680831909 0.61603933572769165 0.35838273167610168
0.94041520357131958 0.62278288602828979 0.36275634169578552
0.98455381393432617 0.61977517604827881 0.36544361710548401
0.16408322751522064 0.57340264320373535 0.36645767092704773
0.19223357737064362 0.57456463575363159 0.36865803599357605
0.23166772723197937 0.57255709171295166 0.36949577927589417
0.28839319944381714 0.56866109371185303 0.36625760793685913
0.35192501544952393 0.57294470071792603 0.36408782005310059
0.42404341697692871 0.58462262153625488 0.36066392064094543
0.50729858875274658 0.60474133491516113 0.35584357380867004
0.5954011082649231 0.62209677696228027 0.35147753357887268
0.68898820877075195 0.64100188016891479 0.34702399373054504
0.78114533424377441 0.65897810459136963 0.3453633189201355
0.86406785249710083 0.67304563522338867 0.35051533579826355
0.93656951189041138 0.68303078413009644 0.35580700635910034
0.98325711488723755 0.68736469745635986 0.3703467845916748
0.14741228520870209 0.64815551042556763 0.35810965299606323
0.18466478586196899 0.64909505844116211 0.3597337007522583
0.22994358837604523 0.64698076248168945 0.35895732045173645
0.284586101770401 0.64334237575531006 0.35552376508712769
0.35169866681098938 0.64599329233169556 0.35352650284767151
0.42270365357398987 0.65274304151535034 0.34888023138046265
0.50085824728012085 0.66663509607315063 0.34440886974334717
0.5893634557723999 0.68092894554138184 0.34351196885108948
0.68228977918624878 0.69510024785995483 0.34374970197677612
0.77336335182189941 0.70860379934310913 0.34506207704544067
0.85602742433547974 0.72058379650115967 0.34743058681488037
0.92791938781738281 0.72998058795928955 0.35251662135124207
0.97813695669174194 0.7356269359588623 0.3649432361125946
0.17038720846176147 0.71784490346908569 0.35539653897285461
0.19994482398033142 0.71737605333328247 0.35684660077095032
0.246550053358078 0.71497994661331177 0.35536044836044312
0.30584943294525146 0.71188300848007202 0.34935608506202698
0.37185707688331604 0.71307361125946045 0.34607803821563721
0.44028931856155396 0.71763557195663452 0.3412318229675293
0.51405942440032959 0.72545671463012695 0.3382965624332428
0.599884033203125 0.73613089323043823 0.34003081917762756
0.68435108661651611 0.74673449993133545 0.34122183918952942
0.76771962642669678 0.75578922033309937 0.3417493999004364
0.84999573230743408 0.76508533954620361 0.34155076742172241
0.91935950517654419 0.77324265241622925 0.34864461421966553
0.97263342142105103 0.78007519245147705 0.36040535569190979
0.25423476099967957 0.77884650230407715 0.36020129919052124
0.27216050028800964 0.7791934609413147 0.36000648140907288
0.30649718642234802 0.77735370397567749 0.35602489113807678
0.35552141070365906 0.77472591400146484 0.34871181845664978
0.41261196136474609 0.77456533908843994 0.34436064958572388
0.48081406950950623 0.77726167440414429 0.34097331762313843
0.55059599876403809 0.78285294771194458 0.3386959433555603
0.62931382656097412 0.79135870933532715 0.34174752235412598
0.70350915193557739 0.7985222339630127 0.34604516625404358
0.77494090795516968 0.80508947372436523 0.34331628680229187
0.84982943534851074 0.8116459846496582 0.33818179368972778
0.91435730457305908 0.81927341222763062 0.34807175397872925
0.96547043323516846 0.82728290557861328 0.36472246050834656
0.35062679648399353 0.84097516536712646 0.36658212542533875
0.36376556754112244 0.83984184265136719 0.36625149846076965
0.39108490943908691 0.83811056613922119 0.36281248927116394
0.43085840344429016 0.8372185230255127 0.35760146379470825
0.47665098309516907 0.83548355102539062 0.35389894247055054
0.53434675931930542 0.838134765625 0.34883818030357361
0.59529620409011841 0.84100157022476196 0.34735319018363953
0.66237473487854004 0.84650999307632446 0.34915810823440552
0.72755730152130127 0.85248434543609619 0.35619431734085083
0.79308843612670898 0.85903698205947876 0.3577130138874054
0.85724008083343506 0.86456477642059326 0.35630780458450317
0.91224116086959839 0.87017744779586792 0.3599262535572052
0.96190762519836426 0.87767374515533447 0.37354388833045959
0.44700029492378235 0.90422236919403076 0.40200755000114441
0.45915910601615906 0.90490156412124634 0.40241986513137817
0.4809226393699646 0.9042544960975647 0.40008401870727539
0.51130133867263794 0.90294516086578369 0.39620038866996765
0.54840141534805298 0.90055620670318604 0.39080193638801575
0.59451824426651001 0.90227323770523071 0.38673561811447144
0.64385294914245605 0.90231746435165405 0.38307046890258789
0.69838470220565796 0.90539288520812988 0.38425114750862122
0.75364762544631958 0.90845555067062378 0.39073964953422546
0.81126123666763306 0.91453385353088379 0.39732640981674194
0.86389166116714478 0.92046558856964111 0.40432983636856079
0.91175031661987305 0.92662382125854492 0.40847080945968628
0.95551866292953491 0.93234467506408691 0.42006769776344299
0.20719245076179504 0.31746971607208252 0.39031329751014709
0.21914079785346985 0.31622990965843201 0.38948777318000793
0.23503051698207855 0.31458374857902527 0.38612169027328491
0.2579781711101532 0.3115692138671875 0.38302475214004517
0.29897961020469666 0.30840623378753662 0.38200286030769348
0.35457700490951538 0.30368140339851379 0.38200658559799194
0.42149043083190918 0.29615554213523865 0.38476118445396423
0.49845823645591736 0.28423398733139038 0.38526785373687744
0.57594984769821167 0.26947525143623352 0.38437339663505554
0.6525081992149353 0.25183954834938049 0.38088318705558777
0.73089927434921265 0.2319236546754837 0.37767788767814636
0.82192867994308472 0.20304346084594727 0.37340259552001953
0.91241955757141113 0.17432621121406555 0.36787474155426025
0.2066798210144043 0.32616883516311646 0.39169794321060181
0.21552550792694092 0.32207074761390686 0.39357522130012512
0.23540084064006805 0.32025837898254395 0.39158385992050171
0.2649504542350769 0.31758829951286316 0.38759657740592957
0.30747589468955994 0.31349915266036987 0.38461136817932129
0.36429640650749207 0.30919831991195679 0.38365450501441956
0.43435072898864746 0.30481094121932983 0.38544091582298279
0.51077747344970703 0.29595655202865601 0.38625344634056091
0.58786094188690186 0.2818247377872467 0.38569200038909912
0.66684389114379883 0.26448369026184082 0.38095042109489441
0.74752616882324219 0.24617329239845276 0.37604966759681702
0.83553045988082886 0.22028782963752747 0.37297815084457397
0.92165052890777588 0.1967737078666687 0.36953237652778625
0.20371295511722565 0.33862656354904175 0.39086860418319702
0.2157537043094635 0.33582067489624023 0.39359164237976074
0.24026581645011902 0.33602425456047058 0.39283910393714905
0.27332028746604919 0.33505001664161682 0.38965919613838196
0.32554072141647339 0.32904002070426941 0.387685626745224
0.38715097308158875 0.32371830940246582 0.38502389192581177
0.4639931321144104 0.32314279675483704 0.3874773383140564
0.54009944200515747 0.31949576735496521 0.38859570026397705
0.61670428514480591 0.30703157186508179 0.38651195168495178
0.69470775127410889 0.29225504398345947 0.38179010152816772
0.77569103240966797 0.27493885159492493 0.37774547934532166
0.8577161431312561 0.2597278356552124 0.37471657991409302
0.93731039762496948 0.24834513664245605 0.37019157409667969
0.20032802224159241 0.35640865564346313 0.38983449339866638
0.22150322794914246 0.35930874943733215 0.39227399230003357
0.24740086495876312 0.36045989394187927 0.39188447594642639
0.28320467472076416 0.36058038473129272 0.39096119999885559
0.34671854972839355 0.36009451746940613 0.39218831062316895
0.42001187801361084 0.36177465319633484 0.39319184422492981
0.50075095891952515 0.36320269107818604 0.39386415481567383
0.57516390085220337 0.35645681619644165 0.39165601134300232
0.65202254056930542 0.34587070345878601 0.38695046305656433
0.73071831464767456 0.33463618159294128 0.38101187348365784
0.80746746063232422 0.32562059164047241 0.37882921099662781
0.8841971755027771 0.31945982575416565 0.37570121884346008
0.95603662729263306 0.31539264321327209 0.36997449398040771
0.19754020869731903 0.39827063679695129 0.39300313591957092
0.22088734805583954 0.40237751603126526 0.39529141783714294
0.24802568554878235 0.40461963415145874 0.39500197768211365
0.28864023089408875 0.40504974126815796 0.39280897378921509
0.35908493399620056 0.4067540168762207 0.39562159776687622
0.44129949808120728 0.41030126810073853 0.39902108907699585
0.52756023406982422 0.41901671886444092 0.3987976610660553
0.61466485261917114 0.42545077204704285 0.39618745446205139
0.69399642944335938 0.42591369152069092 0.39068824052810669
