luts/instant_pro/polaroid_690.cube
# Created by: G'MIC (https://gmic.eu)
TITLE "polaroid_690"
# LUT size
LUT_3D_SIZE 7
# Data domain
DOMAIN_MIN 0.0 0.0 0.0
DOMAIN_MAX 1.0 1.0 1.0
# LUT data points
0.052494511008262634 0.062631092965602875 0.058821540325880051
0.11343120783567429 0.058787744492292404 0.058555543422698975
0.2537742555141449 0.020606201142072678 0.056118626147508621
0.46429482102394104 0.0047639287076890469 0.057457644492387772
0.67423856258392334 0.0016287111211568117 0.037478875368833542
0.85439282655715942 0.00074576580664142966 0.017875341698527336
0.98878419399261475 0 0.0030940636061131954
0.04326031357049942 0.12380994856357574 0.058379154652357101
0.1296703964471817 0.13033503293991089 0.053344488143920898
0.30844995379447937 0.11378908157348633 0.047535780817270279
0.53388655185699463 0.048593677580356598 0.034619919955730438
0.74310499429702759 0.01095631904900074 0.011579790152609348
0.90160799026489258 0.0093885986134409904 0.0050036413595080376
0.99414980411529541 0.0020370783749967813 0.00048582788440398872
0.006642061285674572 0.2868703305721283 0.028788413852453232
0.11327040195465088 0.28672263026237488 0.020426074042916298
0.34140744805335999 0.31090801954269409 0.0087951663881540298
0.60203170776367188 0.33127790689468384 0.0057479259558022022
0.81343257427215576 0.32889208197593689 0.00070387899177148938
0.94445961713790894 0.28383377194404602 0.00012835334928240627
0.99952578544616699 0.2615160346031189 0.00043068680679425597
0.0015918656717985868 0.47235521674156189 0.0036937340628355742
0.046319760382175446 0.47515624761581421 0.0012478099670261145
0.32606121897697449 0.49241268634796143 0.0066496455110609531
0.57982265949249268 0.52278667688369751 0.0043614106252789497
0.78449255228042603 0.55220842361450195 0.0057138330303132534
0.94055634737014771 0.58485656976699829 0.0026379006449133158
0.99822032451629639 0.58176743984222412 0.0075521133840084076
0.0047043892554938793 0.64630746841430664 0.00021326402202248573
0.031761243939399719 0.65187406539916992 0
0.31667879223823547 0.65311801433563232 0.0019841513130813837
0.53870773315429688 0.67294156551361084 0.0025835821870714426
0.74235796928405762 0.69765526056289673 0.0047567477449774742
0.90060842037200928 0.71485543251037598 0.0052549922838807106
0.99728119373321533 0.72995120286941528 0.0020478041842579842
0.20628543198108673 0.79750019311904907 3.8894952012924477e-05
0.28142246603965759 0.79134839773178101 0.0011388740967959166
0.42077314853668213 0.78489834070205688 0.0014453663025051355
0.58734935522079468 0.79388105869293213 0.0034593020100146532
0.75392287969589233 0.81102520227432251 0.0067358729429543018
0.88936299085617065 0.82572370767593384 0.0088515188544988632
0.98370170593261719 0.83717554807662964 0.0042990292422473431
0.49300578236579895 0.92191684246063232 0.12694498896598816
0.52215170860290527 0.92045676708221436 0.10646736621856689
0.59261626005172729 0.91863566637039185 0.082038551568984985
0.68725699186325073 0.91981816291809082 0.058017522096633911
0.78931975364685059 0.92986786365509033 0.062562249600887299
0.8857417106628418 0.94095295667648315 0.070546664297580719
0.97041356563568115 0.95431041717529297 0.080003596842288971
0.044674292206764221 0.065579086542129517 0.12317898124456406
0.11335045099258423 0.063531927764415741 0.13612288236618042
0.2603658139705658 0.024227097630500793 0.13064906001091003
0.45948353409767151 0.00095645681722089648 0.13420386612415314
0.66145217418670654 0.00025634764460846782 0.11545734852552414
0.83752000331878662 0 0.090097822248935699
0.98290199041366577 0.00031038172892294824 0.068494521081447601
0.035767722874879837 0.13553903996944427 0.1397615522146225
0.13519275188446045 0.13755121827125549 0.1448935866355896
0.30897349119186401 0.11400038748979568 0.14090123772621155
0.52293866872787476 0.034016299992799759 0.13233602046966553
0.72216248512268066 0.0065426696091890335 0.1142590120434761
0.88996005058288574 0.0035095962230116129 0.08494904637336731
0.99026572704315186 0.004289709497243166 0.056926801800727844
0.003941644448786974 0.30848735570907593 0.1519552618265152
0.1258944571018219 0.30887320637702942 0.15157276391983032
0.36344245076179504 0.31691855192184448 0.14248289167881012
0.60952115058898926 0.33010596036911011 0.12618604302406311
0.80366873741149902 0.30082923173904419 0.1241968497633934
0.93756842613220215 0.2418363094329834 0.091080687940120697
0.99997413158416748 0.21128176152706146 0.048293288797140121
0.00098140945192426443 0.51093393564224243 0.10757890343666077
0.059255190193653107 0.49833947420120239 0.095870628952980042
0.33260732889175415 0.50207978487014771 0.071433573961257935
0.57887154817581177 0.53880590200424194 0.036017145961523056
0.79532873630523682 0.56892776489257812 0.042118534445762634
0.94265842437744141 0.58880805969238281 0.10142156481742859
0.99948126077651978 0.57236206531524658 0.11988075077533722
0.0011753456201404333 0.67619818449020386 0.048124067485332489
0.050533294677734375 0.66831320524215698 0.035565920174121857
0.32625418901443481 0.66248422861099243 0.019683673977851868
0.54738456010818481 0.68179863691329956 0.014728516340255737
0.75337678194046021 0.70524686574935913 0.011838845908641815
0.90959399938583374 0.72083336114883423 0.026139024645090103
0.99792778491973877 0.73212438821792603 0.14760617911815643
0.2151397317647934 0.80152708292007446 0.056016001850366592
0.29510074853897095 0.7966429591178894 0.038569089025259018
0.4292905330657959 0.78929328918457031 0.018160233274102211
0.58852458000183105 0.79183453321456909 0.0095036225393414497
0.75238305330276489 0.80580419301986694 0.012303236871957779
0.89023321866989136 0.82187920808792114 0.017205839976668358
0.98759573698043823 0.83606421947479248 0.078226231038570404
0.47964689135551453 0.92364859580993652 0.25794398784637451
0.51567625999450684 0.92141991853713989 0.24046312272548676
0.5859411358833313 0.92056101560592651 0.21156516671180725
0.68020361661911011 0.91957008838653564 0.17076903581619263
0.78529375791549683 0.92708408832550049 0.1775716096162796
0.88210558891296387 0.94072240591049194 0.19888654351234436
0.96962243318557739 0.95420616865158081 0.23514443635940552
0.0025090235285460949 0.067040279507637024 0.30276620388031006
0.073720194399356842 0.056848965585231781 0.32194596529006958
0.30175283551216125 0.01267719641327858 0.35134705901145935
0.49104037880897522 0.0016866347286850214 0.31713825464248657
0.67515110969543457 0.00089271395700052381 0.29295158386230469
0.83115917444229126 0.0037303999997675419 0.2694149911403656
0.97268271446228027 0.00058626662939786911 0.22394478321075439
0.0044653350487351418 0.140029177069664 0.3160737156867981
0.10033921152353287 0.14287187159061432 0.34220433235168457
0.34061932563781738 0.13177278637886047 0.37242919206619263
0.52549874782562256 0.063338860869407654 0.33582377433776855
0.7025684118270874 0.0058222301304340363 0.30035880208015442
0.86218005418777466 0.0038561653345823288 0.2605668306350708
0.97716033458709717 0.0010290706995874643 0.21094514429569244
0.0038030885625630617 0.31916734576225281 0.35811012983322144
0.13770923018455505 0.32789072394371033 0.36982429027557373
0.38348636031150818 0.3395538330078125 0.39242208003997803
0.59220874309539795 0.30482038855552673 0.3625282347202301
0.76329666376113892 0.220338374376297 0.32433602213859558
0.91248834133148193 0.11771368980407715 0.27915367484092712
0.99810373783111572 0.067478537559509277 0.2383551299571991
0.003510643495246768 0.5418286919593811 0.3756047785282135
0.09392566978931427 0.54370617866516113 0.37283587455749512
0.36797726154327393 0.53767424821853638 0.35696327686309814
0.597220778465271 0.54323482513427734 0.34910774230957031
0.79513251781463623 0.56817090511322021 0.37315261363983154
0.93092858791351318 0.56733983755111694 0.38015767931938171
0.99766510725021362 0.53049618005752563 0.33816391229629517
0.0066565270535647869 0.70189982652664185 0.35560637712478638
0.11410269886255264 0.6998898983001709 0.34323161840438843
0.35398289561271667 0.68646895885467529 0.3199324905872345
0.55641788244247437 0.68929338455200195 0.29932373762130737
0.75817286968231201 0.70441311597824097 0.31132495403289795
0.90331494808197021 0.72153246402740479 0.34254279732704163
0.98877060413360596 0.73385804891586304 0.42487108707427979
0.22371307015419006 0.81154507398605347 0.35192224383354187
0.30025342106819153 0.80909281969070435 0.34015366435050964
0.44045272469520569 0.8011741042137146 0.30893799662590027
0.58481526374816895 0.79449772834777832 0.27200484275817871
0.74789202213287354 0.81013339757919312 0.29137998819351196
0.88270813226699829 0.82415139675140381 0.31556439399719238
0.97725212574005127 0.83800554275512695 0.37484908103942871
0.46957236528396606 0.92638599872589111 0.43496134877204895
0.50006556510925293 0.92394495010375977 0.42015242576599121
0.57396501302719116 0.92256087064743042 0.39766854047775269
0.66810137033462524 0.92022138833999634 0.37133157253265381
0.77386647462844849 0.92835074663162231 0.3720548152923584
0.87142312526702881 0.93934231996536255 0.3962116539478302
0.95768553018569946 0.95448380708694458 0.41712361574172974
0.0033739276695996523 0.064374066889286041 0.53817522525787354
0.010581775568425655 0.042006310075521469 0.5616334080696106
0.31618610024452209 0.0070274951867759228 0.60429483652114868
0.59337335824966431 0.0016553093446418643 0.62118792533874512
0.74524432420730591 0.0030335669871419668 0.55827349424362183
0.87180238962173462 0.007043247576802969 0.51019918918609619
0.9761500358581543 0.0045748990960419178 0.46518036723136902
0.0018753051990643144 0.15720029175281525 0.56032353639602661
0.023804608732461929 0.14854101836681366 0.57404464483261108
0.33881190419197083 0.12865220010280609 0.61748391389846802
0.61323970556259155 0.078951127827167511 0.63734602928161621
0.7512437105178833 0.030404692515730858 0.56733769178390503
0.87389242649078369 0.0098207360133528709 0.51049125194549561
0.98423618078231812 0.0025682337582111359 0.46991005539894104
0.0028891619294881821 0.30831623077392578 0.54703283309936523
0.058001276105642319 0.31490606069564819 0.56492906808853149
0.36392247676849365 0.34293735027313232 0.60081273317337036
0.61970776319503784 0.35877043008804321 0.63225674629211426
0.76007270812988281 0.29976528882980347 0.56840169429779053
0.8850286602973938 0.16778743267059326 0.51096081733703613
0.98708170652389526 0.007084566168487072 0.44713860750198364
0.0069960053078830242 0.55161213874816895 0.59289324283599854
0.14437055587768555 0.54892301559448242 0.59516412019729614
0.40009221434593201 0.55867093801498413 0.6057971715927124
0.61301028728485107 0.58203125 0.62677925825119019
0.77236676216125488 0.54769575595855713 0.59626775979995728
0.90126287937164307 0.46619465947151184 0.53583276271820068
0.9976198673248291 0.38785520195960999 0.46743172407150269
0.15179818868637085 0.72776859998703003 0.60757982730865479
0.26547247171401978 0.71871304512023926 0.59839224815368652
0.43608394265174866 0.71132606267929077 0.58985167741775513
0.59448027610778809 0.71050083637237549 0.57857704162597656
0.75886136293411255 0.71691536903381348 0.58500498533248901
0.89227640628814697 0.72981399297714233 0.61491107940673828
0.9813963770866394 0.72691160440444946 0.63269531726837158
0.30740031599998474 0.82537543773651123 0.58616966009140015
0.3592524528503418 0.82004457712173462 0.58239328861236572
0.47653895616531372 0.81272321939468384 0.56535458564758301
0.59878575801849365 0.80668359994888306 0.53927487134933472
0.73341518640518188 0.81130337715148926 0.52809441089630127
0.87025779485702515 0.83074134588241577 0.57059609889984131
0.96679282188415527 0.84536987543106079 0.60778474807739258
0.47363832592964172 0.93047100305557251 0.61530476808547974
0.50448638200759888 0.92275965213775635 0.61307048797607422
0.56981992721557617 0.92640382051467896 0.59987062215805054
0.65288066864013672 0.92599314451217651 0.5727965235710144
0.75197362899780273 0.92609935998916626 0.54711699485778809
0.85449063777923584 0.94072586297988892 0.57875478267669678
0.94713854789733887 0.9561011791229248 0.59989863634109497
0.00025060315965674818 0.054181762039661407 0.75266450643539429
0.0078066508285701275 0.027661357074975967 0.76677787303924561
0.33523207902908325 0.0055899526923894882 0.79012101888656616
0.62846887111663818 0.0027741077356040478 0.82136303186416626
0.82103204727172852 0.0039567388594150543 0.82378029823303223
0.92122656106948853 0.0071567161940038204 0.76219463348388672
0.98452854156494141 0.010804389603435993 0.70471864938735962
0.0011475805658847094 0.16649393737316132 0.75889378786087036
0.028391115367412567 0.1556687206029892 0.77055352926254272
0.35083702206611633 0.13615547120571136 0.78605091571807861
0.63048857450485229 0.12766052782535553 0.81999844312667847
0.82106655836105347 0.14175722002983093 0.82219314575195312
0.91626518964767456 0.098105184733867645 0.76344692707061768
0.99042302370071411 0.07197754830121994 0.70766443014144897
0.0030792984180152416 0.31598749756813049 0.73706865310668945
0.056168977171182632 0.32201090455055237 0.7563055157661438
0.37402185797691345 0.34453818202018738 0.76696473360061646
0.63150107860565186 0.39009267091751099 0.80034428834915161
0.80422991514205933 0.42421910166740417 0.81323021650314331
0.90226632356643677 0.36815237998962402 0.75639623403549194
0.98390805721282959 0.29206624627113342 0.70520943403244019
0.0044432994909584522 0.50768864154815674 0.73111027479171753
0.057407453656196594 0.50724869966506958 0.73390316963195801
0.35362350940704346 0.52424675226211548 0.74310076236724854
0.59030520915985107 0.57374513149261475 0.77405852079391479
0.77830719947814941 0.61790549755096436 0.80141925811767578
0.87437725067138672 0.55802053213119507 0.74852883815765381
0.97832131385803223 0.43147063255310059 0.67113578319549561
0.18684776127338409 0.71630716323852539 0.76333397626876831
0.30291038751602173 0.71128153800964355 0.76031243801116943
0.46231463551521301 0.71086186170578003 0.76519256830215454
0.62071472406387329 0.72311866283416748 0.77886724472045898
0.77453082799911499 0.74349051713943481 0.79791682958602905
0.87220066785812378 0.71158683300018311 0.77029514312744141
0.97184282541275024 0.6372867226600647 0.70323890447616577
0.46802172064781189 0.83543604612350464 0.78105276823043823
0.49856418371200562 0.83075320720672607 0.77963888645172119
0.56713515520095825 0.83042675256729126 0.77243363857269287
0.6553148627281189 0.82930523157119751 0.76092654466629028
0.74862086772918701 0.82652896642684937 0.75096678733825684
0.85717898607254028 0.83854109048843384 0.76268124580383301
0.95066303014755249 0.85492467880249023 0.78954541683197021
0.54419970512390137 0.93670099973678589 0.78375369310379028
0.56148123741149902 0.93757748603820801 0.78745090961456299
0.60956448316574097 0.93448442220687866 0.77615809440612793
0.67108148336410522 0.93699038028717041 0.76481121778488159
0.74412250518798828 0.93182402849197388 0.74110835790634155
0.83683222532272339 0.9436689019203186 0.74607503414154053
0.93143832683563232 0.96193349361419678 0.767139732837677
0.027166582643985748 0.070356659591197968 0.90866917371749878
0.1781110018491745 0.050480697304010391 0.91066455841064453
0.43319347500801086 0.020464653149247169 0.9170423150062561
0.64575660228729248 0.015869589522480965 0.92724126577377319
0.82933211326599121 0.11398845165967941 0.94126570224761963
0.94744342565536499 0.20809490978717804 0.93481278419494629
0.99725651741027832 0.20749083161354065 0.89422845840454102
0.064580179750919342 0.18824200332164764 0.90691190958023071
0.2269255518913269 0.18633569777011871 0.90827971696853638
0.44719472527503967 0.18364760279655457 0.91098582744598389
0.64880812168121338 0.19196142256259918 0.92262005805969238
0.82600671052932739 0.29252296686172485 0.93525832891464233
0.93475323915481567 0.34766042232513428 0.92774450778961182
0.99244004487991333 0.33040294051170349 0.89786738157272339
0.078922554850578308 0.34376269578933716 0.89546680450439453
0.23652729392051697 0.3560355007648468 0.89373224973678589
0.4467734694480896 0.36879134178161621 0.90247035026550293
0.64770448207855225 0.41568627953529358 0.91342014074325562
0.80938196182250977 0.50067126750946045 0.92720884084701538
0.91266334056854248 0.5286749005317688 0.92006605863571167
0.98421645164489746 0.48499038815498352 0.88918071985244751
0.010863255709409714 0.50119489431381226 0.86777102947235107
0.12490298599004745 0.50467747449874878 0.87093818187713623
0.39703050255775452 0.53237879276275635 0.8745233416557312
0.61012846231460571 0.58431047201156616 0.88537478446960449
0.78341817855834961 0.64977538585662842 0.91393303871154785
0.89163678884506226 0.67046773433685303 0.91380161046981812
0.96188640594482422 0.62220972776412964 0.87600576877593994
0.06172015517950058 0.68828457593917847 0.86465609073638916
0.19389086961746216 0.68435275554656982 0.86409038305282593
0.39231732487678528 0.67796319723129272 0.86536258459091187
0.57280033826828003 0.69117510318756104 0.86997419595718384
0.75269466638565063 0.73589044809341431 0.89491409063339233
0.87857556343078613 0.76326543092727661 0.9071466326713562
0.94208574295043945 0.71714574098587036 0.87236112356185913
0.45706042647361755 0.82507383823394775 0.8832392692565918
0.49449780583381653 0.82482969760894775 0.88200837373733521
0.57164692878723145 0.82434219121932983 0.88856363296508789
0.67656666040420532 0.82973003387451172 0.89363640546798706
0.77118146419525146 0.83580374717712402 0.89523816108703613
0.86750531196594238 0.8599390983581543 0.90503406524658203
0.9433712363243103 0.82374125719070435 0.88278424739837646
0.63928073644638062 0.94169116020202637 0.90317010879516602
0.65096426010131836 0.94022375345230103 0.90129750967025757
0.68223804235458374 0.94045156240463257 0.90086740255355835
0.72749072313308716 0.94127887487411499 0.89309728145599365
0.77881872653961182 0.94619059562683105 0.89003884792327881
0.83844035863876343 0.95099431276321411 0.87758618593215942
0.91918021440505981 0.96540188789367676 0.88943403959274292
0.41769582033157349 0.22793962061405182 0.98871529102325439
0.4750521183013916 0.22364093363285065 0.98887723684310913
0.58511161804199219 0.23097118735313416 0.98977768421173096
0.71275299787521362 0.26188129186630249 0.98917752504348755
0.83327126502990723 0.35010337829589844 0.99160099029541016
0.92788314819335938 0.46443641185760498 0.9931037425994873
0.99383538961410522 0.50646382570266724 0.98945659399032593
0.43727189302444458 0.31365421414375305 0.99061691761016846
0.49011510610580444 0.31777921319007874 0.98881739377975464
0.59079647064208984 0.3321584165096283 0.98756152391433716
0.71351653337478638 0.36980792880058289 0.98875254392623901
0.82675254344940186 0.43982234597206116 0.98978465795516968
0.91721212863922119 0.53114283084869385 0.98940056562423706
0.98522454500198364 0.56104826927185059 0.98611593246459961
0.44724792242050171 0.46311518549919128 0.98413002490997314
0.49246862530708313 0.46066266298294067 0.9842458963394165
0.59205800294876099 0.47960519790649414 0.98313170671463013
0.70517927408218384 0.50925600528717041 0.98538553714752197
0.81362795829772949 0.56624060869216919 0.98711091279983521
0.90325123071670532 0.63425314426422119 0.98658251762390137
0.97715884447097778 0.64530903100967407 0.98319560289382935
0.39916893839836121 0.59548079967498779 0.97559070587158203
0.45465317368507385 0.60117799043655396 0.97340935468673706
0.56461501121520996 0.61338973045349121 0.97436022758483887
0.69188576936721802 0.64243602752685547 0.97625398635864258
0.80394154787063599 0.68092942237854004 0.97716397047042847
0.89515835046768188 0.71273130178451538 0.97341060638427734
0.96443456411361694 0.7287524938583374 0.97890830039978027
0.32618576288223267 0.70566082000732422 0.96428662538528442
0.38038325309753418 0.70440059900283813 0.96384209394454956
0.49469172954559326 0.70810073614120483 0.96329891681671143
0.6467897891998291 0.72352480888366699 0.96535956859588623
0.77373230457305908 0.75106090307235718 0.96808987855911255
0.88521331548690796 0.79057139158248901 0.97524619102478027
0.95220637321472168 0.80766373872756958 0.97494405508041382
0.51353508234024048 0.82980620861053467 0.96132129430770874
0.53234130144119263 0.8266717791557312 0.96037721633911133
0.58944952487945557 0.82435303926467896 0.96238857507705688
0.66726386547088623 0.82423216104507446 0.96429330110549927
0.75385814905166626 0.82223248481750488 0.96207612752914429
0.86175990104675293 0.85631257295608521 0.96840602159500122
0.9371410608291626 0.88772046566009521 0.96788656711578369
0.65401023626327515 0.94534975290298462 0.96465033292770386
0.66814368963241577 0.9462781548500061 0.96513122320175171
0.70147359371185303 0.94470089673995972 0.96716207265853882
0.74684613943099976 0.94996470212936401 0.9658583402633667
0.80108797550201416 0.9520760178565979 0.96598285436630249
0.85865074396133423 0.96082782745361328 0.96585285663604736
0.92137664556503296 0.97560113668441772 0.96828073263168335
