luts/instant_pro/polaroid_690_warm_-.cube
# Created by: G'MIC (https://gmic.eu)
TITLE "polaroid_690_warm_-"
# LUT size
LUT_3D_SIZE 5
# Data domain
DOMAIN_MIN 0.0 0.0 0.0
DOMAIN_MAX 1.0 1.0 1.0
# LUT data points
0.086301259696483612 0.047371659427881241 0.027836579829454422
0.25933665037155151 0.013511598110198975 0.032393794506788254
0.50368916988372803 0.0026609832420945168 0.022452380508184433
0.76743078231811523 0.0022006614599376917 0.0095153357833623886
0.98221170902252197 0.0011071298504248261 0.0039215688593685627
0.11013031005859375 0.22639985382556915 0.01873149536550045
0.28936633467674255 0.22901833057403564 0.0092894462868571281
0.59174394607543945 0.22215782105922699 0.0060076094232499599
0.84101539850234985 0.12209916859865189 8.5808249423280358e-05
0.99872183799743652 0.060618039220571518 0
0.095092341303825378 0.4832804799079895 0.001698916545137763
0.29489597678184509 0.49127456545829773 0.0022642547264695168
0.58077400922775269 0.52175015211105347 0.0025977788027375937
0.87230449914932251 0.55243110656738281 0.0032090130262076855
0.99982261657714844 0.56864804029464722 0.0039876899681985378
0.21949951350688934 0.72057998180389404 0.00015887092740740627
0.3581061065196991 0.71075773239135742 0.0020575281232595444
0.58080732822418213 0.72989147901535034 0.00036954693496227264
0.84570872783660889 0.76588696241378784 0.0023284314665943384
0.99890244007110596 0.7892412543296814 0.0084660397842526436
0.52199923992156982 0.94100254774093628 0.10728521645069122
0.58190768957138062 0.93885362148284912 0.086276516318321228
0.71985882520675659 0.93639731407165527 0.052827589213848114
0.8913649320602417 0.94360828399658203 0.060765314847230911
0.99977344274520874 0.95220929384231567 0.079629801213741302
0.095921099185943604 0.054451633244752884 0.19787609577178955
0.26681056618690491 0.040266208350658417 0.21409705281257629
0.5111086368560791 0.0061533460393548012 0.20001670718193054
0.73892807960510254 0.0025285459123551846 0.17889198660850525
0.97405993938446045 0 0.12504091858863831
0.15294173359870911 0.24398979544639587 0.22872327268123627
0.32194364070892334 0.25409945845603943 0.23898310959339142
0.57294696569442749 0.20517390966415405 0.22037738561630249
0.80877315998077393 0.076673813164234161 0.18080288171768188
0.99570482969284058 0.014542224816977978 0.13700310885906219
0.15317198634147644 0.51979076862335205 0.22960942983627319
0.32945090532302856 0.51361525058746338 0.21830260753631592
0.59661716222763062 0.53674513101577759 0.19108645617961884
0.88437843322753906 0.56518775224685669 0.22867290675640106
0.99955451488494873 0.54489791393280029 0.23572777211666107
0.23710158467292786 0.74058455228805542 0.18932177126407623
0.36755469441413879 0.73243194818496704 0.17210565507411957
0.58311092853546143 0.73503905534744263 0.12781533598899841
0.84662866592407227 0.77084618806838989 0.12270431220531464
0.99985122680664062 0.79816442728042603 0.23014889657497406
0.50732648372650146 0.94017678499221802 0.31740754842758179
0.57316416501998901 0.93844163417816162 0.29538047313690186
0.70630925893783569 0.93353146314620972 0.24722054600715637
0.88126927614212036 0.94101536273956299 0.26274269819259644
0.99992120265960693 0.95152413845062256 0.2989690899848938
0.0053558498620986938 0.072840869426727295 0.50568884611129761
0.26541447639465332 0.054491739720106125 0.54713684320449829
0.60117161273956299 0.010022047907114029 0.58411210775375366
0.79032295942306519 0.0038247201591730118 0.4817633330821991
0.97972589731216431 0.00019253001664765179 0.44816625118255615
0.12636516988277435 0.25571766495704651 0.5059693455696106
0.31973296403884888 0.26799419522285461 0.54687714576721191
0.61683493852615356 0.28608930110931396 0.5890355110168457
0.8013145923614502 0.21310535073280334 0.49682071805000305
0.98721921443939209 0.0066695418208837509 0.43897116184234619
0.21720191836357117 0.52947264909744263 0.54936438798904419
0.37282359600067139 0.54263871908187866 0.5602681040763855
0.6276777982711792 0.56420266628265381 0.58709967136383057
0.8467596173286438 0.50356745719909668 0.53143000602722168
0.99757319688796997 0.38981515169143677 0.43824034929275513
0.30758258700370789 0.77318930625915527 0.55915457010269165
0.41224256157875061 0.7732422947883606 0.55543065071105957
0.60614508390426636 0.76166421175003052 0.52279245853424072
0.85079652070999146 0.77834016084671021 0.54090803861618042
0.99677520990371704 0.80269354581832886 0.59040147066116333
0.5000876784324646 0.94819587469100952 0.59368330240249634
0.5584176778793335 0.94341158866882324 0.5776488184928894
0.68783456087112427 0.94054204225540161 0.54861092567443848
0.85732781887054443 0.93943625688552856 0.53156018257141113
0.99454396963119507 0.94906526803970337 0.56823110580444336
0.034749392420053482 0.11038118600845337 0.80617326498031616
0.31380933523178101 0.10079058259725571 0.81566780805587769
0.63511985540390015 0.065532654523849487 0.84726262092590332
0.89794814586639404 0.11269561201334 0.8575940728187561
0.99738729000091553 0.11132131516933441 0.78545218706130981
0.14994694292545319 0.28052392601966858 0.79647183418273926
0.35672223567962646 0.28919801115989685 0.80722308158874512
0.64567047357559204 0.32421806454658508 0.84398823976516724
0.89520895481109619 0.36626622080802917 0.853523850440979
0.99158215522766113 0.31743061542510986 0.78001266717910767
0.093309558928012848 0.49019595980644226 0.7607007622718811
0.32485312223434448 0.50449222326278687 0.76910626888275146
0.62063497304916382 0.55822581052780151 0.80905568599700928
0.87915468215942383 0.62007910013198853 0.84749358892440796
0.9918593168258667 0.51392233371734619 0.76366817951202393
0.37546086311340332 0.77103942632675171 0.80425775051116943
0.47879219055175781 0.76979464292526245 0.80655366182327271
0.66308486461639404 0.78298544883728027 0.82032358646392822
0.86416530609130859 0.81136858463287354 0.83978033065795898
0.99160504341125488 0.7395598292350769 0.78265613317489624
0.63622844219207764 0.94755667448043823 0.8300434947013855
0.66702532768249512 0.94523471593856812 0.82728636264801025
0.74647426605224609 0.94267743825912476 0.8165353536605835
0.85540479421615601 0.94483870267868042 0.80108815431594849
0.98514235019683838 0.9536210298538208 0.81859761476516724
0.44116330146789551 0.26186326146125793 0.98039454221725464
0.54071933031082153 0.27156031131744385 0.98323476314544678
0.72007697820663452 0.29376927018165588 0.98544418811798096
0.91438227891921997 0.39187583327293396 0.98649418354034424
1 0.45683732628822327 0.97956472635269165
0.45443356037139893 0.39266973733901978 0.97455000877380371
0.54242318868637085 0.39866200089454651 0.97483712434768677
0.72420412302017212 0.43113696575164795 0.97806781530380249
0.91471832990646362 0.50891506671905518 0.98025608062744141
0.99922078847885132 0.56861430406570435 0.97451043128967285
0.41370376944541931 0.57199186086654663 0.96370548009872437
0.51851552724838257 0.57983994483947754 0.96410101652145386
0.71215111017227173 0.61286634206771851 0.96811467409133911
0.89492380619049072 0.67810457944869995 0.96559536457061768
0.99910169839859009 0.72322952747344971 0.9681093692779541
0.42449268698692322 0.77368736267089844 0.95183521509170532
0.48834174871444702 0.76713854074478149 0.95037758350372314
0.63946396112442017 0.76372349262237549 0.95081841945648193
0.86968481540679932 0.81403923034667969 0.95774745941162109
0.99437308311462402 0.85822165012359619 0.95775353908538818
0.70644986629486084 0.95149630308151245 0.95507216453552246
0.73861396312713623 0.94778096675872803 0.95276898145675659
0.81435024738311768 0.95134133100509644 0.95791643857955933
0.90005588531494141 0.94722765684127808 0.95482718944549561
0.98587554693222046 0.95617181062698364 0.94536018371582031
