luts/instant_pro/polaroid_665_++.cube
# Created by: G'MIC (https://gmic.eu)
TITLE "polaroid_665_++"
# LUT size
LUT_3D_SIZE 7
# Data domain
DOMAIN_MIN 0.0 0.0 0.0
DOMAIN_MAX 1.0 1.0 1.0
# LUT data points
0.13520921766757965 0.13520921766757965 0.13520921766757965
0.1349528580904007 0.1349528580904007 0.1349528580904007
0.15295390784740448 0.15295390784740448 0.15295390784740448
0.19302564859390259 0.19302564859390259 0.19302564859390259
0.24933959543704987 0.24933959543704987 0.24933959543704987
0.33111366629600525 0.33111366629600525 0.33111366629600525
0.46186283230781555 0.46186283230781555 0.46186283230781555
0.15233640372753143 0.15233640372753143 0.15233640372753143
0.16222567856311798 0.16222567856311798 0.16222567856311798
0.18625836074352264 0.18625836074352264 0.18625836074352264
0.22909943759441376 0.22909943759441376 0.22909943759441376
0.28523319959640503 0.28523319959640503 0.28523319959640503
0.36139172315597534 0.36139172315597534 0.36139172315597534
0.48761063814163208 0.48761063814163208 0.48761063814163208
0.20313830673694611 0.20313830673694611 0.20313830673694611
0.21877449750900269 0.21877449750900269 0.21877449750900269
0.23986224830150604 0.23986224830150604 0.23986224830150604
0.27515164017677307 0.27515164017677307 0.27515164017677307
0.33291411399841309 0.33291411399841309 0.33291411399841309
0.41632407903671265 0.41632407903671265 0.41632407903671265
0.55446535348892212 0.55446535348892212 0.55446535348892212
0.29798248410224915 0.29798248410224915 0.29798248410224915
0.31615185737609863 0.31615185737609863 0.31615185737609863
0.32729640603065491 0.32729640603065491 0.32729640603065491
0.33650451898574829 0.33650451898574829 0.33650451898574829
0.37360692024230957 0.37360692024230957 0.37360692024230957
0.47847399115562439 0.47847399115562439 0.47847399115562439
0.65944588184356689 0.65944588184356689 0.65944588184356689
0.43941026926040649 0.43941026926040649 0.43941026926040649
0.46216133236885071 0.46216133236885071 0.46216133236885071
0.47267043590545654 0.47267043590545654 0.47267043590545654
0.47065591812133789 0.47065591812133789 0.47065591812133789
0.47454056143760681 0.47454056143760681 0.47454056143760681
0.5436977744102478 0.5436977744102478 0.5436977744102478
0.71406209468841553 0.71406209468841553 0.71406209468841553
0.64898306131362915 0.64898306131362915 0.64898306131362915
0.66098892688751221 0.66098892688751221 0.66098892688751221
0.6707647442817688 0.6707647442817688 0.6707647442817688
0.68059271574020386 0.68059271574020386 0.68059271574020386
0.69631046056747437 0.69631046056747437 0.69631046056747437
0.71419495344161987 0.71419495344161987 0.71419495344161987
0.78286653757095337 0.78286653757095337 0.78286653757095337
0.87679892778396606 0.87679892778396606 0.87679892778396606
0.87447363138198853 0.87447363138198853 0.87447363138198853
0.87785845994949341 0.87785845994949341 0.87785845994949341
0.89612740278244019 0.89612740278244019 0.89612740278244019
0.91710752248764038 0.91710752248764038 0.91710752248764038
0.91346007585525513 0.91346007585525513 0.91346007585525513
0.92045944929122925 0.92045944929122925 0.92045944929122925
0.15661460161209106 0.15661460161209106 0.15661460161209106
0.15752041339874268 0.15752041339874268 0.15752041339874268
0.17549563944339752 0.17549563944339752 0.17549563944339752
0.22442540526390076 0.22442540526390076 0.22442540526390076
0.28953206539154053 0.28953206539154053 0.28953206539154053
0.36752545833587646 0.36752545833587646 0.36752545833587646
0.48955732583999634 0.48955732583999634 0.48955732583999634
0.17185628414154053 0.17185628414154053 0.17185628414154053
0.18718923628330231 0.18718923628330231 0.18718923628330231
0.21214170753955841 0.21214170753955841 0.21214170753955841
0.25920319557189941 0.25920319557189941 0.25920319557189941
0.32005944848060608 0.32005944848060608 0.32005944848060608
0.3960098922252655 0.3960098922252655 0.3960098922252655
0.51786661148071289 0.51786661148071289 0.51786661148071289
0.22288261353969574 0.22288261353969574 0.22288261353969574
0.24950481951236725 0.24950481951236725 0.24950481951236725
0.268349289894104 0.268349289894104 0.268349289894104
0.29642459750175476 0.29642459750175476 0.29642459750175476
0.35451430082321167 0.35451430082321167 0.35451430082321167
0.44919762015342712 0.44919762015342712 0.44919762015342712
0.58492785692214966 0.58492785692214966 0.58492785692214966
0.3337465226650238 0.3337465226650238 0.3337465226650238
0.35651677846908569 0.35651677846908569 0.35651677846908569
0.35941770672798157 0.35941770672798157 0.35941770672798157
0.35634827613830566 0.35634827613830566 0.35634827613830566
0.40186998248100281 0.40186998248100281 0.40186998248100281
0.52022302150726318 0.52022302150726318 0.52022302150726318
0.68029791116714478 0.68029791116714478 0.68029791116714478
0.47493162751197815 0.47493162751197815 0.47493162751197815
0.50174093246459961 0.50174093246459961 0.50174093246459961
0.50842088460922241 0.50842088460922241 0.50842088460922241
0.49796685576438904 0.49796685576438904 0.49796685576438904
0.50710004568099976 0.50710004568099976 0.50710004568099976
0.58189636468887329 0.58189636468887329 0.58189636468887329
0.74338340759277344 0.74338340759277344 0.74338340759277344
0.67811518907546997 0.67811518907546997 0.67811518907546997
0.69191920757293701 0.69191920757293701 0.69191920757293701
0.69758254289627075 0.69758254289627075 0.69758254289627075
0.70138931274414062 0.70138931274414062 0.70138931274414062
0.7100909948348999 0.7100909948348999 0.7100909948348999
0.7263980507850647 0.7263980507850647 0.7263980507850647
0.8113863468170166 0.8113863468170166 0.8113863468170166
0.88802659511566162 0.88802659511566162 0.88802659511566162
0.88728457689285278 0.88728457689285278 0.88728457689285278
0.88644993305206299 0.88644993305206299 0.88644993305206299
0.90244591236114502 0.90244591236114502 0.90244591236114502
0.92242300510406494 0.92242300510406494 0.92242300510406494
0.92136180400848389 0.92136180400848389 0.92136180400848389
0.93286997079849243 0.93286997079849243 0.93286997079849243
0.22008542716503143 0.22008542716503143 0.22008542716503143
0.21955585479736328 0.21955585479736328 0.21955585479736328
0.22773422300815582 0.22773422300815582 0.22773422300815582
0.27828553318977356 0.27828553318977356 0.27828553318977356
0.35504916310310364 0.35504916310310364 0.35504916310310364
0.43563288450241089 0.43563288450241089 0.43563288450241089
0.55571502447128296 0.55571502447128296 0.55571502447128296
0.24462863802909851 0.24462863802909851 0.24462863802909851
0.25689175724983215 0.25689175724983215 0.25689175724983215
0.27480259537696838 0.27480259537696838 0.27480259537696838
0.32258209586143494 0.32258209586143494 0.32258209586143494
0.3889714777469635 0.3889714777469635 0.3889714777469635
0.46395212411880493 0.46395212411880493 0.46395212411880493
0.57971125841140747 0.57971125841140747 0.57971125841140747
0.27694636583328247 0.27694636583328247 0.27694636583328247
0.31058552861213684 0.31058552861213684 0.31058552861213684
0.33603349328041077 0.33603349328041077 0.33603349328041077
0.36815106868743896 0.36815106868743896 0.36815106868743896
0.42705902457237244 0.42705902457237244 0.42705902457237244
0.51039379835128784 0.51039379835128784 0.51039379835128784
0.6275327205657959 0.6275327205657959 0.6275327205657959
0.36962947249412537 0.36962947249412537 0.36962947249412537
0.39883968234062195 0.39883968234062195 0.39883968234062195
0.42282906174659729 0.42282906174659729 0.42282906174659729
0.43556255102157593 0.43556255102157593 0.43556255102157593
0.48067528009414673 0.48067528009414673 0.48067528009414673
0.59679055213928223 0.59679055213928223 0.59679055213928223
0.72102594375610352 0.72102594375610352 0.72102594375610352
0.52843058109283447 0.52843058109283447 0.52843058109283447
0.54912316799163818 0.54912316799163818 0.54912316799163818
0.57409524917602539 0.57409524917602539 0.57409524917602539
0.56796395778656006 0.56796395778656006 0.56796395778656006
0.57655757665634155 0.57655757665634155 0.57655757665634155
0.65548831224441528 0.65548831224441528 0.65548831224441528
0.79185092449188232 0.79185092449188232 0.79185092449188232
0.73607629537582397 0.73607629537582397 0.73607629537582397
0.73877435922622681 0.73877435922622681 0.73877435922622681
0.74657875299453735 0.74657875299453735 0.74657875299453735
0.74766689538955688 0.74766689538955688 0.74766689538955688
0.74535274505615234 0.74535274505615234 0.74535274505615234
0.76406627893447876 0.76406627893447876 0.76406627893447876
0.8493923544883728 0.8493923544883728 0.8493923544883728
0.91062664985656738 0.91062664985656738 0.91062664985656738
0.90955370664596558 0.90955370664596558 0.90955370664596558
0.90532898902893066 0.90532898902893066 0.90532898902893066
0.91774427890777588 0.91774427890777588 0.91774427890777588
0.92524570226669312 0.92524570226669312 0.92524570226669312
0.92270070314407349 0.92270070314407349 0.92270070314407349
0.94194483757019043 0.94194483757019043 0.94194483757019043
0.32828941941261292 0.32828941941261292 0.32828941941261292
0.33785554766654968 0.33785554766654968 0.33785554766654968
0.34349161386489868 0.34349161386489868 0.34349161386489868
0.36232820153236389 0.36232820153236389 0.36232820153236389
0.41305795311927795 0.41305795311927795 0.41305795311927795
0.54644215106964111 0.54644215106964111 0.54644215106964111
0.67978298664093018 0.67978298664093018 0.67978298664093018
0.36847713589668274 0.36847713589668274 0.36847713589668274
0.38335704803466797 0.38335704803466797 0.38335704803466797
0.39291226863861084 0.39291226863861084 0.39291226863861084
0.40955203771591187 0.40955203771591187 0.40955203771591187
0.461253821849823 0.461253821849823 0.461253821849823
0.57045108079910278 0.57045108079910278 0.57045108079910278
0.69143760204315186 0.69143760204315186 0.69143760204315186
0.39418315887451172 0.39418315887451172 0.39418315887451172
0.42204686999320984 0.42204686999320984 0.42204686999320984
0.44865378737449646 0.44865378737449646 0.44865378737449646
0.46746629476547241 0.46746629476547241 0.46746629476547241
0.52537441253662109 0.52537441253662109 0.52537441253662109
0.61649602651596069 0.61649602651596069 0.61649602651596069
0.70968484878540039 0.70968484878540039 0.70968484878540039
0.42508307099342346 0.42508307099342346 0.42508307099342346
0.4470660388469696 0.4470660388469696 0.4470660388469696
0.4980522096157074 0.4980522096157074 0.4980522096157074
0.54059666395187378 0.54059666395187378 0.54059666395187378
0.59007745981216431 0.59007745981216431 0.59007745981216431
0.67445510625839233 0.67445510625839233 0.67445510625839233
0.76320260763168335 0.76320260763168335 0.76320260763168335
0.55321991443634033 0.55321991443634033 0.55321991443634033
0.57172477245330811 0.57172477245330811 0.57172477245330811
0.62694293260574341 0.62694293260574341 0.62694293260574341
0.65355747938156128 0.65355747938156128 0.65355747938156128
0.67849075794219971 0.67849075794219971 0.67849075794219971
0.74264782667160034 0.74264782667160034 0.74264782667160034
0.84061020612716675 0.84061020612716675 0.84061020612716675
0.75725096464157104 0.75725096464157104 0.75725096464157104
0.75847309827804565 0.75847309827804565 0.75847309827804565
0.78944605588912964 0.78944605588912964 0.78944605588912964
0.80651843547821045 0.80651843547821045 0.80651843547821045
0.8078618049621582 0.8078618049621582 0.8078618049621582
0.82654428482055664 0.82654428482055664 0.82654428482055664
0.88541591167449951 0.88541591167449951 0.88541591167449951
0.91483765840530396 0.91483765840530396 0.91483765840530396
0.92236006259918213 0.92236006259918213 0.92236006259918213
0.93448072671890259 0.93448072671890259 0.93448072671890259
0.94458097219467163 0.94458097219467163 0.94458097219467163
0.93925321102142334 0.93925321102142334 0.93925321102142334
0.93086439371109009 0.93086439371109009 0.93086439371109009
0.94359958171844482 0.94359958171844482 0.94359958171844482
0.50737935304641724 0.50737935304641724 0.50737935304641724
0.52299785614013672 0.52299785614013672 0.52299785614013672
0.52963423728942871 0.52963423728942871 0.52963423728942871
0.53750461339950562 0.53750461339950562 0.53750461339950562
0.55052328109741211 0.55052328109741211 0.55052328109741211
0.60390180349349976 0.60390180349349976 0.60390180349349976
0.76791501045227051 0.76791501045227051 0.76791501045227051
0.55045688152313232 0.55045688152313232 0.55045688152313232
0.56640994548797607 0.56640994548797607 0.56640994548797607
0.57065349817276001 0.57065349817276001 0.57065349817276001
0.56728118658065796 0.56728118658065796 0.56728118658065796
0.57910412549972534 0.57910412549972534 0.57910412549972534
0.64133846759796143 0.64133846759796143 0.64133846759796143
0.78395342826843262 0.78395342826843262 0.78395342826843262
0.5888521671295166 0.5888521671295166 0.5888521671295166
0.60565763711929321 0.60565763711929321 0.60565763711929321
0.61726492643356323 0.61726492643356323 0.61726492643356323
0.6151154637336731 0.6151154637336731 0.6151154637336731
0.62836241722106934 0.62836241722106934 0.62836241722106934
0.69130760431289673 0.69130760431289673 0.69130760431289673
0.80818730592727661 0.80818730592727661 0.80818730592727661
0.60922342538833618 0.60922342538833618 0.60922342538833618
0.61769169569015503 0.61769169569015503 0.61769169569015503
0.64436864852905273 0.64436864852905273 0.64436864852905273
0.67506188154220581 0.67506188154220581 0.67506188154220581
0.70743644237518311 0.70743644237518311 0.70743644237518311
0.76860421895980835 0.76860421895980835 0.76860421895980835
0.8311164379119873 0.8311164379119873 0.8311164379119873
0.63740247488021851 0.63740247488021851 0.63740247488021851
0.65096276998519897 0.65096276998519897 0.65096276998519897
0.6852843165397644 0.6852843165397644 0.6852843165397644
0.73398852348327637 0.73398852348327637 0.73398852348327637
0.78198957443237305 0.78198957443237305 0.78198957443237305
0.82520520687103271 0.82520520687103271 0.82520520687103271
0.87709838151931763 0.87709838151931763 0.87709838151931763
0.76098477840423584 0.76098477840423584 0.76098477840423584
0.76715934276580811 0.76715934276580811 0.76715934276580811
0.79873597621917725 0.79873597621917725 0.79873597621917725
0.83609902858734131 0.83609902858734131 0.83609902858734131
0.87088960409164429 0.87088960409164429 0.87088960409164429
0.88332438468933105 0.88332438468933105 0.88332438468933105
0.91240072250366211 0.91240072250366211 0.91240072250366211
0.90122717618942261 0.90122717618942261 0.90122717618942261
0.91003191471099854 0.91003191471099854 0.91003191471099854
0.93035155534744263 0.93035155534744263 0.93035155534744263
0.9500775933265686 0.9500775933265686 0.9500775933265686
0.95631635189056396 0.95631635189056396 0.95631635189056396
0.94775688648223877 0.94775688648223877 0.94775688648223877
0.95486372709274292 0.95486372709274292 0.95486372709274292
0.74195867776870728 0.74195867776870728 0.74195867776870728
0.74064397811889648 0.74064397811889648 0.74064397811889648
0.73818325996398926 0.73818325996398926 0.73818325996398926
0.74871134757995605 0.74871134757995605 0.74871134757995605
0.7654528021812439 0.7654528021812439 0.7654528021812439
0.76800823211669922 0.76800823211669922 0.76800823211669922
0.82406562566757202 0.82406562566757202 0.82406562566757202
0.75718683004379272 0.75718683004379272 0.75718683004379272
0.76640909910202026 0.76640909910202026 0.76640909910202026
0.76637643575668335 0.76637643575668335 0.76637643575668335
0.77006185054779053 0.77006185054779053 0.77006185054779053
0.78223764896392822 0.78223764896392822 0.78223764896392822
0.78240394592285156 0.78240394592285156 0.78240394592285156
0.84558486938476562 0.84558486938476562 0.84558486938476562
0.77757507562637329 0.77757507562637329 0.77757507562637329
0.79347813129425049 0.79347813129425049 0.79347813129425049
0.79977452754974365 0.79977452754974365 0.79977452754974365
0.80333054065704346 0.80333054065704346 0.80333054065704346
0.81568199396133423 0.81568199396133423 0.81568199396133423
0.80668717622756958 0.80668717622756958 0.80668717622756958
0.85927313566207886 0.85927313566207886 0.85927313566207886
0.79753321409225464 0.79753321409225464 0.79753321409225464
0.81029534339904785 0.81029534339904785 0.81029534339904785
0.81870585680007935 0.81870585680007935 0.81870585680007935
0.83713942766189575 0.83713942766189575 0.83713942766189575
0.84367626905441284 0.84367626905441284 0.84367626905441284
0.84324061870574951 0.84324061870574951 0.84324061870574951
0.87820720672607422 0.87820720672607422 0.87820720672607422
0.81183505058288574 0.81183505058288574 0.81183505058288574
0.82068407535552979 0.82068407535552979 0.82068407535552979
0.81931710243225098 0.81931710243225098 0.81931710243225098
0.84983325004577637 0.84983325004577637 0.84983325004577637
0.87628412246704102 0.87628412246704102 0.87628412246704102
0.8861202597618103 0.8861202597618103 0.8861202597618103
0.90912330150604248 0.90912330150604248 0.90912330150604248
0.84556847810745239 0.84556847810745239 0.84556847810745239
0.85120576620101929 0.85120576620101929 0.85120576620101929
0.85263752937316895 0.85263752937316895 0.85263752937316895
0.8762432336807251 0.8762432336807251 0.8762432336807251
0.91050183773040771 0.91050183773040771 0.91050183773040771
0.91902428865432739 0.91902428865432739 0.91902428865432739
0.93340659141540527 0.93340659141540527 0.93340659141540527
0.91591340303421021 0.91591340303421021 0.91591340303421021
0.92042142152786255 0.92042142152786255 0.92042142152786255
0.92814624309539795 0.92814624309539795 0.92814624309539795
0.94390964508056641 0.94390964508056641 0.94390964508056641
0.95875293016433716 0.95875293016433716 0.95875293016433716
0.95828622579574585 0.95828622579574585 0.95828622579574585
0.96612679958343506 0.96612679958343506 0.96612679958343506
0.9263617992401123 0.9263617992401123 0.9263617992401123
0.9214775562286377 0.9214775562286377 0.9214775562286377
0.91179430484771729 0.91179430484771729 0.91179430484771729
0.91308915615081787 0.91308915615081787 0.91308915615081787
0.92419981956481934 0.92419981956481934 0.92419981956481934
0.93261623382568359 0.93261623382568359 0.93261623382568359
0.9321897029876709 0.9321897029876709 0.9321897029876709
0.92513835430145264 0.92513835430145264 0.92513835430145264
0.92846822738647461 0.92846822738647461 0.92846822738647461
0.92375791072845459 0.92375791072845459 0.92375791072845459
0.92370057106018066 0.92370057106018066 0.92370057106018066
0.93611705303192139 0.93611705303192139 0.93611705303192139
0.93563735485076904 0.93563735485076904 0.93563735485076904
0.93818402290344238 0.93818402290344238 0.93818402290344238
0.9226374626159668 0.9226374626159668 0.9226374626159668
0.93237537145614624 0.93237537145614624 0.93237537145614624
0.93610960245132446 0.93610960245132446 0.93610960245132446
0.936958909034729 0.936958909034729 0.936958909034729
0.94515949487686157 0.94515949487686157 0.94515949487686157
0.93536251783370972 0.93536251783370972 0.93536251783370972
0.93581169843673706 0.93581169843673706 0.93581169843673706
0.93002700805664062 0.93002700805664062 0.93002700805664062
0.94348835945129395 0.94348835945129395 0.94348835945129395
0.94814324378967285 0.94814324378967285 0.94814324378967285
0.95379215478897095 0.95379215478897095 0.95379215478897095
0.94973844289779663 0.94973844289779663 0.94973844289779663
0.93429380655288696 0.93429380655288696 0.93429380655288696
0.93773996829986572 0.93773996829986572 0.93773996829986572
0.93665504455566406 0.93665504455566406 0.93665504455566406
0.95115160942077637 0.95115160942077637 0.95115160942077637
0.94557660818099976 0.94557660818099976 0.94557660818099976
0.95077973604202271 0.95077973604202271 0.95077973604202271
0.95126956701278687 0.95126956701278687 0.95126956701278687
0.94281327724456787 0.94281327724456787 0.94281327724456787
0.94981575012207031 0.94981575012207031 0.94981575012207031
0.93758577108383179 0.93758577108383179 0.93758577108383179
0.94552016258239746 0.94552016258239746 0.94552016258239746
0.93969380855560303 0.93969380855560303 0.93969380855560303
0.94340056180953979 0.94340056180953979 0.94340056180953979
0.95207589864730835 0.95207589864730835 0.95207589864730835
0.95195919275283813 0.95195919275283813 0.95195919275283813
0.96086281538009644 0.96086281538009644 0.96086281538009644
0.95774364471435547 0.95774364471435547 0.95774364471435547
0.96102631092071533 0.96102631092071533 0.96102631092071533
0.95972549915313721 0.95972549915313721 0.95972549915313721
0.96309971809387207 0.96309971809387207 0.96309971809387207
0.97246336936950684 0.97246336936950684 0.97246336936950684
0.97407084703445435 0.97407084703445435 0.97407084703445435
0.9822385311126709 0.9822385311126709 0.9822385311126709
