luts/instant_pro/polaroid_669_cold_+.cube
# Created by: G'MIC (https://gmic.eu)
TITLE "polaroid_669_cold_+"
# LUT size
LUT_3D_SIZE 7
# Data domain
DOMAIN_MIN 0.0 0.0 0.0
DOMAIN_MAX 1.0 1.0 1.0
# LUT data points
0.0030339858494699001 0.25004088878631592 0.31042718887329102
0.0039215688593685627 0.24431034922599792 0.30706590414047241
0.051738139241933823 0.23823896050453186 0.30239242315292358
0.25626698136329651 0.23825730383396149 0.31229996681213379
0.46076834201812744 0.23572364449501038 0.32806119322776794
0.65433144569396973 0.23051588237285614 0.35026532411575317
0.83035421371459961 0.23537035286426544 0.38291645050048828
0.0013399161398410797 0.25474840402603149 0.30752462148666382
0.0043223360553383827 0.25846153497695923 0.30981701612472534
0.11778842657804489 0.26265713572502136 0.31349384784698486
0.31169408559799194 0.26530042290687561 0.32593634724617004
0.50372612476348877 0.26642253994941711 0.34350410103797913
0.68098545074462891 0.26675200462341309 0.36031582951545715
0.84467464685440063 0.28081139922142029 0.38765934109687805
0.0041029388085007668 0.30487871170043945 0.32553082704544067
0.025923769921064377 0.30120503902435303 0.32412514090538025
0.20051455497741699 0.31078317761421204 0.32907328009605408
0.37930896878242493 0.32071933150291443 0.34093305468559265
0.56862336397171021 0.34291854500770569 0.3693884015083313
0.72686409950256348 0.35776659846305847 0.39017102122306824
0.86282652616500854 0.38597795367240906 0.41930305957794189
0.060808546841144562 0.39194110035896301 0.35336160659790039
0.13541595637798309 0.38792857527732849 0.3542708158493042
0.24431321024894714 0.38652434945106506 0.35426762700080872
0.39674463868141174 0.40353932976722717 0.35991472005844116
0.56381601095199585 0.42899787425994873 0.37531962990760803
0.73813235759735107 0.48843875527381897 0.41903400421142578
0.86519324779510498 0.55568492412567139 0.4793238639831543
0.16068699955940247 0.51192003488540649 0.38247111439704895
0.20569807291030884 0.5048670768737793 0.38215610384941101
0.2837073802947998 0.49505001306533813 0.38126388192176819
0.409414142370224 0.51890003681182861 0.38295751810073853
0.55608534812927246 0.55442631244659424 0.38868215680122375
0.70662957429885864 0.59053605794906616 0.40015187859535217
0.83613502979278564 0.67790907621383667 0.48781624436378479
0.2141861617565155 0.69865816831588745 0.42000967264175415
0.25606027245521545 0.69010782241821289 0.41920992732048035
0.32520049810409546 0.67451345920562744 0.41391709446907043
0.43230301141738892 0.69270849227905273 0.4179939329624176
0.56034696102142334 0.72755128145217896 0.42511472105979919
0.6888272762298584 0.76006186008453369 0.43553820252418518
0.8095434308052063 0.79456371068954468 0.46232801675796509
0.36979022622108459 0.90856492519378662 0.53454041481018066
0.39462712407112122 0.90622299909591675 0.53388547897338867
0.43668147921562195 0.90306353569030762 0.53037571907043457
0.50777369737625122 0.90579420328140259 0.52934437990188599
0.61277300119400024 0.91810452938079834 0.55542284250259399
0.7160307765007019 0.93589884042739868 0.57816183567047119
0.81261759996414185 0.95212972164154053 0.61641967296600342
0.0018828896572813392 0.24172170460224152 0.31537935137748718
0.0053871902637183666 0.24287085235118866 0.32470417022705078
0.057151809334754944 0.24004562199115753 0.32707631587982178
0.27983614802360535 0.23773659765720367 0.34455844759941101
0.48352339863777161 0.23201777040958405 0.35829347372055054
0.67118990421295166 0.22504779696464539 0.38511091470718384
0.83171075582504272 0.2279883474111557 0.40293261408805847
0.002203967422246933 0.26422363519668579 0.3359924852848053
0.00651575718075037 0.26184356212615967 0.33761182427406311
0.13746248185634613 0.26734641194343567 0.3473757803440094
0.33691626787185669 0.26733040809631348 0.36638695001602173
0.51744383573532104 0.26272696256637573 0.37626335024833679
0.68970876932144165 0.26584973931312561 0.39986440539360046
0.84834164381027222 0.28092151880264282 0.41975048184394836
0.0050406958907842636 0.32063287496566772 0.36058053374290466
0.055333573371171951 0.31843942403793335 0.36394047737121582
0.22475619614124298 0.32257890701293945 0.36705049872398376
0.39877450466156006 0.33261382579803467 0.38065546751022339
0.57655888795852661 0.34620988368988037 0.40358775854110718
0.73221629858016968 0.35865163803100586 0.42244240641593933
0.86135256290435791 0.39419201016426086 0.45328265428543091
0.090489163994789124 0.41762402653694153 0.39473062753677368
0.15682439506053925 0.41012293100357056 0.39333054423332214
0.26804584264755249 0.40674424171447754 0.39074477553367615
0.41971242427825928 0.42135521769523621 0.39350384473800659
0.5853041410446167 0.44611480832099915 0.41576159000396729
0.75047504901885986 0.50127136707305908 0.45501944422721863
0.85739076137542725 0.56485617160797119 0.5110856294631958
0.17029851675033569 0.53820943832397461 0.4167303740978241
0.22353178262710571 0.54265499114990234 0.42034748196601868
0.29864156246185303 0.52198511362075806 0.41217777132987976
0.42626839876174927 0.54153192043304443 0.41625207662582397
0.56951004266738892 0.5675123929977417 0.41627794504165649
0.71579229831695557 0.60830956697463989 0.43194115161895752
0.83363062143325806 0.69566148519515991 0.52111983299255371
0.22246995568275452 0.71868288516998291 0.45152497291564941
0.26320669054985046 0.70720946788787842 0.44876900315284729
0.33291569352149963 0.69704258441925049 0.44393453001976013
0.43593487143516541 0.70401120185852051 0.44636538624763489
0.56259030103683472 0.73405981063842773 0.45057430863380432
0.69520086050033569 0.76756948232650757 0.45840996503829956
0.80853676795959473 0.80070656538009644 0.48780921101570129
0.38054943084716797 0.91344243288040161 0.55717682838439941
0.3988834023475647 0.90922397375106812 0.55353307723999023
0.44665998220443726 0.90606868267059326 0.55445939302444458
0.51332950592041016 0.90615940093994141 0.55227065086364746
0.61102187633514404 0.91905707120895386 0.56646621227264404
0.71659618616104126 0.93995207548141479 0.59626346826553345
0.81253767013549805 0.95118898153305054 0.63289856910705566
0 0.24776487052440643 0.37204942107200623
0.0032238380517810583 0.24487499892711639 0.3730655312538147
0.082622766494750977 0.24735899269580841 0.38786113262176514
0.31125381588935852 0.24957560002803802 0.41544407606124878
0.52200496196746826 0.2467116117477417 0.44803977012634277
0.69675886631011963 0.22578313946723938 0.45591932535171509
0.84692543745040894 0.21423205733299255 0.4646918773651123
0 0.2752586305141449 0.3939613401889801
0.0028013191185891628 0.2705044150352478 0.40249571204185486
0.16834326088428497 0.27525556087493896 0.42022129893302917
0.36296278238296509 0.27873522043228149 0.44127067923545837
0.54666221141815186 0.27204936742782593 0.45582306385040283
0.71213674545288086 0.26102936267852783 0.46409720182418823
0.85482454299926758 0.27395492792129517 0.4842473566532135
0.0021532096434384584 0.34457451105117798 0.43257269263267517
0.049532901495695114 0.34069624543190002 0.44230785965919495
0.25922104716300964 0.35172730684280396 0.46038106083869934
0.42753779888153076 0.34881070256233215 0.46877771615982056
0.58930915594100952 0.35699379444122314 0.48226004838943481
0.73965251445770264 0.36556452512741089 0.49927899241447449
0.86215859651565552 0.39771172404289246 0.5173485279083252
0.046866998076438904 0.45886179804801941 0.46692070364952087
0.18094314634799957 0.45750552415847778 0.47754999995231628
0.31114628911018372 0.45421040058135986 0.48137518763542175
0.46140068769454956 0.45957401394844055 0.48853898048400879
0.62176674604415894 0.4852963387966156 0.50404185056686401
0.75442081689834595 0.5296785831451416 0.53997629880905151
0.8541334867477417 0.57393687963485718 0.56991499662399292
0.1922847181558609 0.60414451360702515 0.4975770115852356
0.24633505940437317 0.59496217966079712 0.49354061484336853
0.33470657467842102 0.57999485731124878 0.49177461862564087
0.44846782088279724 0.57950747013092041 0.48995548486709595
0.59370154142379761 0.60210883617401123 0.49153926968574524
0.72735971212387085 0.64333266019821167 0.51750808954238892
0.82680016756057739 0.72540527582168579 0.59476327896118164
0.24784848093986511 0.75745773315429688 0.52027732133865356
0.28425160050392151 0.75273978710174561 0.51776027679443359
0.35496330261230469 0.73889851570129395 0.51315325498580933
0.44304192066192627 0.72733098268508911 0.50673878192901611
0.56932801008224487 0.754047691822052 0.51056903600692749
0.69886630773544312 0.78162676095962524 0.51652705669403076
0.80468893051147461 0.81428128480911255 0.55887448787689209
0.40890651941299438 0.92326521873474121 0.60652422904968262
0.41900742053985596 0.91827869415283203 0.60167747735977173
0.46383151412010193 0.91700625419616699 0.60017687082290649
0.51878929138183594 0.91409730911254883 0.59469819068908691
0.60991454124450684 0.92458271980285645 0.60416644811630249
0.71658498048782349 0.94203287363052368 0.63136690855026245
0.81186401844024658 0.95325964689254761 0.66554015874862671
0 0.25958564877510071 0.47861123085021973
0.0018635320011526346 0.25507232546806335 0.48134943842887878
0.082572609186172485 0.25876250863075256 0.50379461050033569
0.36468243598937988 0.26943737268447876 0.54054182767868042
0.55865776538848877 0.2738165557384491 0.56565392017364502
0.74461030960083008 0.30867686867713928 0.59928345680236816
0.86915653944015503 0.32986554503440857 0.60837912559509277
1.077091019396903e-05 0.29480692744255066 0.49860039353370667
0.0033525803592056036 0.29319894313812256 0.51350528001785278
0.15566323697566986 0.29247024655342102 0.53825622797012329
0.41844511032104492 0.3100297749042511 0.56617063283920288
0.59459865093231201 0.32187294960021973 0.5864262580871582
0.74866414070129395 0.35049808025360107 0.60586047172546387
0.86727440357208252 0.36267268657684326 0.60989856719970703
0.0014009812148287892 0.37700122594833374 0.53768128156661987
0.027907487004995346 0.37561726570129395 0.5477299690246582
0.25670269131660461 0.38017430901527405 0.57383167743682861
0.47797632217407227 0.40063753724098206 0.59896934032440186
0.62801456451416016 0.42223063111305237 0.61235976219177246
0.75363349914550781 0.4253462553024292 0.60785859823226929
0.86556190252304077 0.42482692003250122 0.60549724102020264
0.048532061278820038 0.5039781928062439 0.58648169040679932
0.17688235640525818 0.50400173664093018 0.58989554643630981
0.34993305802345276 0.51556104421615601 0.59980785846710205
0.50844252109527588 0.52890598773956299 0.61636531352996826
0.64448493719100952 0.53799903392791748 0.62545686960220337
0.75987201929092407 0.5487707257270813 0.62738668918609619
0.85591286420822144 0.57546287775039673 0.6353033185005188
0.19862699508666992 0.67089813947677612 0.60339236259460449
0.26879140734672546 0.67058014869689941 0.60551375150680542
0.38620778918266296 0.66206365823745728 0.60900294780731201
0.49437898397445679 0.65178382396697998 0.60810846090316772
0.62302976846694946 0.66056942939758301 0.60909390449523926
0.74050897359848022 0.70280081033706665 0.63737958669662476
0.82654666900634766 0.75972890853881836 0.68066239356994629
0.28752094507217407 0.81203144788742065 0.61666727066040039
0.32321956753730774 0.80751585960388184 0.6156800389289856
0.40144354104995728 0.79756009578704834 0.61542308330535889
0.48615097999572754 0.78438562154769897 0.60858476161956787
0.58034354448318481 0.78427958488464355 0.6030849814414978
0.7034417986869812 0.80918896198272705 0.60983026027679443
0.80283057689666748 0.84333932399749756 0.64135092496871948
0.44787412881851196 0.93806964159011841 0.67338663339614868
0.46263936161994934 0.93828999996185303 0.67174059152603149
0.49377602338790894 0.93223559856414795 0.66612201929092407
0.54512119293212891 0.92990791797637939 0.66273623704910278
0.61306208372116089 0.93004071712493896 0.65741121768951416
0.71615171432495117 0.94490307569503784 0.67682373523712158
0.81026452779769897 0.95575791597366333 0.69642442464828491
0 0.29057082533836365 0.61441528797149658
0 0.28489577770233154 0.63033217191696167
0.044822990894317627 0.28205221891403198 0.65720075368881226
0.41273748874664307 0.30709400773048401 0.68538099527359009
0.63523584604263306 0.33950027823448181 0.706889808177948
0.76874488592147827 0.38579767942428589 0.71921372413635254
0.86272025108337402 0.52291768789291382 0.74178874492645264
0 0.33878982067108154 0.64411509037017822
0.00072589947376400232 0.3283042311668396 0.6582149863243103
0.098141461610794067 0.32074093818664551 0.67592805624008179
0.45698589086532593 0.3532651960849762 0.70114612579345703
0.654308021068573 0.39670273661613464 0.71722269058227539
0.76617729663848877 0.45079925656318665 0.72454124689102173
0.85606217384338379 0.57341867685317993 0.74661123752593994
0.002667984226718545 0.43054267764091492 0.66141873598098755
0.045441899448633194 0.42678648233413696 0.67382007837295532
0.25193256139755249 0.41582641005516052 0.68982046842575073
0.49497687816619873 0.45473739504814148 0.71056860685348511
0.66707527637481689 0.51240009069442749 0.72788119316101074
0.76398217678070068 0.55906611680984497 0.73431152105331421
0.84334170818328857 0.63412868976593018 0.74361473321914673
0.006220709066838026 0.54853546619415283 0.6784440279006958
0.13566407561302185 0.55302190780639648 0.68326324224472046
0.3399428129196167 0.55812668800354004 0.69161194562911987
0.51943325996398926 0.58658558130264282 0.71638643741607666
0.66579854488372803 0.64305669069290161 0.73466372489929199
0.75736963748931885 0.67787712812423706 0.74053424596786499
0.83798086643218994 0.68368768692016602 0.73766916990280151
0.23371720314025879 0.71403932571411133 0.7068600058555603
0.30169898271560669 0.71622282266616821 0.70827549695968628
0.40682768821716309 0.72378003597259521 0.7146947979927063
0.54060935974121094 0.73201143741607666 0.72435355186462402
0.65378892421722412 0.7547459602355957 0.7320135235786438
0.74718296527862549 0.76579427719116211 0.7387421727180481
0.82421427965164185 0.76809602975845337 0.7385980486869812
0.39419609308242798 0.8641512393951416 0.71972066164016724
0.41876006126403809 0.8614051342010498 0.71905010938644409
0.4782373309135437 0.85748541355133057 0.72123759984970093
0.55154573917388916 0.85468637943267822 0.72216898202896118
0.62248152494430542 0.84735780954360962 0.71690624952316284
0.71442914009094238 0.85199928283691406 0.71807301044464111
0.80259138345718384 0.88740676641464233 0.74154090881347656
0.51637107133865356 0.952850341796875 0.74261027574539185
0.52035558223724365 0.9526374340057373 0.7388877272605896
0.5478174090385437 0.95495611429214478 0.7398260235786438
0.59182119369506836 0.95042264461517334 0.73880541324615479
0.64529967308044434 0.9456627368927002 0.7327803373336792
0.71597838401794434 0.95015132427215576 0.73341286182403564
0.81324154138565063 0.96251648664474487 0.74781817197799683
2.5281718990299851e-05 0.34767729043960571 0.77112025022506714
0.00033705469104461372 0.33719903230667114 0.77664613723754883
0.059482872486114502 0.33305904269218445 0.78948414325714111
0.45074966549873352 0.37337011098861694 0.79773813486099243
0.67687726020812988 0.46482577919960022 0.8072516918182373
0.79408138990402222 0.54984754323959351 0.80592304468154907
0.85561883449554443 0.61849594116210938 0.80555599927902222
0.00034469904494471848 0.40143218636512756 0.775951087474823
0.0016151578165590763 0.39199146628379822 0.78166788816452026
0.13550910353660583 0.37887680530548096 0.79443871974945068
0.48473203182220459 0.42892280220985413 0.80147707462310791
0.68090248107910156 0.52596753835678101 0.80644041299819946
0.78886157274246216 0.60431754589080811 0.80689024925231934
0.85018980503082275 0.66409981250762939 0.80751913785934448
0.050375502556562424 0.50513285398483276 0.78238683938980103
0.13976752758026123 0.49900877475738525 0.78486531972885132
0.31518697738647461 0.49190643429756165 0.78854238986968994
0.52044558525085449 0.52726286649703979 0.79676103591918945
0.67875403165817261 0.62604027986526489 0.80494529008865356
0.77842468023300171 0.68837636709213257 0.80674201250076294
0.83325827121734619 0.73508358001708984 0.80755341053009033
0.089412406086921692 0.62536704540252686 0.77050876617431641
0.2337336391210556 0.62852239608764648 0.77331805229187012
0.40404734015464783 0.6357155442237854 0.78103518486022949
0.53902274370193481 0.64767557382583618 0.792805016040802
0.672934889793396 0.71986544132232666 0.80226153135299683
0.76442414522171021 0.7804027795791626 0.8050544261932373
0.82063907384872437 0.81018483638763428 0.80821537971496582
0.25321787595748901 0.76498061418533325 0.77725815773010254
0.31456252932548523 0.76438909769058228 0.7761421799659729
0.41577810049057007 0.76323723793029785 0.77588403224945068
0.53677177429199219 0.76871442794799805 0.78020185232162476
0.6592252254486084 0.8082776665687561 0.79427605867385864
0.75685518980026245 0.85833948850631714 0.80638039112091064
0.81097042560577393 0.87786024808883667 0.8081669807434082
0.43714365363121033 0.88918179273605347 0.78593277931213379
0.46204715967178345 0.89250838756561279 0.78673738241195679
0.52927404642105103 0.89251649379730225 0.7864641547203064
0.59551745653152466 0.89439278841018677 0.78932660818099976
0.67230701446533203 0.89843761920928955 0.79342997074127197
0.75021100044250488 0.91208893060684204 0.79951179027557373
0.81342607736587524 0.9228549599647522 0.80516928434371948
0.60073703527450562 0.96842080354690552 0.79922568798065186
0.61107140779495239 0.97008347511291504 0.79855120182037354
0.63024401664733887 0.96865051984786987 0.80028468370437622
0.66564184427261353 0.96986323595046997 0.80018889904022217
0.70763587951660156 0.96484005451202393 0.79743903875350952
0.74474430084228516 0.96551597118377686 0.79319125413894653
0.82450461387634277 0.96946078538894653 0.80082082748413086
0.11391589790582657 0.48139864206314087 0.86288052797317505
0.16882437467575073 0.47287583351135254 0.86382722854614258
0.36087298393249512 0.48512539267539978 0.86282873153686523
0.56462216377258301 0.55123233795166016 0.8602452278137207
0.70183283090591431 0.64816063642501831 0.85383391380310059
0.79590719938278198 0.75085359811782837 0.84949398040771484
0.84363996982574463 0.8031238317489624 0.84336405992507935
0.23018026351928711 0.54070365428924561 0.85953718423843384
0.29135262966156006 0.53588998317718506 0.86039155721664429
0.41383731365203857 0.54539072513580322 0.85893464088439941
0.57780194282531738 0.59685301780700684 0.8572658896446228
0.70495116710662842 0.68535465002059937 0.851063072681427
0.78860664367675781 0.77188318967819214 0.84585410356521606
0.83814477920532227 0.82201367616653442 0.84264528751373291
0.37244981527328491 0.65088558197021484 0.85069113969802856
0.40242227911949158 0.64713543653488159 0.84930127859115601
0.48430100083351135 0.64646798372268677 0.85106933116912842
0.59745842218399048 0.67994105815887451 0.85108053684234619
0.70209360122680664 0.74971479177474976 0.84627854824066162
0.78412938117980957 0.82311642169952393 0.84487897157669067
0.82931530475616455 0.85869419574737549 0.84215223789215088
0.41365236043930054 0.75988280773162842 0.83911281824111938
0.45056572556495667 0.75795072317123413 0.83859968185424805
0.51800602674484253 0.75438302755355835 0.83977639675140381
0.60444104671478271 0.76310449838638306 0.84338486194610596
0.69295483827590942 0.80910128355026245 0.84172266721725464
0.77010077238082886 0.86394906044006348 0.8410876989364624
0.82594740390777588 0.89184057712554932 0.84127479791641235
0.39126861095428467 0.84827315807342529 0.83078843355178833
0.42114055156707764 0.84719914197921753 0.83000272512435913
0.49108108878135681 0.84604477882385254 0.83035683631896973
0.59302061796188354 0.85147702693939209 0.83285200595855713
0.68742358684539795 0.86868518590927124 0.83619111776351929
0.76281726360321045 0.90234380960464478 0.8362041711807251
0.82644903659820557 0.93204271793365479 0.84273982048034668
0.5096173882484436 0.932239830493927 0.82921886444091797
0.53472602367401123 0.9339897632598877 0.82992804050445557
0.56550413370132446 0.9332614541053772 0.83076250553131104
0.61963868141174316 0.92891287803649902 0.83110952377319336
0.69072937965393066 0.93240398168563843 0.83306670188903809
0.76792198419570923 0.94304311275482178 0.83829301595687866
0.83405721187591553 0.96179306507110596 0.84303903579711914
0.66018307209014893 0.98533499240875244 0.83754342794418335
0.66122192144393921 0.98481804132461548 0.83706557750701904
0.68429118394851685 0.98314982652664185 0.83781194686889648
0.71549373865127563 0.98287779092788696 0.83876043558120728
0.75381219387054443 0.98051315546035767 0.84027040004730225
0.79469090700149536 0.97777432203292847 0.84008693695068359
0.85014206171035767 0.98262941837310791 0.84719270467758179
