luts/instant_pro/polaroid_690_warm_++.cube
# Created by: G'MIC (https://gmic.eu)
TITLE "polaroid_690_warm_++"
# LUT size
LUT_3D_SIZE 7
# Data domain
DOMAIN_MIN 0.0 0.0 0.0
DOMAIN_MAX 1.0 1.0 1.0
# LUT data points
0.38254904747009277 0.28863328695297241 0.23743002116680145
0.39496728777885437 0.28689199686050415 0.23651482164859772
0.43698853254318237 0.28322696685791016 0.23586982488632202
0.52918392419815063 0.27392092347145081 0.23265159130096436
0.67350310087203979 0.24579155445098877 0.22873502969741821
0.83327776193618774 0.2117992490530014 0.22147358953952789
0.98123723268508911 0.16269771754741669 0.21086174249649048
0.38307490944862366 0.30589175224304199 0.2349465936422348
0.39948803186416626 0.30481955409049988 0.23478731513023376
0.45788300037384033 0.3067171573638916 0.23184044659137726
0.57249242067337036 0.30595135688781738 0.22902427613735199
0.71388179063796997 0.29166343808174133 0.22311027348041534
0.87329047918319702 0.26724046468734741 0.21344627439975739
0.99327057600021362 0.24676230549812317 0.2047455757856369
0.39000388979911804 0.3673643171787262 0.22951672971248627
0.4145875871181488 0.36917701363563538 0.22718636691570282
0.48258247971534729 0.37897980213165283 0.22300703823566437
0.62030774354934692 0.40002897381782532 0.21591027081012726
0.79178553819656372 0.42029097676277161 0.20570006966590881
0.93038338422775269 0.41209006309509277 0.19465668499469757
0.99311274290084839 0.40115454792976379 0.1882011741399765
0.40057438611984253 0.47719809412956238 0.21488356590270996
0.43032005429267883 0.4772886335849762 0.21257399022579193
0.49651128053665161 0.48246756196022034 0.20620380342006683
0.6234251856803894 0.51505172252655029 0.18722090125083923
0.79873675107955933 0.56025761365890503 0.16218578815460205
0.96284359693527222 0.59292501211166382 0.15634731948375702
0.99853318929672241 0.59743785858154297 0.17886483669281006
0.41510090231895447 0.6264045238494873 0.17853210866451263
0.44609090685844421 0.62069571018218994 0.17714734375476837
0.51524120569229126 0.61704635620117188 0.16991420090198517
0.62924164533615112 0.64816707372665405 0.14359788596630096
0.77886855602264404 0.68716448545455933 0.096856869757175446
0.93938583135604858 0.72503352165222168 0.053482849150896072
1 0.7484811544418335 0.13000564277172089
0.45048105716705322 0.79468750953674316 0.11074546724557877
0.48485648632049561 0.79019349813461304 0.10515066236257553
0.55560111999511719 0.78729259967803955 0.085094824433326721
0.65888988971710205 0.79816997051239014 0.050699811428785324
0.7915915846824646 0.82350665330886841 0.011470495723187923
0.92606401443481445 0.84369748830795288 0.0088305156677961349
0.99947571754455566 0.86204588413238525 0.081672638654708862
0.57671207189559937 0.94100290536880493 0.20587252080440521
0.60033929347991943 0.93825620412826538 0.1930740624666214
0.65754646062850952 0.93675130605697632 0.17628462612628937
0.74343878030776978 0.93379509449005127 0.15674911439418793
0.84866076707839966 0.93616843223571777 0.18521814048290253
0.95249670743942261 0.93900978565216064 0.22565740346908569
0.99997198581695557 0.94343632459640503 0.28168407082557678
0.38347184658050537 0.28836724162101746 0.25747650861740112
0.39503452181816101 0.28642106056213379 0.25382611155509949
0.44422310590744019 0.28039926290512085 0.25479048490524292
0.53073382377624512 0.26511546969413757 0.25644388794898987
0.65842318534851074 0.23199647665023804 0.25180822610855103
0.81461465358734131 0.16833646595478058 0.24141374230384827
0.98014193773269653 0.064503490924835205 0.22899046540260315
0.38431373238563538 0.30824989080429077 0.25526943802833557
0.40412783622741699 0.30470332503318787 0.25894001126289368
0.46229067444801331 0.29918351769447327 0.25623276829719543
0.56982511281967163 0.29237610101699829 0.25450745224952698
0.70207118988037109 0.26515564322471619 0.24828319251537323
0.85388684272766113 0.22928033769130707 0.24140410125255585
0.99207359552383423 0.18525053560733795 0.228208988904953
0.38558143377304077 0.3770504891872406 0.26154106855392456
0.41473686695098877 0.3782849907875061 0.25887128710746765
0.4878767728805542 0.38916745781898499 0.25633251667022705
0.62829113006591797 0.39930641651153564 0.25846576690673828
0.78438538312911987 0.4020715057849884 0.24801057577133179
0.92658579349517822 0.38159331679344177 0.23561388254165649
0.99602752923965454 0.36622121930122375 0.22347943484783173
0.39519527554512024 0.49297413229942322 0.25159564614295959
0.42856857180595398 0.49158203601837158 0.24820937216281891
0.49863895773887634 0.49388357996940613 0.24189493060112
0.63476580381393433 0.52390104532241821 0.22834154963493347
0.80650287866592407 0.56069165468215942 0.22024831175804138
0.96997272968292236 0.59058409929275513 0.23203332722187042
0.99985402822494507 0.58571308851242065 0.23932850360870361
0.40451368689537048 0.64330095052719116 0.22619248926639557
0.44181010127067566 0.63607370853424072 0.22349829971790314
0.51323384046554565 0.63168352842330933 0.2113335132598877
0.63405328989028931 0.65773868560791016 0.19533687829971313
0.78937447071075439 0.69511473178863525 0.17770096659660339
0.94469219446182251 0.72817367315292358 0.17258712649345398
1 0.74881154298782349 0.23302975296974182
0.43754962086677551 0.80388069152832031 0.1840582937002182
0.47272399067878723 0.7989577054977417 0.17859436571598053
0.55019915103912354 0.79529035091400146 0.16764852404594421
0.65744590759277344 0.80367511510848999 0.14524921774864197
0.7938683032989502 0.8259204626083374 0.13916715979576111
0.92808187007904053 0.84668421745300293 0.1354757696390152
0.99929147958755493 0.86201316118240356 0.20036871731281281
0.56846684217453003 0.94210076332092285 0.2727046012878418
0.59323787689208984 0.94104200601577759 0.263601154088974
0.65191006660461426 0.9373365044593811 0.25032007694244385
0.73798859119415283 0.93481439352035522 0.23302608728408813
0.84506809711456299 0.93800121545791626 0.25515860319137573
0.95034909248352051 0.94112008810043335 0.29215577244758606
1 0.94399797916412354 0.33945047855377197
0.38300764560699463 0.2862679660320282 0.31876084208488464
0.40544307231903076 0.28447249531745911 0.32794713973999023
0.46423831582069397 0.27708214521408081 0.34144547581672668
0.55125689506530762 0.26658216118812561 0.33076557517051697
0.67014741897583008 0.23683798313140869 0.32880842685699463
0.81208342313766479 0.16707524657249451 0.32787364721298218
0.96188277006149292 0.0060917721129953861 0.30709570646286011
0.38213017582893372 0.30556964874267578 0.32740837335586548
0.4066808819770813 0.30497682094573975 0.33653849363327026
0.47789108753204346 0.30606749653816223 0.35110723972320557
0.57688611745834351 0.29597383737564087 0.33787986636161804
0.69278168678283691 0.25864031910896301 0.32923063635826111
0.83082348108291626 0.18649744987487793 0.31335598230361938
0.98004329204559326 0.017239933833479881 0.28770691156387329
0.38608846068382263 0.38823780417442322 0.34561750292778015
0.41928908228874207 0.38973972201347351 0.35365283489227295
0.49953466653823853 0.39242163300514221 0.36379745602607727
0.62247514724731445 0.38135311007499695 0.35529014468193054
0.75346916913986206 0.34832590818405151 0.3332982063293457
0.89541316032409668 0.3029247522354126 0.31160283088684082
0.99798035621643066 0.26029932498931885 0.28981426358222961
0.38622382283210754 0.52524667978286743 0.36384385824203491
0.42514359951019287 0.5220797061920166 0.36161506175994873
0.50511527061462402 0.517173171043396 0.35404336452484131
0.64433246850967407 0.53577768802642822 0.35377490520477295
0.81780123710632324 0.56012886762619019 0.36403799057006836
0.96332287788391113 0.56729251146316528 0.36697843670845032
0.99975836277008057 0.53628170490264893 0.34050256013870239
0.37784963846206665 0.67445427179336548 0.34250670671463013
0.42068877816200256 0.66973024606704712 0.33889663219451904
0.50626486539840698 0.66130626201629639 0.32624918222427368
0.63242620229721069 0.67131608724594116 0.31575420498847961
0.79741066694259644 0.70528507232666016 0.31933018565177917
0.95014697313308716 0.7327810525894165 0.33922681212425232
0.9997173547744751 0.75201737880706787 0.40378382802009583
0.40758875012397766 0.81974256038665771 0.32248792052268982
0.4486088752746582 0.81757211685180664 0.31712466478347778
0.53122442960739136 0.80968230962753296 0.30252963304519653
0.64414447546005249 0.80647373199462891 0.28303512930870056
0.78912484645843506 0.83123046159744263 0.28660392761230469
0.9280821681022644 0.84906810522079468 0.30893722176551819
0.99962133169174194 0.86373990774154663 0.36634457111358643
0.55357640981674194 0.94388788938522339 0.40168613195419312
0.57938665151596069 0.94370847940444946 0.39135128259658813
0.63778585195541382 0.94079220294952393 0.37699663639068604
0.72447717189788818 0.93846231698989868 0.35524651408195496
0.83410310745239258 0.93737244606018066 0.36674261093139648
0.94310528039932251 0.94143271446228027 0.40504294633865356
0.99985533952713013 0.94376283884048462 0.45609918236732483
0.38184994459152222 0.28310069441795349 0.46739378571510315
0.41297096014022827 0.27887991070747375 0.48183813691139221
0.50481331348419189 0.26854628324508667 0.5224769115447998
0.63029807806015015 0.25027424097061157 0.54012763500213623
0.7271694540977478 0.23586083948612213 0.49317160248756409
0.85117948055267334 0.19130274653434753 0.47035202383995056
0.98249346017837524 0.028912652283906937 0.46299159526824951
0.3777860701084137 0.30877470970153809 0.47166705131530762
0.41458085179328918 0.30698531866073608 0.49124643206596375
0.50972753763198853 0.30457299947738647 0.52846664190292358
0.64397644996643066 0.29623541235923767 0.55318945646286011
0.7466355562210083 0.27907493710517883 0.50217562913894653
0.86552304029464722 0.21902470290660858 0.47433361411094666
0.98864305019378662 0.067867815494537354 0.45637312531471252
0.37812602519989014 0.38179388642311096 0.47371375560760498
0.41284891963005066 0.38530749082565308 0.48949897289276123
0.51047062873840332 0.3955141007900238 0.52350586652755737
0.65636825561523438 0.4041047990322113 0.56071013212203979
0.76338034868240356 0.37377810478210449 0.50620192289352417
0.88789218664169312 0.30680167675018311 0.46761828660964966
0.99097299575805664 0.17088876664638519 0.42387682199478149
0.3900921642780304 0.5266343355178833 0.51958757638931274
0.43006742000579834 0.53683322668075562 0.52677679061889648
0.5224003791809082 0.54228538274765015 0.53815919160842896
0.66484230756759644 0.56093764305114746 0.5587158203125
0.80620437860488892 0.53188562393188477 0.53264939785003662
0.93423497676849365 0.46882006525993347 0.47962978482246399
0.99997252225875854 0.40957939624786377 0.42822667956352234
0.40006360411643982 0.70843029022216797 0.54664677381515503
0.43882346153259277 0.70403271913528442 0.5420767068862915
0.52076989412307739 0.70426094532012939 0.53527790307998657
0.64417099952697754 0.698749840259552 0.51930630207061768
0.80467206239700317 0.71807527542114258 0.53256016969680786
0.95225560665130615 0.74321770668029785 0.56076633930206299
0.99978911876678467 0.74500662088394165 0.58745825290679932
0.40470468997955322 0.84411519765853882 0.52646619081497192
0.44347470998764038 0.84280776977539062 0.52133083343505859
0.5292961597442627 0.83695918321609497 0.51020944118499756
0.64094483852386475 0.82929426431655884 0.483918696641922
0.78066742420196533 0.83496445417404175 0.47639590501785278
0.9236559271812439 0.85321873426437378 0.51263898611068726
0.99807405471801758 0.86794692277908325 0.56878471374511719
0.55942684412002563 0.94893848896026611 0.5809592604637146
0.58088725805282593 0.94602912664413452 0.57208669185638428
0.63478147983551025 0.9452553391456604 0.55861109495162964
0.7163841724395752 0.94062215089797974 0.53714227676391602
0.81780970096588135 0.93772029876708984 0.51431953907012939
0.93375736474990845 0.94060021638870239 0.55798947811126709
0.99737387895584106 0.94361734390258789 0.60537135601043701
0.38592207431793213 0.27650055289268494 0.67584884166717529
0.43035444617271423 0.27311506867408752 0.68736171722412109
0.5289071798324585 0.25973266363143921 0.71941095590591431
0.68417602777481079 0.2368963360786438 0.75244677066802979
0.836353600025177 0.21141920983791351 0.76491087675094604
0.93145406246185303 0.19190414249897003 0.71019798517227173
0.99682939052581787 0.15715929865837097 0.65978473424911499
0.37310847640037537 0.3107776939868927 0.68020480871200562
0.42465952038764954 0.30999594926834106 0.69225281476974487
0.52462458610534668 0.3027254045009613 0.71462064981460571
0.68779665231704712 0.29665994644165039 0.75588804483413696
0.84286117553710938 0.28741356730461121 0.76886385679244995
0.93724513053894043 0.26142260432243347 0.71655017137527466
0.99525350332260132 0.22557701170444489 0.6563909649848938
0.35354608297348022 0.38343200087547302 0.67094153165817261
0.40167057514190674 0.38486093282699585 0.68035662174224854
0.51018983125686646 0.39112010598182678 0.70647299289703369
0.67784923315048218 0.41048482060432434 0.7515404224395752
0.83959740400314331 0.42792624235153198 0.76638144254684448
0.93541383743286133 0.38802382349967957 0.70904678106307983
0.99707138538360596 0.3240610659122467 0.6560133695602417
0.35550206899642944 0.50440746545791626 0.66530245542526245
0.39553186297416687 0.50913155078887939 0.66654318571090698
0.48839333653450012 0.51474887132644653 0.683402419090271
0.65858280658721924 0.5527724027633667 0.72670036554336548
0.83258605003356934 0.59592390060424805 0.76085776090621948
0.92807203531265259 0.53414005041122437 0.69286870956420898
0.99931180477142334 0.42471799254417419 0.6302105188369751
0.4043424129486084 0.69877111911773682 0.70883524417877197
0.44718897342681885 0.70012408494949341 0.70929914712905884
0.54204660654067993 0.7056882381439209 0.71870255470275879
0.67458486557006836 0.72053110599517822 0.73410016298294067
0.82386159896850586 0.75003612041473389 0.75615191459655762
0.93524461984634399 0.70952939987182617 0.72260445356369019
1 0.63138282299041748 0.65287411212921143
0.52231264114379883 0.86102819442749023 0.73959839344024658
0.54635953903198242 0.85847926139831543 0.73445487022399902
0.60911613702774048 0.85520017147064209 0.73045855760574341
0.70174103975296021 0.85575360059738159 0.72774600982666016
0.79730111360549927 0.85099953413009644 0.71035617589950562
0.91960859298706055 0.86394268274307251 0.73043429851531982
0.99567925930023193 0.8772205114364624 0.76473337411880493
0.63429677486419678 0.94822138547897339 0.76149559020996094
0.64678025245666504 0.94793450832366943 0.7546231746673584
0.68944507837295532 0.94787323474884033 0.74993938207626343
0.74831753969192505 0.94432485103607178 0.73930644989013672
0.8229033350944519 0.94078350067138672 0.71607708930969238
0.91785061359405518 0.93840861320495605 0.71901458501815796
0.9963107705116272 0.94370001554489136 0.76100975275039673
0.4179539680480957 0.2735254168510437 0.86039602756500244
0.46606537699699402 0.27072402834892273 0.86139971017837524
0.56141722202301025 0.25956907868385315 0.87378644943237305
0.69894754886627197 0.25326621532440186 0.88965237140655518
0.86098366975784302 0.26252096891403198 0.90992408990859985
0.98436015844345093 0.27253413200378418 0.90466725826263428
1 0.26006302237510681 0.87128633260726929
0.40423068404197693 0.31154385209083557 0.85846340656280518
0.45653337240219116 0.31126874685287476 0.861674964427948
0.5569767951965332 0.3077237606048584 0.87293028831481934
0.69962155818939209 0.30928882956504822 0.88869786262512207
0.86184847354888916 0.33584919571876526 0.90931153297424316
0.98363888263702393 0.35678526759147644 0.9043964147567749
1 0.33145439624786377 0.86862099170684814
0.36752340197563171 0.39036807417869568 0.84977072477340698
0.42548847198486328 0.39461484551429749 0.85408592224121094
0.53854823112487793 0.40029114484786987 0.86429375410079956
0.69157546758651733 0.42140457034111023 0.88277709484100342
0.85302329063415527 0.47792857885360718 0.90101271867752075
0.97305852174758911 0.49895468354225159 0.89898598194122314
0.99987697601318359 0.45926028490066528 0.86581945419311523
0.32117736339569092 0.50266903638839722 0.82327902317047119
0.37292090058326721 0.50345361232757568 0.82872498035430908
0.49024689197540283 0.51437687873840332 0.84171885251998901
0.66703462600708008 0.55908310413360596 0.85849940776824951
0.8393135666847229 0.62815147638320923 0.88697880506515503
0.96140658855438232 0.65523272752761841 0.8923722505569458
0.99955087900161743 0.6054084300994873 0.84965401887893677
0.33742496371269226 0.67293232679367065 0.82794785499572754
0.38552165031433105 0.67249006032943726 0.828011155128479
0.4813990592956543 0.66836714744567871 0.83205747604370117
0.62503480911254883 0.67900598049163818 0.8403860330581665
0.81113696098327637 0.7403329610824585 0.86694514751434326
0.94107210636138916 0.7873234748840332 0.88555800914764404
0.99806571006774902 0.73171961307525635 0.84496372938156128
0.51384317874908447 0.84388512372970581 0.85392695665359497
0.54652434587478638 0.84682625532150269 0.85315203666687012
0.62143480777740479 0.84631717205047607 0.85615009069442749
0.7235482931137085 0.85230231285095215 0.86311990022659302
0.83101516962051392 0.86206543445587158 0.87157940864562988
0.93063622713088989 0.88110792636871338 0.88151901960372925
0.99385464191436768 0.84998035430908203 0.85741418600082397
0.7382848858833313 0.94669979810714722 0.88248950242996216
0.74992507696151733 0.9452635645866394 0.88068020343780518
0.78199034929275513 0.94487643241882324 0.88056248426437378
0.82408308982849121 0.94418621063232422 0.88077175617218018
0.87436044216156006 0.94293510913848877 0.87490606307983398
0.92488247156143188 0.94255125522613525 0.86169135570526123
0.99137920141220093 0.94657176733016968 0.8807826042175293
0.52675753831863403 0.31694409251213074 0.97187739610671997
0.56175690889358521 0.31458860635757446 0.97136545181274414
0.63989794254302979 0.31736403703689575 0.97329676151275635
0.74774414300918579 0.32531630992889404 0.97723287343978882
0.87205535173416138 0.36285939812660217 0.97936451435089111
0.9814913272857666 0.44010370969772339 0.98067945241928101
1 0.48667740821838379 0.97107064723968506
0.52446740865707397 0.36376431584358215 0.96980839967727661
0.56252408027648926 0.36547392606735229 0.96911686658859253
0.63728231191635132 0.36486139893531799 0.97137224674224854
0.7497258186340332 0.38558080792427063 0.97430384159088135
0.87012529373168945 0.42362526059150696 0.97759145498275757
0.97529864311218262 0.50538396835327148 0.97521966695785522
1 0.54420226812362671 0.96877872943878174
0.51110798120498657 0.45165777206420898 0.96559298038482666
0.55254024267196655 0.45576190948486328 0.96391391754150391
0.63386708498001099 0.46348649263381958 0.96457332372665405
0.74748408794403076 0.48775160312652588 0.96870559453964233
0.86712086200714111 0.53809040784835815 0.97038573026657104
0.970054030418396 0.61139768362045288 0.97217696905136108
0.99998277425765991 0.635875403881073 0.96554803848266602
0.46974518895149231 0.5616878867149353 0.95606380701065063
0.51289087533950806 0.56269735097885132 0.9558260440826416
0.61253881454467773 0.57976275682449341 0.95608311891555786
0.73661792278289795 0.6091035008430481 0.95838743448257446
0.86098313331604004 0.66067355871200562 0.96003264188766479
0.9595373272895813 0.72437512874603271 0.96447515487670898
0.99920809268951416 0.73918861150741577 0.95949476957321167
0.42049491405487061 0.68896597623825073 0.94375628232955933
0.45481297373771667 0.68623542785644531 0.94362199306488037
0.54775309562683105 0.68984025716781616 0.94384998083114624
0.69184654951095581 0.71372401714324951 0.9458540678024292
0.84171897172927856 0.76663601398468018 0.95080989599227905
0.94375377893447876 0.81813526153564453 0.95627450942993164
0.99628317356109619 0.83754342794418335 0.95337247848510742
0.56099981069564819 0.85083132982254028 0.93951612710952759
0.58265292644500732 0.85001760721206665 0.93972033262252808
0.63310354948043823 0.84825700521469116 0.93823963403701782
0.71275991201400757 0.84430027008056641 0.9406856894493103
0.80895942449569702 0.84470504522323608 0.94089150428771973
0.92825800180435181 0.88373821973800659 0.9493718147277832
0.99485617876052856 0.90359580516815186 0.94901579618453979
0.76288115978240967 0.94749903678894043 0.94760680198669434
0.77229607105255127 0.94677019119262695 0.94671809673309326
0.80101007223129272 0.94689863920211792 0.94713723659515381
0.84664863348007202 0.9422498345375061 0.94941574335098267
0.89851629734039307 0.94285821914672852 0.95065927505493164
0.94770431518554688 0.94363373517990112 0.95143634080886841
0.99484086036682129 0.94738686084747314 0.95526492595672607
