luts/instant_pro/polaroid_665.cube
# Created by: G'MIC (https://gmic.eu)
TITLE "polaroid_665"
# LUT size
LUT_3D_SIZE 5
# Data domain
DOMAIN_MIN 0.0 0.0 0.0
DOMAIN_MAX 1.0 1.0 1.0
# LUT data points
0.058585073798894882 0.058585073798894882 0.058585073798894882
0.07575690746307373 0.07575690746307373 0.07575690746307373
0.16072456538677216 0.16072456538677216 0.16072456538677216
0.28017908334732056 0.28017908334732056 0.28017908334732056
0.441059410572052 0.441059410572052 0.441059410572052
0.13368216156959534 0.13368216156959534 0.13368216156959534
0.13859483599662781 0.13859483599662781 0.13859483599662781
0.22620733082294464 0.22620733082294464 0.22620733082294464
0.34066444635391235 0.34066444635391235 0.34066444635391235
0.48395025730133057 0.48395025730133057 0.48395025730133057
0.29372283816337585 0.29372283816337585 0.29372283816337585
0.29106533527374268 0.29106533527374268 0.29106533527374268
0.31363114714622498 0.31363114714622498 0.31363114714622498
0.40234607458114624 0.40234607458114624 0.40234607458114624
0.60767608880996704 0.60767608880996704 0.60767608880996704
0.5019792914390564 0.5019792914390564 0.5019792914390564
0.5150335431098938 0.5150335431098938 0.5150335431098938
0.5118720531463623 0.5118720531463623 0.5118720531463623
0.53668570518493652 0.53668570518493652 0.53668570518493652
0.68924432992935181 0.68924432992935181 0.68924432992935181
0.8187142014503479 0.8187142014503479 0.8187142014503479
0.81630539894104004 0.81630539894104004 0.81630539894104004
0.8296387791633606 0.8296387791633606 0.8296387791633606
0.85550475120544434 0.85550475120544434 0.85550475120544434
0.87610232830047607 0.87610232830047607 0.87610232830047607
0.15526309609413147 0.15526309609413147 0.15526309609413147
0.16952939331531525 0.16952939331531525 0.16952939331531525
0.23634105920791626 0.23634105920791626 0.23634105920791626
0.34102848172187805 0.34102848172187805 0.34102848172187805
0.48706761002540588 0.48706761002540588 0.48706761002540588
0.18542566895484924 0.18542566895484924 0.18542566895484924
0.22998926043510437 0.22998926043510437 0.22998926043510437
0.29317846894264221 0.29317846894264221 0.29317846894264221
0.40099155902862549 0.40099155902862549 0.40099155902862549
0.52654564380645752 0.52654564380645752 0.52654564380645752
0.3590969443321228 0.3590969443321228 0.3590969443321228
0.37010839581489563 0.37010839581489563 0.37010839581489563
0.37872034311294556 0.37872034311294556 0.37872034311294556
0.4674009382724762 0.4674009382724762 0.4674009382724762
0.63926130533218384 0.63926130533218384 0.63926130533218384
0.5719333291053772 0.5719333291053772 0.5719333291053772
0.57519984245300293 0.57519984245300293 0.57519984245300293
0.56301629543304443 0.56301629543304443 0.56301629543304443
0.58082801103591919 0.58082801103591919 0.58082801103591919
0.71560078859329224 0.71560078859329224 0.71560078859329224
0.84424889087677002 0.84424889087677002 0.84424889087677002
0.84031546115875244 0.84031546115875244 0.84031546115875244
0.84509122371673584 0.84509122371673584 0.84509122371673584
0.85990422964096069 0.85990422964096069 0.85990422964096069
0.88394922018051147 0.88394922018051147 0.88394922018051147
0.32826310396194458 0.32826310396194458 0.32826310396194458
0.33345130085945129 0.33345130085945129 0.33345130085945129
0.37248006463050842 0.37248006463050842 0.37248006463050842
0.46504828333854675 0.46504828333854675 0.46504828333854675
0.63408321142196655 0.63408321142196655 0.63408321142196655
0.37500086426734924 0.37500086426734924 0.37500086426734924
0.40167480707168579 0.40167480707168579 0.40167480707168579
0.42091408371925354 0.42091408371925354 0.42091408371925354
0.51340574026107788 0.51340574026107788 0.51340574026107788
0.64344054460525513 0.64344054460525513 0.64344054460525513
0.40840762853622437 0.40840762853622437 0.40840762853622437
0.45669889450073242 0.45669889450073242 0.45669889450073242
0.50905871391296387 0.50905871391296387 0.50905871391296387
0.57563692331314087 0.57563692331314087 0.57563692331314087
0.70116567611694336 0.70116567611694336 0.70116567611694336
0.5955997109413147 0.5955997109413147 0.5955997109413147
0.61814898252487183 0.61814898252487183 0.61814898252487183
0.6537594199180603 0.6537594199180603 0.6537594199180603
0.67845755815505981 0.67845755815505981 0.67845755815505981
0.78379136323928833 0.78379136323928833 0.78379136323928833
0.8727424144744873 0.8727424144744873 0.8727424144744873
0.86650651693344116 0.86650651693344116 0.86650651693344116
0.88270837068557739 0.88270837068557739 0.88270837068557739
0.88870060443878174 0.88870060443878174 0.88870060443878174
0.91971820592880249 0.91971820592880249 0.91971820592880249
0.57815426588058472 0.57815426588058472 0.57815426588058472
0.58239191770553589 0.58239191770553589 0.58239191770553589
0.60752648115158081 0.60752648115158081 0.60752648115158081
0.60286247730255127 0.60286247730255127 0.60286247730255127
0.71967041492462158 0.71967041492462158 0.71967041492462158
0.63352698087692261 0.63352698087692261 0.63352698087692261
0.64400875568389893 0.64400875568389893 0.64400875568389893
0.64998024702072144 0.64998024702072144 0.64998024702072144
0.64620202779769897 0.64620202779769897 0.64620202779769897
0.74859726428985596 0.74859726428985596 0.74859726428985596
0.65617156028747559 0.65617156028747559 0.65617156028747559
0.67682820558547974 0.67682820558547974 0.67682820558547974
0.69251507520675659 0.69251507520675659 0.69251507520675659
0.72100090980529785 0.72100090980529785 0.72100090980529785
0.79736906290054321 0.79736906290054321 0.79736906290054321
0.68252968788146973 0.68252968788146973 0.68252968788146973
0.69318032264709473 0.69318032264709473 0.69318032264709473
0.73367822170257568 0.73367822170257568 0.73367822170257568
0.79948580265045166 0.79948580265045166 0.79948580265045166
0.87124919891357422 0.87124919891357422 0.87124919891357422
0.8586726188659668 0.8586726188659668 0.8586726188659668
0.8796393871307373 0.8796393871307373 0.8796393871307373
0.89872545003890991 0.89872545003890991 0.89872545003890991
0.93119412660598755 0.93119412660598755 0.93119412660598755
0.95708894729614258 0.95708894729614258 0.95708894729614258
0.86719530820846558 0.86719530820846558 0.86719530820846558
0.86000508069992065 0.86000508069992065 0.86000508069992065
0.87881875038146973 0.87881875038146973 0.87881875038146973
0.89456832408905029 0.89456832408905029 0.89456832408905029
0.88957196474075317 0.88957196474075317 0.88957196474075317
0.88345348834991455 0.88345348834991455 0.88345348834991455
0.88024848699569702 0.88024848699569702 0.88024848699569702
0.89959341287612915 0.89959341287612915 0.89959341287612915
0.90989893674850464 0.90989893674850464 0.90989893674850464
0.89465522766113281 0.89465522766113281 0.89465522766113281
0.90124642848968506 0.90124642848968506 0.90124642848968506
0.90971720218658447 0.90971720218658447 0.90971720218658447
0.9179072380065918 0.9179072380065918 0.9179072380065918
0.91350740194320679 0.91350740194320679 0.91350740194320679
0.90647804737091064 0.90647804737091064 0.90647804737091064
0.91129523515701294 0.91129523515701294 0.91129523515701294
0.90994811058044434 0.90994811058044434 0.90994811058044434
0.90928882360458374 0.90928882360458374 0.90928882360458374
0.93252778053283691 0.93252778053283691 0.93252778053283691
0.95145589113235474 0.95145589113235474 0.95145589113235474
0.92709410190582275 0.92709410190582275 0.92709410190582275
0.93213772773742676 0.93213772773742676 0.93213772773742676
0.93424797058105469 0.93424797058105469 0.93424797058105469
0.9669603705406189 0.9669603705406189 0.9669603705406189
0.97824877500534058 0.97824877500534058 0.97824877500534058
