luts/instant_pro/polaroid_690_warm_++.cube
# Created by: G'MIC (https://gmic.eu)
TITLE "polaroid_690_warm_++"
# LUT size
LUT_3D_SIZE 13
# Data domain
DOMAIN_MIN 0.0 0.0 0.0
DOMAIN_MAX 1.0 1.0 1.0
# LUT data points
0.38254904747009277 0.28863328695297241 0.23743002116680145
0.38812753558158875 0.28816050291061401 0.23655274510383606
0.39496728777885437 0.28689199686050415 0.23651482164859772
0.40686908364295959 0.28509426116943359 0.23651482164859772
0.43698853254318237 0.28322696685791016 0.23586982488632202
0.47570052742958069 0.28002515435218811 0.23439739644527435
0.52918392419815063 0.27392092347145081 0.23265159130096436
0.59374135732650757 0.26257556676864624 0.23048409819602966
0.67350310087203979 0.24579155445098877 0.22873502969741821
0.75318747758865356 0.22884051501750946 0.22558903694152832
0.83327776193618774 0.2117992490530014 0.22147358953952789
0.91496938467025757 0.18879851698875427 0.21604155004024506
0.98123723268508911 0.16269771754741669 0.21086174249649048
0.38326451182365417 0.2959614098072052 0.23571030795574188
0.38594517111778259 0.29284560680389404 0.23533828556537628
0.39557161927223206 0.29253610968589783 0.23530560731887817
0.41547873616218567 0.2935129702091217 0.23528479039669037
0.44796490669250488 0.29204830527305603 0.23355934023857117
0.4906190037727356 0.28906640410423279 0.23282195627689362
0.54892939329147339 0.28387385606765747 0.23130214214324951
0.61304908990859985 0.27397730946540833 0.2292635589838028
0.68950039148330688 0.26095408201217651 0.22668370604515076
0.77139657735824585 0.250724196434021 0.22263632714748383
0.85301178693771362 0.23523113131523132 0.21800896525382996
0.93072551488876343 0.21193337440490723 0.21345467865467072
0.98728859424591064 0.19603973627090454 0.20992965996265411
0.38307490944862366 0.30589175224304199 0.2349465936422348
0.38722684979438782 0.30404239892959595 0.23512104153633118
0.39948803186416626 0.30481955409049988 0.23478731513023376
0.42229214310646057 0.30674529075622559 0.23378947377204895
0.45788300037384033 0.3067171573638916 0.23184044659137726
0.50885546207427979 0.3086363673210144 0.23071683943271637
0.57249242067337036 0.30595135688781738 0.22902427613735199
0.63812053203582764 0.29930019378662109 0.22666428983211517
0.71388179063796997 0.29166343808174133 0.22311027348041534
0.79418158531188965 0.28180330991744995 0.21839234232902527
0.87329047918319702 0.26724046468734741 0.21344627439975739
0.94619911909103394 0.25666046142578125 0.20792947709560394
0.99327057600021362 0.24676230549812317 0.2047455757856369
0.38462385535240173 0.32515040040016174 0.23337581753730774
0.39350220561027527 0.32724839448928833 0.23284482955932617
0.40508249402046204 0.32742947340011597 0.23227165639400482
0.42976468801498413 0.33051156997680664 0.23172473907470703
0.4707915186882019 0.3361242413520813 0.22927464544773102
0.53173518180847168 0.3461366593837738 0.22647911310195923
0.60518044233322144 0.35158145427703857 0.22452323138713837
0.6785590648651123 0.35244810581207275 0.22189486026763916
0.75098699331283569 0.34682193398475647 0.21712419390678406
0.82588231563568115 0.33620437979698181 0.21199873089790344
0.89794921875 0.3269411027431488 0.20629015564918518
0.9666435718536377 0.32044520974159241 0.19993522763252258
0.99510544538497925 0.3153441846370697 0.19855299592018127
0.39000388979911804 0.3673643171787262 0.22951672971248627
0.40057545900344849 0.36904710531234741 0.22857570648193359
0.4145875871181488 0.36917701363563538 0.22718636691570282
0.4419039785861969 0.3725992739200592 0.22590248286724091
0.48258247971534729 0.37897980213165283 0.22300703823566437
0.54424673318862915 0.38880184292793274 0.2195030152797699
0.62030774354934692 0.40002897381782532 0.21591027081012726
0.70859962701797485 0.41131412982940674 0.21226073801517487
0.79178553819656372 0.42029097676277161 0.20570006966590881
0.86664599180221558 0.4195118248462677 0.19976659119129181
0.93038338422775269 0.41209006309509277 0.19465668499469757
0.98520886898040771 0.40364053845405579 0.1888011246919632
0.99311274290084839 0.40115454792976379 0.1882011741399765
0.39572244882583618 0.41561591625213623 0.22407583892345428
0.40774714946746826 0.41856023669242859 0.22308133542537689
0.42212942242622375 0.41673237085342407 0.22143130004405975
0.44941553473472595 0.41824227571487427 0.2196245938539505
0.49190375208854675 0.42868149280548096 0.21579033136367798
0.54949498176574707 0.44090509414672852 0.20981308817863464
0.61850577592849731 0.45348054170608521 0.20266558229923248
0.70800900459289551 0.4728030264377594 0.19472323358058929
0.80414217710494995 0.49274685978889465 0.18651199340820312
0.88984006643295288 0.50596457719802856 0.18343667685985565
0.95784419775009155 0.51013469696044922 0.18182587623596191
0.98987436294555664 0.50487446784973145 0.17963480949401855
0.99655890464782715 0.49748900532722473 0.17633788287639618
0.40057438611984253 0.47719809412956238 0.21488356590270996
0.41307529807090759 0.47933575510978699 0.21454830467700958
0.43032005429267883 0.4772886335849762 0.21257399022579193
0.45708480477333069 0.47642844915390015 0.21014215052127838
0.49651128053665161 0.48246756196022034 0.20620380342006683
0.55500888824462891 0.49675717949867249 0.19804887473583221
0.6234251856803894 0.51505172252655029 0.18722090125083923
0.7023768424987793 0.5335574746131897 0.17655400931835175
0.79873675107955933 0.56025761365890503 0.16218578815460205
0.8857312798500061 0.5793108344078064 0.15488070249557495
0.96284359693527222 0.59292501211166382 0.15634731948375702
0.99285244941711426 0.59696871042251587 0.16458505392074585
0.99853318929672241 0.59743785858154297 0.17886483669281006
0.4046788215637207 0.5454171895980835 0.20201674103736877
0.41825985908508301 0.54849016666412354 0.19936761260032654
0.43723449110984802 0.54424452781677246 0.19890029728412628
0.46281731128692627 0.53935927152633667 0.19748398661613464
0.50615179538726807 0.54683023691177368 0.19011040031909943
0.56068110466003418 0.56030315160751343 0.1811804324388504
0.6238589882850647 0.57771658897399902 0.17043232917785645
0.69987201690673828 0.5979275107383728 0.15457622706890106
0.7836267352104187 0.62044930458068848 0.13629168272018433
0.87370795011520386 0.64455443620681763 0.11749611794948578
0.95266151428222656 0.66246300935745239 0.11360956728458405
0.99433493614196777 0.67386317253112793 0.13176544010639191
0.99963629245758057 0.68219083547592163 0.16880382597446442
0.41510090231895447 0.6264045238494873 0.17853210866451263
0.42420300841331482 0.62378603219985962 0.17903748154640198
0.44609090685844421 0.62069571018218994 0.17714734375476837
0.47537127137184143 0.61642873287200928 0.17458081245422363
0.51524120569229126 0.61704635620117188 0.16991420090198517
0.570148766040802 0.63082563877105713 0.1575954258441925
0.62924164533615112 0.64816707372665405 0.14359788596630096
0.70218294858932495 0.66834831237792969 0.12425024062395096
0.77886855602264404 0.68716448545455933 0.096856869757175446
0.86107480525970459 0.70677846670150757 0.069239705801010132
0.93938583135604858 0.72503352165222168 0.053482849150896072
0.99178087711334229 0.73919683694839478 0.076783187687397003
1 0.7484811544418335 0.13000564277172089
0.42952179908752441 0.71085447072982788 0.1448499858379364
0.4408317506313324 0.70695012807846069 0.14796893298625946
0.46247425675392151 0.70388615131378174 0.14358271658420563
0.49277359247207642 0.70068603754043579 0.13945990800857544
0.53143012523651123 0.69884288311004639 0.13383257389068604
0.58066433668136597 0.70612621307373047 0.12146712839603424
0.64040309190750122 0.72193211317062378 0.10618513822555542
0.70735800266265869 0.73956334590911865 0.081275567412376404
0.78192633390426636 0.75648355484008789 0.045445401221513748
0.85779494047164917 0.77091711759567261 0.022557411342859268
0.92963492870330811 0.78574299812316895 0.014745420776307583
0.98690330982208252 0.79937171936035156 0.023725172504782677
0.99981796741485596 0.80788594484329224 0.090283818542957306
0.45048105716705322 0.79468750953674316 0.11074546724557877
0.46479853987693787 0.79376024007797241 0.11061599105596542
0.48485648632049561 0.79019349813461304 0.10515066236257553
0.5149722695350647 0.78857523202896118 0.095523074269294739
0.55560111999511719 0.78729259967803955 0.085094824433326721
0.60061383247375488 0.7890133261680603 0.068467728793621063
0.65888988971710205 0.79816997051239014 0.050699811428785324
0.72332495450973511 0.81108319759368896 0.030339708551764488
0.7915915846824646 0.82350665330886841 0.011470495723187923
0.86003571748733521 0.83325755596160889 0.0081517836079001427
0.92606401443481445 0.84369748830795288 0.0088305156677961349
0.98207950592041016 0.85463947057723999 0.016242098063230515
0.99947571754455566 0.86204588413238525 0.081672638654708862
0.49489277601242065 0.87521767616271973 0.10775339603424072
0.50489950180053711 0.87500530481338501 0.10166186094284058
0.52387124300003052 0.8727230429649353 0.093327648937702179
0.55199795961380005 0.86963331699371338 0.084491848945617676
0.58975028991699219 0.86872023344039917 0.066216036677360535
0.63510876893997192 0.86891835927963257 0.043263528496026993
0.68923783302307129 0.87252640724182129 0.031104262918233871
0.74983912706375122 0.87853580713272095 0.03216591477394104
0.81154322624206543 0.88576728105545044 0.034646037966012955
0.87366634607315063 0.89183509349822998 0.039625100791454315
0.93367403745651245 0.89752364158630371 0.052869655191898346
0.98294061422348022 0.90190035104751587 0.081094704568386078
0.99849206209182739 0.90646392107009888 0.14441584050655365
0.57671207189559937 0.94100290536880493 0.20587252080440521
0.58430176973342896 0.94051241874694824 0.19921493530273438
0.60033929347991943 0.93825620412826538 0.1930740624666214
0.62490850687026978 0.93663090467453003 0.1884034276008606
0.65754646062850952 0.93675130605697632 0.17628462612628937
0.69773173332214355 0.93422329425811768 0.1643616110086441
0.74343878030776978 0.93379509449005127 0.15674911439418793
0.79600042104721069 0.93483614921569824 0.1709885448217392
0.84866076707839966 0.93616843223571777 0.18521814048290253
0.90280348062515259 0.93734896183013916 0.2016410231590271
0.95249670743942261 0.93900978565216064 0.22565740346908569
0.99045050144195557 0.94204235076904297 0.24882332980632782
0.99997198581695557 0.94343632459640503 0.28168407082557678
0.38355275988578796 0.28860294818878174 0.24689656496047974
0.387481689453125 0.28868812322616577 0.24428600072860718
0.39499548077583313 0.28692972660064697 0.2414126992225647
0.40910628437995911 0.28407746553421021 0.24109835922718048
0.44165286421775818 0.28091293573379517 0.24216268956661224
0.48137116432189941 0.27599179744720459 0.24280114471912384
0.52938443422317505 0.26921704411506653 0.24125508964061737
0.59422898292541504 0.25563600659370422 0.2396877110004425
0.66765302419662476 0.23888537287712097 0.23865431547164917
0.74640816450119019 0.21986874938011169 0.2339809238910675
0.82601505517959595 0.19533345103263855 0.22852204740047455
0.91039073467254639 0.16041578352451324 0.22332800924777985
0.98172926902770996 0.13171699643135071 0.21811714768409729
0.38431373238563538 0.29395654797554016 0.24299058318138123
0.38535919785499573 0.29226335883140564 0.24069972336292267
0.39575344324111938 0.29097115993499756 0.2392704039812088
0.4144555926322937 0.28819584846496582 0.2394268661737442
0.44849756360054016 0.28615874052047729 0.24019138514995575
0.49338480830192566 0.28350198268890381 0.24200282990932465
0.54648464918136597 0.27585282921791077 0.23996433615684509
0.60996848344802856 0.2645392119884491 0.23818463087081909
0.68288999795913696 0.24932500720024109 0.23628191649913788
0.76245623826980591 0.23590846359729767 0.23201186954975128
0.84365856647491455 0.21334013342857361 0.22766278684139252
0.9234052300453186 0.18313798308372498 0.22249282896518707
0.98560154438018799 0.16355468332767487 0.21802455186843872
0.38431373238563538 0.30717712640762329 0.24139489233493805
0.38617339730262756 0.30517297983169556 0.2388179749250412
0.40016284584999084 0.3038686215877533 0.23970700800418854
0.42323809862136841 0.30398190021514893 0.24046559631824493
0.46168559789657593 0.30364194512367249 0.24047122895717621
0.51272231340408325 0.30272325873374939 0.24119777977466583
0.57278311252593994 0.30020776391029358 0.23868724703788757
0.63756680488586426 0.29388493299484253 0.23621679842472076
0.710479736328125 0.28166022896766663 0.23419621586799622
0.78672987222671509 0.26759421825408936 0.23039893805980682
0.86497652530670166 0.25063112378120422 0.22557166218757629
0.94213688373565674 0.23428294062614441 0.21930870413780212
0.99191457033157349 0.22184987366199493 0.215049147605896
0.38471582531929016 0.33306822180747986 0.24151216447353363
0.39198985695838928 0.33038005232810974 0.23924647271633148
0.40582239627838135 0.32901209592819214 0.23881757259368896
0.43571460247039795 0.33446961641311646 0.24263079464435577
0.47538399696350098 0.33719247579574585 0.241580531001091
0.53483337163925171 0.34175741672515869 0.23917290568351746
0.60788023471832275 0.34660875797271729 0.23643526434898376
0.67688083648681641 0.34163600206375122 0.23220071196556091
0.74714666604995728 0.33406898379325867 0.22882230579853058
0.82139158248901367 0.32551971077919006 0.22600586712360382
0.89562976360321045 0.31561827659606934 0.2202332615852356
0.96654456853866577 0.30685949325561523 0.21218472719192505
0.99355095624923706 0.2982323169708252 0.21138580143451691
0.38790449500083923 0.37061282992362976 0.23890841007232666
0.39800846576690674 0.37168532609939575 0.2373022735118866
0.41451546549797058 0.37199971079826355 0.23582017421722412
0.44519251585006714 0.37750101089477539 0.23744542896747589
0.48678833246231079 0.38449198007583618 0.23746152222156525
0.54916679859161377 0.39134737849235535 0.23600061237812042
0.62745153903961182 0.40061852335929871 0.23212262988090515
0.71067517995834351 0.40948235988616943 0.2263808399438858
0.78752022981643677 0.41256576776504517 0.22232292592525482
0.86211317777633667 0.40885668992996216 0.21726061403751373
0.93017154932022095 0.40018761157989502 0.21141664683818817
0.9844670295715332 0.39438280463218689 0.20522341132164001
0.99291962385177612 0.38806220889091492 0.20436583459377289
0.3938891589641571 0.4232448935508728 0.23486092686653137
0.40373751521110535 0.4246126115322113 0.23309378325939178
0.42282494902610779 0.42377808690071106 0.23256528377532959
0.45185467600822449 0.42528080940246582 0.23208199441432953
0.49468472599983215 0.43406784534454346 0.22948433458805084
0.55526995658874512 0.44572633504867554 0.22573237121105194
0.62856936454772949 0.4580036997795105 0.21987380087375641
0.71200335025787354 0.47327905893325806 0.21184952557086945
0.80461949110031128 0.48895108699798584 0.20845632255077362
0.89198172092437744 0.50000721216201782 0.20418460667133331
0.96030360460281372 0.50297254323959351 0.20212326943874359
0.99078148603439331 0.49872028827667236 0.20138213038444519
0.99655014276504517 0.49188250303268433 0.19770781695842743
0.39961913228034973 0.48192065954208374 0.22716474533081055
0.40843474864959717 0.4824366569519043 0.22528864443302155
0.43052375316619873 0.48240980505943298 0.22504083812236786
0.46073499321937561 0.48367750644683838 0.22327904403209686
0.49923214316368103 0.4871404767036438 0.21790803968906403
0.55968630313873291 0.50117629766464233 0.21102029085159302
0.63144600391387939 0.51872926950454712 0.20262384414672852
0.70760136842727661 0.5364760160446167 0.19205859303474426
0.80039286613464355 0.55994695425033569 0.18483801186084747
0.88840919733047485 0.57655042409896851 0.17991472780704498
0.96614134311676025 0.5908246636390686 0.18361206352710724
0.99579328298568726 0.59850919246673584 0.19414123892784119
0.99982935190200806 0.59441006183624268 0.20367257297039032
0.40184766054153442 0.55555981397628784 0.21870149672031403
0.4147370457649231 0.55387413501739502 0.21342967450618744
0.43653175234794617 0.55072712898254395 0.21595944464206696
0.46690225601196289 0.55034524202346802 0.21343801915645599
0.50754678249359131 0.55323797464370728 0.20322030782699585
0.56360518932342529 0.56579339504241943 0.19531291723251343
0.63020366430282593 0.58317744731903076 0.18664193153381348
0.70503050088882446 0.60254758596420288 0.17142301797866821
0.78974217176437378 0.6240609884262085 0.15677079558372498
0.87808305025100708 0.64611506462097168 0.14691212773323059
0.95543193817138672 0.66152107715606689 0.14939811825752258
0.99489468336105347 0.67206418514251709 0.16882258653640747
1 0.67953300476074219 0.2047191858291626
0.41142269968986511 0.63680756092071533 0.1994422972202301
0.42282789945602417 0.6326872706413269 0.1992490142583847
0.44491127133369446 0.62837356328964233 0.19617226719856262
0.47606021165847778 0.62599122524261475 0.19083777070045471
0.515857994556427 0.62581509351730347 0.18532063066959381
0.56939005851745605 0.63633722066879272 0.17546606063842773
0.63304644823074341 0.65354901552200317 0.16274993121623993
0.7058371901512146 0.67308527231216431 0.14519967138767242
0.7853209376335144 0.69229292869567871 0.12797734141349792
0.86461210250854492 0.70827674865722656 0.1132085919380188
0.94182384014129639 0.7249072790145874 0.10861101001501083
0.99270772933959961 0.73917776346206665 0.12705127894878387
0.99996268749237061 0.74790424108505249 0.17309713363647461
0.42669087648391724 0.71960467100143433 0.16768340766429901
0.43704751133918762 0.71428549289703369 0.17076805233955383
0.45794197916984558 0.70885306596755981 0.16393621265888214
0.48799556493759155 0.70679956674575806 0.15708616375923157
0.53078418970108032 0.70734637975692749 0.15248808264732361
0.5814216136932373 0.71237266063690186 0.14379167556762695
0.64301389455795288 0.72723120450973511 0.1300157755613327
0.71167647838592529 0.74361830949783325 0.11203175038099289
0.78605490922927856 0.75907474756240845 0.092443965375423431
0.86054730415344238 0.77349919080734253 0.067818477749824524
0.93333929777145386 0.78878152370452881 0.062402702867984772
0.98672574758529663 0.79981148242950439 0.083106458187103271
0.99895381927490234 0.80567312240600586 0.14408960938453674
0.44670331478118896 0.80171751976013184 0.13770738244056702
0.4590514600276947 0.79757213592529297 0.13783770799636841
0.48127156496047974 0.79262161254882812 0.13463397324085236
0.51150298118591309 0.79195183515548706 0.12576617300510406
0.5534244179725647 0.79297178983688354 0.1154552549123764
0.60212165117263794 0.79291915893554688 0.10494012385606766
0.65924626588821411 0.80105602741241455 0.093988679349422455
0.72299462556838989 0.812430739402771 0.077881723642349243
0.7937391996383667 0.82537293434143066 0.062753684818744659
0.86321771144866943 0.83643066883087158 0.047635499387979507
0.92797732353210449 0.84723126888275146 0.043357279151678085
0.97981530427932739 0.85410892963409424 0.076422221958637238
0.99870401620864868 0.86081349849700928 0.13673584163188934
0.49283367395401001 0.87855178117752075 0.14199887216091156
0.50204938650131226 0.87656998634338379 0.13881434500217438
0.52232962846755981 0.87451827526092529 0.13217563927173615
0.55076307058334351 0.8726000189781189 0.12450720369815826
0.58880990743637085 0.87190413475036621 0.11065881699323654
0.63402193784713745 0.86953043937683105 0.093357473611831665
0.68842244148254395 0.87329316139221191 0.086204648017883301
0.74804192781448364 0.88024771213531494 0.085734076797962189
0.8111148476600647 0.88676446676254272 0.090067766606807709
0.87471681833267212 0.8920358419418335 0.096526831388473511
0.9335741400718689 0.89770817756652832 0.10852763056755066
0.98207372426986694 0.90291494131088257 0.13279980421066284
0.9989580512046814 0.90665292739868164 0.18082091212272644
0.57430839538574219 0.9412391185760498 0.23199699819087982
0.58240276575088501 0.94039028882980347 0.2286810576915741
0.59807497262954712 0.9386410117149353 0.22124120593070984
0.62283861637115479 0.93700945377349854 0.21640318632125854
0.65490823984146118 0.9370538592338562 0.20570817589759827
0.69598132371902466 0.93580907583236694 0.19587066769599915
0.74154520034790039 0.93487727642059326 0.1894521564245224
0.79386317729949951 0.93557822704315186 0.19887030124664307
0.84707242250442505 0.93673694133758545 0.213856041431427
0.90101999044418335 0.93904119729995728 0.23054112493991852
0.95173490047454834 0.94086241722106934 0.25217992067337036
0.99025976657867432 0.94235092401504517 0.27326935529708862
0.99999767541885376 0.94364947080612183 0.30080398917198181
0.38347184658050537 0.28836724162101746 0.25747650861740112
0.38713756203651428 0.28747189044952393 0.2571907639503479
0.39503452181816101 0.28642106056213379 0.25382611155509949
0.41059708595275879 0.28388091921806335 0.25195133686065674
0.44422310590744019 0.28039926290512085 0.25479048490524292
0.48338982462882996 0.27485907077789307 0.25792163610458374
0.53073382377624512 0.26511546969413757 0.25644388794898987
0.59193474054336548 0.25000205636024475 0.25488439202308655
0.65842318534851074 0.23199647665023804 0.25180822610855103
0.73378086090087891 0.20602037012577057 0.24712416529655457
0.81461465358734131 0.16833646595478058 0.24141374230384827
0.90157359838485718 0.12243453413248062 0.23469853401184082
0.98014193773269653 0.064503490924835205 0.22899046540260315
0.38431373238563538 0.29406529664993286 0.2564297616481781
0.38664636015892029 0.29278707504272461 0.25523737072944641
0.39879298210144043 0.29197883605957031 0.25610893964767456
0.4172309935092926 0.28904879093170166 0.25604745745658875
0.44854259490966797 0.28525710105895996 0.25500386953353882
0.49272239208221436 0.28008389472961426 0.25587397813796997
0.54580539464950562 0.26838961243629456 0.25288403034210205
0.60705351829528809 0.25395593047142029 0.2506527304649353
0.6755567193031311 0.23574617505073547 0.24795518815517426
0.7497631311416626 0.21614737808704376 0.24370819330215454
0.83032220602035522 0.18521896004676819 0.24104064702987671
0.91553425788879395 0.14785006642341614 0.23481899499893188
0.9858594536781311 0.11078663170337677 0.22868223488330841
0.38431373238563538 0.30824989080429077 0.25526943802833557
0.38808533549308777 0.30579254031181335 0.25466194748878479
0.40412783622741699 0.30470332503318787 0.25894001126289368
0.42528745532035828 0.3027198314666748 0.25907951593399048
0.46229067444801331 0.29918351769447327 0.25623276829719543
0.51101529598236084 0.29537743330001831 0.25465548038482666
0.56982511281967163 0.29237610101699829 0.25450745224952698
0.63289421796798706 0.28215906023979187 0.25147250294685364
0.70207118988037109 0.26515564322471619 0.24828319251537323
0.77614289522171021 0.25062593817710876 0.24471884965896606
0.85388684272766113 0.22928033769130707 0.24140410125255585
0.93662500381469727 0.20420590043067932 0.23465859889984131
0.99207359552383423 0.18525053560733795 0.228208988904953
0.384166419506073 0.33685022592544556 0.25780394673347473
0.39208471775054932 0.33456963300704956 0.25900819897651672
0.4077150821685791 0.33131581544876099 0.25982043147087097
0.43636929988861084 0.33557999134063721 0.26073044538497925
0.47714713215827942 0.33904299139976501 0.25859490036964417
0.53507816791534424 0.34038835763931274 0.2587643563747406
0.60219568014144897 0.3384055495262146 0.26013141870498657
0.66814029216766357 0.32867708802223206 0.25484228134155273
0.73790931701660156 0.31853818893432617 0.24835558235645294
0.81352084875106812 0.30968332290649414 0.24362859129905701
0.89066880941390991 0.29451268911361694 0.23818002641201019
0.96280550956726074 0.2806033194065094 0.23101213574409485
0.99535477161407471 0.27050924301147461 0.22637210786342621
0.38558143377304077 0.3770504891872406 0.26154106855392456
0.39595228433609009 0.37978878617286682 0.26180621981620789
0.41473686695098877 0.3782849907875061 0.25887128710746765
0.44509229063987732 0.381734699010849 0.25678226351737976
0.4878767728805542 0.38916745781898499 0.25633251667022705
0.55177050828933716 0.39434310793876648 0.25718000531196594
0.62829113006591797 0.39930641651153564 0.25846576690673828
0.70822656154632568 0.40402334928512573 0.25404125452041626
0.78438538312911987 0.4020715057849884 0.24801057577133179
