luts/instant_pro/polaroid_669_+++.cube
# Created by: G'MIC (https://gmic.eu)
TITLE "polaroid_669_+++"
# LUT size
LUT_3D_SIZE 7
# Data domain
DOMAIN_MIN 0.0 0.0 0.0
DOMAIN_MAX 1.0 1.0 1.0
# LUT data points
0.31850564479827881 0.23420290648937225 0.1877693235874176
0.33205410838127136 0.23648113012313843 0.19073574244976044
0.37738379836082458 0.24091711640357971 0.19974222779273987
0.46792548894882202 0.24270199239253998 0.20970733463764191
0.58387798070907593 0.24398143589496613 0.22444450855255127
0.718974769115448 0.25128772854804993 0.2471594363451004
0.86462539434432983 0.2705991268157959 0.28703004121780396
0.32972866296768188 0.26641193032264709 0.19265033304691315
0.34994718432426453 0.27148294448852539 0.19808435440063477
0.40165364742279053 0.27902108430862427 0.20979717373847961
0.49319332838058472 0.28546220064163208 0.22763723134994507
0.60724252462387085 0.28508910536766052 0.24345012009143829
0.73617523908615112 0.28872144222259521 0.26164969801902771
0.87145352363586426 0.31206580996513367 0.29996326565742493
0.34757816791534424 0.32453250885009766 0.21819637715816498
0.37070736289024353 0.3269965648651123 0.22039009630680084
0.42253285646438599 0.3334190845489502 0.2258637547492981
0.51484066247940063 0.34753566980361938 0.24539043009281158
0.64159691333770752 0.36538022756576538 0.27721068263053894
0.7742493748664856 0.38082194328308105 0.30817303061485291
0.88763493299484253 0.39802852272987366 0.34230771660804749
0.36687824130058289 0.40798506140708923 0.25831112265586853
0.38635721802711487 0.40406849980354309 0.25352829694747925
0.42831376194953918 0.40601316094398499 0.24906867742538452
0.50671952962875366 0.41886374354362488 0.25410035252571106
0.6282346248626709 0.44387811422348022 0.27972674369812012
0.77945083379745483 0.48810166120529175 0.34168890118598938
0.90194940567016602 0.53631329536437988 0.42162734270095825
0.37515762448310852 0.51706624031066895 0.29674890637397766
0.39277845621109009 0.51019608974456787 0.29125946760177612
0.42890244722366333 0.50896918773651123 0.28703156113624573
0.50095945596694946 0.52082496881484985 0.28917601704597473
0.60776007175445557 0.54431241750717163 0.29134240746498108
0.74568486213684082 0.57339948415756226 0.31791812181472778
0.88314759731292725 0.63949638605117798 0.42329192161560059
0.37354108691215515 0.67138290405273438 0.33779889345169067
0.39437371492385864 0.66362690925598145 0.33665627241134644
0.43017691373825073 0.65446740388870239 0.32769021391868591
0.50385713577270508 0.66032040119171143 0.3317510187625885
0.60868924856185913 0.68901330232620239 0.33097630739212036
0.73809850215911865 0.71079337596893311 0.33684399724006653
0.85884559154510498 0.74355244636535645 0.38396307826042175
0.46222695708274841 0.86230146884918213 0.48232546448707581
0.4768577516078949 0.86076498031616211 0.47924542427062988
0.51470303535461426 0.85651671886444092 0.48167848587036133
0.57482731342315674 0.85484564304351807 0.48089215159416199
0.66903501749038696 0.87017321586608887 0.49494311213493347
0.77810710668563843 0.89360916614532471 0.52089917659759521
0.87585043907165527 0.91136759519577026 0.55679184198379517
0.31138321757316589 0.22721664607524872 0.22095566987991333
0.3294985294342041 0.2310698926448822 0.22589090466499329
0.37830114364624023 0.23864579200744629 0.23777575790882111
0.46972289681434631 0.24562793970108032 0.25772452354431152
0.5878596305847168 0.24826808273792267 0.27576783299446106
0.71990633010864258 0.25353837013244629 0.2930944561958313
0.86031323671340942 0.27568838000297546 0.33186420798301697
0.32568255066871643 0.26323169469833374 0.23480311036109924
0.34852653741836548 0.27247458696365356 0.24471916258335114
0.40569183230400085 0.2831023633480072 0.26059809327125549
0.50093454122543335 0.29116350412368774 0.28294792771339417
0.61219644546508789 0.28549039363861084 0.29246345162391663
0.74021691083908081 0.28776106238365173 0.30584964156150818
0.87512373924255371 0.31739634275436401 0.34872093796730042
0.34619370102882385 0.33833229541778564 0.27705329656600952
0.37171521782875061 0.34473195672035217 0.28428667783737183
0.42911422252655029 0.34759780764579773 0.28675362467765808
0.5293164849281311 0.36182489991188049 0.3057934045791626
0.64867299795150757 0.37099578976631165 0.33087754249572754
0.77441918849945068 0.38090747594833374 0.35062628984451294
0.89107871055603027 0.40499052405357361 0.3851451575756073
0.37020993232727051 0.44179561734199524 0.32570630311965942
0.38862362504005432 0.43263271450996399 0.3183218240737915
0.43151763081550598 0.42481309175491333 0.30505308508872986
0.51792198419570923 0.44009950757026672 0.30693385004997253
0.64717286825180054 0.46528998017311096 0.34043020009994507
0.79256385564804077 0.50815093517303467 0.40144145488739014
0.9022524356842041 0.54554164409637451 0.46090087294578552
0.37814724445343018 0.5447770357131958 0.35080623626708984
0.39432701468467712 0.53179222345352173 0.34167742729187012
0.43320998549461365 0.52971547842025757 0.33646604418754578
0.50453919172286987 0.54483979940414429 0.33551377058029175
0.61812955141067505 0.56060469150543213 0.33603319525718689
0.75215804576873779 0.58361124992370605 0.36017751693725586
0.88384097814559937 0.65291553735733032 0.47256401181221008
0.37980785965919495 0.6836434006690979 0.38013151288032532
0.3970777690410614 0.67432069778442383 0.37609019875526428
0.43583101034164429 0.66818249225616455 0.37001678347587585
0.49936971068382263 0.67577707767486572 0.36032935976982117
0.60997116565704346 0.69968920946121216 0.36315456032752991
0.74030405282974243 0.71735864877700806 0.36933201551437378
0.85742735862731934 0.74070334434509277 0.41121852397918701
0.4658907949924469 0.86545264720916748 0.51087272167205811
0.47818580269813538 0.86509042978286743 0.50813949108123779
0.51261043548583984 0.85773324966430664 0.50347757339477539
0.56944096088409424 0.85642218589782715 0.49787458777427673
0.66673952341079712 0.87479501962661743 0.51565796136856079
0.77386963367462158 0.89488905668258667 0.54053753614425659
0.87862867116928101 0.90949720144271851 0.58614492416381836
0.3054911196231842 0.23656731843948364 0.2972293496131897
0.32699432969093323 0.23645947873592377 0.30906599760055542
0.38509434461593628 0.24785052239894867 0.33030042052268982
0.48369532823562622 0.26271513104438782 0.36255109310150146
0.61282163858413696 0.2731269896030426 0.39238178730010986
0.74534434080123901 0.26158052682876587 0.39359447360038757
0.87632101774215698 0.26288563013076782 0.40775811672210693
0.31890711188316345 0.27739623188972473 0.3259827196598053
0.34336704015731812 0.28348100185394287 0.34143316745758057
0.41511937975883484 0.29803887009620667 0.3697761595249176
0.51251834630966187 0.30756527185440063 0.39338767528533936
0.62710916996002197 0.30632027983665466 0.40498256683349609
0.75786072015762329 0.30240687727928162 0.41052970290184021
0.88545799255371094 0.31171822547912598 0.42938244342803955
0.33495059609413147 0.3701530396938324 0.3874911367893219
0.36793488264083862 0.3767223060131073 0.40087378025054932
0.44238531589508057 0.38029271364212036 0.41880828142166138
0.54077541828155518 0.3806312084197998 0.42695528268814087
0.65471476316452026 0.38370934128761292 0.43817013502120972
0.77799022197723389 0.38505536317825317 0.44375017285346985
0.89218622446060181 0.40983855724334717 0.46343624591827393
0.35961267352104187 0.48920935392379761 0.43014621734619141
0.38628247380256653 0.48021408915519714 0.42970043420791626
0.44664090871810913 0.47247594594955444 0.43526151776313782
0.54061233997344971 0.47579807043075562 0.43542194366455078
0.6718476414680481 0.5011557936668396 0.46399685740470886
0.79730039834976196 0.52467656135559082 0.50105029344558716
0.89828896522521973 0.55698204040527344 0.53543055057525635
0.38159289956092834 0.59864455461502075 0.45473784208297729
0.40026521682739258 0.58937841653823853 0.44809228181838989
0.44763675332069397 0.58164674043655396 0.44635668396949768
0.51752233505249023 0.57623547315597534 0.43294855952262878
0.63882541656494141 0.59120136499404907 0.43579718470573425
0.76848983764648438 0.61165505647659302 0.46104323863983154
0.88586771488189697 0.67541044950485229 0.56001240015029907
0.38919210433959961 0.72119665145874023 0.47405228018760681
0.40426215529441833 0.71353328227996826 0.46690541505813599
0.44449970126152039 0.70781415700912476 0.45788705348968506
0.50883775949478149 0.70314079523086548 0.44427019357681274
0.61546188592910767 0.71624159812927246 0.44726231694221497
0.74729394912719727 0.73086750507354736 0.45083552598953247
0.86288189888000488 0.75785958766937256 0.49802622199058533
0.4769035279750824 0.87815272808074951 0.57196217775344849
0.48866841197013855 0.87514996528625488 0.56975424289703369
0.52538925409317017 0.87294960021972656 0.56443595886230469
0.57946640253067017 0.86849832534790039 0.5556754469871521
0.65995115041732788 0.87697786092758179 0.5618928074836731
0.77144134044647217 0.89834165573120117 0.59304690361022949
0.8822142481803894 0.91313952207565308 0.62678724527359009
0.27964439988136292 0.26503434777259827 0.43862679600715637
0.30038973689079285 0.25854682922363281 0.46005463600158691
0.38865655660629272 0.27651754021644592 0.50172370672225952
0.50674164295196533 0.2951413094997406 0.53271245956420898
0.63179296255111694 0.31353279948234558 0.5556601881980896
0.77914190292358398 0.35109305381774902 0.58457076549530029
0.89445501565933228 0.35138925909996033 0.5831303596496582
0.29590514302253723 0.31499016284942627 0.47594410181045532
0.31711241602897644 0.3078768253326416 0.49399450421333313
0.40832570195198059 0.32249590754508972 0.53396594524383545
0.52590066194534302 0.34144678711891174 0.55845552682876587
0.64828938245773315 0.36280626058578491 0.57647442817687988
0.78430414199829102 0.39156398177146912 0.59831994771957397
0.89539110660552979 0.38630369305610657 0.58591508865356445
0.31063073873519897 0.40555927157402039 0.52111411094665527
0.35166239738464355 0.40819200873374939 0.54218572378158569
0.4307122528553009 0.41130590438842773 0.56993252038955688
0.54923766851425171 0.42953115701675415 0.59317362308502197
0.66931581497192383 0.45202401280403137 0.60420423746109009
0.78643375635147095 0.45232987403869629 0.59885901212692261
0.89214468002319336 0.43249979615211487 0.58296722173690796
0.33063864707946777 0.52757894992828369 0.57587498426437378
0.37740033864974976 0.52611804008483887 0.57391166687011719
0.45172420144081116 0.52816593647003174 0.58983629941940308
0.56294387578964233 0.53660601377487183 0.60928332805633545
0.68108063936233521 0.54528999328613281 0.61632943153381348
0.79075151681900024 0.53098577260971069 0.61030060052871704
0.88983154296875 0.55047941207885742 0.61857515573501587
0.36800992488861084 0.6572268009185791 0.58560669422149658
0.39400497078895569 0.65570634603500366 0.58907759189605713
0.47211629152297974 0.64794492721557617 0.59762924909591675
0.55386310815811157 0.63379162549972534 0.59253036975860596
0.6657789945602417 0.6405215859413147 0.59121334552764893
0.78613603115081787 0.67388647794723511 0.62747961282730103
0.88129711151123047 0.70911043882369995 0.67258262634277344
0.4055379331111908 0.77195519208908081 0.6048772931098938
0.42761456966400146 0.76898092031478882 0.60178583860397339
0.4746546745300293 0.76056182384490967 0.59505510330200195
0.54056769609451294 0.74278217554092407 0.57905721664428711
0.62371718883514404 0.73140245676040649 0.56405854225158691
0.75029140710830688 0.75420939922332764 0.57278549671173096
0.86407452821731567 0.78194475173950195 0.6196969747543335
0.49855777621269226 0.89727693796157837 0.66152465343475342
0.5148547887802124 0.89649057388305664 0.66202914714813232
0.54437494277954102 0.89365631341934204 0.65969240665435791
0.59656614065170288 0.88599866628646851 0.64784818887710571
0.65767091512680054 0.88013160228729248 0.63904613256454468
0.76252347230911255 0.90369820594787598 0.65614032745361328
0.8793448805809021 0.91628259420394897 0.669505774974823
0.18224620819091797 0.30424195528030396 0.63324230909347534
0.21453699469566345 0.29767364263534546 0.64724498987197876
0.34582191705703735 0.31162205338478088 0.67616480588912964
0.51740401983261108 0.34085196256637573 0.70407229661941528
0.67373925447463989 0.37584689259529114 0.7187620997428894
0.79213511943817139 0.41190209984779358 0.73149955272674561
0.89011222124099731 0.52223706245422363 0.75838309526443481
0.23300677537918091 0.36669400334358215 0.66368293762207031
0.26170966029167175 0.35022377967834473 0.67056107521057129
0.36364194750785828 0.35164442658424377 0.69280964136123657
0.53768074512481689 0.39116767048835754 0.72204899787902832
0.68729579448699951 0.42834487557411194 0.7278556227684021
0.79493242502212524 0.46486875414848328 0.74118655920028687
0.88879179954528809 0.55959075689315796 0.76322400569915771
0.28879088163375854 0.4602152407169342 0.676705002784729
0.33116886019706726 0.45622739195823669 0.68406146764755249
0.41133663058280945 0.44830378890037537 0.70053505897521973
0.55615478754043579 0.48007047176361084 0.73127257823944092
0.70524448156356812 0.52734512090682983 0.74424088001251221
0.7954978346824646 0.5614013671875 0.75468939542770386
0.88551175594329834 0.60470020771026611 0.76293647289276123
0.28686037659645081 0.55948352813720703 0.68642729520797729
0.33813372254371643 0.56216228008270264 0.68531829118728638
0.44152671098709106 0.56710952520370483 0.69736719131469727
0.56807750463485718 0.5852014422416687 0.72945857048034668
0.69867241382598877 0.6205478310585022 0.75028377771377563
0.79328107833862305 0.64838021993637085 0.75693869590759277
0.87932974100112915 0.64708632230758667 0.74433261156082153
0.36945709586143494 0.69524282217025757 0.71770739555358887
0.40936863422393799 0.69330120086669922 0.71745800971984863
0.49321126937866211 0.68753510713577271 0.72309446334838867
0.58609801530838013 0.69649696350097656 0.73251938819885254
0.69817477464675903 0.71117883920669556 0.7438240647315979
0.79238086938858032 0.72151237726211548 0.75234997272491455
0.87384569644927979 0.70883768796920776 0.75108480453491211
0.46982589364051819 0.82075369358062744 0.72793114185333252
0.49232614040374756 0.81674623489379883 0.72773325443267822
0.53338992595672607 0.81163430213928223 0.72966468334197998
0.61089992523193359 0.81067067384719849 0.73305374383926392
0.67326360940933228 0.78741109371185303 0.72108578681945801
0.76501590013504028 0.79234546422958374 0.71747845411300659
0.86240571737289429 0.82621771097183228 0.74683189392089844
0.55548906326293945 0.91954046487808228 0.74559807777404785
0.56644487380981445 0.91883891820907593 0.74766039848327637
0.58429628610610962 0.91493374109268188 0.74766606092453003
0.63342475891113281 0.91202288866043091 0.74355965852737427
0.67505913972854614 0.89622467756271362 0.73174065351486206
0.75308501720428467 0.90074169635772705 0.72928625345230103
0.87365365028381348 0.92162424325942993 0.74149084091186523
0.042499303817749023 0.37000459432601929 0.80046314001083374
0.14236260950565338 0.35923102498054504 0.80152392387390137
0.31351849436759949 0.37013658881187439 0.80743265151977539
0.52249205112457275 0.41378185153007507 0.81787949800491333
0.71106880903244019 0.49305307865142822 0.82953822612762451
0.82348251342773438 0.54597669839859009 0.82205718755722046
0.8885185718536377 0.5868106484413147 0.82398921251296997
0.19084101915359497 0.42520764470100403 0.80463618040084839
0.23985517024993896 0.41484761238098145 0.80742543935775757
0.34672027826309204 0.41325756907463074 0.81232178211212158
0.53505688905715942 0.46229475736618042 0.82080459594726562
0.71983945369720459 0.54552799463272095 0.8285096287727356
0.8266417384147644 0.5864453911781311 0.82329791784286499
0.88709861040115356 0.62443828582763672 0.82739496231079102
0.31104588508605957 0.52737885713577271 0.79997599124908447
0.35495653748512268 0.52224135398864746 0.80465161800384521
0.42471382021903992 0.50908839702606201 0.81070393323898315
0.55744028091430664 0.53656530380249023 0.81960797309875488
0.72652757167816162 0.62147676944732666 0.82945525646209717
0.82154935598373413 0.65847253799438477 0.82300716638565063
0.87942558526992798 0.69308584928512573 0.82802420854568481
0.31878790259361267 0.62166398763656616 0.78514903783798218
0.3681354820728302 0.62070959806442261 0.78747153282165527
0.46922332048416138 0.62564468383789062 0.79854130744934082
0.59145736694335938 0.63610851764678955 0.80975198745727539
0.72152745723724365 0.69202041625976562 0.82051593065261841
0.81615334749221802 0.73560869693756104 0.8221476674079895
0.86818867921829224 0.76699388027191162 0.8304564356803894
0.36995777487754822 0.73306113481521606 0.79400491714477539
0.39110907912254333 0.72613906860351562 0.79482215642929077
0.46401232481002808 0.72176897525787354 0.79476523399353027
0.58897942304611206 0.73338454961776733 0.80121064186096191
0.71062618494033813 0.76416444778442383 0.81249606609344482
0.80959582328796387 0.80588585138320923 0.82367390394210815
0.86738544702529907 0.82571876049041748 0.82601284980773926
0.50265800952911377 0.84164118766784668 0.80281597375869751
0.5330994725227356 0.84196215867996216 0.80390185117721558
0.57409030199050903 0.8438950777053833 0.80693727731704712
0.65107518434524536 0.84767192602157593 0.81106728315353394
0.72849780321121216 0.85046482086181641 0.81382721662521362
0.7999996542930603 0.85895466804504395 0.81098586320877075
0.87193292379379272 0.86086446046829224 0.81701236963272095
0.64858293533325195 0.93704897165298462 0.81069344282150269
0.64335298538208008 0.93689417839050293 0.80927819013595581
0.67551851272583008 0.93935614824295044 0.81237363815307617
0.7052420973777771 0.93959587812423706 0.81109517812728882
0.74616050720214844 0.93496978282928467 0.80889999866485596
0.78439843654632568 0.92417985200881958 0.79984039068222046
0.88280916213989258 0.93754112720489502 0.80118036270141602
0.32842913269996643 0.50994032621383667 0.87071079015731812
0.36359488964080811 0.50900924205780029 0.87078076601028442
0.46085736155509949 0.51716780662536621 0.87263596057891846
0.60428720712661743 0.55293822288513184 0.87065130472183228
0.74339389801025391 0.62599581480026245 0.8692777156829834
0.84545207023620605 0.71456128358840942 0.86549550294876099
0.89843487739562988 0.74836206436157227 0.8573986291885376
0.39180910587310791 0.56133317947387695 0.86906653642654419
0.41806790232658386 0.55334490537643433 0.87085139751434326
0.49353519082069397 0.55990982055664062 0.87138426303863525
0.62618792057037354 0.60321319103240967 0.867897629737854
0.75263184309005737 0.6620526909828186 0.86423653364181519
0.84770357608795166 0.74121654033660889 0.86229461431503296
0.90354418754577637 0.77436184883117676 0.86005240678787231
0.45740950107574463 0.63638240098953247 0.86238270998001099
0.49706324934959412 0.6352614164352417 0.86519742012023926
0.55426299571990967 0.6311575174331665 0.86695289611816406
0.64474260807037354 0.64792793989181519 0.8632885217666626
0.75697946548461914 0.70623540878295898 0.85996836423873901
0.84634453058242798 0.77778655290603638 0.85802096128463745
0.90146970748901367 0.80376678705215454 0.85582119226455688
0.49445250630378723 0.72823214530944824 0.85129719972610474
0.5321805477142334 0.7284698486328125 0.85485148429870605
0.59534984827041626 0.72705787420272827 0.85675930976867676
0.66727632284164429 0.72217613458633423 0.85852622985839844
0.75365406274795532 0.76001495122909546 0.85823303461074829
0.84371960163116455 0.82180249691009521 0.85468721389770508
0.89780694246292114 0.83683627843856812 0.85134106874465942
0.48534479737281799 0.80762314796447754 0.84325981140136719
0.49480602145195007 0.80439895391464233 0.84515690803527832
0.56457114219665527 0.80615919828414917 0.84484976530075073
0.65016657114028931 0.80447936058044434 0.84791457653045654
0.74818342924118042 0.82579177618026733 0.85047173500061035
0.8369256854057312 0.87043297290802002 0.85291504859924316
0.8976210355758667 0.88542252779006958 0.85307687520980835
0.5757332444190979 0.8968091607093811 0.84434396028518677
0.58752965927124023 0.89716118574142456 0.84477365016937256
0.61816167831420898 0.88946652412414551 0.84272485971450806
0.66234499216079712 0.88632643222808838 0.8431517481803894
0.73385864496231079 0.88821005821228027 0.84381932020187378
0.82209795713424683 0.91060894727706909 0.8492845892906189
0.9108123779296875 0.92723500728607178 0.85495734214782715
0.6904488205909729 0.96085083484649658 0.84536457061767578
0.70075780153274536 0.96617358922958374 0.84613972902297974
0.7185634970664978 0.95820623636245728 0.84381693601608276
0.74142986536026001 0.95680224895477295 0.84542679786682129
0.78724342584609985 0.96109491586685181 0.85042554140090942
0.85019886493682861 0.96039235591888428 0.85075616836547852
0.93124425411224365 0.96353614330291748 0.85179859399795532
