luts/instant_pro/polaroid_669_cold_+.cube
# Created by: G'MIC (https://gmic.eu)
TITLE "polaroid_669_cold_+"
# LUT size
LUT_3D_SIZE 13
# Data domain
DOMAIN_MIN 0.0 0.0 0.0
DOMAIN_MAX 1.0 1.0 1.0
# LUT data points
0.0030339858494699001 0.25004088878631592 0.31042718887329102
0.0039215688593685627 0.24765644967556 0.31003555655479431
0.0039215688593685627 0.24431034922599792 0.30706590414047241
0.0048707551322877407 0.24011479318141937 0.30260202288627625
0.051738139241933823 0.23823896050453186 0.30239242315292358
0.15359117090702057 0.23897938430309296 0.30760946869850159
0.25626698136329651 0.23825730383396149 0.31229996681213379
0.35676613450050354 0.23783598840236664 0.31912967562675476
0.46076834201812744 0.23572364449501038 0.32806119322776794
0.56156772375106812 0.23349693417549133 0.33779042959213257
0.65433144569396973 0.23051588237285614 0.35026532411575317
0.74801313877105713 0.22946749627590179 0.36554744839668274
0.83035421371459961 0.23537035286426544 0.38291645050048828
0.0021841311827301979 0.25097590684890747 0.3089962899684906
0.0039215688593685627 0.25035256147384644 0.30892384052276611
0.0039413152262568474 0.24817179143428802 0.30725130438804626
0.0095906127244234085 0.24486717581748962 0.30406919121742249
0.078858532011508942 0.24540993571281433 0.30684396624565125
0.17916084825992584 0.24627771973609924 0.31158816814422607
0.27883875370025635 0.2456330806016922 0.31735140085220337
0.37955299019813538 0.24612186849117279 0.32653364539146423
0.47645848989486694 0.24354135990142822 0.3332010805606842
0.5698511004447937 0.24013336002826691 0.3401305079460144
0.66157454252243042 0.24005058407783508 0.35175451636314392
0.75480389595031738 0.24183191359043121 0.36433559656143188
0.83675193786621094 0.25227805972099304 0.38122895359992981
0.0013399161398410797 0.25474840402603149 0.30752462148666382
0.0039215688593685627 0.25778588652610779 0.30979946255683899
0.0043223360553383827 0.25846153497695923 0.30981701612472534
0.02967916801571846 0.25830557942390442 0.30897504091262817
0.11778842657804489 0.26265713572502136 0.31349384784698486
0.21602723002433777 0.26413124799728394 0.3181958794593811
0.31169408559799194 0.26530042290687561 0.32593634724617004
0.40984416007995605 0.26640990376472473 0.33545276522636414
0.50372612476348877 0.26642253994941711 0.34350410103797913
0.59250152111053467 0.26954597234725952 0.35155659914016724
0.68098545074462891 0.26675200462341309 0.36031582951545715
0.76603418588638306 0.26601880788803101 0.36975383758544922
0.84467464685440063 0.28081139922142029 0.38765934109687805
0.0027041565626859665 0.27200773358345032 0.31330019235610962
0.0045215231366455555 0.27437236905097961 0.31502702832221985
0.0067057292908430099 0.27372664213180542 0.31400522589683533
0.064439244568347931 0.27738216519355774 0.31560531258583069
0.16355112195014954 0.2841833233833313 0.32076764106750488
0.25438457727432251 0.28802105784416199 0.32505640387535095
0.35240167379379272 0.29225888848304749 0.33502465486526489
0.45268213748931885 0.29609242081642151 0.34790307283401489
0.53801631927490234 0.30114564299583435 0.357500821352005
0.62198591232299805 0.30909878015518188 0.36634576320648193
0.70270049571990967 0.30894607305526733 0.37489756941795349
0.77978801727294922 0.31195002794265747 0.38512492179870605
0.85377234220504761 0.32684153318405151 0.40213784575462341
0.0041029388085007668 0.30487871170043945 0.32553082704544067
0.0062913033179938793 0.30269968509674072 0.32524535059928894
0.025923769921064377 0.30120503902435303 0.32412514090538025
0.11129152029752731 0.30677640438079834 0.32622700929641724
0.20051455497741699 0.31078317761421204 0.32907328009605408
0.2861449122428894 0.31438446044921875 0.33141762018203735
0.37930896878242493 0.32071933150291443 0.34093305468559265
0.47949260473251343 0.3307587206363678 0.35725265741348267
0.56862336397171021 0.34291854500770569 0.3693884015083313
0.65415817499160767 0.3529822826385498 0.37976163625717163
0.72686409950256348 0.35776659846305847 0.39017102122306824
0.79734307527542114 0.36295422911643982 0.40052333474159241
0.86282652616500854 0.38597795367240906 0.41930305957794189
0.010297977365553379 0.34027057886123657 0.33759760856628418
0.031079938635230064 0.34074702858924866 0.33836734294891357
0.075282514095306396 0.34041455388069153 0.3386509120464325
0.14394107460975647 0.34262654185295105 0.33971068263053894
0.22538821399211884 0.34642347693443298 0.34158432483673096
0.30738896131515503 0.35191944241523743 0.34382271766662598
0.38724285364151001 0.35939395427703857 0.34810346364974976
0.47671353816986084 0.36924433708190918 0.35990607738494873
0.57367026805877686 0.38354706764221191 0.37428960204124451
0.66977787017822266 0.40440315008163452 0.39110171794891357
0.74365389347076416 0.42523247003555298 0.40987363457679749
0.8115198016166687 0.43903037905693054 0.42427447438240051
0.86900663375854492 0.4658571183681488 0.44569095969200134
0.060808546841144562 0.39194110035896301 0.35336160659790039
0.095999680459499359 0.39134892821311951 0.35448527336120605
0.13541595637798309 0.38792857527732849 0.3542708158493042
0.18326203525066376 0.38479438424110413 0.35357162356376648
0.24431321024894714 0.38652434945106506 0.35426762700080872
0.32054921984672546 0.39488735795021057 0.35706278681755066
0.39674463868141174 0.40353932976722717 0.35991472005844116
0.47634446620941162 0.41131603717803955 0.36447107791900635
0.56381601095199585 0.42899787425994873 0.37531962990760803
0.65366154909133911 0.45748534798622131 0.39314621686935425
0.73813235759735107 0.48843875527381897 0.41903400421142578
0.8157813549041748 0.52227663993835449 0.44865992665290833
0.86519324779510498 0.55568492412567139 0.4793238639831543
0.11695227771997452 0.45176136493682861 0.36888709664344788
0.14187541604042053 0.44995567202568054 0.36970430612564087
0.17378567159175873 0.44477060437202454 0.36889162659645081
0.21494416892528534 0.43899157643318176 0.36766773462295532
0.26416099071502686 0.439178466796875 0.36747592687606812
0.3306310772895813 0.44898983836174011 0.36932837963104248
0.40288779139518738 0.45828598737716675 0.37124413251876831
0.47784137725830078 0.46836358308792114 0.37378343939781189
0.55554401874542236 0.48548829555511475 0.37899845838546753
0.63819652795791626 0.50836926698684692 0.39033791422843933
0.72304105758666992 0.53777551651000977 0.41135221719741821
0.7967684268951416 0.57696735858917236 0.44596678018569946
0.85333538055419922 0.62476778030395508 0.49303799867630005
0.16068699955940247 0.51192003488540649 0.38247111439704895
0.1788199245929718 0.5095667839050293 0.38282817602157593
0.20569807291030884 0.5048670768737793 0.38215610384941101
0.24047908186912537 0.4984385073184967 0.3815009593963623
0.2837073802947998 0.49505001306533813 0.38126388192176819
0.34407749772071838 0.50801753997802734 0.38245606422424316
0.409414142370224 0.51890003681182861 0.38295751810073853
0.4818178117275238 0.53563737869262695 0.38587707281112671
0.55608534812927246 0.55442631244659424 0.38868215680122375
0.62974631786346436 0.56795644760131836 0.38869163393974304
0.70662957429885864 0.59053605794906616 0.40015187859535217
0.778220534324646 0.63113456964492798 0.43748718500137329
0.83613502979278564 0.67790907621383667 0.48781624436378479
0.18987874686717987 0.59914231300354004 0.39976531267166138
0.20497265458106995 0.59422838687896729 0.39768823981285095
0.23067556321620941 0.58909595012664795 0.39823433756828308
0.26428636908531189 0.58349442481994629 0.39821341633796692
0.30336755514144897 0.57570099830627441 0.39567998051643372
0.35815712809562683 0.58504784107208252 0.39624053239822388
0.41946873068809509 0.59957945346832275 0.39794129133224487
0.48784968256950378 0.618793785572052 0.40023809671401978
0.56007516384124756 0.63773947954177856 0.40311780571937561
0.62821805477142334 0.65158677101135254 0.40409198403358459
0.69398683309555054 0.66625398397445679 0.40826037526130676
0.76034832000732422 0.69403254985809326 0.4307611882686615
0.82176989316940308 0.73356205224990845 0.47344294190406799
0.2141861617565155 0.69865816831588745 0.42000967264175415
0.22903890907764435 0.69273924827575684 0.41791191697120667
0.25606027245521545 0.69010782241821289 0.41920992732048035
0.2866615355014801 0.68646067380905151 0.41732361912727356
0.32520049810409546 0.67451345920562744 0.41391709446907043
0.3731226921081543 0.67432773113250732 0.41484862565994263
0.43230301141738892 0.69270849227905273 0.4179939329624176
0.49445423483848572 0.70834273099899292 0.41955238580703735
0.56034696102142334 0.72755128145217896 0.42511472105979919
0.62541139125823975 0.74462181329727173 0.42847689986228943
0.6888272762298584 0.76006186008453369 0.43553820252418518
0.75104516744613647 0.77348560094833374 0.44490346312522888
0.8095434308052063 0.79456371068954468 0.46232801675796509
0.2563897967338562 0.80381596088409424 0.45401111245155334
0.27275845408439636 0.80215638875961304 0.45436713099479675
0.29559841752052307 0.79815727472305298 0.45476534962654114
0.31936183571815491 0.79583358764648438 0.45034107565879822
0.35652375221252441 0.78732430934906006 0.45002567768096924
0.40238878130912781 0.78603357076644897 0.45460218191146851
0.45046132802963257 0.79844361543655396 0.4539300799369812
0.50934773683547974 0.81210309267044067 0.45854008197784424
0.56933712959289551 0.82402646541595459 0.46412026882171631
0.6319122314453125 0.83706122636795044 0.47131097316741943
0.69085431098937988 0.85214865207672119 0.47877410054206848
0.7479814887046814 0.86337631940841675 0.49238765239715576
0.80292165279388428 0.87370109558105469 0.51212835311889648
0.36979022622108459 0.90856492519378662 0.53454041481018066
0.37904196977615356 0.90829581022262573 0.53403139114379883
0.39462712407112122 0.90622299909591675 0.53388547897338867
0.40728530287742615 0.9057803750038147 0.52874356508255005
0.43668147921562195 0.90306353569030762 0.53037571907043457
0.46710160374641418 0.90306788682937622 0.52777558565139771
0.50777369737625122 0.90579420328140259 0.52934437990188599
0.55925261974334717 0.91205143928527832 0.54146420955657959
0.61277300119400024 0.91810452938079834 0.55542284250259399
0.66478687524795532 0.92899316549301147 0.56490510702133179
0.7160307765007019 0.93589884042739868 0.57816183567047119
0.76619958877563477 0.94326472282409668 0.5977826714515686
0.81261759996414185 0.95212972164154053 0.61641967296600342
0.002568413270637393 0.24577996134757996 0.31371614336967468
0.0039215688593685627 0.24497230350971222 0.3144679069519043
0.0049756220541894436 0.24361063539981842 0.3145865797996521
0.0082175908610224724 0.2401929646730423 0.31120941042900085
0.056782934814691544 0.23864327371120453 0.31220546364784241
0.16189172863960266 0.23901554942131042 0.32024708390235901
0.27042275667190552 0.23784308135509491 0.32752877473831177
0.37459835410118103 0.23653551936149597 0.33411040902137756
0.47420379519462585 0.23395431041717529 0.34220993518829346
0.57084959745407104 0.23129722476005554 0.3535410463809967
0.66132438182830811 0.22804081439971924 0.36380088329315186
0.7486947774887085 0.22549861669540405 0.37200826406478882
0.83053255081176758 0.23105071485042572 0.38547801971435547
0.0023311539553105831 0.25037354230880737 0.31502172350883484
0.0040163528174161911 0.25030729174613953 0.31674456596374512
0.0050546084530651569 0.24922680854797363 0.31645646691322327
0.012087698094546795 0.2459259033203125 0.31388264894485474
0.08524060994386673 0.24723507463932037 0.31814748048782349
0.1893402636051178 0.24830165505409241 0.32730147242546082
0.29317143559455872 0.24715052545070648 0.33565729856491089
0.39303722977638245 0.24674470722675323 0.34271359443664551
0.48831650614738464 0.2457650750875473 0.34936314821243286
0.58070409297943115 0.24183501303195953 0.36064848303794861
0.66928458213806152 0.24032860994338989 0.37088039517402649
0.75544792413711548 0.24082380533218384 0.37801429629325867
0.83632391691207886 0.24872013926506042 0.39120638370513916
0.0023284314665943384 0.25973325967788696 0.3207433819770813
0.0041136499494314194 0.26128152012825012 0.3212343156337738
0.0062325270846486092 0.26049643754959106 0.32024303078651428
0.035398446023464203 0.26017823815345764 0.31988218426704407
0.12752510607242584 0.26492232084274292 0.32602766156196594
0.22914165258407593 0.26772207021713257 0.33535397052764893
0.32599779963493347 0.26715415716171265 0.34496939182281494
0.41680136322975159 0.26607954502105713 0.35025644302368164
0.50873470306396484 0.26549509167671204 0.35568609833717346
0.59781891107559204 0.26459780335426331 0.36551076173782349
0.68378728628158569 0.26614615321159363 0.3771800696849823
0.76585716009140015 0.26828336715698242 0.38686022162437439
0.84383851289749146 0.28164666891098022 0.40190345048904419
0.0034853618126362562 0.28054547309875488 0.33067363500595093
0.0061717764474451542 0.28173893690109253 0.3301578164100647
0.0096086394041776657 0.27709522843360901 0.32600894570350647
0.07221655547618866 0.27843430638313293 0.32655027508735657
0.17209653556346893 0.28630706667900085 0.33239507675170898
0.26685163378715515 0.29143509268760681 0.3401990532875061
0.36472547054290771 0.29511520266532898 0.35202372074127197
0.45629841089248657 0.29558205604553223 0.35943585634231567
0.53920179605484009 0.29578971862792969 0.36554792523384094
0.6220167875289917 0.3017917275428772 0.37609139084815979
0.70393425226211548 0.30758509039878845 0.38851684331893921
0.77995753288269043 0.31284639239311218 0.4001796543598175
0.85276120901107788 0.32888224720954895 0.41644597053527832
0.0047192294150590897 0.31254100799560547 0.34087878465652466
0.007353554479777813 0.30980068445205688 0.34041041135787964
0.035188097506761551 0.30744209885597229 0.33882555365562439
0.11862035840749741 0.31134089827537537 0.34014931321144104
0.20850229263305664 0.31458309292793274 0.34059369564056396
0.29653596878051758 0.31955087184906006 0.34549936652183533
0.39236089587211609 0.32698220014572144 0.35762578248977661
0.48662856221199036 0.33440771698951721 0.36920681595802307
0.57164055109024048 0.34370791912078857 0.38160181045532227
0.6523432731628418 0.35206341743469238 0.39284577965736389
0.72758615016937256 0.35896846652030945 0.40440070629119873
0.79675376415252686 0.36944210529327393 0.41584530472755432
0.86398279666900635 0.38719308376312256 0.4314568042755127
0.01707509346306324 0.34869396686553955 0.35086748003959656
0.04580872505903244 0.3508707582950592 0.35436543822288513
0.08479183167219162 0.34723451733589172 0.35312002897262573
0.15552933514118195 0.34915268421173096 0.35391223430633545
0.2359953373670578 0.35345178842544556 0.35546958446502686
0.31666573882102966 0.35908052325248718 0.35841333866119385
0.4005277156829834 0.36484110355377197 0.36350306868553162
0.48599022626876831 0.37319478392601013 0.37108790874481201
0.5808866024017334 0.38782438635826111 0.38830193877220154
0.67107212543487549 0.40805765986442566 0.40673571825027466
0.74530482292175293 0.42761385440826416 0.42387786507606506
0.81040740013122559 0.44689399003982544 0.44021835923194885
0.86415249109268188 0.47007483243942261 0.46009397506713867
0.079049788415431976 0.40080010890960693 0.36745622754096985
0.10795511305332184 0.40044951438903809 0.36901825666427612
0.14186905324459076 0.39395469427108765 0.36695921421051025
0.18917816877365112 0.38924214243888855 0.36482536792755127
0.25764167308807373 0.39467421174049377 0.36879914999008179
0.3324485719203949 0.40225896239280701 0.37158456444740295
0.40686297416687012 0.40846958756446838 0.37140628695487976
0.48314633965492249 0.41411855816841125 0.37099683284759521
0.56909364461898804 0.43110087513923645 0.38434383273124695
0.66047865152359009 0.45929151773452759 0.40733051300048828
0.74283438920974731 0.49236437678337097 0.4337216317653656
0.81193399429321289 0.52896082401275635 0.46431344747543335
0.85833024978637695 0.56025391817092896 0.49339127540588379
0.1271040141582489 0.45440575480461121 0.38113909959793091
0.15168188512325287 0.45729628205299377 0.38332685828208923
0.1822955310344696 0.45378535985946655 0.38224893808364868
0.21796151995658875 0.44571372866630554 0.37902513146400452
0.27176561951637268 0.44592389464378357 0.3806060254573822
0.33929255604743958 0.45477116107940674 0.38206911087036133
0.41188457608222961 0.46409183740615845 0.38228604197502136
0.48515009880065918 0.47385773062705994 0.3825610876083374
0.56199043989181519 0.4856816828250885 0.38613316416740417
0.64472669363021851 0.50902062654495239 0.40034931898117065
0.72597587108612061 0.54479116201400757 0.4257296621799469
0.79543530941009521 0.58719158172607422 0.46368753910064697
0.85004580020904541 0.63164603710174561 0.50786715745925903
0.16434314846992493 0.5218968391418457 0.39553642272949219
0.18419685959815979 0.52326816320419312 0.39649447798728943
0.21197651326656342 0.52295845746994019 0.39659956097602844
0.24591290950775146 0.51045787334442139 0.39312839508056641
0.2903229296207428 0.50562173128128052 0.39181190729141235
0.34825414419174194 0.51570791006088257 0.3932948112487793
0.41604936122894287 0.52995407581329346 0.39602008461952209
0.48829266428947449 0.5448453426361084 0.39821112155914307
0.56205296516418457 0.55736297369003296 0.39820945262908936
0.63557833433151245 0.57362943887710571 0.40050294995307922
0.71123343706130981 0.5994718074798584 0.41349774599075317
0.77859866619110107 0.64076226949691772 0.45156458020210266
0.83756875991821289 0.68692374229431152 0.50043982267379761
0.19426877796649933 0.61209690570831299 0.41455051302909851
0.20870654284954071 0.60471022129058838 0.40935602784156799
0.23330031335353851 0.59947288036346436 0.40765684843063354
0.26752877235412598 0.59204286336898804 0.40707647800445557
0.3082849383354187 0.58710414171218872 0.40640011429786682
0.36061641573905945 0.59353137016296387 0.40747874975204468
0.42194262146949768 0.60971295833587646 0.41083696484565735
0.48955780267715454 0.62669098377227783 0.41322505474090576
0.56163299083709717 0.64278322458267212 0.41480383276939392
0.63241779804229736 0.65904569625854492 0.41635400056838989
0.6999860405921936 0.67227458953857422 0.41654422879219055
0.76399767398834229 0.69623172283172607 0.43526074290275574
0.8221280574798584 0.73805290460586548 0.48315423727035522
0.22059011459350586 0.70852446556091309 0.43437469005584717
0.23494561016559601 0.70119583606719971 0.43098780512809753
0.25858280062675476 0.69368475675582886 0.4286600649356842
0.28824642300605774 0.69107747077941895 0.42644542455673218
0.32792776823043823 0.68427580595016479 0.42469573020935059
0.37414303421974182 0.68248105049133301 0.42388656735420227
0.43331333994865417 0.69941139221191406 0.42909988760948181
0.49555447697639465 0.71558338403701782 0.43342265486717224
0.56194806098937988 0.7315068244934082 0.43751686811447144
0.62871575355529785 0.74742114543914795 0.43820461630821228
0.69281017780303955 0.76241046190261841 0.43893328309059143
0.75316166877746582 0.77485412359237671 0.45044717192649841
0.80854010581970215 0.79678285121917725 0.47291439771652222
0.26164340972900391 0.80962800979614258 0.46624624729156494
0.27440214157104492 0.80791735649108887 0.46507599949836731
0.29722893238067627 0.80341529846191406 0.46422481536865234
0.32333773374557495 0.7988736629486084 0.46129241585731506
0.35894778370857239 0.7924034595489502 0.46032676100730896
0.39897376298904419 0.79080933332443237 0.45924052596092224
0.4492986798286438 0.80081790685653687 0.46066033840179443
0.50995612144470215 0.81589412689208984 0.47048068046569824
0.57284897565841675 0.82778257131576538 0.47815293073654175
0.63625115156173706 0.83920860290527344 0.48703446984291077
0.69442445039749146 0.85321390628814697 0.49175649881362915
0.75018769502639771 0.86629760265350342 0.50285845994949341
0.8019559383392334 0.87737679481506348 0.51470452547073364
0.37541478872299194 0.91173207759857178 0.54419529438018799
0.38224905729293823 0.91018384695053101 0.54279410839080811
0.39707335829734802 0.90871256589889526 0.54194581508636475
0.41526603698730469 0.90777748823165894 0.53988063335418701
0.43920576572418213 0.9060065746307373 0.53885513544082642
0.4702429473400116 0.90272927284240723 0.53678923845291138
0.50877958536148071 0.90527129173278809 0.538002610206604
0.56043052673339844 0.91357904672622681 0.54995512962341309
0.613331139087677 0.92028975486755371 0.56106400489807129
0.66314041614532471 0.92875367403030396 0.5686611533164978
0.71648776531219482 0.93698972463607788 0.58501750230789185
0.76679670810699463 0.94468313455581665 0.60198158025741577
0.81418168544769287 0.9522588849067688 0.62212991714477539
0.0018828896572813392 0.24172170460224152 0.31537935137748718
0.0039215688593685627 0.24253763258457184 0.32053416967391968
0.0053871902637183666 0.24287085235118866 0.32470417022705078
0.0076188631355762482 0.24094773828983307 0.32395648956298828
0.057151809334754944 0.24004562199115753 0.32707631587982178
0.16733269393444061 0.23984265327453613 0.33727315068244934
0.27983614802360535 0.23773659765720367 0.34455844759941101
0.38472124934196472 0.23467467725276947 0.34925305843353271
0.48352339863777161 0.23201777040958405 0.35829347372055054
0.58019351959228516 0.2288910299539566 0.37297099828720093
0.67118990421295166 0.22504779696464539 0.38511091470718384
0.75521206855773926 0.22151203453540802 0.39276582002639771
0.83171075582504272 0.2279883474111557 0.40293261408805847
0.0022292493376880884 0.25169470906257629 0.32470700144767761
0.0040599596686661243 0.25113782286643982 0.32763135433197021
0.0067909690551459789 0.2493869811296463 0.32927310466766357
0.011992435902357101 0.24646115303039551 0.32779574394226074
0.088482454419136047 0.24830736219882965 0.33529838919639587
0.19529946148395538 0.24938724935054779 0.34649139642715454
0.29993316531181335 0.24761116504669189 0.35502541065216064
0.40227210521697998 0.24482080340385437 0.36104628443717957
0.4988400936126709 0.24412357807159424 0.36919605731964111
0.59218907356262207 0.24078695476055145 0.38350236415863037
0.6785549521446228 0.23843029141426086 0.39361420273780823
0.760917067527771 0.2381589412689209 0.3985636830329895
0.83965790271759033 0.24579624831676483 0.40833407640457153
0.002203967422246933 0.26422363519668579 0.3359924852848053
0.0039461324922740459 0.26445168256759644 0.33779340982437134
0.00651575718075037 0.26184356212615967 0.33761182427406311
0.036042202264070511 0.26096588373184204 0.33727142214775085
0.13746248185634613 0.26734641194343567 0.3473757803440094
0.24342970550060272 0.27066582441329956 0.35923579335212708
0.33691626787185669 0.26733040809631348 0.36638695001602173
0.42542746663093567 0.26361191272735596 0.37043967843055725
0.51744383573532104 0.26272696256637573 0.37626335024833679
0.60740530490875244 0.26262947916984558 0.38860654830932617
0.68970876932144165 0.26584973931312561 0.39986440539360046
0.77046912908554077 0.26782143115997314 0.40711143612861633
0.84834164381027222 0.28092151880264282 0.41975048184394836
0.0028702381532639265 0.28384286165237427 0.34645634889602661
0.0052823983132839203 0.28727072477340698 0.3489626944065094
0.012356732040643692 0.2822670042514801 0.34694701433181763
0.085083574056625366 0.28303849697113037 0.34864276647567749
0.18915832042694092 0.28998389840126038 0.35753637552261353
0.28623837232589722 0.29471191763877869 0.36827883124351501
0.37501487135887146 0.29676926136016846 0.37687844038009644
0.45807752013206482 0.29590046405792236 0.38143858313560486
0.54323071241378784 0.29514160752296448 0.38620015978813171
0.62646579742431641 0.30116027593612671 0.39701032638549805
0.70837652683258057 0.30751919746398926 0.40897828340530396
0.78532999753952026 0.30994522571563721 0.41779133677482605
0.85615187883377075 0.32866144180297852 0.43372941017150879
0.0050406958907842636 0.32063287496566772 0.36058053374290466
0.008748282678425312 0.31859937310218811 0.36107388138771057
0.055333573371171951 0.31843942403793335 0.36394047737121582
0.13691550493240356 0.31971955299377441 0.36527064442634583
0.22475619614124298 0.32257890701293945 0.36705049872398376
0.31159228086471558 0.32671988010406494 0.37079310417175293
0.39877450466156006 0.33261382579803467 0.38065546751022339
