luts/instant_pro/polaroid_690_-.cube
# Created by: G'MIC (https://gmic.eu)
TITLE "polaroid_690_-"
# LUT size
LUT_3D_SIZE 7
# Data domain
DOMAIN_MIN 0.0 0.0 0.0
DOMAIN_MAX 1.0 1.0 1.0
# LUT data points
0.040796510875225067 0.041725501418113708 0.036538500338792801
0.11881648004055023 0.03959280252456665 0.036494161933660507
0.25704711675643921 0.01118132658302784 0.037285555154085159
0.45021763443946838 0.00065594841726124287 0.030549202114343643
0.6598554253578186 0.0020831986330449581 0.020654596388339996
0.83236759901046753 0.0027537476271390915 0.012134701944887638
0.97585159540176392 0 0.0078431377187371254
0.033483229577541351 0.12223198264837265 0.039433632045984268
0.13065698742866516 0.12942312657833099 0.035440318286418915
0.29502981901168823 0.11185361444950104 0.027722032740712166
0.51695924997329712 0.046053897589445114 0.020054791122674942
0.71809226274490356 0.0099868178367614746 0.0064642960205674171
0.88052999973297119 0.0084819868206977844 0.005942624993622303
0.98689895868301392 0.00012563070049509406 0.0034995584283024073
0.0067568612284958363 0.2856423556804657 0.017907729372382164
0.094929277896881104 0.28860458731651306 0.0098658539354801178
0.31978487968444824 0.30819305777549744 0.0047500161454081535
0.57477670907974243 0.32069230079650879 0.0051930597983300686
0.79089242219924927 0.31271699070930481 0.00097454292699694633
0.93100416660308838 0.27074608206748962 3.5184973967261612e-05
0.99794971942901611 0.25433564186096191 0
0.0031426972709596157 0.48923742771148682 0.0039215688593685627
0.028848476707935333 0.47362428903579712 0.0014206082560122013
0.29983434081077576 0.48724755644798279 0.0044866376556456089
0.54586929082870483 0.51761972904205322 0.0067169787362217903
0.77048897743225098 0.55815654993057251 0.0020785911474376917
0.92587745189666748 0.57189381122589111 0.00258611049503088
0.99655580520629883 0.58204126358032227 0.0045280307531356812
0.0055108764208853245 0.65962976217269897 0.0009089750237762928
0.012947965413331985 0.65506577491760254 0
0.28218299150466919 0.64927524328231812 0.0014741485938429832
0.51567190885543823 0.67178612947463989 0.0018683040980249643
0.73542970418930054 0.69448906183242798 0.0039215688593685627
0.89640325307846069 0.71688759326934814 0.0048112156800925732
0.99263590574264526 0.73033863306045532 0.0057135787792503834
0.14864443242549896 0.80114054679870605 0.00011904847633559257
0.24616047739982605 0.79860657453536987 0.0019760879222303629
0.40623170137405396 0.79292201995849609 0.002056376077234745
0.58434760570526123 0.79679584503173828 0.0014707976952195168
0.75439834594726562 0.81327551603317261 0.0042268941178917885
0.88455623388290405 0.83157908916473389 0.0067422902211546898
0.98397535085678101 0.84142857789993286 0.0018132677068933845
0.48927581310272217 0.92991620302200317 0.14673779904842377
0.52230942249298096 0.92846018075942993 0.13420820236206055
0.59350860118865967 0.92826664447784424 0.10767024755477905
0.68800818920135498 0.92775952816009521 0.078098013997077942
0.79088836908340454 0.93613666296005249 0.088203459978103638
0.8866347074508667 0.94870525598526001 0.094335190951824188
0.97239154577255249 0.9602515697479248 0.11212068796157837
0.032971028238534927 0.047473158687353134 0.11597435176372528
0.1121438592672348 0.047313854098320007 0.12783297896385193
0.25811749696731567 0.018648514524102211 0.12005468457937241
0.44596529006958008 0.0014478496741503477 0.11743373423814774
0.64121419191360474 0.00084521726239472628 0.098778620362281799
0.81975072622299194 0.00032596962410025299 0.081657379865646362
0.97765833139419556 0 0.056163683533668518
0.035042677074670792 0.1303166002035141 0.12751232087612152
0.13438917696475983 0.13408662378787994 0.13513743877410889
0.30189433693885803 0.11215987801551819 0.13298562169075012
0.50683414936065674 0.035541579127311707 0.12207804620265961
0.69712269306182861 0.0095754582434892654 0.1079273596405983
0.86516022682189941 0.004029247909784317 0.084474258124828339
0.98187589645385742 0.0038784998469054699 0.051623161882162094
0.0058625014498829842 0.29923301935195923 0.13504575192928314
0.12590432167053223 0.30420941114425659 0.13624010980129242
0.34515354037284851 0.3229985237121582 0.12175656855106354
0.58719313144683838 0.32954022288322449 0.11604341864585876
0.78289794921875 0.29662752151489258 0.11417403817176819
0.923972487449646 0.23917171359062195 0.082802504301071167
0.99902689456939697 0.20879772305488586 0.04197978600859642
0.0032683128956705332 0.49968603253364563 0.090190157294273376
0.041637539863586426 0.49668571352958679 0.090434223413467407
0.3118322491645813 0.50193154811859131 0.059717543423175812
0.55918359756469727 0.53462523221969604 0.034482095390558243
0.78025490045547485 0.5636589527130127 0.037908725440502167
0.93343567848205566 0.58152705430984497 0.092547744512557983
0.99938571453094482 0.57101869583129883 0.12550339102745056
0.00030942430021241307 0.67364352941513062 0.041094925254583359
0.018542151898145676 0.66998827457427979 0.030305780470371246
0.2947022020816803 0.66182351112365723 0.019995789974927902
0.52550429105758667 0.67971265316009521 0.012633184902369976
0.74137407541275024 0.70650416612625122 0.0080717951059341431
0.90430760383605957 0.72327280044555664 0.022122148424386978
0.99404418468475342 0.73653960227966309 0.14559294283390045
0.15350255370140076 0.80349266529083252 0.051559790968894958
0.26070347428321838 0.80223208665847778 0.03416106104850769
0.41357138752937317 0.7941773533821106 0.019987801089882851
0.57805919647216797 0.79644584655761719 0.011659434996545315
0.74735009670257568 0.81022125482559204 0.011690446175634861
0.88546359539031982 0.82817131280899048 0.015579327940940857
0.98589527606964111 0.84276467561721802 0.096179232001304626
0.48158714175224304 0.93050557374954224 0.27181193232536316
0.51275086402893066 0.92799001932144165 0.25450265407562256
0.58578342199325562 0.92829948663711548 0.23261018097400665
0.68081623315811157 0.92761456966400146 0.19132930040359497
0.78550928831100464 0.93510609865188599 0.19858784973621368
0.88186466693878174 0.94659411907196045 0.21911239624023438
0.96779775619506836 0.96000474691390991 0.25189253687858582
0.004442297387868166 0.054304294288158417 0.28473374247550964
0.06797897070646286 0.044426489621400833 0.30952087044715881
0.29442471265792847 0.0091665228828787804 0.3306155800819397
0.47475135326385498 0.0021141201723366976 0.30224794149398804
0.65855216979980469 0.00019818474538624287 0.27855727076530457
0.82909047603607178 0 0.261872798204422
0.96773427724838257 0.00096374214626848698 0.22224500775337219
0.0054382621310651302 0.13389061391353607 0.30101290345191956
0.099976003170013428 0.13821977376937866 0.32383069396018982
0.32584682106971741 0.13598860800266266 0.35520443320274353
0.50402283668518066 0.081641629338264465 0.31346076726913452
0.67999255657196045 0.0067896973341703415 0.28619450330734253
0.84404850006103516 0.0026041367091238499 0.25041836500167847
0.9710385799407959 0.00045347027480602264 0.21078117191791534
0.0044728298671543598 0.31281468272209167 0.34398931264877319
0.12152696400880814 0.32531499862670898 0.35578075051307678
0.36342078447341919 0.34335559606552124 0.36978736519813538
0.56885629892349243 0.30458465218544006 0.34661313891410828
0.73909580707550049 0.22932218015193939 0.31487545371055603
0.8944162130355835 0.12348460406064987 0.26761928200721741
0.99618071317672729 0.071343757212162018 0.23027122020721436
0.012493851594626904 0.53187471628189087 0.35363686084747314
0.069886647164821625 0.53834259510040283 0.35856792330741882
0.33863717317581177 0.5373346209526062 0.34718978404998779
0.57147753238677979 0.54512381553649902 0.33883672952651978
0.78043460845947266 0.57162958383560181 0.35838031768798828
0.92309439182281494 0.56104874610900879 0.3696342408657074
0.99526530504226685 0.52913159132003784 0.32853728532791138
0.0053396187722682953 0.69889336824417114 0.33597016334533691
0.068446248769760132 0.69918882846832275 0.3344491720199585
0.32864534854888916 0.68921232223510742 0.31192362308502197
0.54291790723800659 0.68790024518966675 0.28965047001838684
0.74071645736694336 0.70523703098297119 0.30423331260681152
0.89748769998550415 0.72345161437988281 0.33320361375808716
0.98752236366271973 0.73920601606369019 0.41924762725830078
0.18975724279880524 0.81370478868484497 0.34051430225372314
0.28113991022109985 0.8123278021812439 0.33312928676605225
0.43077412247657776 0.80552679300308228 0.30274796485900879
0.57443547248840332 0.80043250322341919 0.26798215508460999
0.73973941802978516 0.81177210807800293 0.28150439262390137
0.8791084885597229 0.8282434344291687 0.31251704692840576
0.97529077529907227 0.84337878227233887 0.37826037406921387
0.4676172137260437 0.93256330490112305 0.43701457977294922
0.50522470474243164 0.93121302127838135 0.42805296182632446
0.57568937540054321 0.92906880378723145 0.41140106320381165
0.66818612813949585 0.92658478021621704 0.37896230816841125
0.77173519134521484 0.9326055645942688 0.37979418039321899
0.87175559997558594 0.94502508640289307 0.39312544465065002
0.9601665735244751 0.95813155174255371 0.42666971683502197
0.0015114429406821728 0.064490854740142822 0.51451694965362549
0.010249792598187923 0.045628640800714493 0.54074442386627197
0.28964969515800476 0.010292801074683666 0.57952308654785156
0.56601971387863159 0.0026057972572743893 0.59682857990264893
0.7253614068031311 0.00085658655734732747 0.53739875555038452
0.8426244854927063 0.0026614917442202568 0.48450231552124023
0.96080863475799561 0.0044491784647107124 0.46888619661331177
0.0024488111957907677 0.15394340455532074 0.52509695291519165
0.028066297993063927 0.15001693367958069 0.55033773183822632
0.3250962495803833 0.13773521780967712 0.58970731496810913
0.58476775884628296 0.099508576095104218 0.60665249824523926
0.73139357566833496 0.038850404322147369 0.53907984495162964
0.85787326097488403 0.0093480730429291725 0.48997324705123901
0.9698447585105896 0.0042472542263567448 0.45913079380989075
0.0031151415314525366 0.30059763789176941 0.52615910768508911
0.056711744517087936 0.31394538283348083 0.54433798789978027
0.35045185685157776 0.34732428193092346 0.58229583501815796
0.59881651401519775 0.361398845911026 0.61037611961364746
0.73830842971801758 0.31282508373260498 0.54708820581436157
0.87158763408660889 0.18276381492614746 0.48966658115386963
0.98433536291122437 0.012602383270859718 0.43322482705116272
0.0066531011834740639 0.53946840763092041 0.57022905349731445
0.11273451894521713 0.54494690895080566 0.57643163204193115
0.38033783435821533 0.55650109052658081 0.58917146921157837
0.60042542219161987 0.57710069417953491 0.60421907901763916
0.76357394456863403 0.54255890846252441 0.57659465074539185
0.89174365997314453 0.47163408994674683 0.51982253789901733
0.99211078882217407 0.38705837726593018 0.45833137631416321
0.11381833255290985 0.72469794750213623 0.58796173334121704
0.24924974143505096 0.72087627649307251 0.58406835794448853
0.42029699683189392 0.7150532603263855 0.58239644765853882
0.58457010984420776 0.70940214395523071 0.55451482534408569
0.75183224678039551 0.71471428871154785 0.57208818197250366
0.89071154594421387 0.73337841033935547 0.59921765327453613
0.98163706064224243 0.73007267713546753 0.6143379807472229
0.28933709859848022 0.82796376943588257 0.57618081569671631
0.35437032580375671 0.82618987560272217 0.56832081079483032
0.47319582104682922 0.8226693868637085 0.56024169921875
0.59262281656265259 0.81308889389038086 0.52994132041931152
0.73195147514343262 0.81248003244400024 0.52425658702850342
0.86791825294494629 0.83287185430526733 0.55448013544082642
0.96016710996627808 0.84665447473526001 0.59168159961700439
0.48657557368278503 0.93621331453323364 0.61633354425430298
0.50954544544219971 0.93401855230331421 0.60846531391143799
0.5736919641494751 0.93406295776367188 0.59638434648513794
0.66022288799285889 0.93243122100830078 0.57123267650604248
0.75384461879730225 0.93291610479354858 0.54776841402053833
0.85382425785064697 0.94404023885726929 0.56958115100860596
0.94573712348937988 0.95953726768493652 0.59901857376098633
0.0010818481678143144 0.065796792507171631 0.72696053981781006
0.0042190402746200562 0.043496675789356232 0.73896205425262451
0.30458027124404907 0.0091860601678490639 0.75929528474807739
0.59051299095153809 0.0060211778618395329 0.78863978385925293
0.80084103345870972 0.0066603864543139935 0.78997820615768433
0.90366917848587036 0.0061907898634672165 0.73765337467193604
0.97919219732284546 0.0055800345726311207 0.69184005260467529
0.0015802870038896799 0.16744758188724518 0.7286454439163208
0.021865500137209892 0.16244828701019287 0.74177771806716919
0.3313160240650177 0.15116055309772491 0.75741255283355713
0.61183923482894897 0.14405722916126251 0.79229176044464111
0.80643290281295776 0.14482150971889496 0.79688543081283569
0.90428429841995239 0.099760226905345917 0.73157739639282227
0.98592627048492432 0.088254533708095551 0.68510496616363525
0.0031810684595257044 0.31652060151100159 0.70700418949127197
0.05153343454003334 0.32203099131584167 0.72823899984359741
0.35891914367675781 0.35162812471389771 0.74794471263885498
0.61337590217590332 0.39302849769592285 0.78100669384002686
0.79524558782577515 0.41459044814109802 0.7912520170211792
0.89094936847686768 0.36286604404449463 0.72618484497070312
0.98016166687011719 0.28857278823852539 0.68155276775360107
0.0041313320398330688 0.5051116943359375 0.7074439525604248
0.046686418354511261 0.50459092855453491 0.71237993240356445
0.33869650959968567 0.52377939224243164 0.72659188508987427
0.58144575357437134 0.57238823175430298 0.75790172815322876
0.77771598100662231 0.60469549894332886 0.77979832887649536
0.87852734327316284 0.55107885599136353 0.7251354455947876
0.9749828577041626 0.43949565291404724 0.66579657793045044
0.15617628395557404 0.71370011568069458 0.74060648679733276
0.28488644957542419 0.70936638116836548 0.74378293752670288
0.45703375339508057 0.70707696676254272 0.75289809703826904
0.61494690179824829 0.72033154964447021 0.76300019025802612
0.76832085847854614 0.74038749933242798 0.77686703205108643
0.87283951044082642 0.71156758069992065 0.74894696474075317
0.97277820110321045 0.64442694187164307 0.68907439708709717
0.46059334278106689 0.83802062273025513 0.76426613330841064
0.49237260222434998 0.83644616603851318 0.76077336072921753
0.56332224607467651 0.83467614650726318 0.75948792695999146
0.657909095287323 0.83529829978942871 0.75534671545028687
0.7494167685508728 0.82917481660842896 0.73375242948532104
0.85523712635040283 0.84132111072540283 0.74739557504653931
0.94859606027603149 0.8563377857208252 0.77154463529586792
0.55363106727600098 0.9431382417678833 0.77833676338195801
0.5651925802230835 0.94191151857376099 0.77326875925064087
0.60670042037963867 0.94153386354446411 0.77019578218460083
0.67133104801177979 0.93969917297363281 0.75658333301544189
0.74926620721817017 0.9399598240852356 0.73111563920974731
0.83889138698577881 0.94599711894989014 0.73685038089752197
0.93145740032196045 0.9627109169960022 0.75834685564041138
0.0082930624485015869 0.091970421373844147 0.88304215669631958
0.12173634022474289 0.07518450915813446 0.88528084754943848
0.39172583818435669 0.043538935482501984 0.89232438802719116
0.62010329961776733 0.030386412516236305 0.90701031684875488
0.81408679485321045 0.11499327421188354 0.921714186668396
0.93859457969665527 0.20018467307090759 0.91613757610321045
0.99222302436828613 0.20990006625652313 0.88157397508621216
0.024651771411299706 0.19338124990463257 0.87895822525024414
0.1798531711101532 0.19205960631370544 0.88474529981613159
0.41081476211547852 0.20318087935447693 0.88674485683441162
0.63055658340454102 0.21447306871414185 0.89931905269622803
0.81698000431060791 0.29375675320625305 0.91762661933898926
0.92841821908950806 0.3410952091217041 0.90653622150421143
0.99413394927978516 0.3272261917591095 0.88087266683578491
0.036076489835977554 0.34236627817153931 0.86996906995773315
0.20529992878437042 0.35118430852890015 0.87425506114959717
0.42289555072784424 0.37275087833404541 0.87979471683502197
0.62478840351104736 0.41847607493400574 0.89038270711898804
0.80049341917037964 0.49040037393569946 0.90973788499832153
0.91139900684356689 0.51971292495727539 0.90422892570495605
0.98472815752029419 0.47903090715408325 0.87359845638275146
0.0066272062249481678 0.50274503231048584 0.84640365839004517
0.095867902040481567 0.50218909978866577 0.84917193651199341
0.37495455145835876 0.53182429075241089 0.85529828071594238
0.6121143102645874 0.58026653528213501 0.87312108278274536
0.78024625778198242 0.63625222444534302 0.89434373378753662
0.89020442962646484 0.66006791591644287 0.89676618576049805
0.96329402923583984 0.61659878492355347 0.86177760362625122
0.048318631947040558 0.68673199415206909 0.84615236520767212
0.17443269491195679 0.68264967203140259 0.84625041484832764
0.37312051653862 0.68195468187332153 0.84894239902496338
0.5695992112159729 0.6956285834312439 0.85759514570236206
0.75071972608566284 0.73343539237976074 0.87554681301116943
0.87802588939666748 0.76488733291625977 0.8951600193977356
0.94201624393463135 0.72066891193389893 0.85832381248474121
0.45250770449638367 0.8289065957069397 0.86963397264480591
0.48074018955230713 0.82771533727645874 0.8711848258972168
0.5726015567779541 0.82906699180603027 0.87325906753540039
0.67082452774047852 0.83295100927352905 0.8754463791847229
0.7721523642539978 0.84252774715423584 0.88181620836257935
0.86419069766998291 0.85897445678710938 0.88971132040023804
0.94280034303665161 0.82827979326248169 0.86964678764343262
0.64142745733261108 0.94638657569885254 0.89545828104019165
0.64970493316650391 0.94418066740036011 0.89024513959884644
0.68005406856536865 0.94437819719314575 0.88833117485046387
0.72509777545928955 0.94717693328857422 0.89018040895462036
0.78070342540740967 0.95112144947052002 0.88135844469070435
0.83782720565795898 0.95647883415222168 0.87457907199859619
0.92291712760925293 0.96752321720123291 0.88307201862335205
0.37863922119140625 0.22771324217319489 0.98359191417694092
0.44099923968315125 0.22491683065891266 0.98372310400009155
0.56095898151397705 0.23451362550258636 0.98362630605697632
0.69720345735549927 0.2654794454574585 0.98521190881729126
0.82557946443557739 0.33539941906929016 0.98831087350845337
0.92489075660705566 0.4434807300567627 0.98863202333450317
0.98941749334335327 0.49818974733352661 0.98105710744857788
0.39649730920791626 0.31802913546562195 0.98019349575042725
0.45961502194404602 0.31744664907455444 0.98090726137161255
0.57125192880630493 0.32576143741607666 0.98267441987991333
0.69983172416687012 0.36094197630882263 0.98553818464279175
0.82143992185592651 0.42509105801582336 0.98613440990447998
0.91739839315414429 0.51661604642868042 0.98474299907684326
0.98645472526550293 0.55523508787155151 0.97932666540145874
0.41199204325675964 0.45216059684753418 0.97486889362335205
0.46758809685707092 0.45555847883224487 0.97529596090316772
0.57695794105529785 0.47410681843757629 0.97523802518844604
0.69510006904602051 0.50463235378265381 0.97475039958953857
0.81329154968261719 0.56435143947601318 0.9788629412651062
0.90397429466247559 0.62234890460968018 0.97990012168884277
0.97754877805709839 0.64155060052871704 0.97890818119049072
0.36272960901260376 0.58614814281463623 0.96489733457565308
0.42698389291763306 0.59261327981948853 0.96415901184082031
0.54675912857055664 0.60762012004852295 0.96322548389434814
0.67966163158416748 0.63139301538467407 0.96806013584136963
0.79680943489074707 0.66526943445205688 0.96981620788574219
0.89080291986465454 0.71190804243087769 0.97519069910049438
0.96021628379821777 0.72727513313293457 0.9740903377532959
0.28642231225967407 0.70436137914657593 0.95436638593673706
0.3603823184967041 0.70409750938415527 0.95346146821975708
0.4809378981590271 0.70631366968154907 0.95393580198287964
0.63698422908782959 0.72075599431991577 0.95866870880126953
0.77976709604263306 0.75072884559631348 0.96500051021575928
0.88268619775772095 0.78956729173660278 0.97038257122039795
0.95239084959030151 0.80751562118530273 0.96941173076629639
0.49953570961952209 0.83244204521179199 0.95486873388290405
0.52679300308227539 0.83156144618988037 0.95451635122299194
0.58202540874481201 0.8308335542678833 0.95537132024765015
0.65870249271392822 0.82652300596237183 0.95492911338806152
0.74822890758514404 0.82628446817398071 0.9559745192527771
0.85520052909851074 0.86146968603134155 0.96537280082702637
0.93722009658813477 0.88739067316055298 0.96475672721862793
0.65005505084991455 0.94776904582977295 0.96112602949142456
0.67053979635238647 0.95262134075164795 0.9610130786895752
0.69968199729919434 0.95171195268630981 0.9630732536315918
0.7435113787651062 0.95118200778961182 0.95951420068740845
0.79503703117370605 0.95289528369903564 0.96158677339553833
0.85777837038040161 0.95961290597915649 0.96256440877914429
0.92379909753799438 0.97467941045761108 0.96784883737564087
