luts/instant_pro/polaroid_669_cold.cube
# Created by: G'MIC (https://gmic.eu)
TITLE "polaroid_669_cold"
# LUT size
LUT_3D_SIZE 7
# Data domain
DOMAIN_MIN 0.0 0.0 0.0
DOMAIN_MAX 1.0 1.0 1.0
# LUT data points
0.001486550085246563 0.19557704031467438 0.25195115804672241
0.0038962869439274073 0.20121268928050995 0.2627750039100647
0.070121601223945618 0.20442536473274231 0.2701650857925415
0.26962769031524658 0.20958833396434784 0.28756916522979736
0.47120583057403564 0.20414687693119049 0.31050613522529602
0.66730964183807373 0.1942756175994873 0.33579078316688538
0.84130215644836426 0.20748472213745117 0.36573797464370728
0.0033747055567800999 0.2345588207244873 0.28363499045372009
0.0058651044964790344 0.2345588207244873 0.27997177839279175
0.12767376005649567 0.23988084495067596 0.29067537188529968
0.3256455659866333 0.24353399872779846 0.3076319694519043
0.52454584836959839 0.24404157698154449 0.33105581998825073
0.69663447141647339 0.24135766923427582 0.35053959488868713
0.85681718587875366 0.26195690035820007 0.38270315527915955
0.0037899091839790344 0.29122671484947205 0.31549060344696045
0.020405668765306473 0.28812676668167114 0.30807417631149292
0.20560531318187714 0.29889515042304993 0.31436583399772644
0.38995888829231262 0.30634191632270813 0.33003875613212585
0.58745265007019043 0.32475060224533081 0.36089238524436951
0.73654079437255859 0.33952349424362183 0.38339674472808838
0.87374764680862427 0.37876239418983459 0.41840916872024536
0.06663927435874939 0.38236263394355774 0.34619474411010742
0.14148348569869995 0.37762266397476196 0.34548699855804443
0.25425761938095093 0.37742906808853149 0.34750404953956604
0.40496110916137695 0.38886091113090515 0.34802314639091492
0.57483261823654175 0.41331535577774048 0.3633938729763031
0.74780106544494629 0.48012760281562805 0.4152352511882782
0.87795418500900269 0.55146318674087524 0.48054009675979614
0.18327295780181885 0.50335246324539185 0.37910658121109009
0.22308264672756195 0.49431484937667847 0.37793543934822083
0.2983366847038269 0.48604774475097656 0.37737384438514709
0.42311939597129822 0.51203638315200806 0.37993228435516357
0.5720399022102356 0.5385327935218811 0.38064610958099365
0.7168312668800354 0.5811951756477356 0.39719125628471375
0.84948116540908813 0.68053525686264038 0.49042156338691711
0.2521175742149353 0.69865310192108154 0.41954287886619568
0.28809055685997009 0.69217914342880249 0.42378300428390503
0.35091528296470642 0.671703040599823 0.4155920147895813
0.45220181345939636 0.68603193759918213 0.42009714245796204
0.57509791851043701 0.71928590536117554 0.42573735117912292
0.70302057266235352 0.75707411766052246 0.42860957980155945
0.81884902715682983 0.79861569404602051 0.45963731408119202
0.38733527064323425 0.92088812589645386 0.55190205574035645
0.40106883645057678 0.91915661096572876 0.54386508464813232
0.44911366701126099 0.91590648889541626 0.54449635744094849
0.52109968662261963 0.91813695430755615 0.54701578617095947
0.62676495313644409 0.93112939596176147 0.57440483570098877
0.72982370853424072 0.95009273290634155 0.60257822275161743
0.83355212211608887 0.96566343307495117 0.65336161851882935
0.001707862364128232 0.20321595668792725 0.29110094904899597
0.0057588615454733372 0.20920164883136749 0.30220878124237061
0.070377841591835022 0.2128056138753891 0.30827316641807556
0.29307031631469727 0.21505174040794373 0.32923710346221924
0.49251127243041992 0.20516049861907959 0.35135936737060547
0.67396670579910278 0.19389216601848602 0.37688419222831726
0.84225845336914062 0.20407484471797943 0.39997464418411255
0.0024770100135356188 0.24140296876430511 0.31890681385993958
0.0045929555781185627 0.24245509505271912 0.32262200117111206
0.13630768656730652 0.2464585155248642 0.33337226510047913
0.34595596790313721 0.25170490145683289 0.3532242476940155
0.52873498201370239 0.24227474629878998 0.3653874397277832
0.70091181993484497 0.24438755214214325 0.38958296179771423
0.86050963401794434 0.26235088706016541 0.4162013828754425
0.0043710893951356411 0.3067939281463623 0.35276514291763306
0.050992719829082489 0.30638724565505981 0.35480225086212158
0.23056040704250336 0.31331756711006165 0.36284482479095459
0.41268584132194519 0.31964507699012756 0.37907615303993225
0.59275317192077637 0.32942688465118408 0.40199324488639832
0.74327319860458374 0.34445804357528687 0.42065557837486267
0.87124276161193848 0.38578677177429199 0.45278763771057129
0.10036842525005341 0.40870195627212524 0.3890424370765686
0.1673160195350647 0.40125483274459839 0.38506683707237244
0.28014150261878967 0.3993874192237854 0.390321284532547
0.43315008282661438 0.4101540744304657 0.39032426476478577
0.5973089337348938 0.42952477931976318 0.40500572323799133
0.76202964782714844 0.49394634366035461 0.45698234438896179
0.87660551071166992 0.56067103147506714 0.51506912708282471
0.20028923451900482 0.53321254253387451 0.41493797302246094
0.24071785807609558 0.52373135089874268 0.41072553396224976
0.31782442331314087 0.51059556007385254 0.41103661060333252
0.44329530000686646 0.53085988759994507 0.41338911652565002
0.58391809463500977 0.5567975640296936 0.41517284512519836
0.722911536693573 0.59988880157470703 0.43679678440093994
0.84702914953231812 0.69553291797637939 0.52915197610855103
0.25725468993186951 0.71653968095779419 0.45398393273353577
0.29297250509262085 0.70682048797607422 0.45051628351211548
0.36001938581466675 0.69192600250244141 0.44804033637046814
0.45895031094551086 0.70534497499465942 0.45044621825218201
0.57916700839996338 0.73291695117950439 0.45579943060874939
0.70415711402893066 0.76368039846420288 0.46466517448425293
0.81530618667602539 0.80396068096160889 0.49549072980880737
0.39368855953216553 0.92407506704330444 0.57785463333129883
0.41029259562492371 0.9241216778755188 0.57286900281906128
0.45305159687995911 0.9202502965927124 0.56707596778869629
0.52347785234451294 0.9186587929725647 0.57056766748428345
0.62305945158004761 0.93392175436019897 0.58960229158401489
0.73152375221252441 0.95298445224761963 0.62535315752029419
0.83124548196792603 0.96692705154418945 0.66496974229812622
0 0.2147974967956543 0.35722985863685608
0.001406306866556406 0.21634265780448914 0.36308348178863525
0.082961753010749817 0.22487679123878479 0.38321065902709961
0.31687837839126587 0.22941769659519196 0.41279688477516174
0.52707952260971069 0.21906048059463501 0.43646383285522461
0.70309877395629883 0.19386535882949829 0.44703459739685059
0.85479837656021118 0.18702875077724457 0.46309718489646912
0.00024481379659846425 0.25399932265281677 0.38658741116523743
0.0048898137174546719 0.25638139247894287 0.39682450890541077
0.15865851938724518 0.2604924738407135 0.41489037871360779
0.37209278345108032 0.26285368204116821 0.44020181894302368
0.55847793817520142 0.25578829646110535 0.45253679156303406
0.72479206323623657 0.23502592742443085 0.45914193987846375
0.86265957355499268 0.25724482536315918 0.48598301410675049
0.0033103644382208586 0.32706683874130249 0.42986571788787842
0.058635186403989792 0.33169069886207581 0.44215571880340576
0.27122259140014648 0.33852174878120422 0.46071496605873108
0.44499695301055908 0.34000498056411743 0.47263941168785095
0.60707354545593262 0.3411027193069458 0.48376569151878357
0.75296247005462646 0.34756669402122498 0.49261176586151123
0.87542837858200073 0.38694417476654053 0.51993972063064575
0.084048345685005188 0.44758147001266479 0.46919572353363037
0.20062811672687531 0.4523150622844696 0.48098036646842957
0.32550659775733948 0.43869730830192566 0.48040148615837097
0.47016337513923645 0.44287422299385071 0.4796033501625061
0.63097769021987915 0.47474738955497742 0.50745236873626709
0.77120333909988403 0.52221637964248657 0.54821658134460449
0.86960411071777344 0.56710350513458252 0.58268886804580688
0.22686755657196045 0.59620600938796997 0.50178521871566772
0.27631816267967224 0.59104591608047485 0.50317400693893433
0.35925754904747009 0.57267236709594727 0.49806424975395203
0.46457260847091675 0.57069438695907593 0.49029839038848877
0.60323888063430786 0.5962759256362915 0.49781128764152527
0.74096465110778809 0.63849908113479614 0.52762055397033691
0.84332531690597534 0.72950965166091919 0.61704099178314209
0.27316173911094666 0.75670862197875977 0.5305020809173584
0.30883234739303589 0.74845319986343384 0.52511006593704224
0.37839570641517639 0.73801726102828979 0.52489727735519409
0.46330595016479492 0.72652053833007812 0.51498496532440186
0.58184587955474854 0.75473278760910034 0.51867246627807617
0.70862644910812378 0.781685471534729 0.52759546041488647
0.81741297245025635 0.82467532157897949 0.56784188747406006
0.40562790632247925 0.93508589267730713 0.6323854923248291
0.42403814196586609 0.9331657886505127 0.62862873077392578
0.46409541368484497 0.92894840240478516 0.62286531925201416
0.52816402912139893 0.92661172151565552 0.61818760633468628
0.61736792325973511 0.93721252679824829 0.62804865837097168
0.72905236482620239 0.95384925603866577 0.66183310747146606
0.83064502477645874 0.96806532144546509 0.69956201314926147
0 0.23281230032444 0.46475943922996521
0.0017255296697840095 0.23338882625102997 0.48136726021766663
0.080844596028327942 0.24088716506958008 0.50789546966552734
0.37782445549964905 0.25201931595802307 0.54877662658691406
0.56692487001419067 0.2575967013835907 0.57379740476608276
0.74912410974502563 0.29239171743392944 0.61328297853469849
0.87792432308197021 0.31329324841499329 0.62526899576187134
0.0016967473784461617 0.28122743964195251 0.5043448805809021
0.0064475415274500847 0.28033432364463806 0.51863211393356323
0.15480425953865051 0.27969649434089661 0.54339754581451416
0.42604586482048035 0.29423651099205017 0.57649153470993042
0.60232341289520264 0.31137263774871826 0.60135459899902344
0.76177102327346802 0.34100362658500671 0.62568533420562744
0.87968438863754272 0.35120916366577148 0.63152271509170532
0.001551893656142056 0.36677753925323486 0.54243117570877075
0.034958183765411377 0.3661963939666748 0.55409526824951172
0.27719596028327942 0.36925399303436279 0.58043140172958374
0.48509824275970459 0.38873293995857239 0.61043739318847656
0.62772935628890991 0.406595379114151 0.62118494510650635
0.76466149091720581 0.41284874081611633 0.62577378749847412
0.87789469957351685 0.41168543696403503 0.62252640724182129
0.065850049257278442 0.49535489082336426 0.59891372919082642
0.19967563450336456 0.49425527453422546 0.60164386034011841
0.35565492510795593 0.5045546293258667 0.61300152540206909
0.51881211996078491 0.51867789030075073 0.63795429468154907
0.65272390842437744 0.52850103378295898 0.64402931928634644
0.76822572946548462 0.53798699378967285 0.64946985244750977
0.86722147464752197 0.57123452425003052 0.65971416234970093
0.2185356616973877 0.66780054569244385 0.62528830766677856
0.28803184628486633 0.658943772315979 0.62376517057418823
0.39391601085662842 0.65587133169174194 0.63019758462905884
0.50204092264175415 0.64411032199859619 0.62639743089675903
0.62978655099868774 0.66124778985977173 0.63707154989242554
0.74952906370162964 0.7026970386505127 0.66592180728912354
0.83578848838806152 0.75956779718399048 0.7121574878692627
0.28642353415489197 0.81633865833282471 0.64231294393539429
0.32782813906669617 0.80856448411941528 0.64070206880569458
0.41049325466156006 0.80373066663742065 0.64621591567993164
0.49299010634422302 0.78677332401275635 0.63410490751266479
0.58660459518432617 0.78557926416397095 0.62244874238967896
0.7113838791847229 0.81078171730041504 0.63555139303207397
0.81446605920791626 0.85604876279830933 0.67495357990264893
0.4323420524597168 0.949798583984375 0.71092033386230469
0.45033293962478638 0.94951015710830688 0.70925909280776978
0.48941493034362793 0.94620519876480103 0.70477479696273804
0.54152542352676392 0.94305318593978882 0.6997377872467041
0.61990916728973389 0.94177019596099854 0.69896030426025391
0.72634506225585938 0.95879942178726196 0.71950602531433105
0.82973861694335938 0.97148525714874268 0.74350380897521973
0 0.27352797985076904 0.63353615999221802
0 0.269675612449646 0.64696651697158813
0.033001471310853958 0.26788067817687988 0.6784590482711792
0.4177403450012207 0.29051446914672852 0.71339130401611328
0.64105504751205444 0.31909477710723877 0.74174225330352783
0.7658044695854187 0.37286370992660522 0.7519681453704834
0.8709099292755127 0.51465648412704468 0.78394913673400879
0.00017110786575358361 0.32720893621444702 0.65979301929473877
0.0031571630388498306 0.32742297649383545 0.67529547214508057
0.086731120944023132 0.30816733837127686 0.69945639371871948
0.45988407731056213 0.34102746844291687 0.73058861494064331
0.65606546401977539 0.38396263122558594 0.75369101762771606
0.77462810277938843 0.43552616238594055 0.76388353109359741
0.86605566740036011 0.56378668546676636 0.79160857200622559
0.0039192945696413517 0.41906911134719849 0.68527674674987793
0.038741346448659897 0.41851538419723511 0.6989821195602417
0.24699106812477112 0.40729975700378418 0.71876698732376099
0.49528771638870239 0.44372850656509399 0.74652230739593506
0.66767269372940063 0.5010840892791748 0.76601362228393555
0.76927781105041504 0.55154067277908325 0.7787739634513855
0.85348802804946899 0.62661463022232056 0.79114443063735962
0.0088010448962450027 0.54094111919403076 0.7066798210144043
0.13280011713504791 0.54423660039901733 0.71116292476654053
0.34329631924629211 0.54897183179855347 0.72189265489578247
0.51515054702758789 0.56962591409683228 0.75126844644546509
0.66793900728225708 0.63535046577453613 0.77668899297714233
0.75895446538925171 0.67409628629684448 0.78739345073699951
0.8472830057144165 0.67896389961242676 0.77774423360824585
0.22989395260810852 0.71151787042617798 0.74676334857940674
0.29839646816253662 0.71238535642623901 0.74751347303390503
0.40977230668067932 0.71846592426300049 0.7527923583984375
0.5319787859916687 0.73129814863204956 0.76551485061645508
0.65600961446762085 0.75823962688446045 0.78067886829376221
0.75014632940292358 0.76758086681365967 0.78584325313568115
0.83254963159561157 0.77029329538345337 0.78567856550216675
0.37310755252838135 0.87205451726913452 0.76731526851654053
0.39639246463775635 0.86614924669265747 0.76355600357055664
0.45986378192901611 0.86407965421676636 0.76626980304718018
0.54538649320602417 0.86025428771972656 0.77168869972229004
0.62094020843505859 0.85121071338653564 0.75993388891220093
0.72121524810791016 0.86341589689254761 0.76342439651489258
0.81042343378067017 0.90174567699432373 0.79223626852035522
0.4882354736328125 0.97197669744491577 0.79542165994644165
0.50186169147491455 0.96706175804138184 0.79230135679244995
0.53051012754440308 0.96981531381607056 0.79335695505142212
0.58123135566711426 0.96353709697723389 0.79215335845947266
0.63612616062164307 0.96224045753479004 0.7833636999130249
0.72553092241287231 0.9646533727645874 0.78568196296691895
0.82937604188919067 0.97421127557754517 0.80239766836166382
4.3083641685370822e-06 0.33567115664482117 0.81911873817443848
2.7944526664214209e-05 0.3261667788028717 0.82243293523788452
0.032407078891992569 0.3225313127040863 0.83478862047195435
0.45000511407852173 0.35936304926872253 0.84550738334655762
0.67928779125213623 0.44788306951522827 0.8604809045791626
0.79808419942855835 0.54012846946716309 0.86211031675338745
0.86521154642105103 0.60813337564468384 0.86734873056411743
0.00010471718269400299 0.39134249091148376 0.82303404808044434
0.0018290051957592368 0.38363680243492126 0.82804018259048462
0.096285410225391388 0.3679291307926178 0.84188723564147949
0.48128563165664673 0.41737252473831177 0.84907060861587524
0.68497830629348755 0.51338130235671997 0.86350017786026001
0.79163640737533569 0.59924286603927612 0.86476403474807739
0.85595643520355225 0.66281187534332275 0.86710983514785767
0.018436731770634651 0.50154095888137817 0.82837790250778198
0.093347586691379547 0.49186190962791443 0.83288615942001343
0.29351902008056641 0.48313426971435547 0.84153884649276733
0.51202577352523804 0.5226483941078186 0.85111969709396362
0.6829114556312561 0.62204974889755249 0.85986387729644775
0.7812080979347229 0.68661367893218994 0.86238408088684082
0.84147471189498901 0.73890107870101929 0.86783421039581299
0.042680777609348297 0.62143266201019287 0.82075232267379761
0.20141084492206573 0.6248176097869873 0.82017278671264648
0.38815903663635254 0.63266324996948242 0.83108091354370117
0.52730351686477661 0.6463434100151062 0.84273815155029297
0.67203593254089355 0.72003746032714844 0.85668659210205078
0.76527494192123413 0.78703731298446655 0.86132389307022095
0.82828414440155029 0.81887316703796387 0.86959362030029297
0.20503155887126923 0.76414591073989868 0.82853990793228149
0.27344387769699097 0.7666659951210022 0.82884293794631958
0.39040845632553101 0.77022331953048706 0.83140313625335693
0.51981914043426514 0.7785375714302063 0.83965146541595459
0.66059821844100952 0.81841260194778442 0.85730248689651489
0.75436043739318848 0.86276304721832275 0.86552101373672485
0.81864291429519653 0.88825869560241699 0.87093675136566162
0.40459215641021729 0.89875334501266479 0.8439100980758667
0.43194103240966797 0.900360107421875 0.84390676021575928
0.48977646231651306 0.90390831232070923 0.84805738925933838
0.58030891418457031 0.90394037961959839 0.85377895832061768
0.66520291566848755 0.9118649959564209 0.85836911201477051
0.75083070993423462 0.92411321401596069 0.86287033557891846
0.82245069742202759 0.9406667947769165 0.87195879220962524
0.58236336708068848 0.98126542568206787 0.86348551511764526
0.59407490491867065 0.98274475336074829 0.8651847243309021
0.61844193935394287 0.98153728246688843 0.8643680214881897
0.65774369239807129 0.98381227254867554 0.86643427610397339
0.70318496227264404 0.98326534032821655 0.86519235372543335
0.74942916631698608 0.97749787569046021 0.85627579689025879
0.84006249904632568 0.98228687047958374 0.86416637897491455
0.069023147225379944 0.47589284181594849 0.92349010705947876
0.11819303780794144 0.466348797082901 0.92525589466094971
0.33288577198982239 0.47370761632919312 0.92530322074890137
0.5587807297706604 0.53922957181930542 0.92273628711700439
0.70846784114837646 0.63779169321060181 0.92092382907867432
0.80064564943313599 0.75347208976745605 0.91834837198257446
0.85117602348327637 0.80390506982803345 0.91305148601531982
0.16777302324771881 0.53548985719680786 0.92301380634307861
0.23875154554843903 0.52999699115753174 0.92319899797439575
0.38952046632766724 0.53039973974227905 0.92303520441055298
0.57349681854248047 0.59098857641220093 0.92086505889892578
0.70752048492431641 0.68043512105941772 0.91892856359481812
0.79513764381408691 0.78189367055892944 0.91661101579666138
0.84920275211334229 0.8280256986618042 0.91245526075363159
0.33186250925064087 0.65159720182418823 0.9141916036605835
0.37409946322441101 0.64615601301193237 0.91435474157333374
0.46201801300048828 0.64104181528091431 0.91572916507720947
0.58349764347076416 0.67115354537963867 0.91716843843460083
0.70649677515029907 0.75493937730789185 0.91347748041152954
0.78691750764846802 0.82246202230453491 0.91059458255767822
0.84111392498016357 0.86477017402648926 0.90924537181854248
0.37481892108917236 0.76740473508834839 0.90239405632019043
0.41750919818878174 0.76173514127731323 0.90223640203475952
0.49382945895195007 0.76014530658721924 0.90294378995895386
0.58990168571472168 0.76792252063751221 0.9077945351600647
0.69095087051391602 0.81248193979263306 0.90789258480072021
0.77892822027206421 0.87373334169387817 0.90882879495620728
0.83735376596450806 0.91090905666351318 0.90932714939117432
0.33734464645385742 0.86298638582229614 0.89370405673980713
0.37221992015838623 0.85885101556777954 0.89457261562347412
0.45997393131256104 0.85795187950134277 0.89551401138305664
0.57649910449981689 0.86324924230575562 0.90019029378890991
0.68191665410995483 0.87641042470932007 0.90493112802505493
0.7754022479057312 0.91907972097396851 0.90837109088897705
0.83855843544006348 0.94575983285903931 0.909717857837677
0.47910970449447632 0.95152777433395386 0.8981437087059021
0.49718663096427917 0.94955253601074219 0.89744657278060913
0.53868937492370605 0.94943076372146606 0.89692741632461548
0.59849423170089722 0.94676822423934937 0.89887744188308716
0.66778433322906494 0.94208908081054688 0.899147629737854
0.76960349082946777 0.95894700288772583 0.90683507919311523
0.84912210702896118 0.97258901596069336 0.91254174709320068
0.64626771211624146 0.98975628614425659 0.90628141164779663
0.6590573787689209 0.99046057462692261 0.90715599060058594
0.67868399620056152 0.99039030075073242 0.90678513050079346
0.70059973001480103 0.98914593458175659 0.9054877758026123
0.75782603025436401 0.9892277717590332 0.91114014387130737
0.80805003643035889 0.99171525239944458 0.90997916460037231
0.87365210056304932 0.99325406551361084 0.9161689281463623
