luts/instant_pro/polaroid_669_+.cube
# Created by: G'MIC (https://gmic.eu)
TITLE "polaroid_669_+"
# LUT size
LUT_3D_SIZE 5
# Data domain
DOMAIN_MIN 0.0 0.0 0.0
DOMAIN_MAX 1.0 1.0 1.0
# LUT data points
0.004339300561696291 0.20439937710762024 0.19538664817810059
0.1000986322760582 0.20805659890174866 0.20407857000827789
0.32988497614860535 0.21693088114261627 0.22632883489131927
0.59186333417892456 0.22086280584335327 0.25721278786659241
0.83170729875564575 0.26719391345977783 0.3179481029510498
0.012823650613427162 0.2672240138053894 0.22507275640964508
0.16337728500366211 0.27172169089317322 0.23000161349773407
0.40311264991760254 0.28897687792778015 0.25599780678749084
0.64715194702148438 0.3088991641998291 0.29109072685241699
0.85334748029708862 0.36410492658615112 0.34322437644004822
0.14665135741233826 0.40638807415962219 0.28111401200294495
0.24141260981559753 0.40375474095344543 0.28407710790634155
0.43128135800361633 0.42426276206970215 0.28517365455627441
0.66566705703735352 0.47244930267333984 0.32622227072715759
0.87268561124801636 0.56936144828796387 0.43954604864120483
0.26914116740226746 0.60296827554702759 0.3380122184753418
0.3272489607334137 0.59849822521209717 0.33949956297874451
0.46123763918876648 0.61154121160507202 0.34074658155441284
0.64592313766479492 0.65191894769668579 0.35233327746391296
0.84084653854370117 0.72815757989883423 0.44053161144256592
0.43000340461730957 0.89530700445175171 0.54582595825195312
0.45737987756729126 0.89019674062728882 0.53151661157608032
0.54319280385971069 0.89050376415252686 0.53509140014648438
0.70225727558135986 0.91565489768981934 0.58175331354141235
0.87105649709701538 0.93781256675720215 0.65499860048294067
0.00074423995101824403 0.21091963350772858 0.25453281402587891
0.086789347231388092 0.22075468301773071 0.27151986956596375
0.34993326663970947 0.23022697865962982 0.30987885594367981
0.61620372533798218 0.22762638330459595 0.34206303954124451
0.83376204967498779 0.24859172105789185 0.37890487909317017
0.0092599159106612206 0.28518867492675781 0.30148011445999146
0.18352504074573517 0.29729452729225159 0.32801979780197144
0.42964226007461548 0.30409374833106995 0.35050809383392334
0.65547418594360352 0.31500333547592163 0.376871258020401
0.85589241981506348 0.35809248685836792 0.41860014200210571
0.18645003437995911 0.45752644538879395 0.37418431043624878
0.28053748607635498 0.44389393925666809 0.37189772725105286
0.47469952702522278 0.45603510737419128 0.38179886341094971
0.6904301643371582 0.50885140895843506 0.43060475587844849
0.86340725421905518 0.57607185840606689 0.51637601852416992
0.2882445752620697 0.64695590734481812 0.4231012761592865
0.34610638022422791 0.63802570104598999 0.41891691088676453
0.46995306015014648 0.6346060037612915 0.4154241681098938
0.65455436706542969 0.67387354373931885 0.42526596784591675
0.84383738040924072 0.74695491790771484 0.52692693471908569
0.42965734004974365 0.89912670850753784 0.59614753723144531
0.46274450421333313 0.90051710605621338 0.5920301079750061
0.54564553499221802 0.89892870187759399 0.58932578563690186
0.70126998424530029 0.91771405935287476 0.62503468990325928
0.86939650774002075 0.94029456377029419 0.68661034107208252
0 0.24836906790733337 0.43990713357925415
0.033943686634302139 0.24513666331768036 0.44876426458358765
0.41882660984992981 0.27411600947380066 0.52344262599945068
0.66723334789276123 0.31290143728256226 0.57538658380508423
0.86553919315338135 0.36222586035728455 0.61287075281143188
0.00051280000479891896 0.34074780344963074 0.48827308416366577
0.15551750361919403 0.33714902400970459 0.52063202857971191
0.47697737812995911 0.3653416633605957 0.57295441627502441
0.69249540567398071 0.40884706377983093 0.60953682661056519
0.86498218774795532 0.4188273549079895 0.61240291595458984
0.13106840848922729 0.52314561605453491 0.57948553562164307
0.29979443550109863 0.52602672576904297 0.58959639072418213
0.52033334970474243 0.54357808828353882 0.62121975421905518
0.69893127679824829 0.55657660961151123 0.63467860221862793
0.85675221681594849 0.5782286524772644 0.65008270740509033
0.29122838377952576 0.73799967765808105 0.62248009443283081
0.37128478288650513 0.73493742942810059 0.62508159875869751
0.50276350975036621 0.71249604225158691 0.61981558799743652
0.67025184631347656 0.72504186630249023 0.622478187084198
0.8455314040184021 0.79611039161682129 0.71928709745407104
0.45547232031822205 0.92415237426757812 0.72628456354141235
0.48836401104927063 0.92226165533065796 0.72304397821426392
0.55877500772476196 0.91783666610717773 0.7114865779876709
0.6941453218460083 0.92426556348800659 0.7160448431968689
0.86858004331588745 0.94320118427276611 0.76671111583709717
0 0.31696197390556335 0.73391103744506836
0.0023916955105960369 0.30960988998413086 0.75556981563568115
0.42854222655296326 0.35603559017181396 0.7873542308807373
0.71121156215667725 0.44924914836883545 0.82215994596481323
0.85900813341140747 0.57848978042602539 0.83822965621948242
0.00060053804190829396 0.43401610851287842 0.76053953170776367
0.024421557784080505 0.4082338809967041 0.77853631973266602
0.47330018877983093 0.44880735874176025 0.80868643522262573
0.71660876274108887 0.55349254608154297 0.82858145236968994
0.85366874933242798 0.65239930152893066 0.84823787212371826
0.0092949215322732925 0.59385722875595093 0.77012920379638672
0.25875866413116455 0.59742480516433716 0.7768130898475647
0.50425177812576294 0.61683082580566406 0.81202393770217896
0.71743565797805786 0.70527249574661255 0.84100675582885742
0.84822618961334229 0.75979709625244141 0.8546791672706604
0.32888686656951904 0.80152863264083862 0.81823247671127319
0.40359765291213989 0.80246186256408691 0.81952881813049316
0.55106103420257568 0.80936598777770996 0.82660502195358276
0.71670353412628174 0.82939863204956055 0.84344816207885742
0.8517729640007019 0.8333861231803894 0.84678840637207031
0.56231588125228882 0.95490497350692749 0.84545409679412842
0.58368510007858276 0.95269358158111572 0.84218388795852661
0.64042431116104126 0.94931304454803467 0.84404021501541138
0.72374492883682251 0.94115245342254639 0.83377343416213989
0.87496715784072876 0.9561735987663269 0.84746402502059937
0.079130597412586212 0.50360846519470215 0.9248889684677124
0.1976621150970459 0.4901917576789856 0.92831587791442871
0.54137504100799561 0.55903363227844238 0.92401736974716187
0.76184689998626709 0.69760411977767944 0.91792839765548706
0.88429480791091919 0.7805323600769043 0.91305148601531982
0.26087835431098938 0.60569906234741211 0.92130541801452637
0.35747697949409485 0.59995603561401367 0.92046701908111572
0.56868302822113037 0.63847804069519043 0.92027431726455688
0.76524823904037476 0.74551749229431152 0.9143906831741333
0.88518542051315308 0.8203892707824707 0.91319805383682251
0.38059237599372864 0.75680351257324219 0.9050142765045166
0.45149219036102295 0.7541925311088562 0.90477025508880615
0.58362060785293579 0.75601875782012939 0.90916943550109863
0.75810021162033081 0.81492698192596436 0.90876227617263794
0.87814867496490479 0.87751263380050659 0.91262030601501465
0.42608234286308289 0.87929540872573853 0.89812147617340088
0.46708732843399048 0.8824155330657959 0.89903730154037476
0.59093177318572998 0.87474805116653442 0.90028369426727295
0.75961297750473022 0.89565414190292358 0.90596699714660645
0.88981437683105469 0.93171149492263794 0.9140135645866394
0.69176864624023438 0.97848790884017944 0.9087071418762207
0.70709609985351562 0.97696208953857422 0.90787637233734131
0.7555919885635376 0.97684335708618164 0.91064715385437012
0.82742404937744141 0.97295224666595459 0.9115709662437439
0.90746003389358521 0.97988295555114746 0.9175255298614502
