luts/instant_pro/polaroid_669_cold_--.cube
# Created by: G'MIC (https://gmic.eu)
TITLE "polaroid_669_cold_--"
# LUT size
LUT_3D_SIZE 7
# Data domain
DOMAIN_MIN 0.0 0.0 0.0
DOMAIN_MAX 1.0 1.0 1.0
# LUT data points
0 0.04148700088262558 0.041754391044378281
0.01525771152228117 0.078676201403141022 0.075380034744739532
0.17864987254142761 0.11775394529104233 0.12331317365169525
0.36953029036521912 0.14348287880420685 0.18804015219211578
0.54726439714431763 0.16487126052379608 0.25479131937026978
0.70323407649993896 0.19121435284614563 0.31588977575302124
0.8444100022315979 0.23897573351860046 0.37185513973236084
0.0018673017621040344 0.18433794379234314 0.13393250107765198
0.010095738805830479 0.19802409410476685 0.14245663583278656
0.20960471034049988 0.21067787706851959 0.18958522379398346
0.40429714322090149 0.22116674482822418 0.24160249531269073
0.57974010705947876 0.23076827824115753 0.29697683453559875
0.72122478485107422 0.25271141529083252 0.34618183970451355
0.86030840873718262 0.29731050133705139 0.39895260334014893
0.0052183261141180992 0.31226435303688049 0.25340691208839417
0.019207809120416641 0.31313353776931763 0.25626003742218018
0.26368844509124756 0.32306674122810364 0.2677726149559021
0.44771438837051392 0.33357077836990356 0.30607619881629944
0.60757291316986084 0.3480469286441803 0.36344155669212341
0.75264787673950195 0.37199312448501587 0.40192338824272156
0.87449383735656738 0.4197629988193512 0.44888031482696533
0.066482335329055786 0.42293030023574829 0.33662378787994385
0.15522633492946625 0.42397084832191467 0.34077465534210205
0.28900241851806641 0.43130820989608765 0.34240436553955078
0.45486629009246826 0.43395870923995972 0.34865495562553406
0.60483467578887939 0.45251509547233582 0.37731280922889709
0.75473231077194214 0.5027775764465332 0.44118449091911316
0.87691682577133179 0.5785224437713623 0.51681512594223022
0.21894493699073792 0.54482424259185791 0.3997223973274231
0.26472941040992737 0.54282236099243164 0.40000647306442261
0.34296479821205139 0.5430867075920105 0.3987402617931366
0.46049079298973083 0.54979187250137329 0.40126180648803711
0.59609127044677734 0.56835108995437622 0.40763232111930847
0.72224074602127075 0.60508912801742554 0.43009141087532043
0.85544908046722412 0.69567972421646118 0.5249977707862854
0.30773842334747314 0.71176940202713013 0.46439886093139648
0.33531099557876587 0.70127373933792114 0.4578356146812439
0.39256018400192261 0.69833177328109741 0.45816722512245178
0.4797743558883667 0.70192593336105347 0.45798033475875854
0.59389036893844604 0.7279212474822998 0.46735212206840515
0.70927286148071289 0.75431156158447266 0.46885883808135986
0.83460468053817749 0.80080252885818481 0.5062674880027771
0.45319446921348572 0.92018240690231323 0.5938149094581604
0.46937417984008789 0.92076367139816284 0.59266173839569092
0.50862056016921997 0.91744881868362427 0.59205055236816406
0.56881111860275269 0.91863143444061279 0.59086573123931885
0.66894161701202393 0.92834329605102539 0.60711455345153809
0.77751058340072632 0.94559597969055176 0.63300079107284546
0.89676129817962646 0.95986884832382202 0.67061489820480347
0 0.079332895576953888 0.1855182945728302
0.006201635580509901 0.11318052560091019 0.21308539807796478
0.15371796488761902 0.15160658955574036 0.25482118129730225
0.37571606040000916 0.1763010174036026 0.29955786466598511
0.55117982625961304 0.19334813952445984 0.33675596117973328
0.70102548599243164 0.20987364649772644 0.37642675638198853
0.84339070320129395 0.24900880455970764 0.41706383228302002
0.0041724410839378834 0.20515112578868866 0.25287434458732605
0.0047381231561303139 0.21570301055908203 0.27218389511108398
0.20873346924781799 0.23044420778751373 0.30486276745796204
0.41535034775733948 0.24533501267433167 0.33972188830375671
0.57632505893707275 0.25069314241409302 0.36894619464874268
0.71737086772918701 0.26760575175285339 0.39993560314178467
0.85523766279220581 0.31098875403404236 0.44132909178733826
0.0075238547287881374 0.336600661277771 0.3388308584690094
0.054571878165006638 0.33295565843582153 0.34756043553352356
0.28249558806419373 0.33785739541053772 0.36267867684364319
0.46784728765487671 0.34939655661582947 0.38860306143760681
0.61697101593017578 0.35943073034286499 0.41877055168151855
0.74342864751815796 0.37639901041984558 0.44370433688163757
0.87228333950042725 0.42082598805427551 0.48296815156936646
0.12443460524082184 0.44810810685157776 0.40276098251342773
0.19488908350467682 0.44561192393302917 0.40170407295227051
0.32442864775657654 0.44118204712867737 0.40165987610816956
0.47606945037841797 0.4464055597782135 0.40382671356201172
0.61521893739700317 0.46740105748176575 0.43090987205505371
0.75858175754547119 0.52027702331542969 0.48828265070915222
0.87531548738479614 0.58258551359176636 0.54693937301635742
0.24410814046859741 0.56769996881484985 0.44427850842475891
0.28659379482269287 0.57143694162368774 0.44988194108009338
0.35950586199760437 0.55090725421905518 0.43952742218971252
0.47658759355545044 0.56649106740951538 0.44516345858573914
0.60031968355178833 0.58308720588684082 0.44898328185081482
0.7251899242401123 0.61445719003677368 0.46872040629386902
0.85236191749572754 0.70394271612167358 0.5601806640625
0.31983089447021484 0.72860431671142578 0.49866652488708496
0.34702876210212708 0.71818298101425171 0.49187502264976501
0.40241071581840515 0.70957612991333008 0.48819392919540405
0.4806513786315918 0.7072940468788147 0.48416322469711304
0.59191840887069702 0.73118758201599121 0.48993083834648132
0.71162158250808716 0.76072812080383301 0.49509575963020325
0.83380675315856934 0.80564534664154053 0.53723657131195068
0.45535039901733398 0.92020434141159058 0.61212444305419922
0.47120487689971924 0.92304408550262451 0.61159563064575195
0.51224988698959351 0.91940271854400635 0.61024314165115356
0.57124263048171997 0.91780585050582886 0.61056506633758545
0.66592264175415039 0.92688983678817749 0.62480133771896362
0.77856874465942383 0.94744479656219482 0.64925861358642578
0.89245438575744629 0.95620423555374146 0.68020939826965332
0 0.13947421312332153 0.34532168507575989
0.0032432407606393099 0.15465828776359558 0.36643120646476746
0.12747855484485626 0.1947542279958725 0.40040296316146851
0.3857761025428772 0.22423045337200165 0.4379584789276123
0.56502622365951538 0.23700420558452606 0.45687064528465271
0.71260350942611694 0.23695982992649078 0.46964612603187561
0.84387052059173584 0.25745004415512085 0.49148261547088623
0.00072012509917840362 0.23872777819633484 0.38369590044021606
0.0048337602056562901 0.24600480496883392 0.40778902173042297
0.21230310201644897 0.2660718560218811 0.43958273530006409
0.42188972234725952 0.27717787027359009 0.45724523067474365
0.58256840705871582 0.27966183423995972 0.47140777111053467
0.72402316331863403 0.28228750824928284 0.48324841260910034
0.85269564390182495 0.31227752566337585 0.50884616374969482
0.0054509029723703861 0.36200371384620667 0.45174938440322876
0.087105289101600647 0.36398208141326904 0.46956205368041992
0.31917455792427063 0.37115198373794556 0.48864626884460449
0.48206806182861328 0.37803506851196289 0.50131511688232422
0.61649245023727417 0.37871217727661133 0.51017504930496216
0.74285793304443359 0.38717064261436462 0.52180415391921997
0.86313760280609131 0.42446187138557434 0.54854565858840942
0.16082304716110229 0.48965334892272949 0.50036144256591797
0.25306037068367004 0.48891931772232056 0.50797790288925171
0.36980268359184265 0.48479628562927246 0.51326489448547363
0.50253015756607056 0.48481032252311707 0.51509594917297363
0.63540595769882202 0.50418728590011597 0.53669333457946777
0.75856667757034302 0.5415959358215332 0.57313531637191772
0.86474502086639404 0.58234715461730957 0.60642468929290771
0.29415348172187805 0.61933648586273193 0.53676456212997437
0.33216661214828491 0.61737191677093506 0.53609836101531982
0.40042853355407715 0.60037499666213989 0.52984791994094849
0.48978304862976074 0.59306639432907104 0.52587741613388062
0.61313408613204956 0.61045312881469727 0.53170561790466309
0.73486948013305664 0.64530062675476074 0.55382192134857178
0.85582566261291504 0.73249435424804688 0.63706803321838379
0.3392728865146637 0.7525789737701416 0.56342983245849609
0.36793017387390137 0.75088632106781006 0.56085473299026489
0.4206840991973877 0.74257922172546387 0.55639070272445679
0.48820757865905762 0.72667664289474487 0.54473614692687988
0.59770351648330688 0.74726599454879761 0.55257189273834229
0.71588343381881714 0.77503639459609985 0.56046390533447266
0.83870720863342285 0.81936097145080566 0.59470301866531372
0.46162250638008118 0.93412202596664429 0.65835535526275635
0.48119619488716125 0.93006241321563721 0.65964281558990479
0.51995110511779785 0.92951273918151855 0.65637403726577759
0.57227391004562378 0.92315012216567993 0.65016478300094604
0.66595053672790527 0.93213033676147461 0.66357946395874023
0.7761266827583313 0.94997012615203857 0.68054234981536865
0.89398342370986938 0.95932656526565552 0.71442246437072754
0 0.20236250758171082 0.50037211179733276
0.0028268403839319944 0.2076105922460556 0.51633638143539429
0.089036919176578522 0.23550915718078613 0.54178756475448608
0.42109483480453491 0.26771563291549683 0.57803672552108765
0.58500152826309204 0.2898775041103363 0.59598219394683838
0.73694664239883423 0.33518946170806885 0.62423968315124512
0.86383867263793945 0.36072492599487305 0.63997948169708252
0 0.29124310612678528 0.53440850973129272
0.0034437591675668955 0.28899610042572021 0.54767227172851562
0.1930098682641983 0.2992103099822998 0.57437801361083984
0.46274536848068237 0.32793828845024109 0.59984636306762695
0.60971915721893311 0.34829145669937134 0.61623251438140869
0.74914497137069702 0.38277778029441833 0.63570010662078857
0.86864346265792847 0.39346018433570862 0.64308267831802368
0.002025544410571456 0.39164665341377258 0.56747525930404663
0.093495942652225494 0.39816102385520935 0.58069276809692383
0.32202526926994324 0.40795296430587769 0.60697478055953979
0.50121277570724487 0.42896220088005066 0.63035017251968384
0.63414698839187622 0.44601336121559143 0.64204680919647217
0.74977689981460571 0.44759726524353027 0.63886958360671997
0.86404299736022949 0.44587096571922302 0.63733625411987305
0.16685102880001068 0.52513134479522705 0.61939519643783569
0.27147161960601807 0.52817642688751221 0.62393921613693237
0.394194096326828 0.53672295808792114 0.63228005170822144
0.53550785779953003 0.54531431198120117 0.65534377098083496
0.65136039257049561 0.55358278751373291 0.65999740362167358
0.75597560405731201 0.55629640817642212 0.6590113639831543
0.86076390743255615 0.58139026165008545 0.67230224609375
0.30361023545265198 0.67775076627731323 0.6471673846244812
0.3549264669418335 0.6751784086227417 0.64878803491592407
0.44022390246391296 0.6733630895614624 0.65538316965103149
0.52266597747802734 0.65928298234939575 0.65280097723007202
0.63187146186828613 0.66270607709884644 0.65209352970123291
0.74877303838729858 0.69928109645843506 0.67575037479400635
0.85784417390823364 0.75964844226837158 0.72693830728530884
0.34886184334754944 0.80795437097549438 0.6614803671836853
0.38054114580154419 0.80486822128295898 0.66150718927383423
0.44347092509269714 0.79707258939743042 0.66225123405456543
0.51366335153579712 0.77692466974258423 0.65179991722106934
0.603709876537323 0.7758784294128418 0.64421039819717407
0.72200661897659302 0.79935860633850098 0.65155506134033203
0.84348738193511963 0.8453141450881958 0.68720918893814087
0.4782738983631134 0.94991117715835571 0.7289128303527832
0.49173703789710999 0.9477163553237915 0.72512960433959961
0.52884787321090698 0.94246846437454224 0.72255516052246094
0.5831298828125 0.93712002038955688 0.71905672550201416
0.6554829478263855 0.93762028217315674 0.71086519956588745
0.7704087495803833 0.951740562915802 0.72750210762023926
0.89685583114624023 0.96346926689147949 0.75593084096908569
0 0.27146750688552856 0.653359055519104
0.00080760882701724768 0.26989158987998962 0.67003309726715088
0.054100532084703445 0.2808801531791687 0.68864065408706665
0.43075275421142578 0.3166804313659668 0.71608233451843262
0.62846845388412476 0.35820335149765015 0.73433852195739746
0.74719583988189697 0.40298369526863098 0.74735492467880249
0.86361843347549438 0.51626324653625488 0.78000849485397339
0.0039215688593685627 0.34855300188064575 0.67367655038833618
0.0038271734956651926 0.34416189789772034 0.68788206577301025
0.14253720641136169 0.3339119553565979 0.70673567056655884
0.46743470430374146 0.37202572822570801 0.72942733764648438
0.64302009344100952 0.41605266928672791 0.74687004089355469
0.75967484712600708 0.45936232805252075 0.76002085208892822
0.86406141519546509 0.56549626588821411 0.79008632898330688
0.0094599854201078415 0.44584083557128906 0.69463562965393066
0.14365233480930328 0.44416692852973938 0.70429527759552002
0.30096784234046936 0.43831038475036621 0.72085630893707275
0.50139421224594116 0.47233748435974121 0.74587273597717285
0.66218096017837524 0.52377927303314209 0.76441079378128052
0.76000022888183594 0.56310200691223145 0.77364552021026611
0.86295092105865479 0.62746548652648926 0.79486101865768433
0.133845254778862 0.55735033750534058 0.71132773160934448
0.24060289561748505 0.5649029016494751 0.71630698442459106
0.38488087058067322 0.5700995922088623 0.7291756272315979
0.52638506889343262 0.59184038639068604 0.7509838342666626
0.6656496524810791 0.63742953538894653 0.77839130163192749
0.75974428653717041 0.66351985931396484 0.78566581010818481
0.85966116189956665 0.67059391736984253 0.78421676158905029
0.31064116954803467 0.70447272062301636 0.74722760915756226
0.35958930850028992 0.71245813369750977 0.75340104103088379
0.44546705484390259 0.72260379791259766 0.75869500637054443
0.54816949367523193 0.7298092246055603 0.7702823281288147
0.657309889793396 0.74034422636032104 0.78020483255386353
0.75847113132476807 0.75348585844039917 0.78841090202331543
0.85318702459335327 0.7523428201675415 0.78675764799118042
0.40416288375854492 0.86098963022232056 0.77448874711990356
0.43153995275497437 0.85961145162582397 0.77467256784439087
0.48341163992881775 0.85783857107162476 0.77601122856140137
0.55122828483581543 0.84938234090805054 0.77187174558639526
0.62936753034591675 0.82950013875961304 0.76067191362380981
0.73843652009963989 0.8493151068687439 0.77134639024734497
0.85466957092285156 0.88238722085952759 0.79763948917388916
0.51033550500869751 0.96922820806503296 0.80418753623962402
0.53203374147415161 0.96443700790405273 0.80361145734786987
0.56507956981658936 0.96498090028762817 0.80523091554641724
0.61233896017074585 0.95936876535415649 0.80152386426925659
0.67739027738571167 0.95353102684020996 0.7918054461479187
0.76792442798614502 0.95818501710891724 0.79228478670120239
0.90293139219284058 0.96648740768432617 0.81519436836242676
0.00058014813112094998 0.35069319605827332 0.81010466814041138
0.00026891371817328036 0.34741643071174622 0.81349450349807739
0.062515631318092346 0.34393501281738281 0.82524091005325317
0.44983670115470886 0.39090591669082642 0.83538269996643066
0.66436898708343506 0.46714204549789429 0.85040146112442017
0.78187775611877441 0.53618818521499634 0.8542860746383667
0.86640375852584839 0.5853877067565918 0.86341512203216553
0.0019000782631337643 0.41379630565643311 0.81290191411972046
0.0046809478662908077 0.40868109464645386 0.8194153904914856
0.15639869868755341 0.39300405979156494 0.83287554979324341
0.4796794056892395 0.43642175197601318 0.84111291170120239
0.67325276136398315 0.51887530088424683 0.85306245088577271
0.78117871284484863 0.57898318767547607 0.85854899883270264
0.8620648980140686 0.62625503540039062 0.86680418252944946
0.078614301979541779 0.51034891605377197 0.81950652599334717
0.17899101972579956 0.50815713405609131 0.82488834857940674
0.32255953550338745 0.49744409322738647 0.83392494916915894
0.51015830039978027 0.5333564281463623 0.84480947256088257
0.6768805980682373 0.61111932992935181 0.85759228467941284
0.78408825397491455 0.66059643030166626 0.86568498611450195
0.85979050397872925 0.70003813505172729 0.87201619148254395
0.16239818930625916 0.61935973167419434 0.80960112810134888
0.27146247029304504 0.62602514028549194 0.8173103928565979
0.40331384539604187 0.63181215524673462 0.82986235618591309
0.52887839078903198 0.63958251476287842 0.84461623430252075
0.67094260454177856 0.69909846782684326 0.86108577251434326
0.78139650821685791 0.75147557258605957 0.87156921625137329
0.85581880807876587 0.78577208518981934 0.87978589534759521
0.25669234991073608 0.75306540727615356 0.82726871967315674
0.3184255063533783 0.75640499591827393 0.83145630359649658
0.40792667865753174 0.75621193647384644 0.83170413970947266
0.52460700273513794 0.76156461238861084 0.83812952041625977
0.6564367413520813 0.78969258069992065 0.85752469301223755
0.78115391731262207 0.84351438283920288 0.87997114658355713
0.85532665252685547 0.86047357320785522 0.88526707887649536
0.41019690036773682 0.88402193784713745 0.85122072696685791
0.43759486079216003 0.890228271484375 0.85484331846237183
0.50169509649276733 0.89059364795684814 0.85688740015029907
0.58686864376068115 0.89295941591262817 0.86027544736862183
0.68218481540679932 0.89347380399703979 0.8671029806137085
0.77745085954666138 0.90774446725845337 0.87915003299713135
0.8807065486907959 0.9256209135055542 0.89405769109725952
0.60310405492782593 0.97639638185501099 0.88227587938308716
0.61753267049789429 0.98062276840209961 0.88612592220306396
0.64679098129272461 0.97958886623382568 0.88673347234725952
0.69136089086532593 0.97537803649902344 0.88500642776489258
0.74490499496459961 0.97184699773788452 0.8805355429649353
0.79946732521057129 0.96976232528686523 0.87762451171875
0.91315978765487671 0.97498923540115356 0.88504421710968018
0.01972535066306591 0.47642219066619873 0.92546188831329346
0.069297909736633301 0.46495029330253601 0.92901313304901123
0.29054680466651917 0.47016990184783936 0.93161857128143311
0.52560520172119141 0.51793360710144043 0.9310377836227417
0.69007259607315063 0.5988391637802124 0.93453943729400635
0.81106376647949219 0.69727820158004761 0.93661820888519287
0.88757658004760742 0.76225566864013672 0.93984830379486084
0.10880286991596222 0.52660328149795532 0.9284512996673584
0.19449497759342194 0.52164840698242188 0.92889821529388428
0.3472231924533844 0.51932913064956665 0.9318392276763916
0.53969979286193848 0.55886542797088623 0.92866939306259155
0.69690382480621338 0.64032155275344849 0.93578732013702393
0.80515539646148682 0.72835695743560791 0.93581438064575195
0.88638508319854736 0.7858889102935791 0.94058936834335327
0.28116178512573242 0.62732648849487305 0.92155689001083374
0.33570587635040283 0.62603676319122314 0.92342674732208252
0.42155194282531738 0.61448830366134644 0.92460554838180542
0.55439561605453491 0.63797956705093384 0.92962145805358887
0.69397628307342529 0.70926964282989502 0.93317335844039917
0.80853885412216187 0.77907174825668335 0.93820244073867798
0.88338452577590942 0.82638943195343018 0.94082820415496826
0.33107131719589233 0.73453313112258911 0.91336488723754883
0.38099166750907898 0.73482215404510498 0.91612964868545532
0.46003112196922302 0.73086225986480713 0.92078810930252075
0.55840843915939331 0.72850567102432251 0.92614781856536865
0.68240034580230713 0.77266961336135864 0.93128913640975952
0.80268353223800659 0.83676522970199585 0.93848949670791626
0.88506931066513062 0.87485074996948242 0.94337743520736694
0.27959117293357849 0.83467060327529907 0.90843653678894043
0.3261016309261322 0.83107960224151611 0.90677040815353394
0.42070433497428894 0.83077102899551392 0.91035878658294678
0.54590851068496704 0.83292502164840698 0.91888189315795898
0.67164701223373413 0.84195083379745483 0.92817658185958862
0.80074626207351685 0.8890005350112915 0.94082540273666382
0.89242583513259888 0.92137002944946289 0.94999873638153076
0.44409877061843872 0.93889379501342773 0.92476457357406616
0.47206589579582214 0.93652546405792236 0.9243963360786438
0.51757717132568359 0.93438422679901123 0.92541837692260742
0.58308464288711548 0.92682111263275146 0.92555630207061768
0.67761915922164917 0.92687106132507324 0.92894703149795532
0.80481517314910889 0.94309860467910767 0.94467639923095703
0.91750609874725342 0.96147274971008301 0.96073055267333984
0.65984827280044556 0.99402463436126709 0.95232194662094116
0.66823112964630127 0.99360436201095581 0.95207387208938599
0.69824039936065674 0.99056828022003174 0.95142728090286255
0.7385404109954834 0.98744940757751465 0.95445930957794189
0.79363477230072021 0.98910653591156006 0.95849597454071045
0.86287713050842285 0.9890516996383667 0.96278572082519531
0.94954532384872437 0.98702609539031982 0.97151607275009155
