luts/instant_pro/polaroid_669_cold_--.cube
# Created by: G'MIC (https://gmic.eu)
TITLE "polaroid_669_cold_--"
# LUT size
LUT_3D_SIZE 13
# Data domain
DOMAIN_MIN 0.0 0.0 0.0
DOMAIN_MAX 1.0 1.0 1.0
# LUT data points
0 0.04148700088262558 0.041754391044378281
0.001625001197680831 0.058379318565130234 0.055095598101615906
0.01525771152228117 0.078676201403141022 0.075380034744739532
0.082095637917518616 0.099690549075603485 0.094847992062568665
0.17864987254142761 0.11775394529104233 0.12331317365169525
0.27675119042396545 0.13277916610240936 0.15761040151119232
0.36953029036521912 0.14348287880420685 0.18804015219211578
0.45953607559204102 0.15492139756679535 0.22051183879375458
0.54726439714431763 0.16487126052379608 0.25479131937026978
0.62782108783721924 0.17775149643421173 0.28688845038414001
0.70323407649993896 0.19121435284614563 0.31588977575302124
0.77081793546676636 0.20861274003982544 0.34201708436012268
0.8444100022315979 0.23897573351860046 0.37185513973236084
0 0.10953065752983093 0.079292938113212585
0.00075511558679863811 0.12324304133653641 0.088884018361568451
0.009496128186583519 0.13480141758918762 0.10195901989936829
0.083614125847816467 0.14521504938602448 0.12333469837903976
0.18880517780780792 0.15479165315628052 0.14864438772201538
0.28688225150108337 0.16462582349777222 0.18093588948249817
0.38201969861984253 0.17372047901153564 0.21002119779586792
0.4732857346534729 0.18352022767066956 0.24096164107322693
0.56039881706237793 0.19088427722454071 0.2724299430847168
0.63744240999221802 0.19971565902233124 0.30021527409553528
0.71170741319656372 0.21242550015449524 0.32721024751663208
0.77817219495773315 0.23130364716053009 0.35246610641479492
0.85085558891296387 0.26023373007774353 0.3821050226688385
0.0018673017621040344 0.18433794379234314 0.13393250107765198
0.0026865941472351551 0.19206403195858002 0.13779465854167938
0.010095738805830479 0.19802409410476685 0.14245663583278656
0.098316684365272522 0.20265915989875793 0.15801914036273956
0.20960471034049988 0.21067787706851959 0.18958522379398346
0.31112301349639893 0.21641995012760162 0.21757541596889496
0.40429714322090149 0.22116674482822418 0.24160249531269073
0.49476361274719238 0.22763948142528534 0.27143833041191101
0.57974010705947876 0.23076827824115753 0.29697683453559875
0.65247368812561035 0.23979225754737854 0.32230576872825623
0.72122478485107422 0.25271141529083252 0.34618183970451355
0.78808712959289551 0.27153244614601135 0.37148043513298035
0.86030840873718262 0.29731050133705139 0.39895260334014893
0.0039215688593685627 0.2508920431137085 0.19607239961624146
0.0040554571896791458 0.25520828366279602 0.19905094802379608
0.0083301020786166191 0.25825798511505127 0.19974058866500854
0.11103874444961548 0.2629968523979187 0.20522588491439819
0.23907862603664398 0.26904788613319397 0.22798053920269012
0.34225809574127197 0.27442392706871033 0.25297427177429199
0.42996567487716675 0.27943629026412964 0.27871504426002502
0.51557499170303345 0.28243586421012878 0.3069818913936615
0.59481966495513916 0.28643777966499329 0.33060511946678162
0.6678544282913208 0.29318830370903015 0.35067594051361084
0.73571348190307617 0.3052886426448822 0.37039777636528015
0.80185872316360474 0.32714813947677612 0.39508110284805298
0.86949032545089722 0.35172897577285767 0.42065083980560303
0.0052183261141180992 0.31226435303688049 0.25340691208839417
0.0057059642858803272 0.3123420774936676 0.25444868206977844
0.019207809120416641 0.31313353776931763 0.25626003742218018
0.13587217032909393 0.31804934144020081 0.26025718450546265
0.26368844509124756 0.32306674122810364 0.2677726149559021
0.3633255660533905 0.32750535011291504 0.27822253108024597
0.44771438837051392 0.33357077836990356 0.30607619881629944
0.52950489521026611 0.33865451812744141 0.33804100751876831
0.60757291316986084 0.3480469286441803 0.36344155669212341
0.68307363986968994 0.35994824767112732 0.38340756297111511
0.75264787673950195 0.37199312448501587 0.40192338824272156
0.81412768363952637 0.39288240671157837 0.42355272173881531
0.87449383735656738 0.4197629988193512 0.44888031482696533
0.010017829015851021 0.36790788173675537 0.29825511574745178
0.016058290377259254 0.36919167637825012 0.30167901515960693
0.068151302635669708 0.36829212307929993 0.30319070816040039
0.1704290509223938 0.37280124425888062 0.30961805582046509
0.27697581052780151 0.37757515907287598 0.30785918235778809
0.36812290549278259 0.3805503249168396 0.30863401293754578
0.45201948285102844 0.3822782039642334 0.32178470492362976
0.53407961130142212 0.38717016577720642 0.34590634703636169
0.61106264591217041 0.40191325545310974 0.37452659010887146
0.68993455171585083 0.42278340458869934 0.40475264191627502
0.7626069188117981 0.44218379259109497 0.43025693297386169
0.82022261619567871 0.46393600106239319 0.45263254642486572
0.87890398502349854 0.49327507615089417 0.47941452264785767
0.066482335329055786 0.42293030023574829 0.33662378787994385
0.10110476613044739 0.42441937327384949 0.33943727612495422
0.15522633492946625 0.42397084832191467 0.34077465534210205
0.21730998158454895 0.42769148945808411 0.34341621398925781
0.28900241851806641 0.43130820989608765 0.34240436553955078
0.37152966856956482 0.43388015031814575 0.34308823943138123
0.45486629009246826 0.43395870923995972 0.34865495562553406
0.53377711772918701 0.43786272406578064 0.35540777444839478
0.60483467578887939 0.45251509547233582 0.37731280922889709
0.68214195966720581 0.4744260311126709 0.40812933444976807
0.75473231077194214 0.5027775764465332 0.44118449091911316
0.82126444578170776 0.5391165018081665 0.47973978519439697
0.87691682577133179 0.5785224437713623 0.51681512594223022
0.15545171499252319 0.48248550295829773 0.37039819359779358
0.18076246976852417 0.48255810141563416 0.37117978930473328
0.21567811071872711 0.48169004917144775 0.37114566564559937
0.26418781280517578 0.48357608914375305 0.37169739603996277
0.31522345542907715 0.48641565442085266 0.37172108888626099
0.38063159584999084 0.48767250776290894 0.37184742093086243
0.45879963040351868 0.48949363827705383 0.37554711103439331
0.5312386155128479 0.49601185321807861 0.38003480434417725
0.59895533323287964 0.50574195384979248 0.38735592365264893
0.66779172420501709 0.52226406335830688 0.40412116050720215
0.73746269941329956 0.55348604917526245 0.43690818548202515
0.80518156290054321 0.59717768430709839 0.47992697358131409
0.86875349283218384 0.64721214771270752 0.53206002712249756
0.21894493699073792 0.54482424259185791 0.3997223973274231
0.24025090038776398 0.54569876194000244 0.40111455321311951
0.26472941040992737 0.54282236099243164 0.40000647306442261
0.30282494425773621 0.54329073429107666 0.39974707365036011
0.34296479821205139 0.5430867075920105 0.3987402617931366
0.39811980724334717 0.54377579689025879 0.39892339706420898
0.46049079298973083 0.54979187250137329 0.40126180648803711
0.52916377782821655 0.558860182762146 0.40547579526901245
0.59609127044677734 0.56835108995437622 0.40763232111930847
0.65791982412338257 0.57917457818984985 0.40891239047050476
0.72224074602127075 0.60508912801742554 0.43009141087532043
0.78980123996734619 0.64682656526565552 0.47085630893707275
0.85544908046722412 0.69567972421646118 0.5249977707862854
0.26400616765022278 0.62347990274429321 0.43045419454574585
0.28046354651451111 0.62197208404541016 0.43059813976287842
0.30140501260757446 0.6192508339881897 0.42836728692054749
0.3324991762638092 0.61432176828384399 0.42684978246688843
0.36599403619766235 0.60690915584564209 0.42422708868980408
0.41322064399719238 0.61043137311935425 0.42458415031433105
0.46752265095710754 0.62128305435180664 0.42765983939170837
0.52854245901107788 0.63242423534393311 0.43185067176818848
0.59239703416824341 0.64307057857513428 0.43350905179977417
0.65262144804000854 0.65488588809967041 0.43353837728500366
0.71271407604217529 0.66853654384613037 0.43850478529930115
0.77565133571624756 0.69323998689651489 0.45760756731033325
0.83987408876419067 0.74018013477325439 0.50730907917022705
0.30773842334747314 0.71176940202713013 0.46439886093139648
0.31877368688583374 0.70627683401107788 0.46239671111106873
0.33531099557876587 0.70127373933792114 0.4578356146812439
0.36276325583457947 0.70014238357543945 0.45874238014221191
0.39256018400192261 0.69833177328109741 0.45816722512245178
0.42842784523963928 0.69366168975830078 0.45390522480010986
0.4797743558883667 0.70192593336105347 0.45798033475875854
0.53734886646270752 0.71729147434234619 0.46637874841690063
0.59389036893844604 0.7279212474822998 0.46735212206840515
0.6497839093208313 0.73897027969360352 0.46372312307357788
0.70927286148071289 0.75431156158447266 0.46885883808135986
0.77377593517303467 0.77306842803955078 0.48216915130615234
0.83460468053817749 0.80080252885818481 0.5062674880027771
0.35431662201881409 0.80915194749832153 0.50457525253295898
0.36374619603157043 0.80851978063583374 0.50562626123428345
0.37826758623123169 0.80639398097991943 0.50386297702789307
0.3996424674987793 0.80496913194656372 0.50306802988052368
0.42522919178009033 0.80276793241500854 0.50085556507110596
0.45777672529220581 0.79876899719238281 0.49893710017204285
0.50392961502075195 0.8036767840385437 0.50300949811935425
0.55506139993667603 0.8156774640083313 0.50757431983947754
0.60976576805114746 0.82747805118560791 0.51182299852371216
0.66703975200653076 0.8383491039276123 0.51667773723602295
0.72441339492797852 0.85565245151519775 0.5263526439666748
0.79075396060943604 0.87190186977386475 0.54726320505142212
0.84749090671539307 0.88520348072052002 0.55750828981399536
0.45319446921348572 0.92018240690231323 0.5938149094581604
0.45758739113807678 0.92285078763961792 0.59350979328155518
0.46937417984008789 0.92076367139816284 0.59266173839569092
0.48675039410591125 0.91996234655380249 0.59236687421798706
0.50862056016921997 0.91744881868362427 0.59205055236816406
0.53405821323394775 0.91880005598068237 0.59107357263565063
0.56881111860275269 0.91863143444061279 0.59086573123931885
0.61583274602890015 0.92121422290802002 0.59786832332611084
0.66894161701202393 0.92834329605102539 0.60711455345153809
0.72422116994857788 0.93596810102462769 0.62053209543228149
0.77751058340072632 0.94559597969055176 0.63300079107284546
0.83786046504974365 0.9553755521774292 0.6512610912322998
0.89676129817962646 0.95986884832382202 0.67061489820480347
0 0.057414140552282333 0.1040508970618248
0.0020573185756802559 0.07306855171918869 0.11872029304504395
0.011168086901307106 0.093824930489063263 0.13792359828948975
0.063144460320472717 0.11354878544807434 0.15873833000659943
0.17221355438232422 0.13222901523113251 0.18406622111797333
0.27621406316757202 0.14828819036483765 0.21448059380054474
0.3721233606338501 0.16200509667396545 0.24157704412937164
0.4634057879447937 0.17188629508018494 0.2670835554599762
0.5479581356048584 0.17951768636703491 0.291413813829422
0.62575221061706543 0.18898077309131622 0.31523150205612183
0.700347900390625 0.20037434995174408 0.34040576219558716
0.77176195383071899 0.21612873673439026 0.36260473728179932
0.84373360872268677 0.2438717782497406 0.39144343137741089
0.0020374523010104895 0.1207195371389389 0.14257010817527771
0.003244063351303339 0.13623146712779999 0.15563049912452698
0.0079995701089501381 0.14791768789291382 0.16989594697952271
0.0669221431016922 0.15884251892566681 0.18795202672481537
0.18142953515052795 0.16950443387031555 0.21137237548828125
0.28602725267410278 0.18049976229667664 0.23795183002948761
0.3855079710483551 0.19010604918003082 0.26035341620445251
0.47587126493453979 0.19857501983642578 0.28320679068565369
0.55964243412017822 0.20612123608589172 0.30826264619827271
0.63567394018173218 0.21049396693706512 0.32753175497055054
0.70753127336502075 0.2232089638710022 0.35115087032318115
0.77722972631454468 0.23971214890480042 0.37350678443908691
0.84808593988418579 0.26583880186080933 0.40045064687728882
0.0039336560294032097 0.19363375008106232 0.1885019838809967
0.003943215124309063 0.20078146457672119 0.19610527157783508
0.0070112338289618492 0.20601485669612885 0.20358419418334961
0.087082944810390472 0.210628941655159 0.21668852865695953
0.20719940960407257 0.21887937188148499 0.24285084009170532
0.31638449430465698 0.2286171019077301 0.27010989189147949
0.41072165966033936 0.23507224023342133 0.29022705554962158
0.49666184186935425 0.23888483643531799 0.30899921059608459
0.57693564891815186 0.2411874532699585 0.32705944776535034
0.64808195829391479 0.24470818042755127 0.34495964646339417
0.71652168035507202 0.25872918963432312 0.36645859479904175
0.78630393743515015 0.2760542631149292 0.38912034034729004
0.85970902442932129 0.30322352051734924 0.41614612936973572
0.0053405314683914185 0.26105791330337524 0.23823198676109314
0.0041938633657991886 0.26295456290245056 0.24429722130298615
0.0083697298541665077 0.26463454961776733 0.24719315767288208
0.10947177559137344 0.26677191257476807 0.25408372282981873
0.24470135569572449 0.27488845586776733 0.2765955924987793
0.35050210356712341 0.28351747989654541 0.30210056900978088
0.43624693155288696 0.28800424933433533 0.31979075074195862
0.51963084936141968 0.28975623846054077 0.33713683485984802
0.59588038921356201 0.28982549905776978 0.35238939523696899
0.66502249240875244 0.29820320010185242 0.37317445874214172
0.73087126016616821 0.30972164869308472 0.39153239130973816
0.7970464825630188 0.32775065302848816 0.41100546717643738
0.86666673421859741 0.3538307249546051 0.43683764338493347
0.0052746492438018322 0.32223233580589294 0.2868800163269043
0.0076053543016314507 0.32106155157089233 0.28992187976837158
0.028150506317615509 0.31994754076004028 0.29295468330383301
0.14958770573139191 0.3238750696182251 0.299875408411026
0.27112928032875061 0.32995378971099854 0.31190836429595947
0.37018492817878723 0.3359089195728302 0.32275813817977905
0.45645463466644287 0.34121307730674744 0.34056964516639709
0.54262763261795044 0.34627386927604675 0.36425411701202393
0.61622941493988037 0.35388967394828796 0.38601392507553101
0.68167418241500854 0.36222133040428162 0.4038812518119812
0.74674290418624878 0.37407872080802917 0.42105329036712646
0.80898147821426392 0.39142242074012756 0.43741944432258606
0.87324035167694092 0.41861656308174133 0.46126922965049744
0.012344240210950375 0.37646898627281189 0.32647129893302917
0.03300558403134346 0.37677550315856934 0.3292485773563385
0.10426212102174759 0.37569117546081543 0.33149248361587524
0.19067046046257019 0.37709230184555054 0.33336204290390015
0.28373906016349792 0.38122612237930298 0.33781653642654419
0.37655442953109741 0.38546794652938843 0.34170690178871155
0.46045404672622681 0.38809341192245483 0.35015851259231567
0.54257887601852417 0.39436939358711243 0.37213858962059021
0.61695915460586548 0.41066437959671021 0.39912587404251099
0.68992602825164795 0.42954084277153015 0.42513298988342285
0.75878715515136719 0.44836947321891785 0.44866070151329041
0.81686282157897949 0.46713569760322571 0.46752762794494629
0.8757290244102478 0.49278280138969421 0.49020189046859741
0.087927274405956268 0.43201783299446106 0.36063632369041443
0.12566705048084259 0.43293654918670654 0.36312952637672424
0.17124749720096588 0.43151628971099854 0.36311089992523193
0.22530233860015869 0.43070924282073975 0.36102575063705444
0.29864633083343506 0.4338536262512207 0.36311474442481995
0.38186681270599365 0.43741622567176819 0.36693695187568665
0.46308174729347229 0.43897855281829834 0.37159070372581482
0.53820693492889404 0.44400030374526978 0.37968066334724426
0.60836958885192871 0.45948120951652527 0.40071573853492737
0.68263536691665649 0.48228976130485535 0.4284883439540863
0.75453996658325195 0.51097089052200317 0.46035125851631165
0.81937509775161743 0.54397714138031006 0.49530574679374695
0.87549573183059692 0.57943236827850342 0.52753365039825439
0.1706589013338089 0.48996162414550781 0.39037081599235535
0.19190749526023865 0.49253746867179871 0.39265447854995728
0.2245061844587326 0.48998245596885681 0.39248925447463989
0.26767158508300781 0.48577633500099182 0.38892325758934021
0.32278531789779663 0.48639786243438721 0.38832724094390869
0.39505338668823242 0.49087050557136536 0.39141318202018738
0.468435138463974 0.49608635902404785 0.39671444892883301
0.53646582365036011 0.50227123498916626 0.40152078866958618
0.60200119018554688 0.51129233837127686 0.40864178538322449
0.668468177318573 0.52800959348678589 0.42215263843536377
0.7372744083404541 0.55878657102584839 0.45290359854698181
0.80469447374343872 0.60189086198806763 0.49572491645812988
0.86804676055908203 0.64964866638183594 0.54366964101791382
0.23118117451667786 0.55541890859603882 0.41895642876625061
0.24947428703308105 0.55679506063461304 0.42056602239608765
0.27328228950500488 0.55388891696929932 0.41996261477470398
0.30892288684844971 0.54620808362960815 0.41631782054901123
0.34950783848762512 0.54240256547927856 0.41485697031021118
0.40671887993812561 0.54686015844345093 0.41645008325576782
0.46975505352020264 0.55791389942169189 0.42174038290977478
0.53340244293212891 0.56664329767227173 0.4246547520160675
0.59705924987792969 0.57507860660552979 0.42540824413299561
0.6591564416885376 0.58279240131378174 0.42473280429840088
0.7218853235244751 0.60753881931304932 0.4437529444694519
0.78853213787078857 0.64922451972961426 0.48316562175750732
0.85336101055145264 0.69631844758987427 0.53402644395828247
0.27347585558891296 0.63235628604888916 0.44585254788398743
0.28751662373542786 0.63190180063247681 0.44586163759231567
0.30760052800178528 0.62800425291061401 0.44436395168304443
0.33737972378730774 0.62081015110015869 0.44173267483711243
0.37288662791252136 0.61428278684616089 0.4404836893081665
0.41708278656005859 0.61702114343643188 0.44045493006706238
0.47241330146789551 0.62761181592941284 0.44354352355003357
0.53112757205963135 0.63739132881164551 0.44533798098564148
0.59279721975326538 0.64761060476303101 0.44735592603683472
0.6517912745475769 0.65847069025039673 0.44664525985717773
0.71148133277893066 0.67205190658569336 0.45175817608833313
0.77557241916656494 0.69464147090911865 0.46921595931053162
0.84178996086120605 0.74274373054504395 0.52127754688262939
0.31449219584465027 0.71533513069152832 0.47472253441810608
0.32227140665054321 0.71111249923706055 0.47091513872146606
0.34035289287567139 0.70763278007507324 0.47075852751731873
0.36496305465698242 0.70417463779449463 0.46982008218765259
0.39685273170471191 0.70117563009262085 0.46927100419998169
0.43169000744819641 0.6971135139465332 0.46534407138824463
0.47810983657836914 0.70065110921859741 0.46543744206428528
0.53313779830932617 0.71326535940170288 0.46910029649734497
0.59003806114196777 0.725929856300354 0.47141078114509583
0.64829641580581665 0.74052399396896362 0.47184520959854126
0.70917773246765137 0.75582277774810791 0.47857558727264404
0.7713962197303772 0.77327346801757812 0.48666435480117798
0.83485549688339233 0.80103617906570435 0.51342582702636719
0.35775083303451538 0.81275057792663574 0.51446992158889771
0.36574751138687134 0.8118780255317688 0.5125197172164917
0.38011300563812256 0.81037920713424683 0.51263672113418579
0.40232104063034058 0.80835151672363281 0.51362854242324829
0.42939230799674988 0.80617761611938477 0.51157224178314209
0.46298786997795105 0.80217701196670532 0.51031017303466797
0.5052228569984436 0.80349767208099365 0.51252436637878418
0.55302661657333374 0.81330078840255737 0.5144379734992981
0.6076931357383728 0.82562536001205444 0.51925623416900635
0.66554397344589233 0.84080237150192261 0.52523642778396606
0.72501438856124878 0.85596370697021484 0.53483796119689941
0.78628647327423096 0.87016481161117554 0.54707825183868408
0.84476262331008911 0.88351136445999146 0.56263798475265503
0.45393669605255127 0.92202931642532349 0.59954053163528442
0.46215462684631348 0.92197936773300171 0.60075467824935913
0.4703114926815033 0.92130464315414429 0.59854817390441895
0.48832029104232788 0.91911083459854126 0.59933024644851685
0.50978970527648926 0.91814827919006348 0.59747111797332764
0.53651946783065796 0.91969364881515503 0.5982048511505127
0.56971174478530884 0.91993153095245361 0.59843188524246216
0.61436837911605835 0.92195051908493042 0.60378479957580566
0.66679531335830688 0.92836529016494751 0.61427420377731323
0.72223073244094849 0.93728810548782349 0.62562507390975952
0.77956938743591309 0.94679015874862671 0.64041846990585327
0.83627986907958984 0.95230907201766968 0.65366333723068237
0.89388853311538696 0.95713436603546143 0.67413991689682007
0 0.079332895576953888 0.1855182945728302
0.0012154373107478023 0.091061882674694061 0.19338043034076691
0.006201635580509901 0.11318052560091019 0.21308539807796478
0.02848510816693306 0.13296766579151154 0.23202525079250336
0.15371796488761902 0.15160658955574036 0.25482118129730225
0.27323409914970398 0.16546179354190826 0.27819332480430603
0.37571606040000916 0.1763010174036026 0.29955786466598511
0.46849524974822998 0.18437345325946808 0.31713619828224182
0.55117982625961304 0.19334813952445984 0.33675596117973328
0.62805360555648804 0.19962765276432037 0.35491776466369629
0.70102548599243164 0.20987364649772644 0.37642675638198853
0.77134907245635986 0.2248053103685379 0.39403423666954041
0.84339070320129395 0.24900880455970764 0.41706383228302002
0.0036704868543893099 0.14068920910358429 0.2179124504327774
0.0037922579795122147 0.14975619316101074 0.22624695301055908
0.0060000550001859665 0.16278243064880371 0.24149572849273682
0.039110578596591949 0.1745116263628006 0.25720173120498657
0.1712273508310318 0.18552917242050171 0.27682334184646606
0.28754979372024536 0.195315882563591 0.29624292254447937
0.39098089933395386 0.20252272486686707 0.31417843699455261
0.48077628016471863 0.21061822772026062 0.33324998617172241
0.560771644115448 0.21577528119087219 0.34974956512451172
0.63639849424362183 0.22112366557121277 0.36701580882072449
0.70850634574890137 0.23226837813854218 0.38571563363075256
0.7772209644317627 0.24757999181747437 0.40352720022201538
0.84757125377655029 0.2720051109790802 0.42588087916374207
0.0041724410839378834 0.20515112578868866 0.25287434458732605
0.0039215688593685627 0.21030546724796295 0.26267316937446594
0.0047381231561303139 0.21570301055908203 0.27218389511108398
0.068201370537281036 0.22297210991382599 0.28662428259849548
0.20873346924781799 0.23044420778751373 0.30486276745796204
0.32053849101066589 0.24047797918319702 0.32457941770553589
0.41535034775733948 0.24533501267433167 0.33972188830375671
0.49833860993385315 0.24798360466957092 0.35501500964164734
0.57632505893707275 0.25069314241409302 0.36894619464874268
0.64748042821884155 0.25572225451469421 0.38364875316619873
0.71737086772918701 0.26760575175285339 0.39993560314178467
0.78560429811477661 0.28496381640434265 0.41894268989562988
0.85523766279220581 0.31098875403404236 0.44132909178733826
0.0075712166726589203 0.27201026678085327 0.29534637928009033
0.00498987827450037 0.27360987663269043 0.30382052063941956
0.0095593621954321861 0.27380269765853882 0.30914521217346191
0.11997032910585403 0.27893280982971191 0.31781354546546936
0.25222647190093994 0.28567028045654297 0.33691179752349854
0.35747316479682922 0.29133176803588867 0.35373371839523315
0.44412174820899963 0.29709145426750183 0.36889860033988953
0.52278125286102295 0.29887521266937256 0.38235518336296082
0.594554603099823 0.29897275567054749 0.39291992783546448
0.6638113260269165 0.30445614457130432 0.40447407960891724
0.73035842180252075 0.31592822074890137 0.41967552900314331
0.79587042331695557 0.3325144350528717 0.43613186478614807
0.86477339267730713 0.35797581076622009 0.45890414714813232
0.0075238547287881374 0.336600661277771 0.3388308584690094
0.01265315618366003 0.33502009510993958 0.34296494722366333
0.054571878165006638 0.33295565843582153 0.34756043553352356
0.17191030085086823 0.33474302291870117 0.3541799783706665
0.28249558806419373 0.33785739541053772 0.36267867684364319
0.3797297477722168 0.34248271584510803 0.37099942564964294
0.46784728765487671 0.34939655661582947 0.38860306143760681
0.54877090454101562 0.3555336594581604 0.40573462843894958
