luts/instant_pro/polaroid_690_warm_+.cube
# Created by: G'MIC (https://gmic.eu)
TITLE "polaroid_690_warm_+"
# LUT size
LUT_3D_SIZE 7
# Data domain
DOMAIN_MIN 0.0 0.0 0.0
DOMAIN_MAX 1.0 1.0 1.0
# LUT data points
0.23137255012989044 0.16036657989025116 0.12409736961126328
0.24396921694278717 0.15446355938911438 0.11627545952796936
0.31363800168037415 0.13966469466686249 0.1133328303694725
0.4738253653049469 0.087883219122886658 0.10740040987730026
0.67228645086288452 0.0036181132309138775 0.095324993133544922
0.85397917032241821 0.0042744954116642475 0.068327508866786957
0.99053692817687988 0.00085936899995431304 0.04532197117805481
0.23296569287776947 0.18425688147544861 0.11681823432445526
0.2534852921962738 0.17835834622383118 0.10992658883333206
0.35552844405174255 0.1816352903842926 0.1037183403968811
0.54110038280487061 0.16195879876613617 0.088105373084545135
0.73148602247238159 0.081010334193706512 0.067729443311691284
0.89052760601043701 0.019739877432584763 0.044834420084953308
0.99599099159240723 0.0061238906346261501 0.012558701448142529
0.23285573720932007 0.2948768138885498 0.084663107991218567
0.28184443712234497 0.29467090964317322 0.076041080057621002
0.40909451246261597 0.31697392463684082 0.045934729278087616
0.60956162214279175 0.34518906474113464 0.01364605501294136
0.80648905038833618 0.35428991913795471 0.0048453239724040031
0.94648391008377075 0.3190639317035675 0.0023500032257288694
0.99756109714508057 0.29243278503417969 0.0028337964322417974
0.22738862037658691 0.4790375828742981 0.0090624792501330376
0.29388344287872314 0.46322494745254517 0.0056580188684165478
0.4228290319442749 0.47932919859886169 0.0044327080249786377
0.5989067554473877 0.5139649510383606 0.002306261332705617
0.80222856998443604 0.54405385255813599 0.0016065411036834121
0.96604466438293457 0.57184219360351562 0.00064329261658713222
1 0.56730884313583374 0.0072585609741508961
0.24263282120227814 0.64234846830368042 0.0028309542685747147
0.31975719332695007 0.63364648818969727 0.0018395218066871166
0.42851495742797852 0.63019812107086182 0.0021989112719893456
0.59366726875305176 0.66346257925033569 0.0023187075275927782
0.77682250738143921 0.69513571262359619 0.0023478788789361715
0.93234020471572876 0.72176533937454224 0
0.99845880270004272 0.74228131771087646 0.011935588903725147
0.32475489377975464 0.80166172981262207 0.00088462082203477621
0.38035756349563599 0.79729992151260376 0.00088203279301524162
0.47520890831947327 0.79269659519195557 0.00064665853278711438
0.60687547922134399 0.80733299255371094 0.002373923547565937
0.76975893974304199 0.82604110240936279 0.0014534894144162536
0.92082506418228149 0.84272557497024536 0.0030240076594054699
0.99698919057846069 0.8576667308807373 0.0049759959802031517
0.51805347204208374 0.94273406267166138 0.15480637550354004
0.54473316669464111 0.94133114814758301 0.13178934156894684
0.61034029722213745 0.93843507766723633 0.1142541915178299
0.70783579349517822 0.93556767702102661 0.099660761654376984
0.82823324203491211 0.93934082984924316 0.13437181711196899
0.94464224576950073 0.94096624851226807 0.19700931012630463
1 0.94102674722671509 0.29420292377471924
0.226282998919487 0.15450303256511688 0.14554595947265625
0.24525432288646698 0.15038271248340607 0.14284621179103851
0.32299700379371643 0.13243749737739563 0.1438332200050354
0.47715610265731812 0.057649709284305573 0.14883340895175934
0.65664839744567871 0.0045704562216997147 0.14280913770198822
0.82844084501266479 0.0022461684420704842 0.12554349005222321
0.98078304529190063 0.00088465074077248573 0.10210120677947998
0.22323104739189148 0.17973540723323822 0.14547182619571686
0.26056370139122009 0.18003006279468536 0.14872349798679352
0.36306148767471313 0.16649074852466583 0.14350058138370514
0.53787130117416382 0.11287454515695572 0.13680963218212128
0.717246413230896 0.025176987051963806 0.12586456537246704
0.8813900351524353 0.0082559175789356232 0.10785268247127533
0.99216753244400024 0.0061096488498151302 0.079491451382637024
0.21863178908824921 0.31175562739372253 0.14786240458488464
0.27942091226577759 0.30808496475219727 0.1470770388841629
0.42238003015518188 0.32284370064735413 0.13609760999679565
0.62127387523651123 0.34165892004966736 0.11880695074796677
0.80103808641433716 0.3235073983669281 0.10891183465719223
0.93889373540878296 0.27800577878952026 0.087497547268867493
0.9999271035194397 0.24301102757453918 0.057309228926897049
0.21100957691669464 0.49465569853782654 0.095315001904964447
0.29124820232391357 0.48653531074523926 0.095494695007801056
0.42437207698822021 0.49428179860115051 0.067538335919380188
0.60937404632568359 0.5272451639175415 0.033162388950586319
0.80805695056915283 0.55884867906570435 0.035601027309894562
0.96828389167785645 0.57239145040512085 0.097917415201663971
1 0.55823463201522827 0.13609611988067627
0.23371320962905884 0.66037815809249878 0.034748539328575134
0.30737766623497009 0.65279072523117065 0.024700988084077835
0.42731305956840515 0.64695650339126587 0.017945248633623123
0.59008669853210449 0.67295414209365845 0.010119374841451645
0.77472591400146484 0.70713609457015991 0.010710831731557846
0.94111073017120361 0.72846764326095581 0.01821480505168438
0.99987936019897461 0.74443703889846802 0.16682814061641693
0.31878304481506348 0.81224691867828369 0.02668488398194313
0.37086328864097595 0.80944788455963135 0.01802845299243927
0.47231325507164001 0.80387771129608154 0.0086414562538266182
0.60450142621994019 0.81052166223526001 0.0078470120206475258
0.76361680030822754 0.82956868410110474 0.011064237914979458
0.91827458143234253 0.84765744209289551 0.019482167437672615
0.9975510835647583 0.86014115810394287 0.14464238286018372
0.51854789257049561 0.9408031702041626 0.26713782548904419
0.54711621999740601 0.94025528430938721 0.25555914640426636
0.61135423183441162 0.93705654144287109 0.22885829210281372
0.70579069852828979 0.93480497598648071 0.19882716238498688
0.82619082927703857 0.93643200397491455 0.24221715331077576
0.94142955541610718 0.9394981861114502 0.30191203951835632
0.99979352951049805 0.94229912757873535 0.36978363990783691
0.22259385883808136 0.14722155034542084 0.24896205961704254
0.26358130574226379 0.14051163196563721 0.27161416411399841
0.37205901741981506 0.11648178100585938 0.29040634632110596
0.51434409618377686 0.054611518979072571 0.27401769161224365
0.67759448289871216 0.0024118011351674795 0.27609804272651672
0.83120608329772949 0 0.25713434815406799
0.97381150722503662 0 0.21706689894199371
0.21881987154483795 0.18730098009109497 0.26645871996879578
0.26777312159538269 0.18240231275558472 0.28858432173728943
0.40264469385147095 0.17435772716999054 0.3193880021572113
0.55129945278167725 0.13572078943252563 0.29121124744415283
0.70867949724197388 0.016266003251075745 0.26693090796470642
0.86028391122817993 0.0010600370587781072 0.24283425509929657
0.98691743612289429 0.00023938347294460982 0.20224522054195404
0.2175564169883728 0.32750758528709412 0.30433139204978943
0.2893490195274353 0.32763722538948059 0.30776235461235046
0.43834930658340454 0.33837041258811951 0.33525234460830688
0.61280816793441772 0.31653866171836853 0.31920215487480164
0.76672446727752686 0.25443616509437561 0.28839224576950073
0.91494393348693848 0.15588445961475372 0.24748805165290833
0.99973362684249878 0.09033145010471344 0.21387796103954315
0.21849781274795532 0.52916246652603149 0.32983094453811646
0.30404341220855713 0.5235942006111145 0.32078137993812561
0.44709715247154236 0.5200575590133667 0.31504917144775391
0.63111460208892822 0.54492688179016113 0.31328633427619934
0.8112025260925293 0.56312644481658936 0.33695581555366516
0.95892268419265747 0.55795598030090332 0.35303574800491333
1 0.5217854380607605 0.32304197549819946
0.25001442432403564 0.69292974472045898 0.31491619348526001
0.32690078020095825 0.6866602897644043 0.30597391724586487
0.45207682251930237 0.68032938241958618 0.28476524353027344
0.6004064679145813 0.6854172945022583 0.26876196265220642
0.78205013275146484 0.71486532688140869 0.28132778406143188
0.93830496072769165 0.73413634300231934 0.33051362633705139
0.99750810861587524 0.74970251321792603 0.41743320226669312
0.33228331804275513 0.82747012376785278 0.31404191255569458
0.38210573792457581 0.82051217555999756 0.30611994862556458
0.48057764768600464 0.81743425130844116 0.2819746732711792
0.60344856977462769 0.81635898351669312 0.24758541584014893
0.76372259855270386 0.83172434568405151 0.26383796334266663
0.91753554344177246 0.85004884004592896 0.31314519047737122
0.99558883905410767 0.86148828268051147 0.39285159111022949
0.51682668924331665 0.94134223461151123 0.4298747181892395
0.54394221305847168 0.94221186637878418 0.424205482006073
0.60587781667709351 0.93932735919952393 0.40764039754867554
0.70008617639541626 0.93598616123199463 0.38431057333946228
0.81500709056854248 0.93578875064849854 0.40203037858009338
0.93216264247894287 0.93843346834182739 0.44514268636703491
0.99579900503158569 0.94100701808929443 0.49822500348091125
0.19281688332557678 0.13979111611843109 0.47012174129486084
0.25827595591545105 0.12827448546886444 0.49851429462432861
0.41471898555755615 0.077965803444385529 0.54351770877838135
0.61328601837158203 0.0062614143826067448 0.56634974479675293
0.74619466066360474 0.0037041159812361002 0.50750887393951416
0.86317938566207886 0 0.45811203122138977
0.98576408624649048 0.00067618873436003923 0.43409383296966553
0.1774064302444458 0.19455000758171082 0.49382728338241577
0.26078557968139648 0.18451021611690521 0.51238244771957397
0.43287116289138794 0.17092904448509216 0.5612604022026062
0.63087540864944458 0.12916120886802673 0.58153903484344482
0.75937330722808838 0.077720806002616882 0.51601636409759521
0.87778043746948242 0.01654498465359211 0.46663597226142883
0.9850844144821167 0.0067316540516912937 0.43835991621017456
0.18772484362125397 0.314962238073349 0.49239429831504822
0.28301101922988892 0.32393625378608704 0.513092041015625
0.44312518835067749 0.34138152003288269 0.55442148447036743
0.64570534229278564 0.35861808061599731 0.58853751420974731
0.76752859354019165 0.31654936075210571 0.52043652534484863
0.89728331565856934 0.20456008613109589 0.46596744656562805
0.99364709854125977 0.013643466867506504 0.40847033262252808
0.24221096932888031 0.52639150619506836 0.54474669694900513
0.33072194457054138 0.53058850765228271 0.54748678207397461
0.47417217493057251 0.54686558246612549 0.5630306601524353
0.64497166872024536 0.57175338268280029 0.58704274892807007
0.79378074407577515 0.54071557521820068 0.56213545799255371
0.92441892623901367 0.4655488133430481 0.50358486175537109
0.99901461601257324 0.38344752788543701 0.43788826465606689
0.33314257860183716 0.71527218818664551 0.56696414947509766
0.38930845260620117 0.71318262815475464 0.56464016437530518
0.49672570824623108 0.71550506353378296 0.55873799324035645
0.62906938791275024 0.71234405040740967 0.5415453314781189
0.79011130332946777 0.72559773921966553 0.55169326066970825
0.93540555238723755 0.74646639823913574 0.59467113018035889
0.99911624193191528 0.74348872900009155 0.61234718561172485
0.38062253594398499 0.84635496139526367 0.55771470069885254
0.42281365394592285 0.84234994649887085 0.55316317081451416
0.51290905475616455 0.83923262357711792 0.54247951507568359
0.62358003854751587 0.83197128772735596 0.5148276686668396
0.76359021663665771 0.83590090274810791 0.51080989837646484
0.90944337844848633 0.85332459211349487 0.54953992366790771
0.99308317899703979 0.85995835065841675 0.59939980506896973
0.5403333306312561 0.945811927318573 0.61170786619186401
0.56511545181274414 0.94390255212783813 0.60498207807540894
0.61857759952545166 0.94164854288101196 0.59281265735626221
0.70072746276855469 0.94030225276947021 0.57357335090637207
0.80445003509521484 0.93655085563659668 0.55671274662017822
0.92490750551223755 0.93875539302825928 0.592182457447052
0.99347573518753052 0.94037079811096191 0.64407920837402344
0.1485932469367981 0.12249675393104553 0.70587259531021118
0.2655392587184906 0.11099796742200851 0.71148908138275146
0.43677332997322083 0.048952408134937286 0.740714430809021
0.63889163732528687 0.0065778396092355251 0.77978432178497314
0.82406085729598999 0.0051618539728224277 0.77777326107025146
0.93491381406784058 0.0052834902890026569 0.72577321529388428
0.99494355916976929 0.0062253018841147423 0.66810721158981323
0.14441485702991486 0.18661245703697205 0.70969802141189575
0.26168292760848999 0.18447688221931458 0.71763575077056885
0.4364277720451355 0.18164949119091034 0.73927342891693115
0.65105974674224854 0.16710199415683746 0.77910226583480835
0.82846176624298096 0.17268489301204681 0.7820858359336853
0.93430691957473755 0.13903488218784332 0.72949337959289551
0.99825721979141235 0.095621876418590546 0.66786080598831177
0.15484754741191864 0.31777781248092651 0.69779908657073975
0.27007439732551575 0.32914978265762329 0.70439070463180542
0.44884765148162842 0.34894484281539917 0.72977906465530396
0.65601193904876709 0.38523650169372559 0.76940912008285522
0.82489675283432007 0.4160824716091156 0.77800863981246948
0.92664575576782227 0.3667827844619751 0.71109431982040405
0.99751228094100952 0.28820425271987915 0.66412836313247681
0.19470697641372681 0.48901453614234924 0.68988955020904541
0.29098072648048401 0.49688816070556641 0.6941530704498291
0.43951082229614258 0.50986999273300171 0.70549851655960083
0.63521653413772583 0.56333106756210327 0.74257636070251465
0.81315749883651733 0.60943162441253662 0.76884979009628296
0.91248857975006104 0.54897379875183105 0.71326178312301636
0.99589842557907104 0.43309831619262695 0.64602768421173096
0.35394564270973206 0.70111995935440063 0.73021614551544189
0.41451790928840637 0.7082589864730835 0.72628110647201538
0.51678109169006348 0.71040832996368408 0.73259788751602173
0.65936845541000366 0.72942322492599487 0.7489696741104126
0.80482172966003418 0.75489377975463867 0.76704996824264526
0.91804885864257812 0.71970278024673462 0.74015533924102783
0.99872654676437378 0.64496785402297974 0.67909514904022217
0.50525432825088501 0.85875886678695679 0.74808347225189209
0.53624719381332397 0.85470288991928101 0.74512219429016113
0.59451413154602051 0.85473877191543579 0.74516832828521729
0.68564850091934204 0.85711115598678589 0.74593698978424072
0.78286862373352051 0.85104840993881226 0.72747242450714111
0.90550559759140015 0.86088252067565918 0.74363434314727783
0.99292027950286865 0.87350398302078247 0.77725470066070557
0.61604213714599609 0.94708907604217529 0.77230560779571533
0.63337826728820801 0.94364249706268311 0.76603919267654419
0.66670185327529907 0.93809396028518677 0.75455832481384277
0.73516792058944702 0.94231796264648438 0.75522750616073608
0.81854760646820068 0.9358665943145752 0.73068338632583618
0.9162408709526062 0.9379502534866333 0.73797005414962769
0.99678957462310791 0.94074851274490356 0.76524078845977783
0.23861390352249146 0.12459854781627655 0.87029886245727539
0.3283858597278595 0.11246883869171143 0.87547069787979126
0.47681668400764465 0.085933655500411987 0.87997055053710938
0.65691781044006348 0.064881853759288788 0.89706742763519287
0.8418007493019104 0.15627790987491608 0.91220450401306152
0.9738166332244873 0.21572016179561615 0.90918183326721191
0.99999535083770752 0.20307819545269012 0.87453770637512207
0.24797308444976807 0.20684635639190674 0.86515957117080688
0.33900076150894165 0.20661395788192749 0.86927706003189087
0.48827290534973145 0.21616876125335693 0.87762326002120972
0.6630256175994873 0.22882091999053955 0.88881272077560425
0.83796232938766479 0.29920294880867004 0.90947169065475464
0.97078663110733032 0.33994537591934204 0.90286052227020264
0.99857842922210693 0.32361748814582825 0.87009650468826294
0.2532464861869812 0.34175905585289001 0.85863345861434937
0.34600186347961426 0.3499445915222168 0.86241817474365234
0.48731762170791626 0.36689689755439758 0.86985045671463013
0.66286009550094604 0.40592697262763977 0.88535898923873901
0.84076803922653198 0.48214924335479736 0.90366500616073608
0.96097195148468018 0.51029640436172485 0.89802879095077515
0.99774777889251709 0.47305715084075928 0.86382180452346802
0.20657822489738464 0.48614770174026489 0.83006304502487183
0.30883169174194336 0.49541410803794861 0.83647900819778442
0.45875653624534607 0.51503914594650269 0.84292614459991455
0.64957296848297119 0.56333667039871216 0.86478716135025024
0.82583391666412354 0.63621550798416138 0.89154303073883057
0.94339573383331299 0.65948081016540527 0.88952809572219849
0.99776607751846313 0.61682188510894775 0.85684633255004883
0.30292791128158569 0.67181265354156494 0.83548140525817871
0.35717275738716125 0.67013180255889893 0.83559668064117432
0.46904125809669495 0.67341232299804688 0.83724206686019897
0.61591064929962158 0.69389063119888306 0.84801524877548218
0.79676705598831177 0.74715059995651245 0.86890631914138794
0.93104678392410278 0.78394502401351929 0.88496357202529907
0.9952271580696106 0.73177015781402588 0.84756350517272949
0.50926053524017334 0.84360289573669434 0.85583937168121338
0.54292756319046021 0.84306138753890991 0.85795646905899048
0.6124681830406189 0.84729886054992676 0.86092168092727661
0.71355807781219482 0.85039788484573364 0.86403387784957886
0.82543140649795532 0.86299854516983032 0.87544834613800049
0.92762464284896851 0.87927424907684326 0.88114398717880249
0.99031853675842285 0.84772509336471558 0.86143654584884644
0.72803413867950439 0.94584041833877563 0.88421618938446045
0.73574960231781006 0.94245582818984985 0.88267171382904053
0.76320189237594604 0.93888646364212036 0.87938106060028076
0.81122642755508423 0.94205015897750854 0.88116610050201416
0.86686164140701294 0.93985867500305176 0.87246561050415039
0.9240538477897644 0.93968170881271362 0.86987036466598511
0.98891711235046387 0.93591684103012085 0.87396955490112305
0.44816762208938599 0.22727584838867188 0.97592395544052124
0.49521800875663757 0.23137083649635315 0.97595411539077759
0.5925217866897583 0.24016289412975311 0.97589892148971558
0.71559375524520874 0.27399727702140808 0.97783911228179932
0.85165309906005859 0.33954980969429016 0.97846245765686035
0.97162026166915894 0.45299005508422852 0.97838288545608521
1 0.49591398239135742 0.9696965217590332
0.45935574173927307 0.30974903702735901 0.97393006086349487
0.50788456201553345 0.31183978915214539 0.973857581615448
0.59923958778381348 0.32876312732696533 0.97344112396240234
0.72223752737045288 0.36086511611938477 0.97380048036575317
0.85421156883239746 0.42733722925186157 0.97345197200775146
0.96999442577362061 0.51834392547607422 0.97553855180740356
1 0.54891693592071533 0.96518844366073608
0.47265228629112244 0.44064077734947205 0.96510642766952515
0.51650261878967285 0.44414153695106506 0.96735286712646484
0.60538679361343384 0.46117594838142395 0.96739691495895386
0.72544527053833008 0.49045872688293457 0.96723645925521851
0.85916149616241455 0.54870706796646118 0.96769088506698608
0.96484220027923584 0.6272960901260376 0.96887803077697754
0.99939054250717163 0.63994020223617554 0.96028411388397217
0.45160755515098572 0.57366317510604858 0.95460903644561768
0.4974607527256012 0.57649540901184082 0.95473510026931763
0.59060055017471313 0.58793193101882935 0.95603972673416138
0.7226366400718689 0.62478601932525635 0.95760029554367065
0.85180497169494629 0.6713634729385376 0.9613196849822998
0.94969081878662109 0.72673279047012329 0.96138149499893188
0.99817383289337158 0.74296349287033081 0.95671975612640381
0.40983906388282776 0.69926291704177856 0.94226419925689697
0.44504457712173462 0.69507384300231934 0.94199913740158081
0.53601264953613281 0.70097810029983521 0.94200026988983154
0.67361944913864136 0.72531133890151978 0.941334068775177
0.83076566457748413 0.76761376857757568 0.95084714889526367
0.93519043922424316 0.81322163343429565 0.95588046312332153
0.99690800905227661 0.83376741409301758 0.95100265741348267
0.55401778221130371 0.85172665119171143 0.93796378374099731
0.57167041301727295 0.85040473937988281 0.93777251243591309
0.61714094877243042 0.84503865242004395 0.93347787857055664
0.69810861349105835 0.84522891044616699 0.93889844417572021
0.80063146352767944 0.84901285171508789 0.94077789783477783
0.9243132472038269 0.88273948431015015 0.95004475116729736
0.99172377586364746 0.90086174011230469 0.95169299840927124
0.75143188238143921 0.94550138711929321 0.94657963514328003
0.75993508100509644 0.94647431373596191 0.94604158401489258
0.79200679063796997 0.94336950778961182 0.94819742441177368
0.84109681844711304 0.94061088562011719 0.94960719347000122
0.89370268583297729 0.94034677743911743 0.95009779930114746
0.94635403156280518 0.9401511549949646 0.9478335976600647
0.99100440740585327 0.94582867622375488 0.9554828405380249
