luts/instant_pro/polaroid_665_negative_+.cube
# Created by: G'MIC (https://gmic.eu)
TITLE "polaroid_665_negative_+"
# LUT size
LUT_3D_SIZE 5
# Data domain
DOMAIN_MIN 0.0 0.0 0.0
DOMAIN_MAX 1.0 1.0 1.0
# LUT data points
0.20937652885913849 0.20937652885913849 0.20937652885913849
0.23223738372325897 0.23223738372325897 0.23223738372325897
0.29533219337463379 0.29533219337463379 0.29533219337463379
0.40498411655426025 0.40498411655426025 0.40498411655426025
0.54795002937316895 0.54795002937316895 0.54795002937316895
0.27785056829452515 0.27785056829452515 0.27785056829452515
0.2848142683506012 0.2848142683506012 0.2848142683506012
0.33094596862792969 0.33094596862792969 0.33094596862792969
0.43571162223815918 0.43571162223815918 0.43571162223815918
0.57839047908782959 0.57839047908782959 0.57839047908782959
0.42175784707069397 0.42175784707069397 0.42175784707069397
0.41343718767166138 0.41343718767166138 0.41343718767166138
0.42687487602233887 0.42687487602233887 0.42687487602233887
0.50347983837127686 0.50347983837127686 0.50347983837127686
0.6369594931602478 0.6369594931602478 0.6369594931602478
0.60122895240783691 0.60122895240783691 0.60122895240783691
0.59148561954498291 0.59148561954498291 0.59148561954498291
0.58824384212493896 0.58824384212493896 0.58824384212493896
0.62252271175384521 0.62252271175384521 0.62252271175384521
0.70681953430175781 0.70681953430175781 0.70681953430175781
0.77715873718261719 0.77715873718261719 0.77715873718261719
0.76958358287811279 0.76958358287811279 0.76958358287811279
0.76798981428146362 0.76798981428146362 0.76798981428146362
0.77158218622207642 0.77158218622207642 0.77158218622207642
0.80092185735702515 0.80092185735702515 0.80092185735702515
0.27912673354148865 0.27912673354148865 0.27912673354148865
0.30849769711494446 0.30849769711494446 0.30849769711494446
0.35859879851341248 0.35859879851341248 0.35859879851341248
0.44462832808494568 0.44462832808494568 0.44462832808494568
0.58246392011642456 0.58246392011642456 0.58246392011642456
0.32923787832260132 0.32923787832260132 0.32923787832260132
0.35166636109352112 0.35166636109352112 0.35166636109352112
0.39075788855552673 0.39075788855552673 0.39075788855552673
0.47519597411155701 0.47519597411155701 0.47519597411155701
0.60438007116317749 0.60438007116317749 0.60438007116317749
0.48050001263618469 0.48050001263618469 0.48050001263618469
0.47639033198356628 0.47639033198356628 0.47639033198356628
0.48251292109489441 0.48251292109489441 0.48251292109489441
0.54035341739654541 0.54035341739654541 0.54035341739654541
0.64971327781677246 0.64971327781677246 0.64971327781677246
0.64089196920394897 0.64089196920394897 0.64089196920394897
0.63353919982910156 0.63353919982910156 0.63353919982910156
0.62311416864395142 0.62311416864395142 0.62311416864395142
0.63573318719863892 0.63573318719863892 0.63573318719863892
0.70582824945449829 0.70582824945449829 0.70582824945449829
0.79359149932861328 0.79359149932861328 0.79359149932861328
0.78471571207046509 0.78471571207046509 0.78471571207046509
0.77122867107391357 0.77122867107391357 0.77122867107391357
0.76405626535415649 0.76405626535415649 0.76405626535415649
0.79212433099746704 0.79212433099746704 0.79212433099746704
0.43221977353096008 0.43221977353096008 0.43221977353096008
0.46147724986076355 0.46147724986076355 0.46147724986076355
0.48932942748069763 0.48932942748069763 0.48932942748069763
0.51263463497161865 0.51263463497161865 0.51263463497161865
0.63699460029602051 0.63699460029602051 0.63699460029602051
0.46148735284805298 0.46148735284805298 0.46148735284805298
0.49140730500221252 0.49140730500221252 0.49140730500221252
0.51758831739425659 0.51758831739425659 0.51758831739425659
0.55443984270095825 0.55443984270095825 0.55443984270095825
0.64593994617462158 0.64593994617462158 0.64593994617462158
0.54940330982208252 0.54940330982208252 0.54940330982208252
0.57105088233947754 0.57105088233947754 0.57105088233947754
0.58414942026138306 0.58414942026138306 0.58414942026138306
0.61324608325958252 0.61324608325958252 0.61324608325958252
0.68151235580444336 0.68151235580444336 0.68151235580444336
0.68529999256134033 0.68529999256134033 0.68529999256134033
0.68290132284164429 0.68290132284164429 0.68290132284164429
0.68741011619567871 0.68741011619567871 0.68741011619567871
0.6878015398979187 0.6878015398979187 0.6878015398979187
0.72881001234054565 0.72881001234054565 0.72881001234054565
0.81096971035003662 0.81096971035003662 0.81096971035003662
0.7980462908744812 0.7980462908744812 0.7980462908744812
0.78774112462997437 0.78774112462997437 0.78774112462997437
0.77769792079925537 0.77769792079925537 0.77769792079925537
0.7985038161277771 0.7985038161277771 0.7985038161277771
0.62704163789749146 0.62704163789749146 0.62704163789749146
0.64114654064178467 0.64114654064178467 0.64114654064178467
0.66247916221618652 0.66247916221618652 0.66247916221618652
0.66256892681121826 0.66256892681121826 0.66256892681121826
0.69585978984832764 0.69585978984832764 0.69585978984832764
0.64101547002792358 0.64101547002792358 0.64101547002792358
0.65292477607727051 0.65292477607727051 0.65292477607727051
0.66528540849685669 0.66528540849685669 0.66528540849685669
0.67267119884490967 0.67267119884490967 0.67267119884490967
0.71268415451049805 0.71268415451049805 0.71268415451049805
0.66273391246795654 0.66273391246795654 0.66273391246795654
0.67668908834457397 0.67668908834457397 0.67668908834457397
0.69268119335174561 0.69268119335174561 0.69268119335174561
0.7081223726272583 0.7081223726272583 0.7081223726272583
0.74472355842590332 0.74472355842590332 0.74472355842590332
0.73948037624359131 0.73948037624359131 0.73948037624359131
0.72306674718856812 0.72306674718856812 0.72306674718856812
0.74289768934249878 0.74289768934249878 0.74289768934249878
0.74941748380661011 0.74941748380661011 0.74941748380661011
0.77425181865692139 0.77425181865692139 0.77425181865692139
0.82245093584060669 0.82245093584060669 0.82245093584060669
0.80640166997909546 0.80640166997909546 0.80640166997909546
0.80559104681015015 0.80559104681015015 0.80559104681015015
0.80313944816589355 0.80313944816589355 0.80313944816589355
0.81863278150558472 0.81863278150558472 0.81863278150558472
0.7916983962059021 0.7916983962059021 0.7916983962059021
0.79816770553588867 0.79816770553588867 0.79816770553588867
0.80304473638534546 0.80304473638534546 0.80304473638534546
0.79848915338516235 0.79848915338516235 0.79848915338516235
0.81003201007843018 0.81003201007843018 0.81003201007843018
0.79479694366455078 0.79479694366455078 0.79479694366455078
0.80125671625137329 0.80125671625137329 0.80125671625137329
0.801838219165802 0.801838219165802 0.801838219165802
0.80183058977127075 0.80183058977127075 0.80183058977127075
0.81809908151626587 0.81809908151626587 0.81809908151626587
0.79694217443466187 0.79694217443466187 0.79694217443466187
0.80328482389450073 0.80328482389450073 0.80328482389450073
0.80425244569778442 0.80425244569778442 0.80425244569778442
0.81371039152145386 0.81371039152145386 0.81371039152145386
0.83399033546447754 0.83399033546447754 0.83399033546447754
0.81151652336120605 0.81151652336120605 0.81151652336120605
0.80689036846160889 0.80689036846160889 0.80689036846160889
0.8121408224105835 0.8121408224105835 0.8121408224105835
0.81992107629776001 0.81992107629776001 0.81992107629776001
0.83815526962280273 0.83815526962280273 0.83815526962280273
0.84738284349441528 0.84738284349441528 0.84738284349441528
0.84108167886734009 0.84108167886734009 0.84108167886734009
0.8433106541633606 0.8433106541633606 0.8433106541633606
0.84466063976287842 0.84466063976287842 0.84466063976287842
0.85723358392715454 0.85723358392715454 0.85723358392715454
