luts/instant_pro/polaroid_690_++.cube
# Created by: G'MIC (https://gmic.eu)
TITLE "polaroid_690_++"
# LUT size
LUT_3D_SIZE 5
# Data domain
DOMAIN_MIN 0.0 0.0 0.0
DOMAIN_MAX 1.0 1.0 1.0
# LUT data points
0.32745379209518433 0.27254930138587952 0.23192854225635529
0.37902769446372986 0.27007290720939636 0.23278558254241943
0.53333353996276855 0.25553390383720398 0.23210784792900085
0.76111811399459839 0.21083331108093262 0.22790053486824036
0.98344874382019043 0.15109889209270477 0.2143712192773819
0.33718416094779968 0.33071842789649963 0.23447555303573608
0.40125617384910583 0.33991369605064392 0.22973276674747467
0.61512619256973267 0.36173412203788757 0.22578185796737671
0.83552283048629761 0.33837971091270447 0.21637196838855743
0.99305224418640137 0.328113853931427 0.20561313629150391
0.35267442464828491 0.5042412281036377 0.2199653685092926
0.42878058552742004 0.50312924385070801 0.21421073377132416
0.61468833684921265 0.53995949029922485 0.194661945104599
0.87953370809555054 0.59195101261138916 0.17559647560119629
0.99913758039474487 0.60125863552093506 0.21588267385959625
0.3986259400844574 0.71057349443435669 0.18787367641925812
0.47004732489585876 0.70497006177902222 0.17919494211673737
0.63304030895233154 0.71755874156951904 0.16115933656692505
0.85587102174758911 0.74963682889938354 0.14043907821178436
0.99934560060501099 0.77008724212646484 0.19422227144241333
0.59317934513092041 0.90241461992263794 0.29337024688720703
0.63893401622772217 0.89885634183883667 0.27798086404800415
0.75117319822311401 0.89871793985366821 0.2587185800075531
0.8913608193397522 0.91028499603271484 0.28122293949127197
0.99648076295852661 0.93241280317306519 0.32144325971603394
0.32993236184120178 0.27520248293876648 0.29703927040100098
0.38732379674911499 0.27189204096794128 0.30775648355484009
0.54118329286575317 0.25336998701095581 0.30533298850059509
0.73924380540847778 0.19001211225986481 0.29859763383865356
0.97057259082794189 0.0056648701429367065 0.26692712306976318
0.3369176983833313 0.3388359546661377 0.31485521793365479
0.41275793313980103 0.34660446643829346 0.32194620370864868
0.59852045774459839 0.32974943518638611 0.3148142397403717
0.81004029512405396 0.28346243500709534 0.29524800181388855
0.99401259422302246 0.22584672272205353 0.27150321006774902
0.33670732378959656 0.53659337759017944 0.32714903354644775
0.42424643039703369 0.52760583162307739 0.31845009326934814
0.63246011734008789 0.55261826515197754 0.31141427159309387
0.88766860961914062 0.59041011333465576 0.32850155234336853
0.99856644868850708 0.5794556736946106 0.33129152655601501
0.38756671547889709 0.72926908731460571 0.31095018982887268
0.46438437700271606 0.72235345840454102 0.2965247631072998
0.63177371025085449 0.72439056634902954 0.28266045451164246
0.85983145236968994 0.75469434261322021 0.29427233338356018
0.99866026639938354 0.77330684661865234 0.35315749049186707
0.57888162136077881 0.90450811386108398 0.39977657794952393
0.62678581476211548 0.90327560901641846 0.38507062196731567
0.73675364255905151 0.89704489707946777 0.35673290491104126
0.8858487606048584 0.91061699390411377 0.38006636500358582
0.99489229917526245 0.93383979797363281 0.42523929476737976
0.32287469506263733 0.27557629346847534 0.52918428182601929
0.42034792900085449 0.26854079961776733 0.55815607309341431
0.63476991653442383 0.24494121968746185 0.60360097885131836
0.79189223051071167 0.22800084948539734 0.52654755115509033
0.97852784395217896 0.054610054939985275 0.50045680999755859
0.31824991106987 0.34879356622695923 0.53155303001403809
0.4142918586730957 0.35166913270950317 0.56267893314361572
0.64608335494995117 0.36150598526000977 0.61815255880355835
0.80949884653091431 0.31768396496772766 0.53101003170013428
0.98544180393218994 0.16668950021266937 0.48539009690284729
0.34393218159675598 0.55263340473175049 0.57161349058151245
0.44539830088615417 0.56269216537475586 0.58284562826156616
0.65120333433151245 0.5863196849822998 0.61119097471237183
0.85540533065795898 0.52809876203536987 0.56013184785842896
0.99929535388946533 0.44254365563392639 0.47663268446922302
0.40751883387565613 0.76179003715515137 0.58949249982833862
0.48051247000694275 0.75991106033325195 0.580963134765625
0.64074099063873291 0.74721026420593262 0.55682063102722168
0.85901862382888794 0.76265954971313477 0.57269752025604248
0.99819964170455933 0.78222537040710449 0.63817620277404785
0.56893420219421387 0.91494941711425781 0.62846899032592773
0.61310970783233643 0.91115635633468628 0.61311072111129761
0.71686720848083496 0.90443944931030273 0.58534008264541626
0.86430138349533081 0.91237407922744751 0.57599443197250366
0.97926419973373413 0.93450653553009033 0.63027745485305786
0.33488810062408447 0.27388927340507507 0.81891793012619019
0.44707921147346497 0.26704785227775574 0.83062124252319336
0.67649585008621216 0.25789591670036316 0.85844063758850098
0.90702670812606812 0.26567435264587402 0.87145662307739258
0.99847441911697388 0.26382380723953247 0.80378687381744385
0.31697016954421997 0.35743275284767151 0.8158944845199585
0.43830990791320801 0.35773774981498718 0.82523494958877563
0.66962909698486328 0.37923213839530945 0.85391134023666382
0.900310218334198 0.41552910208702087 0.86636382341384888
0.9975770115852356 0.37178614735603333 0.80332463979721069
0.28271442651748657 0.5240141749382019 0.77996623516082764
0.39206728339195251 0.52530431747436523 0.78705430030822754
0.64153766632080078 0.57859230041503906 0.82843291759490967
0.8833126425743103 0.63442105054855347 0.85990750789642334
0.99431514739990234 0.54762852191925049 0.78980320692062378
0.4541015625 0.75987744331359863 0.81874954700469971
0.52704441547393799 0.7593148946762085 0.82208716869354248
0.69459521770477295 0.766365647315979 0.83478319644927979
0.87446075677871704 0.78852128982543945 0.85143911838531494
0.99166440963745117 0.72925031185150146 0.80321139097213745
0.68084549903869629 0.92045402526855469 0.85037988424301147
0.70305556058883667 0.91874301433563232 0.84818089008331299
0.76637363433837891 0.91847783327102661 0.83864808082580566
0.85261809825897217 0.91986089944839478 0.81659632921218872
0.95487105846405029 0.9405701756477356 0.83898532390594482
0.52803522348403931 0.3402615487575531 0.9610939621925354
0.59757161140441895 0.34095069766044617 0.96092671155929565
0.7444649338722229 0.35453405976295471 0.96135526895523071
0.91951864957809448 0.43325552344322205 0.95958513021469116
1 0.51438277959823608 0.95025992393493652
0.52439093589782715 0.43247991800308228 0.95620763301849365
0.59354233741760254 0.43435680866241455 0.95665043592453003
0.74667066335678101 0.4637988805770874 0.95713627338409424
0.9108583927154541 0.54308295249938965 0.95424753427505493
0.999980628490448 0.59178948402404785 0.94586259126663208
0.48065125942230225 0.58766591548919678 0.9461590051651001
0.55913311243057251 0.59110033512115479 0.94530999660491943
0.730457603931427 0.62445956468582153 0.94362890720367432
0.90443950891494751 0.6833188533782959 0.94485485553741455
0.99637830257415771 0.71804243326187134 0.93923962116241455
0.50376534461975098 0.75723856687545776 0.93147653341293335
0.55099004507064819 0.75274825096130371 0.93243879079818726
0.67827290296554565 0.7488703727722168 0.93258911371231079
0.88618898391723633 0.79087346792221069 0.933338463306427
0.98277419805526733 0.83236992359161377 0.92958635091781616
0.75290131568908691 0.92553567886352539 0.92349898815155029
0.76834374666213989 0.9244760274887085 0.92375856637954712
0.8306121826171875 0.93002903461456299 0.92250919342041016
0.89137715101242065 0.93304002285003662 0.92213344573974609
0.95403861999511719 0.95981454849243164 0.92165052890777588
