luts/instant_pro/polaroid_665_negative_+.cube
# Created by: G'MIC (https://gmic.eu)
TITLE "polaroid_665_negative_+"
# LUT size
LUT_3D_SIZE 7
# Data domain
DOMAIN_MIN 0.0 0.0 0.0
DOMAIN_MAX 1.0 1.0 1.0
# LUT data points
0.20937652885913849 0.20937652885913849 0.20937652885913849
0.22038325667381287 0.22038325667381287 0.22038325667381287
0.24850164353847504 0.24850164353847504 0.24850164353847504
0.29533219337463379 0.29533219337463379 0.29533219337463379
0.36338663101196289 0.36338663101196289 0.36338663101196289
0.45077508687973022 0.45077508687973022 0.45077508687973022
0.54795002937316895 0.54795002937316895 0.54795002937316895
0.24603074789047241 0.24603074789047241 0.24603074789047241
0.25128927826881409 0.25128927826881409 0.25128927826881409
0.27196776866912842 0.27196776866912842 0.27196776866912842
0.31349697709083557 0.31349697709083557 0.31349697709083557
0.38011172413825989 0.38011172413825989 0.38011172413825989
0.46799576282501221 0.46799576282501221 0.46799576282501221
0.56555122137069702 0.56555122137069702 0.56555122137069702
0.31867170333862305 0.31867170333862305 0.31867170333862305
0.31693840026855469 0.31693840026855469 0.31693840026855469
0.32505014538764954 0.32505014538764954 0.32505014538764954
0.3552086353302002 0.3552086353302002 0.3552086353302002
0.41410517692565918 0.41410517692565918 0.41410517692565918
0.49883142113685608 0.49883142113685608 0.49883142113685608
0.59481853246688843 0.59481853246688843 0.59481853246688843
0.42175784707069397 0.42175784707069397 0.42175784707069397
0.41561201214790344 0.41561201214790344 0.41561201214790344
0.41345769166946411 0.41345769166946411 0.41345769166946411
0.42687487602233887 0.42687487602233887 0.42687487602233887
0.46862512826919556 0.46862512826919556 0.46862512826919556
0.545493483543396 0.545493483543396 0.545493483543396
0.6369594931602478 0.6369594931602478 0.6369594931602478
0.54013121128082275 0.54013121128082275 0.54013121128082275
0.53370428085327148 0.53370428085327148 0.53370428085327148
0.52688455581665039 0.52688455581665039 0.52688455581665039
0.52898454666137695 0.52898454666137695 0.52898454666137695
0.55249631404876709 0.55249631404876709 0.55249631404876709
0.60835874080657959 0.60835874080657959 0.60835874080657959
0.68227744102478027 0.68227744102478027 0.68227744102478027
0.66186100244522095 0.66186100244522095 0.66186100244522095
0.65668767690658569 0.65668767690658569 0.65668767690658569
0.65023171901702881 0.65023171901702881 0.65023171901702881
0.64948487281799316 0.64948487281799316 0.64948487281799316
0.6599155068397522 0.6599155068397522 0.6599155068397522
0.68799734115600586 0.68799734115600586 0.68799734115600586
0.73516660928726196 0.73516660928726196 0.73516660928726196
0.77715873718261719 0.77715873718261719 0.77715873718261719
0.77246546745300293 0.77246546745300293 0.77246546745300293
0.76742613315582275 0.76742613315582275 0.76742613315582275
0.76798981428146362 0.76798981428146362 0.76798981428146362
0.77011984586715698 0.77011984586715698 0.77011984586715698
0.77675896883010864 0.77675896883010864 0.77675896883010864
0.80092185735702515 0.80092185735702515 0.80092185735702515
0.24784465134143829 0.24784465134143829 0.24784465134143829
0.2617943286895752 0.2617943286895752 0.2617943286895752
0.2897847592830658 0.2897847592830658 0.2897847592830658
0.33046731352806091 0.33046731352806091 0.33046731352806091
0.38982346653938293 0.38982346653938293 0.38982346653938293
0.47245919704437256 0.47245919704437256 0.47245919704437256
0.56882262229919434 0.56882262229919434 0.56882262229919434
0.2751096785068512 0.2751096785068512 0.2751096785068512
0.28647390007972717 0.28647390007972717 0.28647390007972717
0.30847504734992981 0.30847504734992981 0.30847504734992981
0.34598889946937561 0.34598889946937561 0.34598889946937561
0.40545886754989624 0.40545886754989624 0.40545886754989624
0.48788151144981384 0.48788151144981384 0.48788151144981384
0.58294898271560669 0.58294898271560669 0.58294898271560669
0.34870606660842896 0.34870606660842896 0.34870606660842896
0.35187593102455139 0.35187593102455139 0.35187593102455139
0.35729673504829407 0.35729673504829407 0.35729673504829407
0.38513180613517761 0.38513180613517761 0.38513180613517761
0.43939533829689026 0.43939533829689026 0.43939533829689026
0.51753348112106323 0.51753348112106323 0.51753348112106323
0.60901284217834473 0.60901284217834473 0.60901284217834473
0.45628893375396729 0.45628893375396729 0.45628893375396729
0.45250698924064636 0.45250698924064636 0.45250698924064636
0.44641405344009399 0.44641405344009399 0.44641405344009399
0.45686301589012146 0.45686301589012146 0.45686301589012146
0.49388006329536438 0.49388006329536438 0.49388006329536438
0.56081366539001465 0.56081366539001465 0.56081366539001465
0.64555007219314575 0.64555007219314575 0.64555007219314575
0.56964766979217529 0.56964766979217529 0.56964766979217529
0.56497335433959961 0.56497335433959961 0.56497335433959961
0.55558538436889648 0.55558538436889648 0.55558538436889648
0.55362027883529663 0.55362027883529663 0.55362027883529663
0.57018148899078369 0.57018148899078369 0.57018148899078369
0.61460417509078979 0.61460417509078979 0.61460417509078979
0.68396258354187012 0.68396258354187012 0.68396258354187012
0.68286746740341187 0.68286746740341187 0.68286746740341187
0.67792236804962158 0.67792236804962158 0.67792236804962158
0.66908848285675049 0.66908848285675049 0.66908848285675049
0.66277295351028442 0.66277295351028442 0.66277295351028442
0.6646122932434082 0.6646122932434082 0.6646122932434082
0.68503886461257935 0.68503886461257935 0.68503886461257935
0.73075020313262939 0.73075020313262939 0.73075020313262939
0.78817582130432129 0.78817582130432129 0.78817582130432129
0.78359544277191162 0.78359544277191162 0.78359544277191162
0.77588391304016113 0.77588391304016113 0.77588391304016113
0.76887708902359009 0.76887708902359009 0.76887708902359009
0.76440936326980591 0.76440936326980591 0.76440936326980591
0.76956969499588013 0.76956969499588013 0.76956969499588013
0.79403501749038696 0.79403501749038696 0.79403501749038696
0.32031518220901489 0.32031518220901489 0.32031518220901489
0.3386329710483551 0.3386329710483551 0.3386329710483551
0.3660302460193634 0.3660302460193634 0.3660302460193634
0.39448368549346924 0.39448368549346924 0.39448368549346924
0.43242427706718445 0.43242427706718445 0.43242427706718445
0.50368940830230713 0.50368940830230713 0.50368940830230713
0.5987926721572876 0.5987926721572876 0.5987926721572876
0.33507055044174194 0.33507055044174194 0.33507055044174194
0.35788646340370178 0.35788646340370178 0.35788646340370178
0.38362684845924377 0.38362684845924377 0.38362684845924377
0.41177806258201599 0.41177806258201599 0.41177806258201599
0.45199024677276611 0.45199024677276611 0.45199024677276611
0.51944184303283691 0.51944184303283691 0.51944184303283691
0.60756570100784302 0.60756570100784302 0.60756570100784302
0.40405088663101196 0.40405088663101196 0.40405088663101196
0.41830867528915405 0.41830867528915405 0.41830867528915405
0.42907187342643738 0.42907187342643738 0.42907187342643738
0.44960200786590576 0.44960200786590576 0.44960200786590576
0.48803752660751343 0.48803752660751343 0.48803752660751343
0.54888135194778442 0.54888135194778442 0.54888135194778442
0.62761831283569336 0.62761831283569336 0.62761831283569336
0.50688654184341431 0.50688654184341431 0.50688654184341431
0.51111108064651489 0.51111108064651489 0.51111108064651489
0.50610184669494629 0.50610184669494629 0.50610184669494629
0.51371562480926514 0.51371562480926514 0.51371562480926514
0.53963398933410645 0.53963398933410645 0.53963398933410645
0.58835488557815552 0.58835488557815552 0.58835488557815552
0.65650779008865356 0.65650779008865356 0.65650779008865356
0.60445547103881836 0.60445547103881836 0.60445547103881836
0.60531580448150635 0.60531580448150635 0.60531580448150635
0.59931397438049316 0.59931397438049316 0.59931397438049316
0.59745997190475464 0.59745997190475464 0.59745997190475464
0.605701744556427 0.605701744556427 0.605701744556427
0.63500857353210449 0.63500857353210449 0.63500857353210449
0.68993449211120605 0.68993449211120605 0.68993449211120605
0.70617377758026123 0.70617377758026123 0.70617377758026123
0.70249396562576294 0.70249396562576294 0.70249396562576294
0.69534611701965332 0.69534611701965332 0.69534611701965332
0.68804812431335449 0.68804812431335449 0.68804812431335449
0.68380355834960938 0.68380355834960938 0.68380355834960938
0.69540035724639893 0.69540035724639893 0.69540035724639893
0.73395591974258423 0.73395591974258423 0.73395591974258423
0.7992817759513855 0.7992817759513855 0.7992817759513855
0.79379010200500488 0.79379010200500488 0.79379010200500488
0.78518736362457275 0.78518736362457275 0.78518736362457275
0.77553653717041016 0.77553653717041016 0.77553653717041016
0.76734727621078491 0.76734727621078491 0.76734727621078491
0.76998937129974365 0.76998937129974365 0.76998937129974365
0.79248791933059692 0.79248791933059692 0.79248791933059692
0.43221977353096008 0.43221977353096008 0.43221977353096008
0.44982171058654785 0.44982171058654785 0.44982171058654785
0.47346788644790649 0.47346788644790649 0.47346788644790649
0.48932942748069763 0.48932942748069763 0.48932942748069763
0.49399515986442566 0.49399515986442566 0.49399515986442566
0.54687356948852539 0.54687356948852539 0.54687356948852539
0.63699460029602051 0.63699460029602051 0.63699460029602051
0.44483000040054321 0.44483000040054321 0.44483000040054321
0.4647824764251709 0.4647824764251709 0.4647824764251709
0.4881051778793335 0.4881051778793335 0.4881051778793335
0.50554811954498291 0.50554811954498291 0.50554811954498291
0.52060389518737793 0.52060389518737793 0.52060389518737793
0.56480777263641357 0.56480777263641357 0.56480777263641357
0.63906973600387573 0.63906973600387573 0.63906973600387573
0.48631471395492554 0.48631471395492554 0.48631471395492554
0.50459688901901245 0.50459688901901245 0.50459688901901245
0.51991838216781616 0.51991838216781616 0.51991838216781616
0.53460174798965454 0.53460174798965454 0.53460174798965454
0.55547726154327393 0.55547726154327393 0.55547726154327393
0.59522652626037598 0.59522652626037598 0.59522652626037598
0.65595769882202148 0.65595769882202148 0.65595769882202148
0.54940330982208252 0.54940330982208252 0.54940330982208252
0.56651997566223145 0.56651997566223145 0.56651997566223145
0.57482057809829712 0.57482057809829712 0.57482057809829712
0.58414942026138306 0.58414942026138306 0.58414942026138306
0.60003459453582764 0.60003459453582764 0.60003459453582764
0.63134109973907471 0.63134109973907471 0.63134109973907471
0.68151235580444336 0.68151235580444336 0.68151235580444336
0.6339377760887146 0.6339377760887146 0.6339377760887146
0.64087116718292236 0.64087116718292236 0.64087116718292236
0.6459764838218689 0.6459764838218689 0.6459764838218689
0.65098756551742554 0.65098756551742554 0.65098756551742554
0.65477859973907471 0.65477859973907471 0.65477859973907471
0.67241799831390381 0.67241799831390381 0.67241799831390381
0.71130931377410889 0.71130931377410889 0.71130931377410889
0.73239684104919434 0.73239684104919434 0.73239684104919434
0.72504353523254395 0.72504353523254395 0.72504353523254395
0.72313588857650757 0.72313588857650757 0.72313588857650757
0.72238296270370483 0.72238296270370483 0.72238296270370483
0.71592843532562256 0.71592843532562256 0.71592843532562256
0.7218095064163208 0.7218095064163208 0.7218095064163208
0.7491796612739563 0.7491796612739563 0.7491796612739563
0.81096971035003662 0.81096971035003662 0.81096971035003662
0.80232977867126465 0.80232977867126465 0.80232977867126465
0.79474788904190063 0.79474788904190063 0.79474788904190063
0.78774112462997437 0.78774112462997437 0.78774112462997437
0.77953779697418213 0.77953779697418213 0.77953779697418213
0.78011149168014526 0.78011149168014526 0.78011149168014526
0.7985038161277771 0.7985038161277771 0.7985038161277771
0.56358897686004639 0.56358897686004639 0.56358897686004639
0.57546675205230713 0.57546675205230713 0.57546675205230713
0.59085887670516968 0.59085887670516968 0.59085887670516968
0.60599476099014282 0.60599476099014282 0.60599476099014282
0.60802966356277466 0.60802966356277466 0.60802966356277466
0.61729925870895386 0.61729925870895386 0.61729925870895386
0.67230898141860962 0.67230898141860962 0.67230898141860962
0.57655626535415649 0.57655626535415649 0.57655626535415649
0.58628040552139282 0.58628040552139282 0.58628040552139282
0.59927761554718018 0.59927761554718018 0.59927761554718018
0.61073422431945801 0.61073422431945801 0.61073422431945801
0.61480242013931274 0.61480242013931274 0.61480242013931274
0.62974143028259277 0.62974143028259277 0.62974143028259277
0.67734032869338989 0.67734032869338989 0.67734032869338989
0.5896880030632019 0.5896880030632019 0.5896880030632019
0.60255652666091919 0.60255652666091919 0.60255652666091919
0.61546558141708374 0.61546558141708374 0.61546558141708374
0.62585562467575073 0.62585562467575073 0.62585562467575073
0.63584798574447632 0.63584798574447632 0.63584798574447632
0.65633320808410645 0.65633320808410645 0.65633320808410645
0.69722837209701538 0.69722837209701538 0.69722837209701538
0.61766248941421509 0.61766248941421509 0.61766248941421509
0.63140380382537842 0.63140380382537842 0.63140380382537842
0.64490818977355957 0.64490818977355957 0.64490818977355957
0.65653854608535767 0.65653854608535767 0.65653854608535767
0.6672324538230896 0.6672324538230896 0.6672324538230896
0.68615669012069702 0.68615669012069702 0.68615669012069702
0.72030580043792725 0.72030580043792725 0.72030580043792725
0.68017095327377319 0.68017095327377319 0.68017095327377319
0.67887622117996216 0.67887622117996216 0.67887622117996216
0.68730676174163818 0.68730676174163818 0.68730676174163818
0.7009696364402771 0.7009696364402771 0.7009696364402771
0.7059333324432373 0.7059333324432373 0.7059333324432373
0.71726268529891968 0.71726268529891968 0.71726268529891968
0.74397814273834229 0.74397814273834229 0.74397814273834229
0.75919288396835327 0.75919288396835327 0.75919288396835327
0.74243831634521484 0.74243831634521484 0.74243831634521484
0.74203252792358398 0.74203252792358398 0.74203252792358398
0.75128495693206787 0.75128495693206787 0.75128495693206787
0.74858248233795166 0.74858248233795166 0.74858248233795166
0.75245606899261475 0.75245606899261475 0.75245606899261475
0.7723199725151062 0.7723199725151062 0.7723199725151062
0.81937283277511597 0.81937283277511597 0.81937283277511597
0.80702072381973267 0.80702072381973267 0.80702072381973267
0.80103176832199097 0.80103176832199097 0.80103176832199097
0.79946756362915039 0.79946756362915039 0.79946756362915039
0.79486030340194702 0.79486030340194702 0.79486030340194702
0.79543691873550415 0.79543691873550415 0.79543691873550415
0.81066513061523438 0.81066513061523438 0.81066513061523438
0.68616467714309692 0.68616467714309692 0.68616467714309692
0.69360959529876709 0.69360959529876709 0.69360959529876709
0.70056742429733276 0.70056742429733276 0.70056742429733276
0.71288549900054932 0.71288549900054932 0.71288549900054932
0.7174074649810791 0.7174074649810791 0.7174074649810791
0.70530706644058228 0.70530706644058228 0.70530706644058228
0.72826564311981201 0.72826564311981201 0.72826564311981201
0.69475936889648438 0.69475936889648438 0.69475936889648438
0.70008295774459839 0.70008295774459839 0.70008295774459839
0.70431923866271973 0.70431923866271973 0.70431923866271973
0.7109336256980896 0.7109336256980896 0.7109336256980896
0.7125428318977356 0.7125428318977356 0.7125428318977356
0.71064203977584839 0.71064203977584839 0.71064203977584839
0.73453885316848755 0.73453885316848755 0.73453885316848755
0.69738256931304932 0.69738256931304932 0.69738256931304932
0.70500445365905762 0.70500445365905762 0.70500445365905762
0.71095412969589233 0.71095412969589233 0.71095412969589233
0.71637111902236938 0.71637111902236938 0.71637111902236938
0.72095179557800293 0.72095179557800293 0.72095179557800293
0.73008757829666138 0.73008757829666138 0.73008757829666138
0.75435632467269897 0.75435632467269897 0.75435632467269897
0.70888733863830566 0.70888733863830566 0.70888733863830566
0.7147524356842041 0.7147524356842041 0.7147524356842041
0.72156953811645508 0.72156953811645508 0.72156953811645508
0.72952103614807129 0.72952103614807129 0.72952103614807129
0.73751306533813477 0.73751306533813477 0.73751306533813477
0.74985891580581665 0.74985891580581665 0.74985891580581665
0.77231603860855103 0.77231603860855103 0.77231603860855103
0.73900359869003296 0.73900359869003296 0.73900359869003296
0.73406779766082764 0.73406779766082764 0.73406779766082764
0.73784607648849487 0.73784607648849487 0.73784607648849487
0.7494964599609375 0.7494964599609375 0.7494964599609375
0.75718307495117188 0.75718307495117188 0.75718307495117188
0.76654279232025146 0.76654279232025146 0.76654279232025146
0.78604364395141602 0.78604364395141602 0.78604364395141602
0.78172916173934937 0.78172916173934937 0.78172916173934937
0.76871830224990845 0.76871830224990845 0.76871830224990845
0.76792699098587036 0.76792699098587036 0.76792699098587036
0.77741974592208862 0.77741974592208862 0.77741974592208862
0.78140366077423096 0.78140366077423096 0.78140366077423096
0.78601163625717163 0.78601163625717163 0.78601163625717163
0.80187767744064331 0.80187767744064331 0.80187767744064331
0.82685756683349609 0.82685756683349609 0.82685756683349609
0.8162543773651123 0.8162543773651123 0.8162543773651123
0.81295865774154663 0.81295865774154663 0.81295865774154663
0.81440716981887817 0.81440716981887817 0.81440716981887817
0.8139193058013916 0.8139193058013916 0.8139193058013916
0.81544405221939087 0.81544405221939087 0.81544405221939087
0.82867825031280518 0.82867825031280518 0.82867825031280518
0.7916983962059021 0.7916983962059021 0.7916983962059021
0.79685986042022705 0.79685986042022705 0.79685986042022705
0.79962706565856934 0.79962706565856934 0.79962706565856934
0.80304473638534546 0.80304473638534546 0.80304473638534546
0.80170083045959473 0.80170083045959473 0.80170083045959473
0.79670435190200806 0.79670435190200806 0.79670435190200806
0.81003201007843018 0.81003201007843018 0.81003201007843018
0.79495656490325928 0.79495656490325928 0.79495656490325928
0.79999113082885742 0.79999113082885742 0.79999113082885742
0.80109614133834839 0.80109614133834839 0.80109614133834839
0.80184566974639893 0.80184566974639893 0.80184566974639893
0.80009275674819946 0.80009275674819946 0.80009275674819946
0.79861831665039062 0.79861831665039062 0.79861831665039062
0.81234139204025269 0.81234139204025269 0.81234139204025269
0.79451882839202881 0.79451882839202881 0.79451882839202881
0.80051583051681519 0.80051583051681519 0.80051583051681519
0.801838219165802 0.801838219165802 0.801838219165802
0.80228698253631592 0.80228698253631592 0.80228698253631592
0.80407744646072388 0.80407744646072388 0.80407744646072388
0.81002724170684814 0.81002724170684814 0.81002724170684814
0.82459628582000732 0.82459628582000732 0.82459628582000732
0.79694217443466187 0.79694217443466187 0.79694217443466187
0.80272865295410156 0.80272865295410156 0.80272865295410156
0.80356425046920776 0.80356425046920776 0.80356425046920776
0.80425244569778442 0.80425244569778442 0.80425244569778442
0.80923306941986084 0.80923306941986084 0.80923306941986084
0.81928819417953491 0.81928819417953491 0.81928819417953491
0.83399033546447754 0.83399033546447754 0.83399033546447754
0.80487233400344849 0.80487233400344849 0.80487233400344849
0.8043401837348938 0.8043401837348938 0.8043401837348938
0.80402785539627075 0.80402785539627075 0.80402785539627075
0.80785655975341797 0.80785655975341797 0.80785655975341797
0.81351727247238159 0.81351727247238159 0.81351727247238159
0.82168227434158325 0.82168227434158325 0.82168227434158325
0.83678567409515381 0.83678567409515381 0.83678567409515381
0.8206484317779541 0.8206484317779541 0.8206484317779541
0.81472110748291016 0.81472110748291016 0.81472110748291016
0.81472474336624146 0.81472474336624146 0.81472474336624146
0.81903564929962158 0.81903564929962158 0.81903564929962158
0.82277572154998779 0.82277572154998779 0.82277572154998779
0.82766401767730713 0.82766401767730713 0.82766401767730713
0.84145122766494751 0.84145122766494751 0.84145122766494751
0.84738284349441528 0.84738284349441528 0.84738284349441528
0.84234076738357544 0.84234076738357544 0.84234076738357544
0.84158730506896973 0.84158730506896973 0.84158730506896973
0.8433106541633606 0.8433106541633606 0.8433106541633606
0.84412777423858643 0.84412777423858643 0.84412777423858643
0.84596270322799683 0.84596270322799683 0.84596270322799683
0.85723358392715454 0.85723358392715454 0.85723358392715454
