luts/instant_pro/polaroid_665_negative.cube
# Created by: G'MIC (https://gmic.eu)
TITLE "polaroid_665_negative"
# LUT size
LUT_3D_SIZE 7
# Data domain
DOMAIN_MIN 0.0 0.0 0.0
DOMAIN_MAX 1.0 1.0 1.0
# LUT data points
0.035117264837026596 0.035117264837026596 0.035117264837026596
0.052510488778352737 0.052510488778352737 0.052510488778352737
0.11813128739595413 0.11813128739595413 0.11813128739595413
0.21605932712554932 0.21605932712554932 0.21605932712554932
0.32113409042358398 0.32113409042358398 0.32113409042358398
0.43330943584442139 0.43330943584442139 0.43330943584442139
0.55628526210784912 0.55628526210784912 0.55628526210784912
0.11598453670740128 0.11598453670740128 0.11598453670740128
0.12686158716678619 0.12686158716678619 0.12686158716678619
0.17176122963428497 0.17176122963428497 0.17176122963428497
0.24897503852844238 0.24897503852844238 0.24897503852844238
0.34516331553459167 0.34516331553459167 0.34516331553459167
0.45171347260475159 0.45171347260475159 0.45171347260475159
0.57191812992095947 0.57191812992095947 0.57191812992095947
0.24371393024921417 0.24371393024921417 0.24371393024921417
0.24509319663047791 0.24509319663047791 0.24509319663047791
0.26349145174026489 0.26349145174026489 0.26349145174026489
0.31170061230659485 0.31170061230659485 0.31170061230659485
0.39104750752449036 0.39104750752449036 0.39104750752449036
0.49367058277130127 0.49367058277130127 0.49367058277130127
0.61195534467697144 0.61195534467697144 0.61195534467697144
0.39670732617378235 0.39670732617378235 0.39670732617378235
0.38936802744865417 0.38936802744865417 0.38936802744865417
0.38774740695953369 0.38774740695953369 0.38774740695953369
0.40949723124504089 0.40949723124504089 0.40949723124504089
0.46328896284103394 0.46328896284103394 0.46328896284103394
0.55422395467758179 0.55422395467758179 0.55422395467758179
0.66949355602264404 0.66949355602264404 0.66949355602264404
0.5493658185005188 0.5493658185005188 0.5493658185005188
0.53951597213745117 0.53951597213745117 0.53951597213745117
0.5314871072769165 0.5314871072769165 0.5314871072769165
0.5367133617401123 0.5367133617401123 0.5367133617401123
0.56289589405059814 0.56289589405059814 0.56289589405059814
0.63076204061508179 0.63076204061508179 0.63076204061508179
0.72863298654556274 0.72863298654556274 0.72863298654556274
0.69837695360183716 0.69837695360183716 0.69837695360183716
0.68951785564422607 0.68951785564422607 0.68951785564422607
0.68330675363540649 0.68330675363540649 0.68330675363540649
0.68488991260528564 0.68488991260528564 0.68488991260528564
0.69852310419082642 0.69852310419082642 0.69852310419082642
0.7358698844909668 0.7358698844909668 0.7358698844909668
0.79853588342666626 0.79853588342666626 0.79853588342666626
0.84657585620880127 0.84657585620880127 0.84657585620880127
0.83720362186431885 0.83720362186431885 0.83720362186431885
0.83238393068313599 0.83238393068313599 0.83238393068313599
0.83566534519195557 0.83566534519195557 0.83566534519195557
0.84283196926116943 0.84283196926116943 0.84283196926116943
0.85361200571060181 0.85361200571060181 0.85361200571060181
0.88466298580169678 0.88466298580169678 0.88466298580169678
0.11098387837409973 0.11098387837409973 0.11098387837409973
0.11932995170354843 0.11932995170354843 0.11932995170354843
0.16968001425266266 0.16968001425266266 0.16968001425266266
0.25770047307014465 0.25770047307014465 0.25770047307014465
0.36262586712837219 0.36262586712837219 0.36262586712837219
0.46297332644462585 0.46297332644462585 0.46297332644462585
0.57524436712265015 0.57524436712265015 0.57524436712265015
0.17336031794548035 0.17336031794548035 0.17336031794548035
0.18510283529758453 0.18510283529758453 0.18510283529758453
0.22090733051300049 0.22090733051300049 0.22090733051300049
0.28752705454826355 0.28752705454826355 0.28752705454826355
0.38064569234848022 0.38064569234848022 0.38064569234848022
0.47696071863174438 0.47696071863174438 0.47696071863174438
0.58930712938308716 0.58930712938308716 0.58930712938308716
0.29634469747543335 0.29634469747543335 0.29634469747543335
0.29717192053794861 0.29717192053794861 0.29717192053794861
0.30667582154273987 0.30667582154273987 0.30667582154273987
0.34551346302032471 0.34551346302032471 0.34551346302032471
0.41875472664833069 0.41875472664833069 0.41875472664833069
0.51295047998428345 0.51295047998428345 0.51295047998428345
0.62419736385345459 0.62419736385345459 0.62419736385345459
0.45344468951225281 0.45344468951225281 0.45344468951225281
0.43994101881980896 0.43994101881980896 0.43994101881980896
0.42603492736816406 0.42603492736816406 0.42603492736816406
0.43924239277839661 0.43924239277839661 0.43924239277839661
0.48656782507896423 0.48656782507896423 0.48656782507896423
0.56790721416473389 0.56790721416473389 0.56790721416473389
0.67183488607406616 0.67183488607406616 0.67183488607406616
0.59197497367858887 0.59197497367858887 0.59197497367858887
0.57835519313812256 0.57835519313812256 0.57835519313812256
0.56300348043441772 0.56300348043441772 0.56300348043441772
0.56180095672607422 0.56180095672607422 0.56180095672607422
0.5838962197303772 0.5838962197303772 0.5838962197303772
0.64153528213500977 0.64153528213500977 0.64153528213500977
0.72741186618804932 0.72741186618804932 0.72741186618804932
0.71887880563735962 0.71887880563735962 0.71887880563735962
0.70994555950164795 0.70994555950164795 0.70994555950164795
0.70354342460632324 0.70354342460632324 0.70354342460632324
0.70054334402084351 0.70054334402084351 0.70054334402084351
0.70854431390762329 0.70854431390762329 0.70854431390762329
0.7397993803024292 0.7397993803024292 0.7397993803024292
0.79644745588302612 0.79644745588302612 0.79644745588302612
0.85287559032440186 0.85287559032440186 0.85287559032440186
0.84567534923553467 0.84567534923553467 0.84567534923553467
0.84146898984909058 0.84146898984909058 0.84146898984909058
0.83920478820800781 0.83920478820800781 0.83920478820800781
0.83999180793762207 0.83999180793762207 0.83999180793762207
0.85038167238235474 0.85038167238235474 0.85038167238235474
0.8806578516960144 0.8806578516960144 0.8806578516960144
0.2445136159658432 0.2445136159658432 0.2445136159658432
0.27499562501907349 0.27499562501907349 0.27499562501907349
0.29323950409889221 0.29323950409889221 0.29323950409889221
0.32781249284744263 0.32781249284744263 0.32781249284744263
0.42169231176376343 0.42169231176376343 0.42169231176376343
0.50843584537506104 0.50843584537506104 0.50843584537506104
0.61434388160705566 0.61434388160705566 0.61434388160705566
0.27139252424240112 0.27139252424240112 0.27139252424240112
0.29972881078720093 0.29972881078720093 0.29972881078720093
0.33133101463317871 0.33133101463317871 0.33133101463317871
0.36056244373321533 0.36056244373321533 0.36056244373321533
0.43788635730743408 0.43788635730743408 0.43788635730743408
0.52558833360671997 0.52558833360671997 0.52558833360671997
0.63119912147521973 0.63119912147521973 0.63119912147521973
0.36409994959831238 0.36409994959831238 0.36409994959831238
0.37600937485694885 0.37600937485694885 0.37600937485694885
0.39406469464302063 0.39406469464302063 0.39406469464302063
0.42237135767936707 0.42237135767936707 0.42237135767936707
0.47647207975387573 0.47647207975387573 0.47647207975387573
0.55738198757171631 0.55738198757171631 0.55738198757171631
0.65721213817596436 0.65721213817596436 0.65721213817596436
0.50650978088378906 0.50650978088378906 0.50650978088378906
0.49905592203140259 0.49905592203140259 0.49905592203140259
0.49010738730430603 0.49010738730430603 0.49010738730430603
0.50296151638031006 0.50296151638031006 0.50296151638031006
0.54032027721405029 0.54032027721405029 0.54032027721405029
0.60599470138549805 0.60599470138549805 0.60599470138549805
0.69348329305648804 0.69348329305648804 0.69348329305648804
0.64345592260360718 0.64345592260360718 0.64345592260360718
0.62938219308853149 0.62938219308853149 0.62938219308853149
0.61298245191574097 0.61298245191574097 0.61298245191574097
0.61222487688064575 0.61222487688064575 0.61222487688064575
0.62985908985137939 0.62985908985137939 0.62985908985137939
0.67382317781448364 0.67382317781448364 0.67382317781448364
0.74214965105056763 0.74214965105056763 0.74214965105056763
0.75720477104187012 0.75720477104187012 0.75720477104187012
0.74776166677474976 0.74776166677474976 0.74776166677474976
0.74006062746047974 0.74006062746047974 0.74006062746047974
0.73480236530303955 0.73480236530303955 0.73480236530303955
0.7379944920539856 0.7379944920539856 0.7379944920539856
0.76015323400497437 0.76015323400497437 0.76015323400497437
0.80598771572113037 0.80598771572113037 0.80598771572113037
0.87141495943069458 0.87141495943069458 0.87141495943069458
0.8653903603553772 0.8653903603553772 0.8653903603553772
0.86023223400115967 0.86023223400115967 0.86023223400115967
0.85399079322814941 0.85399079322814941 0.85399079322814941
0.84950029850006104 0.84950029850006104 0.84950029850006104
0.85661917924880981 0.85661917924880981 0.85661917924880981
0.88382750749588013 0.88382750749588013 0.88382750749588013
0.40881898999214172 0.40881898999214172 0.40881898999214172
0.42894351482391357 0.42894351482391357 0.42894351482391357
0.45834100246429443 0.45834100246429443 0.45834100246429443
0.48041990399360657 0.48041990399360657 0.48041990399360657
0.49589449167251587 0.49589449167251587 0.49589449167251587
0.56131386756896973 0.56131386756896973 0.56131386756896973
0.66626012325286865 0.66626012325286865 0.66626012325286865
0.41914284229278564 0.41914284229278564 0.41914284229278564
0.44249564409255981 0.44249564409255981 0.44249564409255981
0.48387861251831055 0.48387861251831055 0.48387861251831055
0.49563902616500854 0.49563902616500854 0.49563902616500854
0.51791274547576904 0.51791274547576904 0.51791274547576904
0.58567982912063599 0.58567982912063599 0.58567982912063599
0.68477529287338257 0.68477529287338257 0.68477529287338257
0.46346002817153931 0.46346002817153931 0.46346002817153931
0.47696742415428162 0.47696742415428162 0.47696742415428162
0.5057181715965271 0.5057181715965271 0.5057181715965271
0.52993142604827881 0.52993142604827881 0.52993142604827881
0.55813252925872803 0.55813252925872803 0.55813252925872803
0.6182401180267334 0.6182401180267334 0.6182401180267334
0.70546382665634155 0.70546382665634155 0.70546382665634155
0.54848778247833252 0.54848778247833252 0.54848778247833252
0.55791711807250977 0.55791711807250977 0.55791711807250977
0.56519550085067749 0.56519550085067749 0.56519550085067749
0.58340418338775635 0.58340418338775635 0.58340418338775635
0.61005318164825439 0.61005318164825439 0.61005318164825439
0.65768176317214966 0.65768176317214966 0.65768176317214966
0.73017692565917969 0.73017692565917969 0.73017692565917969
0.6942436695098877 0.6942436695098877 0.6942436695098877
0.67695921659469604 0.67695921659469604 0.67695921659469604
0.6674920916557312 0.6674920916557312 0.6674920916557312
0.67414873838424683 0.67414873838424683 0.67414873838424683
0.68550580739974976 0.68550580739974976 0.68550580739974976
0.71484893560409546 0.71484893560409546 0.71484893560409546
0.76832062005996704 0.76832062005996704 0.76832062005996704
0.79745060205459595 0.79745060205459595 0.79745060205459595
0.78909456729888916 0.78909456729888916 0.78909456729888916
0.78378200531005859 0.78378200531005859 0.78378200531005859
0.7811465859413147 0.7811465859413147 0.7811465859413147
0.77637976408004761 0.77637976408004761 0.77637976408004761
0.78792351484298706 0.78792351484298706 0.78792351484298706
0.82288926839828491 0.82288926839828491 0.82288926839828491
0.89662086963653564 0.89662086963653564 0.89662086963653564
0.89112955331802368 0.89112955331802368 0.89112955331802368
0.88542574644088745 0.88542574644088745 0.88542574644088745
0.87755453586578369 0.87755453586578369 0.87755453586578369
0.86794525384902954 0.86794525384902954 0.86794525384902954
0.86942523717880249 0.86942523717880249 0.86942523717880249
0.8915410041809082 0.8915410041809082 0.8915410041809082
0.57359921932220459 0.57359921932220459 0.57359921932220459
0.58458417654037476 0.58458417654037476 0.58458417654037476
0.60900843143463135 0.60900843143463135 0.60900843143463135
0.63767564296722412 0.63767564296722412 0.63767564296722412
0.62947285175323486 0.62947285175323486 0.62947285175323486
0.65148073434829712 0.65148073434829712 0.65148073434829712
0.72275763750076294 0.72275763750076294 0.72275763750076294
0.58800643682479858 0.58800643682479858 0.58800643682479858
0.59747767448425293 0.59747767448425293 0.59747767448425293
0.61947005987167358 0.61947005987167358 0.61947005987167358
0.63790476322174072 0.63790476322174072 0.63790476322174072
0.64145022630691528 0.64145022630691528 0.64145022630691528
0.67025035619735718 0.67025035619735718 0.67025035619735718
0.73570495843887329 0.73570495843887329 0.73570495843887329
0.61038964986801147 0.61038964986801147 0.61038964986801147
0.61410802602767944 0.61410802602767944 0.61410802602767944
0.62816464900970459 0.62816464900970459 0.62816464900970459
0.64530712366104126 0.64530712366104126 0.64530712366104126
0.65945839881896973 0.65945839881896973 0.65945839881896973
0.69175475835800171 0.69175475835800171 0.69175475835800171
0.7580491304397583 0.7580491304397583 0.7580491304397583
0.63555794954299927 0.63555794954299927 0.63555794954299927
0.64461034536361694 0.64461034536361694 0.64461034536361694
0.65358573198318481 0.65358573198318481 0.65358573198318481
0.67189335823059082 0.67189335823059082 0.67189335823059082
0.68839126825332642 0.68839126825332642 0.68839126825332642
0.71652567386627197 0.71652567386627197 0.71652567386627197
0.77349114418029785 0.77349114418029785 0.77349114418029785
0.70526814460754395 0.70526814460754395 0.70526814460754395
0.71543532609939575 0.71543532609939575 0.71543532609939575
0.71763241291046143 0.71763241291046143 0.71763241291046143
0.73589640855789185 0.73589640855789185 0.73589640855789185
0.74377447366714478 0.74377447366714478 0.74377447366714478
0.76137113571166992 0.76137113571166992 0.76137113571166992
0.80266028642654419 0.80266028642654419 0.80266028642654419
0.81483691930770874 0.81483691930770874 0.81483691930770874
0.81434696912765503 0.81434696912765503 0.81434696912765503
0.81878924369812012 0.81878924369812012 0.81878924369812012
0.82299089431762695 0.82299089431762695 0.82299089431762695
0.81468582153320312 0.81468582153320312 0.81468582153320312
0.81921607255935669 0.81921607255935669 0.81921607255935669
0.8461182713508606 0.8461182713508606 0.8461182713508606
0.91453063488006592 0.91453063488006592 0.91453063488006592
0.90835660696029663 0.90835660696029663 0.90835660696029663
0.9048801064491272 0.9048801064491272 0.9048801064491272
0.89901953935623169 0.89901953935623169 0.89901953935623169
0.88811147212982178 0.88811147212982178 0.88811147212982178
0.88594585657119751 0.88594585657119751 0.88594585657119751
0.90378987789154053 0.90378987789154053 0.90378987789154053
0.7289193868637085 0.7289193868637085 0.7289193868637085
0.7352299690246582 0.7352299690246582 0.7352299690246582
0.74548882246017456 0.74548882246017456 0.74548882246017456
0.76914370059967041 0.76914370059967041 0.76914370059967041
0.77868402004241943 0.77868402004241943 0.77868402004241943
0.77840286493301392 0.77840286493301392 0.77840286493301392
0.79678446054458618 0.79678446054458618 0.79678446054458618
0.74517166614532471 0.74517166614532471 0.74517166614532471
0.7476845383644104 0.7476845383644104 0.7476845383644104
0.75379109382629395 0.75379109382629395 0.75379109382629395
0.76953095197677612 0.76953095197677612 0.76953095197677612
0.7813342809677124 0.7813342809677124 0.7813342809677124
0.78383404016494751 0.78383404016494751 0.78383404016494751
0.78522270917892456 0.78522270917892456 0.78522270917892456
0.75725620985031128 0.75725620985031128 0.75725620985031128
0.75503212213516235 0.75503212213516235 0.75503212213516235
0.75564980506896973 0.75564980506896973 0.75564980506896973
0.76568520069122314 0.76568520069122314 0.76568520069122314
0.77608895301818848 0.77608895301818848 0.77608895301818848
0.78429865837097168 0.78429865837097168 0.78429865837097168
0.80684816837310791 0.80684816837310791 0.80684816837310791
0.75725662708282471 0.75725662708282471 0.75725662708282471
0.7581331729888916 0.7581331729888916 0.7581331729888916
0.76080316305160522 0.76080316305160522 0.76080316305160522
0.77112150192260742 0.77112150192260742 0.77112150192260742
0.78102403879165649 0.78102403879165649 0.78102403879165649
0.79524487257003784 0.79524487257003784 0.79524487257003784
0.83030575513839722 0.83030575513839722 0.83030575513839722
0.78266060352325439 0.78266060352325439 0.78266060352325439
0.7860177755355835 0.7860177755355835 0.7860177755355835
0.79180657863616943 0.79180657863616943 0.79180657863616943
0.80292028188705444 0.80292028188705444 0.80292028188705444
0.80956035852432251 0.80956035852432251 0.80956035852432251
0.82088828086853027 0.82088828086853027 0.82088828086853027
0.85063165426254272 0.85063165426254272 0.85063165426254272
0.84761333465576172 0.84761333465576172 0.84761333465576172
0.84844517707824707 0.84844517707824707 0.84844517707824707
0.8537285327911377 0.8537285327911377 0.8537285327911377
0.85788261890411377 0.85788261890411377 0.85788261890411377
0.85572540760040283 0.85572540760040283 0.85572540760040283
0.85857045650482178 0.85857045650482178 0.85857045650482178
0.88003182411193848 0.88003182411193848 0.88003182411193848
0.92515462636947632 0.92515462636947632 0.92515462636947632
0.92183887958526611 0.92183887958526611 0.92183887958526611
0.92213970422744751 0.92213970422744751 0.92213970422744751
0.91927748918533325 0.91927748918533325 0.91927748918533325
0.91184628009796143 0.91184628009796143 0.91184628009796143
0.90912497043609619 0.90912497043609619 0.90912497043609619
0.92399674654006958 0.92399674654006958 0.92399674654006958
0.86856049299240112 0.86856049299240112 0.86856049299240112
0.87107223272323608 0.87107223272323608 0.87107223272323608
0.87425196170806885 0.87425196170806885 0.87425196170806885
0.88792926073074341 0.88792926073074341 0.88792926073074341
0.89977908134460449 0.89977908134460449 0.89977908134460449
0.89794576168060303 0.89794576168060303 0.89794576168060303
0.89635413885116577 0.89635413885116577 0.89635413885116577
0.87829548120498657 0.87829548120498657 0.87829548120498657
0.87908661365509033 0.87908661365509033 0.87908661365509033
0.8799206018447876 0.8799206018447876 0.8799206018447876
0.890755295753479 0.890755295753479 0.890755295753479
0.90406769514083862 0.90406769514083862 0.90406769514083862
0.90384149551391602 0.90384149551391602 0.90384149551391602
0.89338499307632446 0.89338499307632446 0.89338499307632446
0.8823697566986084 0.8823697566986084 0.8823697566986084
0.87921041250228882 0.87921041250228882 0.87921041250228882
0.87741291522979736 0.87741291522979736 0.87741291522979736
0.88354086875915527 0.88354086875915527 0.88354086875915527
0.89391303062438965 0.89391303062438965 0.89391303062438965
0.90148890018463135 0.90148890018463135 0.90148890018463135
0.90743672847747803 0.90743672847747803 0.90743672847747803
0.87876981496810913 0.87876981496810913 0.87876981496810913
0.87417173385620117 0.87417173385620117 0.87417173385620117
0.87155115604400635 0.87155115604400635 0.87155115604400635
0.87629342079162598 0.87629342079162598 0.87629342079162598
0.88408565521240234 0.88408565521240234 0.88408565521240234
0.89524930715560913 0.89524930715560913 0.89524930715560913
0.91415631771087646 0.91415631771087646 0.91415631771087646
0.88034778833389282 0.88034778833389282 0.88034778833389282
0.87787932157516479 0.87787932157516479 0.87787932157516479
0.87892037630081177 0.87892037630081177 0.87892037630081177
0.883503258228302 0.883503258228302 0.883503258228302
0.88837474584579468 0.88837474584579468 0.88837474584579468
0.89719772338867188 0.89719772338867188 0.89719772338867188
0.91816216707229614 0.91816216707229614 0.91816216707229614
0.90409904718399048 0.90409904718399048 0.90409904718399048
0.90384030342102051 0.90384030342102051 0.90384030342102051
0.90758281946182251 0.90758281946182251 0.90758281946182251
0.91034072637557983 0.91034072637557983 0.91034072637557983
0.91036063432693481 0.91036063432693481 0.91036063432693481
0.91338557004928589 0.91338557004928589 0.91338557004928589
0.93072545528411865 0.93072545528411865 0.93072545528411865
0.94878476858139038 0.94878476858139038 0.94878476858139038
0.95013260841369629 0.95013260841369629 0.95013260841369629
0.95362371206283569 0.95362371206283569 0.95362371206283569
0.95352470874786377 0.95352470874786377 0.95352470874786377
0.94953805208206177 0.94953805208206177 0.94953805208206177
0.94801485538482666 0.94801485538482666 0.94801485538482666
0.96041607856750488 0.96041607856750488 0.96041607856750488
