luts/instant_pro/polaroid_690_++.cube
# Created by: G'MIC (https://gmic.eu)
TITLE "polaroid_690_++"
# LUT size
LUT_3D_SIZE 13
# Data domain
DOMAIN_MIN 0.0 0.0 0.0
DOMAIN_MAX 1.0 1.0 1.0
# LUT data points
0.32745379209518433 0.27254930138587952 0.23192854225635529
0.33621421456336975 0.27270057797431946 0.23290924727916718
0.35050672292709351 0.27173137664794922 0.23273640871047974
0.37902769446372986 0.27007290720939636 0.23278558254241943
0.4165286123752594 0.2669835090637207 0.23246198892593384
0.47023653984069824 0.26308819651603699 0.23245322704315186
0.53333353996276855 0.25553390383720398 0.23210784792900085
0.61079031229019165 0.24239733815193176 0.23210784792900085
0.68638432025909424 0.22676537930965424 0.2309969961643219
0.76111811399459839 0.21083331108093262 0.22790053486824036
0.84032595157623291 0.19106937944889069 0.22371737658977509
0.92152148485183716 0.17033889889717102 0.21834003925323486
0.98344874382019043 0.15109889209270477 0.2143712192773819
0.32932153344154358 0.28237795829772949 0.23257552087306976
0.33886310458183289 0.28469309210777283 0.23417393863201141
0.35585793852806091 0.2857285737991333 0.23375682532787323
0.38575530052185059 0.28449124097824097 0.23388262093067169
0.42854934930801392 0.28119328618049622 0.23336726427078247
0.48205581307411194 0.27596855163574219 0.2323697954416275
0.55154180526733398 0.26974323391914368 0.23181165754795074
0.62976187467575073 0.26088270545005798 0.2309131920337677
0.70428454875946045 0.24721983075141907 0.22996985912322998
0.77715480327606201 0.23228064179420471 0.22712071239948273
0.85496425628662109 0.21479161083698273 0.22230707108974457
0.93513673543930054 0.20015831291675568 0.21657831966876984
0.9899526834487915 0.18832236528396606 0.21414488554000854
0.33216351270675659 0.29936528205871582 0.23413483798503876
0.34284615516662598 0.30265313386917114 0.23726451396942139
0.36273092031478882 0.3057563304901123 0.23546490073204041
0.39225620031356812 0.30693072080612183 0.23188205063343048
0.44371619820594788 0.30751001834869385 0.23166035115718842
0.50993072986602783 0.30858752131462097 0.23067222535610199
0.58138436079025269 0.3037760853767395 0.22994372248649597
0.65569299459457397 0.29508975148200989 0.22815005481243134
0.73187905550003052 0.28708532452583313 0.22579576075077057
0.80582070350646973 0.27738454937934875 0.22218945622444153
0.88190764188766479 0.26278543472290039 0.21741101145744324
0.95279055833816528 0.25150653719902039 0.21227890253067017
0.99379783868789673 0.24758446216583252 0.21068054437637329
0.33718416094779968 0.33071842789649963 0.23447555303573608
0.34868690371513367 0.33479753136634827 0.2360464483499527
0.36961075663566589 0.33761775493621826 0.23410773277282715
0.40125617384910583 0.33991369605064392 0.22973276674747467
0.45831269025802612 0.34793633222579956 0.22873298823833466
0.53225988149642944 0.35638707876205444 0.22704455256462097
0.61512619256973267 0.36173412203788757 0.22578185796737671
0.69694817066192627 0.36087143421173096 0.22299402952194214
0.76867282390594482 0.35077303647994995 0.22028973698616028
0.83552283048629761 0.33837971091270447 0.21637196838855743
0.90337777137756348 0.33297297358512878 0.21222557127475739
0.96794313192367554 0.3275611400604248 0.20755727589130402
0.99305224418640137 0.328113853931427 0.20561313629150391
0.34260249137878418 0.38147985935211182 0.23179343342781067
0.35577496886253357 0.38262844085693359 0.23168538510799408
0.3763979971408844 0.38237327337265015 0.22920261323451996
0.41516232490539551 0.39104661345481873 0.22649173438549042
0.46783250570297241 0.40087991952896118 0.22409866750240326
0.53639465570449829 0.41214814782142639 0.22036276757717133
0.62227159738540649 0.42145058512687683 0.21732674539089203
0.71992933750152588 0.43143400549888611 0.21486665308475494
0.79954427480697632 0.43590056896209717 0.21295654773712158
0.86892426013946533 0.43301433324813843 0.20924437046051025
0.92809879779815674 0.4253024160861969 0.20591220259666443
0.98175650835037231 0.41503223776817322 0.20070758461952209
0.99782818555831909 0.41739413142204285 0.19953867793083191
0.34733760356903076 0.4393250048160553 0.22658629715442657
0.36256816983222961 0.4416748583316803 0.22603963315486908
0.38428843021392822 0.44052302837371826 0.22405233979225159
0.42425370216369629 0.44562605023384094 0.22149872779846191
0.47414019703865051 0.45454150438308716 0.21749567985534668
0.5396609902381897 0.46606117486953735 0.2119990736246109
0.61754173040390015 0.47912824153900146 0.20627790689468384
0.71091210842132568 0.49698507785797119 0.202287957072258
0.80263274908065796 0.51255422830581665 0.19802585244178772
0.88833218812942505 0.52301234006881714 0.19847986102104187
0.95289367437362671 0.52354788780212402 0.2029421478509903
0.99108642339706421 0.51441764831542969 0.20152339339256287
0.99954462051391602 0.51183599233627319 0.19901895523071289
0.35267442464828491 0.5042412281036377 0.2199653685092926
0.36875036358833313 0.50453084707260132 0.21932438015937805
0.38991472125053406 0.50164878368377686 0.21728943288326263
0.42878058552742004 0.50312924385070801 0.21421073377132416
0.47542732954025269 0.50904792547225952 0.20952075719833374
0.53974074125289917 0.52213722467422485 0.20329020917415619
0.61468833684921265 0.53995949029922485 0.194661945104599
0.70107030868530273 0.55966567993164062 0.18716533482074738
0.79365187883377075 0.57904064655303955 0.17885230481624603
0.87953370809555054 0.59195101261138916 0.17559647560119629
0.95355474948883057 0.60098844766616821 0.18791103363037109
0.99486607313156128 0.60519671440124512 0.20385745167732239
0.99913758039474487 0.60125863552093506 0.21588267385959625
0.35805734992027283 0.57150596380233765 0.21138462424278259
0.37502607703208923 0.57176017761230469 0.21101006865501404
0.39852583408355713 0.56901538372039795 0.20939153432846069
0.43290141224861145 0.56497561931610107 0.20736108720302582
0.48133796453475952 0.57023423910140991 0.20082880556583405
0.54525947570800781 0.58499777317047119 0.19211377203464508
0.61646431684494019 0.60241365432739258 0.18227653205394745
0.69230484962463379 0.61992532014846802 0.1723482608795166
0.77664703130722046 0.63429147005081177 0.16304118931293488
0.86469799280166626 0.64945363998413086 0.1532541811466217
0.94367480278015137 0.66054719686508179 0.16255705058574677
0.99451065063476562 0.66765272617340088 0.188679039478302
0.99987953901290894 0.67224210500717163 0.22832238674163818
0.37171348929405212 0.64115405082702637 0.1996283233165741
0.38494023680686951 0.64209681749343872 0.19840878248214722
0.41163456439971924 0.63999658823013306 0.19672872126102448
0.44620618224143982 0.63557040691375732 0.19387590885162354
0.49030205607414246 0.63745796680450439 0.1869702935218811
0.55058085918426514 0.64849036931991577 0.17918051779270172
0.62088769674301147 0.66156017780303955 0.17172503471374512
0.69525665044784546 0.67312383651733398 0.16296957433223724
0.77411788702011108 0.68632709980010986 0.15030896663665771
0.85604763031005859 0.70012050867080688 0.14059038460254669
0.93166792392730713 0.71000856161117554 0.14562781155109406
0.98826950788497925 0.71762865781784058 0.16921490430831909
0.99933582544326782 0.72407811880111694 0.21193300187587738
0.3986259400844574 0.71057349443435669 0.18787367641925812
0.41143599152565002 0.7086646556854248 0.18612594902515411
0.43728452920913696 0.70708471536636353 0.18359453976154327
0.47004732489585876 0.70497006177902222 0.17919494211673737
0.51157897710800171 0.70567190647125244 0.17383398115634918
0.56730574369430542 0.70986640453338623 0.1688268780708313
0.63304030895233154 0.71755874156951904 0.16115933656692505
0.7057037353515625 0.72658878564834595 0.15507319569587708
0.78243935108184814 0.73821902275085449 0.14679180085659027
0.85587102174758911 0.74963682889938354 0.14043907821178436
0.92576503753662109 0.75776386260986328 0.14361061155796051
0.9816133975982666 0.76445817947387695 0.16183294355869293
0.99934560060501099 0.77008724212646484 0.19422227144241333
0.44827169179916382 0.77335441112518311 0.1893337219953537
0.45976033806800842 0.77305209636688232 0.18758057057857513
0.48140695691108704 0.77228868007659912 0.1845761239528656
0.51267135143280029 0.76988679170608521 0.17948183417320251
0.5516936182975769 0.76884549856185913 0.17362730205059052
0.60117560625076294 0.76955950260162354 0.16781157255172729
0.65917360782623291 0.77403920888900757 0.16373397409915924
0.72456645965576172 0.77979832887649536 0.16180028021335602
0.7959820032119751 0.78850603103637695 0.15905185043811798
0.86206847429275513 0.79731285572052002 0.15556934475898743
0.92383211851119995 0.80477941036224365 0.1582733541727066
0.97769397497177124 0.81212300062179565 0.17255717515945435
0.99894726276397705 0.81986814737319946 0.2040935605764389
0.51489019393920898 0.83693975210189819 0.21500001847743988
0.52602070569992065 0.83666551113128662 0.21509800851345062
0.54383176565170288 0.83575117588043213 0.21069997549057007
0.57178151607513428 0.83440989255905151 0.20707522332668304
0.60652738809585571 0.83251780271530151 0.19572009146213531
0.64977782964706421 0.83051252365112305 0.18678481876850128
0.70058470964431763 0.83376914262771606 0.18432605266571045
0.75799864530563354 0.83767318725585938 0.18825887143611908
0.81608748435974121 0.84233713150024414 0.18985596299171448
0.87488430738449097 0.84860384464263916 0.19361428916454315
0.92828291654586792 0.85597044229507446 0.19976794719696045
0.97704499959945679 0.86443603038787842 0.20679914951324463
0.99874317646026611 0.87171977758407593 0.23475019633769989
0.59317934513092041 0.90241461992263794 0.29337024688720703
0.60207271575927734 0.90128195285797119 0.28953245282173157
0.61669141054153442 0.89984422922134399 0.28648126125335693
0.63893401622772217 0.89885634183883667 0.27798086404800415
0.67014390230178833 0.89803332090377808 0.27041465044021606
0.70817399024963379 0.89798176288604736 0.2642160952091217
0.75117319822311401 0.89871793985366821 0.2587185800075531
0.79782557487487793 0.9022032618522644 0.26395037770271301
0.84388500452041626 0.90584856271743774 0.27380144596099854
0.8913608193397522 0.91028499603271484 0.28122293949127197
0.93547940254211426 0.917228102684021 0.29252839088439941
0.97386956214904785 0.92458248138427734 0.30154728889465332
0.99648076295852661 0.93241280317306519 0.32144325971603394
0.3292752206325531 0.27441370487213135 0.24037757515907288
0.33947533369064331 0.27525636553764343 0.24553248286247253
0.35402348637580872 0.27398970723152161 0.24631822109222412
0.3774925172328949 0.27115276455879211 0.24315322935581207
0.41793489456176758 0.266622394323349 0.24349138140678406
0.46992984414100647 0.26132199168205261 0.2441081702709198
0.53544610738754272 0.2497107982635498 0.24419045448303223
0.6081920862197876 0.23539415001869202 0.24314925074577332
0.6812814474105835 0.21809497475624084 0.24154405295848846
0.75571984052658081 0.19934633374214172 0.23902595043182373
0.8379521369934082 0.17468759417533875 0.23527128994464874
0.92051041126251221 0.14981357753276825 0.22930379211902618
0.9852755069732666 0.12511049211025238 0.22369794547557831
0.33079677820205688 0.28456169366836548 0.2435695081949234
0.34113255143165588 0.28698694705963135 0.24632921814918518
0.3590882420539856 0.28491848707199097 0.24660761654376984
0.38397625088691711 0.28010386228561401 0.24327336251735687
0.42839676141738892 0.27638640999794006 0.2433854341506958
0.48308372497558594 0.27083781361579895 0.24398429691791534
0.55149692296981812 0.26214265823364258 0.24409358203411102
0.62534540891647339 0.25186043977737427 0.24254874885082245
0.6994321346282959 0.23861192166805267 0.24116495251655579
0.77137184143066406 0.2195030003786087 0.24029895663261414
0.85049313306808472 0.19607158005237579 0.23566779494285583
0.93018543720245361 0.17893742024898529 0.22875222563743591
0.98860150575637817 0.16202767193317413 0.22484979033470154
0.33290722966194153 0.30180293321609497 0.24635817110538483
0.34221106767654419 0.3023621141910553 0.24624979496002197
0.36206510663032532 0.30322134494781494 0.24583329260349274
0.39305335283279419 0.30604970455169678 0.24435664713382721
0.44372916221618652 0.30579972267150879 0.24579885601997375
0.50820648670196533 0.30538490414619446 0.24550461769104004
0.58089685440063477 0.29932740330696106 0.24410969018936157
0.65325373411178589 0.28727209568023682 0.24221192300319672
0.72640466690063477 0.27409553527832031 0.23863103985786438
0.8002544641494751 0.26077595353126526 0.23707374930381775
0.87525391578674316 0.24749298393726349 0.2333126962184906
0.94784724712371826 0.23705695569515228 0.2249341607093811
0.99176633358001709 0.23008996248245239 0.22120733559131622
0.33783367276191711 0.33649235963821411 0.25074663758277893
0.3466695249080658 0.3377901017665863 0.24725493788719177
0.36770433187484741 0.33721175789833069 0.24453684687614441
0.40281885862350464 0.34070667624473572 0.24283285439014435
0.45891088247299194 0.34909912943840027 0.24395515024662018
0.53232371807098389 0.35631665587425232 0.24512109160423279
0.61414581537246704 0.35663062334060669 0.24401608109474182
0.69164031744003296 0.3501264750957489 0.2394687831401825
0.76256716251373291 0.33831971883773804 0.23854805529117584
0.83150219917297363 0.3280547559261322 0.23596249520778656
0.90092897415161133 0.32124143838882446 0.2308824211359024
0.96676760911941528 0.31488770246505737 0.22157840430736542
0.99254429340362549 0.31501549482345581 0.21864543855190277
0.34221842885017395 0.3898119330406189 0.24845996499061584
0.35405722260475159 0.3887907862663269 0.24719041585922241
0.37716364860534668 0.3877054750919342 0.24308069050312042
0.41503575444221497 0.39151647686958313 0.23999764025211334
0.4703831672668457 0.40062257647514343 0.23814776539802551
0.54208612442016602 0.41251513361930847 0.23613990843296051
0.62856179475784302 0.42165833711624146 0.23613655567169189
0.72098910808563232 0.42853963375091553 0.23530694842338562
0.79707735776901245 0.42914667725563049 0.23612754046916962
0.86424815654754639 0.42226099967956543 0.2328951358795166
0.92591011524200439 0.41307827830314636 0.22814202308654785
0.98171043395996094 0.407522052526474 0.22084742784500122
0.99634689092636108 0.40818098187446594 0.21809379756450653
0.34525540471076965 0.44963794946670532 0.24249748885631561
0.36267855763435364 0.4493248462677002 0.24187451601028442
0.38520908355712891 0.44482600688934326 0.23945607244968414
0.42177483439445496 0.44586426019668579 0.23641908168792725
0.47747886180877686 0.45724567770957947 0.23334912955760956
0.54534125328063965 0.47030454874038696 0.22791914641857147
0.62430644035339355 0.48304906487464905 0.22304327785968781
0.71811628341674805 0.49817097187042236 0.22200314700603485
0.80744463205337524 0.51219475269317627 0.22487421333789825
0.88466489315032959 0.52049779891967773 0.22835248708724976
0.9500848650932312 0.51756024360656738 0.22823706269264221
0.99220895767211914 0.50779122114181519 0.22549840807914734
0.99969494342803955 0.50311756134033203 0.22052597999572754
0.35024121403694153 0.51364248991012573 0.23698797821998596
0.36810639500617981 0.51332110166549683 0.23728121817111969
0.39028361439704895 0.50963538885116577 0.23549672961235046
0.42823666334152222 0.50748026371002197 0.23169565200805664
0.47974058985710144 0.51413083076477051 0.22748033702373505
0.54312241077423096 0.52681124210357666 0.22126798331737518
0.6226884126663208 0.54375743865966797 0.21462450921535492
0.70891129970550537 0.5624127984046936 0.20747382938861847
0.79719376564025879 0.57942092418670654 0.20357772707939148
0.88026696443557739 0.59230482578277588 0.20619148015975952
0.95489007234573364 0.60100853443145752 0.21922807395458221
0.99689280986785889 0.60385799407958984 0.23472204804420471
0.99994760751724243 0.59906870126724243 0.24537584185600281
0.35495993494987488 0.58115440607070923 0.2308184951543808
0.37289118766784668 0.58006387948989868 0.23115454614162445
0.39680442214012146 0.57647597789764404 0.22982147336006165
0.43427237868309021 0.57239305973052979 0.22700715065002441
0.48399955034255981 0.57623708248138428 0.21965882182121277
0.54689288139343262 0.58849811553955078 0.21176809072494507
0.61924391984939575 0.6049048900604248 0.2061576247215271
0.69628405570983887 0.62195825576782227 0.19931045174598694
0.78166502714157104 0.63758093118667603 0.19179970026016235
0.868824303150177 0.65123444795608521 0.18598246574401855
0.94596010446548462 0.66120880842208862 0.19828435778617859
0.99483150243759155 0.66851794719696045 0.2248273491859436
0.9995613694190979 0.67076742649078369 0.26031085848808289
0.36908578872680664 0.64874768257141113 0.22069405019283295
0.38321313261985779 0.64870244264602661 0.21907854080200195
0.41165322065353394 0.64593982696533203 0.21758680045604706
0.44775104522705078 0.64156889915466309 0.21514993906021118
0.49148273468017578 0.641917884349823 0.20658691227436066
0.55146104097366333 0.65176612138748169 0.1994425356388092
0.6212342381477356 0.66474020481109619 0.19431033730506897
0.69936567544937134 0.67761629819869995 0.18995669484138489
0.7792506217956543 0.69094914197921753 0.18224254250526428
0.86058783531188965 0.70288050174713135 0.17560926079750061
0.9346805214881897 0.71153074502944946 0.18232627213001251
0.98850703239440918 0.71894395351409912 0.20513378083705902
0.99738043546676636 0.72280561923980713 0.24048800766468048
0.39845550060272217 0.71490967273712158 0.21130865812301636
0.41138395667076111 0.71409273147583008 0.20978979766368866
0.43685254454612732 0.71184080839157104 0.20663341879844666
0.47079393267631531 0.70952171087265015 0.20122087001800537
0.51393145322799683 0.70853221416473389 0.19651025533676147
0.56982713937759399 0.71357184648513794 0.1913168728351593
0.63482171297073364 0.72065013647079468 0.18583296239376068
0.71069455146789551 0.73110353946685791 0.1824728399515152
0.787220299243927 0.74231946468353271 0.17808540165424347
0.85906034708023071 0.7517741322517395 0.17468346655368805
0.92878389358520508 0.75948834419250488 0.17833581566810608
0.98286950588226318 0.76537966728210449 0.19719816744327545
0.99744331836700439 0.77008926868438721 0.2277083694934845
0.44834661483764648 0.77741795778274536 0.21483287215232849
0.46027615666389465 0.77652120590209961 0.21284712851047516
0.48296636343002319 0.77442026138305664 0.21170228719711304
0.51302415132522583 0.77277183532714844 0.20438694953918457
0.55308574438095093 0.77251845598220825 0.19795449078083038
0.60235482454299927 0.77316421270370483 0.19082482159137726
0.66098737716674805 0.77660244703292847 0.18722140789031982
0.72780996561050415 0.78353947401046753 0.18856646120548248
0.79981577396392822 0.79180389642715454 0.1906459629535675
0.86464446783065796 0.80008655786514282 0.19056347012519836
0.92753416299819946 0.80629414319992065 0.18961098790168762
0.97808897495269775 0.81239348649978638 0.20571397244930267
0.99875795841217041 0.81915289163589478 0.23399423062801361
0.51433712244033813 0.83856624364852905 0.24110870063304901
0.52557879686355591 0.83911323547363281 0.23909039795398712
0.54372984170913696 0.83815628290176392 0.23619341850280762
0.57194405794143677 0.83622545003890991 0.23161709308624268
0.60700291395187378 0.83493667840957642 0.22140397131443024
0.6494133472442627 0.83320349454879761 0.21122452616691589
0.70069313049316406 0.83530527353286743 0.20944657921791077
0.75738513469696045 0.83948546648025513 0.2125469297170639
0.8173598051071167 0.84419441223144531 0.215789794921875
0.87544536590576172 0.85108506679534912 0.2218061089515686
0.9300658106803894 0.85782480239868164 0.2296934574842453
0.97663313150405884 0.86502581834793091 0.23857384920120239
0.99861526489257812 0.87203812599182129 0.2643490731716156
0.59140592813491821 0.90212482213973999 0.3138427734375
0.59976476430892944 0.90200603008270264 0.31139281392097473
0.61601972579956055 0.90210855007171631 0.30928519368171692
0.63817328214645386 0.89980548620223999 0.2997443675994873
0.66704893112182617 0.89654314517974854 0.29076358675956726
0.7057003378868103 0.89787322282791138 0.28339129686355591
0.74990314245223999 0.89966762065887451 0.28162160515785217
0.79639518260955811 0.90193217992782593 0.28469887375831604
0.84326916933059692 0.90616369247436523 0.29267609119415283
0.89041799306869507 0.9105842113494873 0.30063530802726746
0.93427348136901855 0.91565203666687012 0.31020000576972961
0.9728928804397583 0.92324841022491455 0.32202747464179993
0.99684256315231323 0.93289852142333984 0.34005692601203918
0.33007374405860901 0.27504733204841614 0.2601102888584137
0.34007123112678528 0.27570757269859314 0.2652725875377655
0.35567009449005127 0.27491992712020874 0.26643872261047363
0.3773362934589386 0.27270111441612244 0.26274004578590393
0.41755115985870361 0.26863008737564087 0.26321148872375488
0.4709717333316803 0.26118367910385132 0.26477175951004028
0.53799223899841309 0.24832113087177277 0.26553353667259216
0.60688310861587524 0.23198442161083221 0.263773113489151
0.67477941513061523 0.21089456975460052 0.26012507081031799
0.74788588285446167 0.18466678261756897 0.25492838025093079
0.82974779605865479 0.14837481081485748 0.25115647912025452
0.91203349828720093 0.10349922627210617 0.24442724883556366
0.98066884279251099 0.052230492234230042 0.23894031345844269
0.33031314611434937 0.28450316190719604 0.26251634955406189
0.34165379405021667 0.28535646200180054 0.26952886581420898
0.36060836911201477 0.28446978330612183 0.2700645923614502
0.38492339849472046 0.28198632597923279 0.26583099365234375
0.42792755365371704 0.27637609839439392 0.26546666026115417
0.48269125819206238 0.26855877041816711 0.26568818092346191
0.55125230550765991 0.25666901469230652 0.26443719863891602
0.62009656429290771 0.24200771749019623 0.26141220331192017
0.69083482027053833 0.22470483183860779 0.25926339626312256
0.76415455341339111 0.20148278772830963 0.25616490840911865
0.84308987855911255 0.17074044048786163 0.25250506401062012
0.92224335670471191 0.13985176384449005 0.2457195520401001
0.98749619722366333 0.10623813420534134 0.23997549712657928
0.33261263370513916 0.30287492275238037 0.26664447784423828
0.34342151880264282 0.30359575152397156 0.27249372005462646
0.36434563994407654 0.30364906787872314 0.27371031045913696
0.39391881227493286 0.3046441376209259 0.27118727564811707
0.44052216410636902 0.30036598443984985 0.26955282688140869
0.50376307964324951 0.29688501358032227 0.26850149035453796
0.57454210519790649 0.28709879517555237 0.26539641618728638
0.64541876316070557 0.27245631814002991 0.26250761747360229
0.7176697850227356 0.25794067978858948 0.26060763001441956
0.79058432579040527 0.24391408264636993 0.25987660884857178
0.86524045467376709 0.22318051755428314 0.25488513708114624
0.93874281644821167 0.20124852657318115 0.24599388241767883
0.9907526969909668 0.18422387540340424 0.24001897871494293
0.33771663904190063 0.33839684724807739 0.27392470836639404
0.34765452146530151 0.3413873016834259 0.27508175373077393
0.37082716822624207 0.34049254655838013 0.27537697553634644
0.40629744529724121 0.34366178512573242 0.2736334502696991
0.4604763388633728 0.34912678599357605 0.27349561452865601
0.53409802913665771 0.35208642482757568 0.2758614718914032
0.6098819375038147 0.34628534317016602 0.27132564783096313
0.68111163377761841 0.33309179544448853 0.26767057180404663
0.75301897525787354 0.32046899199485779 0.26335185766220093
0.824138343334198 0.31132665276527405 0.26085498929023743
0.89524948596954346 0.29927736520767212 0.25452300906181335
0.9596254825592041 0.28621038794517517 0.24744315445423126
0.99290376901626587 0.28043493628501892 0.24297216534614563
0.34042906761169434 0.39570647478103638 0.27520725131034851
0.35288932919502258 0.39356592297554016 0.27473384141921997
0.38028842210769653 0.39444664120674133 0.27468842267990112
0.41715747117996216 0.3963649570941925 0.27316629886627197
0.47204962372779846 0.40276578068733215 0.26947736740112305
0.5493624210357666 0.41293591260910034 0.26978978514671326
0.6345551609992981 0.41934791207313538 0.27188357710838318
0.71848618984222412 0.42092090845108032 0.27359709143638611
0.79168879985809326 0.41502690315246582 0.27014616131782532
