luts/instant_pro/polaroid_690_warm_-.cube
# Created by: G'MIC (https://gmic.eu)
TITLE "polaroid_690_warm_-"
# LUT size
LUT_3D_SIZE 7
# Data domain
DOMAIN_MIN 0.0 0.0 0.0
DOMAIN_MAX 1.0 1.0 1.0
# LUT data points
0.086301259696483612 0.047371659427881241 0.027836579829454422
0.18682347238063812 0.032711490988731384 0.031283196061849594
0.33812797069549561 0.0072584114968776703 0.031932726502418518
0.50368916988372803 0.0026609832420945168 0.022452380508184433
0.68097758293151855 0.000280881387880072 0.012194195762276649
0.85146826505661011 0.00329438759945333 0.006962465588003397
0.98221170902252197 0.0011071298504248261 0.0039215688593685627
0.10527794063091278 0.15535692870616913 0.02478758804500103
0.20496658980846405 0.1489880383014679 0.022519772872328758
0.37250038981437683 0.12058774381875992 0.019842484965920448
0.557961106300354 0.065243005752563477 0.012619691900908947
0.72824454307556152 0.012939438223838806 0.0070560681633651257
0.89251691102981567 0.0049777161329984665 0.00061102473409846425
0.99187052249908447 0.0044635697267949581 0.0013059279881417751
0.10703575611114502 0.3118603527545929 0.01198190450668335
0.20943334698677063 0.31729558110237122 0.0029309440869837999
0.39210045337677002 0.33569711446762085 0.0061022741720080376
0.59778565168380737 0.34049400687217712 0.0042927758768200874
0.79124993085861206 0.33044335246086121 0.002235607011243701
0.93452394008636475 0.29647713899612427 0.0020172717049717903
0.99981480836868286 0.27798756957054138 0.00037740072002634406
0.095092341303825378 0.4832804799079895 0.001698916545137763
0.21856176853179932 0.48596292734146118 0.0024227516259998083
0.37710455060005188 0.49887582659721375 0.0025721082929521799
0.58077400922775269 0.52175015211105347 0.0025977788027375937
0.78299510478973389 0.54028373956680298 0.0033910414204001427
0.95441305637359619 0.56681805849075317 0.0019832237157970667
0.99982261657714844 0.56864804029464722 0.0039876899681985378
0.15248584747314453 0.64140820503234863 0.0013251360505819321
0.25307181477546692 0.63497579097747803 0.0019200344104319811
0.39024096727371216 0.63904380798339844 0.0022918700706213713
0.56939077377319336 0.66061317920684814 0.00050672644283622503
0.75794333219528198 0.68517082929611206 0.0015153323765844107
0.92555689811706543 0.71157956123352051 0.002266124589368701
0.99986910820007324 0.72936135530471802 0.0043179681524634361
0.30504533648490906 0.79875391721725464 0.0013179405359551311
0.36345788836479187 0.79492008686065674 0.00051486445590853691
0.46616515517234802 0.78987020254135132 0.0011897068470716476
0.60923683643341064 0.80046719312667847 0.0011600120924413204
0.77491337060928345 0.81918829679489136 0.0028050891123712063
0.92981636524200439 0.83516883850097656 0.0060668946243822575
0.99820208549499512 0.84528005123138428 0.0093462327495217323
0.52199923992156982 0.94100254774093628 0.10728521645069122
0.55265659093856812 0.93927305936813354 0.096683233976364136
0.6229204535484314 0.9383552074432373 0.078209623694419861
0.71985882520675659 0.93639731407165527 0.052827589213848114
0.83457398414611816 0.94115978479385376 0.057762518525123596
0.94537955522537231 0.94633227586746216 0.070830114185810089
0.99977344274520874 0.95220929384231567 0.079629801213741302
0.097076445817947388 0.051687981933355331 0.12052404135465622
0.19618281722068787 0.045396439731121063 0.1322212815284729
0.33679375052452087 0.013964125886559486 0.12157648056745529
0.50393688678741455 0.0046655992045998573 0.12525860965251923
0.66879165172576904 0.0016972859157249331 0.11335854977369308
0.83409214019775391 1.7951517293113284e-05 0.087713591754436493
0.98143649101257324 0 0.057302452623844147
0.13178806006908417 0.15596809983253479 0.13183188438415527
0.22634805738925934 0.157075434923172 0.13531740009784698
0.37485295534133911 0.13603305816650391 0.13600492477416992
0.54582697153091431 0.066599301993846893 0.12358277291059494
0.71313691139221191 0.014732914045453072 0.11024942994117737
0.87643837928771973 0.0041266046464443207 0.084726504981517792
0.99130606651306152 0.0017761230701580644 0.055115450173616409
0.14213842153549194 0.33240512013435364 0.13853654265403748
0.23670606315135956 0.33093312382698059 0.12503896653652191
0.40960368514060974 0.34593203663825989 0.1209259033203125
0.61165398359298706 0.35495778918266296 0.12137485295534134
0.78793245553970337 0.32891896367073059 0.11996813118457794
0.92826354503631592 0.28018882870674133 0.08579852432012558
0.99931436777114868 0.24559174478054047 0.049418654292821884
0.13549652695655823 0.50599497556686401 0.10896299779415131
0.23814986646175385 0.49988332390785217 0.098379187285900116
0.38990512490272522 0.5076720118522644 0.07907366007566452
0.58749938011169434 0.53146672248840332 0.045954640954732895
0.79639536142349243 0.55377864837646484 0.051355041563510895
0.95773530006408691 0.57014596462249756 0.10881128907203674
1 0.56363743543624878 0.12487852573394775
0.17300409078598022 0.65655070543289185 0.063808456063270569
0.26397016644477844 0.65283632278442383 0.057912204414606094
0.39790627360343933 0.64689123630523682 0.036629412323236465
0.57360160350799561 0.6655954122543335 0.02126159705221653
0.76547455787658691 0.69519472122192383 0.011612611822783947
0.93585586547851562 0.71897643804550171 0.023102615028619766
0.99997836351394653 0.73848557472229004 0.12916484475135803
0.30327335000038147 0.80568474531173706 0.046157326549291611
0.35933271050453186 0.80161583423614502 0.031640205532312393
0.46856167912483215 0.79556715488433838 0.019408909603953362
0.60613065958023071 0.79961705207824707 0.011590994894504547
0.76756590604782104 0.81873291730880737 0.0057580834254622459
0.92170369625091553 0.83801007270812988 0.0085829794406890869
0.99855411052703857 0.85311782360076904 0.056476578116416931
0.50980955362319946 0.93706053495407104 0.23374065756797791
0.54928547143936157 0.93900203704833984 0.21769985556602478
0.61394679546356201 0.93501108884811401 0.18644559383392334
0.71253842115402222 0.9339403510093689 0.15121719241142273
0.82894515991210938 0.93957901000976562 0.15796011686325073
0.94077074527740479 0.94495993852615356 0.17837542295455933
0.99948602914810181 0.95165324211120605 0.20911180973052979
0.075761936604976654 0.060901086777448654 0.2971198558807373
0.18743789196014404 0.05630861222743988 0.31385055184364319
0.3679354190826416 0.024874474853277206 0.33262202143669128
0.5257188081741333 0.0073105157352983952 0.29469329118728638
0.67296028137207031 0.0039215688593685627 0.28159761428833008
0.82432323694229126 0.0039215688593685627 0.25490570068359375
0.96930038928985596 0.00056098488857969642 0.21743151545524597
0.13512936234474182 0.16568866372108459 0.30762973427772522
0.23042157292366028 0.17123179137706757 0.32035508751869202
0.39742475748062134 0.17415763437747955 0.34665903449058533
0.54830574989318848 0.14070896804332733 0.30979782342910767
0.69648027420043945 0.038885511457920074 0.27806714177131653
0.84480506181716919 0.0043854359537363052 0.25186389684677124
0.97661358118057251 0.0018684237729758024 0.20838496088981628
0.17214824259281158 0.33766788244247437 0.33141675591468811
0.26318562030792236 0.34476259350776672 0.33411926031112671
0.42576825618743896 0.36142861843109131 0.35811066627502441
0.59561985731124878 0.34014296531677246 0.34162315726280212
0.74797016382217407 0.28172045946121216 0.30862906575202942
0.8982430100440979 0.1934266984462738 0.26504108309745789
0.99912422895431519 0.11465035378932953 0.23092164099216461
0.18265663087368011 0.53179478645324707 0.34846198558807373
0.27573147416114807 0.53107446432113647 0.34310460090637207
0.42398914694786072 0.52763622999191284 0.3353387713432312
0.6051018238067627 0.54034131765365601 0.33611840009689331
0.79876577854156494 0.56101125478744507 0.34978166222572327
0.94703882932662964 0.55349874496459961 0.35635685920715332
0.99950170516967773 0.52286458015441895 0.32114475965499878
0.20815363526344299 0.680225670337677 0.32359951734542847
0.29408702254295349 0.67919790744781494 0.32016116380691528
0.42986595630645752 0.67109322547912598 0.30861610174179077
0.58520740270614624 0.67738467454910278 0.29180464148521423
0.77215272188186646 0.70103573799133301 0.29060906171798706
0.93692731857299805 0.71856725215911865 0.32236716151237488
0.9967045783996582 0.73948967456817627 0.39285343885421753
0.31002539396286011 0.81735026836395264 0.32652854919433594
0.36617743968963623 0.81506198644638062 0.31219068169593811
0.47080317139625549 0.80923068523406982 0.2880500853061676
0.60174530744552612 0.80439847707748413 0.25488609075546265
0.76375281810760498 0.81801432371139526 0.25800549983978271
0.91573095321655273 0.8375123143196106 0.28291648626327515
0.9974440336227417 0.85269904136657715 0.3418155312538147
0.50171202421188354 0.94277811050415039 0.40304356813430786
0.53361690044403076 0.94098204374313354 0.39255130290985107
0.59907019138336182 0.93729716539382935 0.3737892210483551
0.69884800910949707 0.93608975410461426 0.34793716669082642
0.81703031063079834 0.93781083822250366 0.34533917903900146
0.93299108743667603 0.94420182704925537 0.36342039704322815
0.99864894151687622 0.94823133945465088 0.39122429490089417
0.0053558498620986938 0.072840869426727295 0.50568884611129761
0.14843001961708069 0.069748282432556152 0.53084909915924072
0.38029146194458008 0.034885391592979431 0.56373810768127441
0.60117161273956299 0.010022047907114029 0.58411210775375366
0.73454254865646362 0.0044325138442218304 0.51342904567718506
0.85109865665435791 0.0032953599002212286 0.46188738942146301
0.97972589731216431 0.00019253001664765179 0.44816625118255615
0.088078215718269348 0.18250882625579834 0.50709265470504761
0.20930998027324677 0.19128794968128204 0.53258377313613892
0.40860894322395325 0.18811698257923126 0.5709722638130188
0.60942119359970093 0.17886559665203094 0.58801919221878052
0.73759931325912476 0.13817059993743896 0.52058166265487671
0.86115074157714844 0.045732744038105011 0.4706244170665741
0.98407113552093506 0.0028926325030624866 0.44528478384017944
0.15327145159244537 0.33010861277580261 0.50701713562011719
0.25336921215057373 0.33949711918830872 0.52104860544204712
0.42481708526611328 0.36447691917419434 0.55824333429336548
0.62412518262863159 0.38526713848114014 0.59163087606430054
0.7497258186340332 0.34497937560081482 0.52945739030838013
0.87687903642654419 0.24487560987472534 0.47335869073867798
0.9930189847946167 0.031219827011227608 0.42188587784767151
0.21720191836357117 0.52947264909744263 0.54936438798904419
0.30480539798736572 0.53626388311386108 0.55435693264007568
0.45216229557991028 0.54516506195068359 0.56595009565353394
0.6276777982711792 0.56420266628265381 0.58709967136383057
0.78077882528305054 0.53558599948883057 0.55804729461669922
0.9124375581741333 0.46899119019508362 0.5010954737663269
0.99757319688796997 0.38981515169143677 0.43824034929275513
0.28715991973876953 0.70563966035842896 0.56662070751190186
0.35573500394821167 0.70904219150543213 0.56751066446304321
0.46883568167686462 0.71021360158920288 0.56499379873275757
0.60950583219528198 0.7018587589263916 0.5438007116317749
0.78415119647979736 0.7132335901260376 0.55743968486785889
0.93370085954666138 0.73045742511749268 0.58202528953552246
0.99875921010971069 0.72739869356155396 0.59145194292068481
0.33639544248580933 0.8375699520111084 0.5536913275718689
0.39866179227828979 0.83148515224456787 0.55498164892196655
0.49247092008590698 0.83012324571609497 0.53848397731781006
0.61468774080276489 0.82030224800109863 0.50848770141601562
0.75615060329437256 0.82187145948410034 0.4976009726524353
0.91209036111831665 0.84352588653564453 0.53091466426849365
0.99564391374588013 0.85386461019515991 0.5671851634979248
0.5000876784324646 0.94819587469100952 0.59368330240249634
0.5283743143081665 0.9434090256690979 0.58511477708816528
0.59668642282485962 0.94241392612457275 0.57053536176681519
0.68783456087112427 0.94054204225540161 0.54861092567443848
0.79971367120742798 0.93930500745773315 0.52658730745315552
0.91359478235244751 0.9414442777633667 0.54270237684249878
0.99454396963119507 0.94906526803970337 0.56823110580444336
0.0076985675841569901 0.096203729510307312 0.71439367532730103
0.15861861407756805 0.089589528739452362 0.7247198224067688
0.39742019772529602 0.062283936887979507 0.74585807323455811
0.62846028804779053 0.024944724515080452 0.78395676612854004
0.81592375040054321 0.019761297851800919 0.78526800870895386
0.91977149248123169 0.01073348056524992 0.72281217575073242
0.99239939451217651 0.012775002047419548 0.67549854516983032
0.057279922068119049 0.19766135513782501 0.71628046035766602
0.22293668985366821 0.20190678536891937 0.72814041376113892
0.41882780194282532 0.2031417042016983 0.74830585718154907
0.63924682140350342 0.21508732438087463 0.78017175197601318
0.81387162208557129 0.21881349384784698 0.78003251552581787
0.91863530874252319 0.18134540319442749 0.718056321144104
0.99333184957504272 0.13600654900074005 0.67272180318832397
0.12546786665916443 0.3403288722038269 0.70006293058395386
0.24679006636142731 0.34941545128822327 0.70139801502227783
0.42703914642333984 0.36506623029708862 0.73131692409515381
0.63364249467849731 0.40214365720748901 0.77387046813964844
0.81180852651596069 0.4234195351600647 0.77790343761444092
0.90660583972930908 0.37908515334129333 0.71773827075958252
0.99059063196182251 0.30515626072883606 0.67176032066345215
0.14741551876068115 0.49802941083908081 0.69347977638244629
0.25402736663818359 0.50405526161193848 0.69472229480743408
0.41456484794616699 0.51597148180007935 0.70774966478347778
0.61726021766662598 0.559550940990448 0.74533909559249878
0.80441075563430786 0.59578961133956909 0.77144312858581543
0.90213334560394287 0.53801167011260986 0.7146528959274292
0.99504339694976807 0.42380353808403015 0.65022152662277222
0.29972365498542786 0.69419622421264648 0.72809606790542603
0.37390831112861633 0.69592523574829102 0.73509585857391357
0.49824315309524536 0.70244228839874268 0.74018454551696777
0.64567703008651733 0.72148758172988892 0.75420475006103516
0.79778069257736206 0.74084728956222534 0.77002209424972534
0.91321629285812378 0.70241689682006836 0.73790735006332397
0.99689614772796631 0.63105481863021851 0.67780411243438721
0.4771822988986969 0.8504297137260437 0.75479435920715332
0.50748759508132935 0.84413295984268188 0.75008130073547363
0.57353490591049194 0.84519577026367188 0.74691051244735718
0.66536659002304077 0.84596651792526245 0.74554717540740967
0.7812989354133606 0.84200680255889893 0.72628229856491089
0.90804612636566162 0.85217964649200439 0.73979479074478149
0.9928862452507019 0.86626279354095459 0.77170145511627197
0.57853025197982788 0.94943839311599731 0.76483756303787231
0.60263735055923462 0.94610875844955444 0.75617998838424683
0.64021879434585571 0.94513976573944092 0.75587183237075806
0.71007901430130005 0.94413042068481445 0.74345225095748901
0.79853969812393188 0.94196039438247681 0.72101813554763794
0.90334725379943848 0.94317847490310669 0.71916449069976807
0.98815107345581055 0.95177578926086426 0.74104082584381104
0.17436277866363525 0.1367398202419281 0.88018882274627686
0.2932436466217041 0.1366269439458847 0.88203334808349609
0.45980113744735718 0.13137300312519073 0.88942140340805054
0.65111112594604492 0.13317707180976868 0.89920258522033691
0.83641690015792847 0.19495251774787903 0.92096239328384399
0.96634846925735474 0.2328227311372757 0.91206848621368408
0.99892866611480713 0.22764642536640167 0.87696593999862671
0.21911835670471191 0.2336733341217041 0.87530314922332764
0.31836378574371338 0.23572678864002228 0.8778078556060791
0.48073327541351318 0.24536675214767456 0.88513648509979248
0.65898126363754272 0.26603415608406067 0.89766055345535278
0.83915746212005615 0.31990689039230347 0.91792541742324829
0.96117860078811646 0.34374681115150452 0.90948587656021118
0.99434244632720947 0.32336330413818359 0.87679398059844971
0.21699097752571106 0.36730495095252991 0.85997283458709717
0.32218751311302185 0.37578064203262329 0.86434680223464966
0.48786729574203491 0.39318710565567017 0.87106788158416748
0.6555745005607605 0.41897052526473999 0.89134490489959717
0.8322988748550415 0.47833368182182312 0.90982651710510254
0.94921660423278809 0.49931067228317261 0.90094918012619019
0.99456608295440674 0.46201443672180176 0.87299436330795288
0.11452415585517883 0.49988171458244324 0.8370060920715332
0.26332965493202209 0.50728744268417358 0.83881407976150513
0.43594604730606079 0.52469491958618164 0.84584677219390869
0.63317978382110596 0.56225705146789551 0.87354916334152222
0.81661170721054077 0.62386441230773926 0.89784425497055054
0.93726253509521484 0.64162147045135498 0.8964087963104248
0.99463576078414917 0.59381473064422607 0.86559003591537476
0.22510340809822083 0.67485165596008301 0.8440127968788147
0.29617032408714294 0.67128247022628784 0.84461557865142822
0.42967787384986877 0.66943752765655518 0.84857869148254395
0.59450900554656982 0.68445533514022827 0.85413575172424316
0.78078961372375488 0.73436069488525391 0.87738358974456787
0.92503261566162109 0.76722019910812378 0.8906208872795105
0.9877200722694397 0.71129685640335083 0.85096269845962524
0.46501684188842773 0.8324434757232666 0.86497515439987183
0.50749653577804565 0.82998895645141602 0.8646693229675293
0.58743011951446533 0.8370862603187561 0.87122422456741333
0.69526475667953491 0.84036678075790405 0.87269943952560425
0.81199198961257935 0.8522382378578186 0.88346552848815918
0.91798585653305054 0.87061798572540283 0.89014488458633423
0.99047636985778809 0.83857494592666626 0.86735016107559204
0.68921422958374023 0.9486812949180603 0.88930040597915649
0.69997143745422363 0.94751828908920288 0.88897061347961426
0.73389339447021484 0.94802296161651611 0.89069175720214844
0.78640842437744141 0.94219720363616943 0.88387978076934814
0.84279823303222656 0.94638317823410034 0.87610739469528198
0.90959316492080688 0.94545584917068481 0.86284559965133667
0.98657894134521484 0.95541048049926758 0.87860184907913208
0.44116330146789551 0.26186326146125793 0.98039454221725464
0.49249771237373352 0.26281765103340149 0.98125565052032471
0.59182918071746826 0.27981248497962952 0.9840894341468811
0.72007697820663452 0.29376927018165588 0.98544418811798096
0.85351300239562988 0.35028555989265442 0.98469239473342896
0.96982795000076294 0.4317328929901123 0.98691987991333008
1 0.45683732628822327 0.97956472635269165
0.45423382520675659 0.33974885940551758 0.97674274444580078
0.5025516152381897 0.34080740809440613 0.97981542348861694
0.59779155254364014 0.34888511896133423 0.97917038202285767
0.71847069263458252 0.36887049674987793 0.97944235801696777
0.85455453395843506 0.42644935846328735 0.98250794410705566
0.96875923871994019 0.49641484022140503 0.98541688919067383
0.99946987628936768 0.52636754512786865 0.97657740116119385
0.45171543955802917 0.45444875955581665 0.97050917148590088
0.4970022439956665 0.45549559593200684 0.9697272777557373
0.59344190359115601 0.46427348256111145 0.97148430347442627
0.72434848546981812 0.49331486225128174 0.97372889518737793
0.85215401649475098 0.538002610206604 0.97693204879760742
0.95938390493392944 0.60069078207015991 0.97964000701904297
0.99956339597702026 0.61375588178634644 0.97353017330169678
0.41370376944541931 0.57199186086654663 0.96370548009872437
0.47074943780899048 0.57431769371032715 0.9633251428604126
0.57889789342880249 0.58846700191497803 0.96430051326751709
0.71215111017227173 0.61286634206771851 0.96811467409133911
0.83965444564819336 0.65366411209106445 0.96580380201339722
0.94515931606292725 0.70224970579147339 0.96539992094039917
0.99910169839859009 0.72322952747344971 0.9681093692779541
0.35559919476509094 0.69400250911712646 0.95324528217315674
0.40553110837936401 0.69155502319335938 0.95070356130599976
0.50971305370330811 0.69471079111099243 0.95218515396118164
0.66094875335693359 0.71290296316146851 0.95437037944793701
0.82018238306045532 0.75364148616790771 0.95915961265563965
0.93325620889663696 0.79869210720062256 0.96298432350158691
0.99849021434783936 0.81858652830123901 0.96206909418106079
0.52160602807998657 0.84642320871353149 0.95075750350952148
0.54259037971496582 0.8435063362121582 0.95047140121459961
0.59693491458892822 0.83729714155197144 0.94760012626647949
0.68044215440750122 0.83378499746322632 0.94929271936416626
0.78630220890045166 0.83595484495162964 0.95198917388916016
0.91765111684799194 0.87106454372406006 0.95943862199783325
0.99134320020675659 0.89638543128967285 0.95820373296737671
0.70644986629486084 0.95149630308151245 0.95507216453552246
0.72270828485488892 0.95009946823120117 0.95590174198150635
0.76029211282730103 0.9475322961807251 0.94893765449523926
0.81435024738311768 0.95134133100509644 0.95791643857955933
0.87153339385986328 0.94864106178283691 0.9557197093963623
0.93362659215927124 0.94955992698669434 0.95824158191680908
0.98587554693222046 0.95617181062698364 0.94536018371582031
