luts/instant_pro/polaroid_690_warm_+.cube
# Created by: G'MIC (https://gmic.eu)
TITLE "polaroid_690_warm_+"
# LUT size
LUT_3D_SIZE 13
# Data domain
DOMAIN_MIN 0.0 0.0 0.0
DOMAIN_MAX 1.0 1.0 1.0
# LUT data points
0.23137255012989044 0.16036657989025116 0.12409736961126328
0.23310354351997375 0.15722312033176422 0.12063827365636826
0.24396921694278717 0.15446355938911438 0.11627545952796936
0.26957914233207703 0.1481231302022934 0.11477214097976685
0.31363800168037415 0.13966469466686249 0.1133328303694725
0.3861064612865448 0.12105337530374527 0.11192025244235992
0.4738253653049469 0.087883219122886658 0.10740040987730026
0.57450824975967407 0.026070958003401756 0.10221643000841141
0.67228645086288452 0.0036181132309138775 0.095324993133544922
0.76798629760742188 0.004483451135456562 0.081998966634273529
0.85397917032241821 0.0042744954116642475 0.068327508866786957
0.93425726890563965 0.0028780170250684023 0.055911779403686523
0.99053692817687988 0.00085936899995431304 0.04532197117805481
0.23181070387363434 0.16514281928539276 0.12141889333724976
0.23190751671791077 0.16130061447620392 0.11871903389692307
0.24377000331878662 0.157266765832901 0.11455332487821579
0.28391784429550171 0.15628163516521454 0.11270751804113388
0.33628678321838379 0.15199930965900421 0.11153552681207657
0.40662094950675964 0.13866619765758514 0.10953155159950256
0.50428634881973267 0.10974410176277161 0.10206327587366104
0.60299932956695557 0.049984365701675415 0.095643304288387299
0.69873005151748657 0.011293299496173859 0.087907157838344574
0.79093599319458008 0.0079313693568110466 0.07475358247756958
0.87175774574279785 0.0076094083487987518 0.059054985642433167
0.94688194990158081 0.0061974767595529556 0.042430907487869263
0.99060988426208496 0.0041895247995853424 0.030552508309483528
0.23296569287776947 0.18425688147544861 0.11681823432445526
0.2353699654340744 0.17878010869026184 0.11405964195728302
0.2534852921962738 0.17835834622383118 0.10992658883333206
0.29500719904899597 0.18136216700077057 0.10725293308496475
0.35552844405174255 0.1816352903842926 0.1037183403968811
0.44687223434448242 0.18272674083709717 0.094216316938400269
0.54110038280487061 0.16195879876613617 0.088105373084545135
0.63884317874908447 0.13104550540447235 0.076211370527744293
0.73148602247238159 0.081010334193706512 0.067729443311691284
0.81365472078323364 0.036823108792304993 0.060083396732807159
0.89052760601043701 0.019739877432584763 0.044834420084953308
0.96319526433944702 0.0096741318702697754 0.024133719503879547
0.99599099159240723 0.0061238906346261501 0.012558701448142529
0.23325467109680176 0.22722481191158295 0.10641223937273026
0.23990565538406372 0.22075240314006805 0.10517948865890503
0.2679438591003418 0.22289997339248657 0.10115330666303635
0.30903786420822144 0.22716516256332397 0.096361704170703888
0.3870493471622467 0.23711322247982025 0.08505529910326004
0.48633572459220886 0.25198721885681152 0.064247339963912964
0.58415317535400391 0.25183999538421631 0.050222702324390411
0.68650639057159424 0.24506385624408722 0.038208425045013428
0.77330774068832397 0.21475464105606079 0.030702179297804832
0.84846681356430054 0.18439564108848572 0.02180907316505909
0.91924059391021729 0.15740585327148438 0.01561629306524992
0.97847253084182739 0.13072152435779572 0.0054037207737565041
0.9983639121055603 0.11293458938598633 0.0012511309469118714
0.23285573720932007 0.2948768138885498 0.084663107991218567
0.24699799716472626 0.28891181945800781 0.084178358316421509
0.28184443712234497 0.29467090964317322 0.076041080057621002
0.33396247029304504 0.3044092059135437 0.062932468950748444
0.40909451246261597 0.31697392463684082 0.045934729278087616
0.50338274240493774 0.33250728249549866 0.027255922555923462
0.60956162214279175 0.34518906474113464 0.01364605501294136
0.71608501672744751 0.35456213355064392 0.0067557990550994873
0.80648905038833618 0.35428991913795471 0.0048453239724040031
0.88188546895980835 0.33937892317771912 0.0038102841936051846
0.94648391008377075 0.3190639317035675 0.0023500032257288694
0.98560833930969238 0.30194708704948425 0.0021219740156084299
0.99756109714508057 0.29243278503417969 0.0028337964322417974
0.22846396267414093 0.3885466456413269 0.041249189525842667
0.2522752583026886 0.38052165508270264 0.039053387939929962
0.28917470574378967 0.37808611989021301 0.03403332456946373
0.35348808765411377 0.38942345976829529 0.024130698293447495
0.4225497841835022 0.40099847316741943 0.01186319999396801
0.5053974986076355 0.41563853621482849 0.0040212892927229404
0.60369020700454712 0.43243634700775146 0.0034620994701981544
0.70805937051773071 0.44581720232963562 0.003659476526081562
0.80848550796508789 0.45915830135345459 0.0026043909601867199
0.89939045906066895 0.4691770076751709 0.001387173542752862
0.96645826101303101 0.46149140596389771 0.0015215555904433131
0.9955323338508606 0.44782078266143799 0.0041465908288955688
0.99870389699935913 0.43533694744110107 0.0064670336432754993
0.22738862037658691 0.4790375828742981 0.0090624792501330376
0.25557106733322144 0.47031891345977783 0.0074247922748327255
0.29388344287872314 0.46322494745254517 0.0056580188684165478
0.35429778695106506 0.47007715702056885 0.0056621478870511055
0.4228290319442749 0.47932919859886169 0.0044327080249786377
0.5059133768081665 0.49447765946388245 0.0026815976016223431
0.5989067554473877 0.5139649510383606 0.002306261332705617
0.70020216703414917 0.53106421232223511 0.002640952356159687
0.80222856998443604 0.54405385255813599 0.0016065411036834121
0.8893466591835022 0.55749785900115967 0.0012669881107285619
0.96604466438293457 0.57184219360351562 0.00064329261658713222
0.99875986576080322 0.57328367233276367 0.0035775576252490282
1 0.56730884313583374 0.0072585609741508961
0.23322464525699615 0.56169611215591431 0.0042972937226295471
0.26397854089736938 0.55605399608612061 0.0038727554492652416
0.30398452281951904 0.54873710870742798 0.002752580912783742
0.35145053267478943 0.54540330171585083 0.0024997636210173368
0.42076799273490906 0.55403596162796021 0.0024665084201842546
0.50039219856262207 0.57013136148452759 0.0017798180924728513
0.59585005044937134 0.58919763565063477 0.0021178151946514845
0.69575566053390503 0.60794228315353394 0.002901354106143117
0.7916901707649231 0.62255227565765381 0.0026804306544363499
0.87353330850601196 0.63721364736557007 0.0018282722448930144
0.94935238361358643 0.65260475873947144 0.00026985615841113031
0.99368208646774292 0.66366899013519287 0.0029097015503793955
0.99926811456680298 0.66981470584869385 0.015445215627551079
0.24263282120227814 0.64234846830368042 0.0028309542685747147
0.27896973490715027 0.63948929309844971 0.0025569391436874866
0.31975719332695007 0.63364648818969727 0.0018395218066871166
0.36625754833221436 0.62772101163864136 0.0015458649722859263
0.42851495742797852 0.63019812107086182 0.0021989112719893456
0.50484246015548706 0.64502835273742676 0.0021607941016554832
0.59366726875305176 0.66346257925033569 0.0023187075275927782
0.68611615896224976 0.68031972646713257 0.0026020572986453772
0.77682250738143921 0.69513571262359619 0.0023478788789361715
0.85797673463821411 0.70763629674911499 0.00094217038713395596
0.93234020471572876 0.72176533937454224 0
0.98762845993041992 0.73383373022079468 0.003987420815974474
0.99845880270004272 0.74228131771087646 0.011935588903725147
0.27254149317741394 0.72238940000534058 0.0016287111211568117
0.29602152109146118 0.72103571891784668 0.0018280477961525321
0.33853089809417725 0.71824038028717041 0.0013706431491300464
0.39250195026397705 0.71402865648269653 0.0015225280076265335
0.44430339336395264 0.71174043416976929 0.0017759285401552916
0.51528161764144897 0.72193413972854614 0.0019143945537507534
0.59692329168319702 0.73824894428253174 0.0023288202937692404
0.68083149194717407 0.75138980150222778 0.0031036077998578548
0.76227521896362305 0.76378494501113892 0.0023315430153161287
0.84311932325363159 0.77480322122573853 0.00037352618528530002
0.92045223712921143 0.78657722473144531 9.5786301244515926e-05
0.98334378004074097 0.79693228006362915 0.0019598419312387705
0.9976697564125061 0.80321770906448364 0.0039503360167145729
0.32475489377975464 0.80166172981262207 0.00088462082203477621
0.34636899828910828 0.79754388332366943 0.0014990264317020774
0.38035756349563599 0.79729992151260376 0.00088203279301524162
0.42304965853691101 0.7965577244758606 0.00066090002655982971
0.47520890831947327 0.79269659519195557 0.00064665853278711438
0.53808492422103882 0.79694139957427979 0.0010806514183059335
0.60687547922134399 0.80733299255371094 0.002373923547565937
0.6904292106628418 0.81728613376617432 0.0029729206580668688
0.76975893974304199 0.82604110240936279 0.0014534894144162536
0.84488445520401001 0.83335793018341064 0.00096269493224099278
0.92082506418228149 0.84272557497024536 0.0030240076594054699
0.97766196727752686 0.85038220882415771 0.0033148222137242556
0.99698919057846069 0.8576667308807373 0.0049759959802031517
0.40308988094329834 0.8776887059211731 0.0017522325506433845
0.42082926630973816 0.87284386157989502 0.0020568997133523226
0.44811198115348816 0.87290555238723755 0.0013343362370505929
0.48345276713371277 0.87279433012008667 0.0014494054485112429
0.52955681085586548 0.86998093128204346 0.00087401445489376783
0.58744698762893677 0.86985158920288086 0.0022398107685148716
0.64762890338897705 0.87365972995758057 0.0039398195222020149
0.71959823369979858 0.87977397441864014 0.004285729955881834
0.79171228408813477 0.88567692041397095 0.0020679549779742956
0.85976207256317139 0.88969945907592773 0.0044005000963807106
0.92614233493804932 0.89647746086120605 0.0095236385241150856
0.98148715496063232 0.90165328979492188 0.017789039760828018
0.99946093559265137 0.90560919046401978 0.066333189606666565
0.51805347204208374 0.94273406267166138 0.15480637550354004
0.52633070945739746 0.94145196676254272 0.14412719011306763
0.54473316669464111 0.94133114814758301 0.13178934156894684
0.57284247875213623 0.93931835889816284 0.12139668315649033
0.61034029722213745 0.93843507766723633 0.1142541915178299
0.65601664781570435 0.93700957298278809 0.10395799577236176
0.70783579349517822 0.93556767702102661 0.099660761654376984
0.76705867052078247 0.93752032518386841 0.11487650871276855
0.82823324203491211 0.93934082984924316 0.13437181711196899
0.88846659660339355 0.94037050008773804 0.1651449054479599
0.94464224576950073 0.94096624851226807 0.19700931012630463
0.98942351341247559 0.94128620624542236 0.23714403808116913
1 0.94102674722671509 0.29420292377471924
0.23026151955127716 0.15772214531898499 0.13475760817527771
0.23423421382904053 0.15655604004859924 0.13168862462043762
0.24433307349681854 0.15280741453170776 0.12564477324485779
0.27188649773597717 0.14679187536239624 0.12413308769464493
0.31977814435958862 0.13538433611392975 0.1243489608168602
0.38853970170021057 0.11168921738862991 0.12313145399093628
0.47365137934684753 0.067486271262168884 0.11821736395359039
0.57079946994781494 0.014319715090095997 0.11398334801197052
0.66564333438873291 0.0050508086569607258 0.11478208750486374
0.7592850923538208 0.0039221071638166904 0.10647621750831604
0.84492403268814087 0.0037695341743528843 0.092109784483909607
0.92872262001037598 0.0026547599118202925 0.077524520456790924
0.9888615608215332 0.00098830577917397022 0.066401399672031403
0.22882771492004395 0.16433922946453094 0.13315218687057495
0.23417393863201141 0.16236215829849243 0.12976828217506409
0.24916641414165497 0.16116201877593994 0.1240338608622551
0.28711390495300293 0.15556921064853668 0.12298714369535446
0.33755868673324585 0.14670060575008392 0.12342964857816696
0.40970319509506226 0.12692171335220337 0.12518589198589325
0.50047910213470459 0.086147516965866089 0.11897189915180206
0.59734368324279785 0.029888438060879707 0.11173719167709351
0.69297915697097778 0.0091162882745265961 0.10712314397096634
0.78297966718673706 0.007678057998418808 0.096660122275352478
0.86507374048233032 0.0066991769708693027 0.081994913518428802
0.94268500804901123 0.0055031422525644302 0.065749853849411011
0.98932665586471558 0.0045341942459344864 0.052621625363826752
0.22756747901439667 0.18262690305709839 0.12864947319030762
0.23718313872814178 0.18197633326053619 0.12431823462247849
0.25643408298492432 0.17943578958511353 0.11935205012559891
0.30091050267219543 0.17800548672676086 0.1195828765630722
0.36031427979469299 0.17427609860897064 0.11850790679454803
0.44914209842681885 0.16510771214962006 0.11529337614774704
0.54239743947982788 0.14121206104755402 0.1091279536485672
0.63525301218032837 0.10089938342571259 0.097981035709381104
0.7268025279045105 0.054282814264297485 0.0922975093126297
0.8105921745300293 0.02380950003862381 0.082725480198860168
0.88927042484283447 0.011716954410076141 0.067760780453681946
0.96156013011932373 0.0074576283805072308 0.049243554472923279
0.99542444944381714 0.007531139999628067 0.033934034407138824
0.22547416388988495 0.231885626912117 0.12016166001558304
0.2404007613658905 0.23108936846256256 0.11803452670574188
0.26828819513320923 0.22915130853652954 0.11378477513790131
0.3191220760345459 0.23101787269115448 0.1130213588476181
0.39566531777381897 0.23786066472530365 0.10981015861034393
0.49406808614730835 0.2446560263633728 0.10193746536970139
0.59046566486358643 0.24048486351966858 0.087273299694061279
0.68124741315841675 0.2206730991601944 0.069621726870536804
0.76873719692230225 0.1948186457157135 0.064711250364780426
0.84494519233703613 0.16285991668701172 0.055962983518838882
0.91853612661361694 0.12820117175579071 0.040464751422405243
0.98096984624862671 0.099555552005767822 0.025728592649102211
0.99983036518096924 0.077690646052360535 0.014597260393202305
0.22428390383720398 0.29756811261177063 0.10431972146034241
0.24779230356216431 0.29843014478683472 0.10520728677511215
0.27853214740753174 0.29669094085693359 0.099608540534973145
0.33943656086921692 0.30540189146995544 0.091069258749485016
0.42034628987312317 0.32051911950111389 0.076977960765361786
0.51333045959472656 0.33457884192466736 0.062131963670253754
0.61900758743286133 0.34439730644226074 0.049437444657087326
0.71890246868133545 0.34868466854095459 0.032907910645008087
0.80574721097946167 0.34218218922615051 0.028762174770236015
0.87979233264923096 0.32725280523300171 0.022208584472537041
0.94640994071960449 0.30675977468490601 0.013810954056680202
0.98911762237548828 0.28868982195854187 0.0091037973761558533
0.99946826696395874 0.27629029750823975 0.0057201012969017029
0.22241154313087463 0.38972681760787964 0.065047182142734528
0.24904271960258484 0.38679245114326477 0.067200683057308197
0.28673070669174194 0.38388052582740784 0.063217908143997192
0.34968641400337219 0.39350521564483643 0.054499160498380661
0.42510050535202026 0.40667802095413208 0.036368142813444138
0.5125805139541626 0.42251858115196228 0.016513630747795105
0.61503887176513672 0.43894311785697937 0.012466924265027046
0.71807640790939331 0.45124265551567078 0.0099425371736288071
0.81780105829238892 0.46238377690315247 0.007491646334528923
0.89972400665283203 0.46499669551849365 0.0084351487457752228
0.96154534816741943 0.45419412851333618 0.010651502758264542
0.99622958898544312 0.44031935930252075 0.010101947002112865
0.9997793436050415 0.42860725522041321 0.010114033706486225
0.21883317828178406 0.48086655139923096 0.022700365632772446
0.24800680577754974 0.47679874300956726 0.022140681743621826
0.29077643156051636 0.47345304489135742 0.019985722377896309
0.35299131274223328 0.47926682233810425 0.018000613898038864
0.4220125675201416 0.48766246438026428 0.0086440742015838623
0.50912445783615112 0.50292414426803589 0.0057288971729576588
0.60663515329360962 0.52165132761001587 0.0066084018908441067
0.70760428905487061 0.538116455078125 0.006704278290271759
0.80787563323974609 0.54908812046051025 0.0051104975864291191
0.89454609155654907 0.5613822340965271 0.0053201564587652683
0.96712023019790649 0.57196307182312012 0.0068285474553704262
0.99790966510772705 0.57169032096862793 0.023547707125544548
1 0.56602221727371216 0.035291425883769989
0.22308441996574402 0.56696909666061401 0.0080304462462663651
0.25465947389602661 0.5639689564704895 0.0070095434784889221
0.29690945148468018 0.55706220865249634 0.0052485894411802292
0.35286638140678406 0.55501431226730347 0.0074360119178891182
0.42204800248146057 0.56166160106658936 0.0064016156829893589
0.5049360990524292 0.57830333709716797 0.004728908184915781
0.59677714109420776 0.59612381458282471 0.0054620630107820034
0.69531810283660889 0.615337073802948 0.0054234671406447887
0.79222756624221802 0.63105481863021851 0.0059993071481585503
0.87674790620803833 0.64178293943405151 0.0071263182908296585
0.95272016525268555 0.65283119678497314 0.0042922524735331535
0.99582505226135254 0.66270869970321655 0.01288903970271349
0.9999154806137085 0.67005819082260132 0.073312707245349884
0.23891128599643707 0.64965832233428955 0.0067001939751207829
0.2708415687084198 0.64650410413742065 0.0065754908137023449
0.3133409321308136 0.64206767082214355 0.0048070270568132401
0.36593550443649292 0.63799816370010376 0.005835559219121933
0.42924764752388 0.63830834627151489 0.0068203792907297611
0.50616925954818726 0.65190881490707397 0.0065329456701874733
0.59308910369873047 0.66975051164627075 0.0056300591677427292
0.68536365032196045 0.6872718334197998 0.0075122457928955555
0.77654892206192017 0.70257306098937988 0.0070890686474740505
0.86034518480300903 0.7130768895149231 0.0054217618890106678
0.93690305948257446 0.72314214706420898 0.0013130636652931571
0.98617243766784668 0.73400932550430298 0.0064534805715084076
0.99887245893478394 0.74233287572860718 0.043954122811555862
0.26958450675010681 0.72756540775299072 0.0057916082441806793
0.29508498311042786 0.72551274299621582 0.0063263839110732079
0.33736500144004822 0.72477519512176514 0.0053796656429767609
0.39061498641967773 0.72287887334823608 0.0052516264840960503
0.44611063599586487 0.72005796432495117 0.0066291508264839649
0.51617848873138428 0.72685343027114868 0.0059363571926951408
0.59580034017562866 0.74165469408035278 0.0055527333170175552
0.68140912055969238 0.75410020351409912 0.0084808794781565666
0.76427173614501953 0.76572120189666748 0.0086605744436383247
0.84718674421310425 0.77756083011627197 0.0045006247237324715
0.92341780662536621 0.78909564018249512 0.0011613883543759584
0.97985142469406128 0.79782843589782715 0.0034752341452986002
0.99800491333007812 0.80478197336196899 0.020142799243330956
0.3240409791469574 0.80601584911346436 0.0041940277442336082
0.3440362811088562 0.80304783582687378 0.0038412504363805056
0.38023579120635986 0.80269014835357666 0.0042800754308700562
0.42516368627548218 0.8015141487121582 0.0040648817084729671
0.4780789315700531 0.7973591685295105 0.0042735529132187366
0.53914177417755127 0.80052274465560913 0.0045985053293406963
0.60929751396179199 0.81016761064529419 0.0061930189840495586
0.69123977422714233 0.81895798444747925 0.0088222725316882133
0.7690543532371521 0.82705855369567871 0.0063307816162705421
0.84564346075057983 0.83537036180496216 0.001949250465258956
0.91923254728317261 0.84438347816467285 0.0025437299627810717
0.97587347030639648 0.85196089744567871 0.0065770917572081089
0.99779856204986572 0.85929226875305176 0.033369280397891998
0.40162831544876099 0.88083827495574951 0.013919216580688953
0.41703838109970093 0.87795877456665039 0.01325587835162878
0.4443511962890625 0.87719631195068359 0.0097099002450704575
0.48057353496551514 0.87598800659179688 0.0074706282466650009
0.5285717248916626 0.87353479862213135 0.0045091365464031696
0.58281904458999634 0.87294703722000122 0.0042029735632240772
0.64619737863540649 0.87652277946472168 0.0053575551137328148
0.71754199266433716 0.88166719675064087 0.0082773398607969284
0.78816008567810059 0.88736182451248169 0.010106628760695457
0.85729575157165527 0.89234769344329834 0.014253189787268639
0.92467892169952393 0.89791208505630493 0.02874806709587574
0.98093163967132568 0.9026375412940979 0.052749991416931152
0.99947959184646606 0.90556186437606812 0.12900955975055695
0.51765406131744385 0.94304120540618896 0.20188425481319427
0.52691936492919922 0.94120222330093384 0.18923500180244446
0.54527550935745239 0.94003152847290039 0.17602777481079102
0.57281768321990967 0.9383278489112854 0.16382722556591034
0.60957974195480347 0.93809705972671509 0.15160563588142395
0.65482670068740845 0.9374573826789856 0.1371983140707016
0.7074241042137146 0.93614339828491211 0.13077972829341888
0.76608997583389282 0.93726831674575806 0.14634481072425842
0.82765108346939087 0.93819010257720947 0.17164774239063263
0.88815087080001831 0.93908661603927612 0.20405252277851105
0.94514542818069458 0.94076895713806152 0.24460108578205109
0.9885140061378479 0.94138777256011963 0.27866742014884949
0.99982964992523193 0.94265240430831909 0.32184505462646484
0.226282998919487 0.15450303256511688 0.14554595947265625
0.23336827754974365 0.15334288775920868 0.14562807977199554
0.24525432288646698 0.15038271248340607 0.14284621179103851
0.27409201860427856 0.14481613039970398 0.14185191690921783
0.32299700379371643 0.13243749737739563 0.1438332200050354
0.3952232301235199 0.10698744654655457 0.14772264659404755
0.47715610265731812 0.057649709284305573 0.14883340895175934
0.56875413656234741 0.0089217089116573334 0.14428742229938507
0.65664839744567871 0.0045704562216997147 0.14280913770198822
0.74541729688644409 0.002483622170984745 0.13682754337787628
0.82844084501266479 0.0022461684420704842 0.12554349005222321
0.91286492347717285 0.0021370681934058666 0.11355879902839661
0.98078304529190063 0.00088465074077248573 0.10210120677947998
0.22485169768333435 0.16140154004096985 0.14617499709129333
0.23222292959690094 0.15891723334789276 0.14405067265033722
0.25477588176727295 0.16001513600349426 0.1457417905330658
0.29213395714759827 0.15489861369132996 0.14622882008552551
0.34161466360092163 0.1418544203042984 0.14464457333087921
0.41428375244140625 0.11727661639451981 0.14668834209442139
0.49817061424255371 0.067323349416255951 0.14375424385070801
0.59122574329376221 0.014823375269770622 0.13756731152534485
0.68336552381515503 0.00733210239559412 0.13515982031822205
0.76893514394760132 0.00444768276065588 0.12882451713085175
0.85109984874725342 0.0046081095933914185 0.11769546568393707
0.93175804615020752 0.0045613306574523449 0.1053244024515152
0.98562192916870117 0.0042420630343258381 0.092427000403404236
0.22323104739189148 0.17973540723323822 0.14547182619571686
0.23621630668640137 0.18215981125831604 0.14748059213161469
0.26056370139122009 0.18003006279468536 0.14872349798679352
0.30674269795417786 0.17568649351596832 0.14704021811485291
0.36306148767471313 0.16649074852466583 0.14350058138370514
0.44846120476722717 0.14917050302028656 0.14357902109622955
0.53787130117416382 0.11287454515695572 0.13680963218212128
0.62799155712127686 0.061036862432956696 0.1294836550951004
0.717246413230896 0.025176987051963806 0.12586456537246704
0.80029094219207764 0.010423517785966396 0.11874330043792725
0.8813900351524353 0.0082559175789356232 0.10785268247127533
0.95449292659759521 0.0060350457206368446 0.094815962016582489
0.99216753244400024 0.0061096488498151302 0.079491451382637024
0.22368802130222321 0.23319457471370697 0.14777915179729462
0.23945631086826324 0.23771718144416809 0.15068338811397552
0.27060794830322266 0.23268279433250427 0.14848358929157257
0.32505112886428833 0.23344393074512482 0.14616210758686066
0.39988365769386292 0.23476758599281311 0.14540491998195648
0.49813628196716309 0.23667517304420471 0.14671692252159119
0.59034526348114014 0.22027994692325592 0.13699245452880859
0.67498975992202759 0.18781071901321411 0.12374858558177948
0.75949114561080933 0.15892647206783295 0.11801832914352417
0.83690530061721802 0.1212940588593483 0.11001676321029663
0.91082763671875 0.082467250525951385 0.097368620336055756
0.97517329454421997 0.057220939546823502 0.084065362811088562
0.99851399660110474 0.043283231556415558 0.067932829260826111
0.21863178908824921 0.31175562739372253 0.14786240458488464
