luts/instant_pro/polaroid_669_cold_-.cube
# Created by: G'MIC (https://gmic.eu)
TITLE "polaroid_669_cold_-"
# LUT size
LUT_3D_SIZE 13
# Data domain
DOMAIN_MIN 0.0 0.0 0.0
DOMAIN_MAX 1.0 1.0 1.0
# LUT data points
0 0.12701965868473053 0.15117332339286804
5.1341336074983701e-05 0.13349249958992004 0.15693205595016479
0.0041253035888075829 0.14170880615711212 0.16583563387393951
0.01738210953772068 0.15001443028450012 0.17554271221160889
0.10340700298547745 0.15917468070983887 0.18893389403820038
0.21954146027565002 0.16732388734817505 0.20617794990539551
0.32888871431350708 0.1717458963394165 0.22793525457382202
0.43443334102630615 0.17378006875514984 0.24736857414245605
0.52973103523254395 0.17898030579090118 0.26984253525733948
0.61791157722473145 0.18315170705318451 0.2923646867275238
0.70242297649383545 0.18660217523574829 0.31116613745689392
0.77967768907546997 0.20233297348022461 0.33634626865386963
0.85777038335800171 0.22622288763523102 0.36538013815879822
0 0.16270920634269714 0.17401675879955292
0.00012226478429511189 0.16589100658893585 0.17282328009605408
0.0034762064460664988 0.17117539048194885 0.17872403562068939
0.022918522357940674 0.17758896946907043 0.19129903614521027
0.11996829509735107 0.18338616192340851 0.20394138991832733
0.23755954205989838 0.18808673322200775 0.21826210618019104
0.34677010774612427 0.19202651083469391 0.24045522511005402
0.45286321640014648 0.19433242082595825 0.26024428009986877
0.54624980688095093 0.19969591498374939 0.28193634748458862
0.63271158933639526 0.20725218951702118 0.30557036399841309
0.71520745754241943 0.21664600074291229 0.32582384347915649
0.78923439979553223 0.22841580212116241 0.34853941202163696
0.85957968235015869 0.24526681005954742 0.37214371562004089
0.00023351931304205209 0.20133076608181 0.19692385196685791
0.0021394318901002407 0.20583973824977875 0.19823117554187775
0.0044302698224782944 0.20851671695709229 0.20117032527923584
0.034729782491922379 0.21184225380420685 0.20739224553108215
0.15234506130218506 0.22090037167072296 0.22426728904247284
0.26935908198356628 0.22806483507156372 0.2440270334482193
0.37818419933319092 0.22974465787410736 0.26337441802024841
0.47813504934310913 0.22782135009765625 0.27876743674278259
0.56666898727416992 0.23173575103282928 0.29822120070457458
0.6504635214805603 0.23924030363559723 0.31944915652275085
0.73006647825241089 0.24780730903148651 0.33809038996696472
0.80205351114273071 0.26584413647651672 0.36395233869552612
0.86591523885726929 0.28767326474189758 0.38867905735969543
0.0023519627284258604 0.24707700312137604 0.22672414779663086
0.0039001763798296452 0.25230804085731506 0.23189738392829895
0.0033034828957170248 0.25449082255363464 0.2331739068031311
0.061047632247209549 0.2572295069694519 0.23504152894020081
0.1902603954076767 0.26584404706954956 0.25125524401664734
0.30326071381568909 0.27361336350440979 0.2707551121711731
0.41593232750892639 0.27767392992973328 0.28993600606918335
0.51523351669311523 0.27909579873085022 0.30736628174781799
0.59667140245437622 0.28000366687774658 0.32379591464996338
0.67277294397354126 0.28687199950218201 0.3409077525138855
0.74399501085281372 0.29712358117103577 0.35858955979347229
0.81077927350997925 0.32056179642677307 0.38505518436431885
0.87540322542190552 0.34623652696609497 0.41123101115226746
0.0046132407151162624 0.30348306894302368 0.26389136910438538
0.0063837389461696148 0.30437466502189636 0.26570525765419006
0.009869549423456192 0.30470386147499084 0.26697352528572083
0.1015821099281311 0.3096032440662384 0.2689824104309082
0.22652959823608398 0.31805580854415894 0.27658328413963318
0.33664041757583618 0.32517322897911072 0.28877383470535278
0.43978413939476013 0.32774785161018372 0.3072178065776825
0.53351873159408569 0.33264040946960449 0.32918012142181396
0.62135177850723267 0.3392101526260376 0.35108846426010132
0.6935153603553772 0.35293000936508179 0.37204554677009583
0.75641876459121704 0.37073129415512085 0.39302638173103333
0.81801670789718628 0.38746964931488037 0.41382679343223572
0.87897109985351562 0.40886718034744263 0.43748599290847778
0.0069294949062168598 0.36024612188339233 0.29789862036705017
0.0073926141485571861 0.35869458317756653 0.29817530512809753
0.030326349660754204 0.35659825801849365 0.29928821325302124
0.14133782684803009 0.36112689971923828 0.30191996693611145
0.25041478872299194 0.36708113551139832 0.30385574698448181
0.35575178265571594 0.3759516179561615 0.30803623795509338
0.44487679004669189 0.38091987371444702 0.32076844573020935
0.53356635570526123 0.38515225052833557 0.34095457196235657
0.62514311075210571 0.3954680860042572 0.36447206139564514
0.70161068439483643 0.41901496052742004 0.3952176570892334
0.76608055830001831 0.44372707605361938 0.42351821064949036
0.82629084587097168 0.46266108751296997 0.44566339254379272
0.87487113475799561 0.48320862650871277 0.47128492593765259
0.021992282941937447 0.41380596160888672 0.32688385248184204
0.047764439135789871 0.41507649421691895 0.32946550846099854
0.11062625050544739 0.4141899049282074 0.33057624101638794
0.18738751113414764 0.41238012909889221 0.33118221163749695
0.27110910415649414 0.41633445024490356 0.33106666803359985
0.36106005311012268 0.42568814754486084 0.33496391773223877
0.44781890511512756 0.43287301063537598 0.33969756960868835
0.52685892581939697 0.43519681692123413 0.34517708420753479
0.61011767387390137 0.44408616423606873 0.36193934082984924
0.68737316131591797 0.47247010469436646 0.39577561616897583
0.76079463958740234 0.50455546379089355 0.43284183740615845
0.82911449670791626 0.53733611106872559 0.47137469053268433
0.87362056970596313 0.57072871923446655 0.50871706008911133
0.11558166146278381 0.47544378042221069 0.35616162419319153
0.14366497099399567 0.47522252798080444 0.35787567496299744
0.18408818542957306 0.47157487273216248 0.35826972126960754
0.22930732369422913 0.46631795167922974 0.35715019702911377
0.29117727279663086 0.46715062856674194 0.35622379183769226
0.37029162049293518 0.47621700167655945 0.36007681488990784
0.45106980204582214 0.48470497131347656 0.36317327618598938
0.52675837278366089 0.48894348740577698 0.36315411329269409
0.59834134578704834 0.49885916709899902 0.36572045087814331
0.67129319906234741 0.5208745002746582 0.38778072595596313
0.74400615692138672 0.55226778984069824 0.42358487844467163
0.81156909465789795 0.59119731187820435 0.46925869584083557
0.86479479074478149 0.6410256028175354 0.52562302350997925
0.1924329549074173 0.54252362251281738 0.38266989588737488
0.21348768472671509 0.54111027717590332 0.38479903340339661
0.24206835031509399 0.53786247968673706 0.38532111048698425
0.27218800783157349 0.53137034177780151 0.38321807980537415
0.31714674830436707 0.52746891975402832 0.38067334890365601
0.38253891468048096 0.53387445211410522 0.38266098499298096
0.45241329073905945 0.54326075315475464 0.38513576984405518
0.52569085359573364 0.55757337808609009 0.38884958624839783
0.59612905979156494 0.57296490669250488 0.39285764098167419
0.66240209341049194 0.58082610368728638 0.39543846249580383
0.72703158855438232 0.60091638565063477 0.41282442212104797
0.79359626770019531 0.64089059829711914 0.4574369490146637
0.84885072708129883 0.68969917297363281 0.51801049709320068
0.24486196041107178 0.61687326431274414 0.41011050343513489
0.26175960898399353 0.61969524621963501 0.41421625018119812
0.28549644351005554 0.6196136474609375 0.41623374819755554
0.31490907073020935 0.61161983013153076 0.41304656863212585
0.34690761566162109 0.60022926330566406 0.40770387649536133
0.4014948308467865 0.60565412044525146 0.40867459774017334
0.46374243497848511 0.61753779649734497 0.41218093037605286
0.52680474519729614 0.6327480673789978 0.41627460718154907
0.59300559759140015 0.64752787351608276 0.41992712020874023
0.65563642978668213 0.65806347131729126 0.42264518141746521
0.7165800929069519 0.67194670438766479 0.42833343148231506
0.77753853797912598 0.69379067420959473 0.4473615288734436
0.83454000949859619 0.73903858661651611 0.50406444072723389
0.29683795571327209 0.70937389135360718 0.44959107041358948
0.31046772003173828 0.70945632457733154 0.45205992460250854
0.32707542181015015 0.70621961355209351 0.45147424936294556
0.35085460543632507 0.69955557584762573 0.44588372111320496
0.3818608820438385 0.69001865386962891 0.44054660201072693
0.42330628633499146 0.68948423862457275 0.43861675262451172
0.47946023941040039 0.70088374614715576 0.44398754835128784
0.53494256734848022 0.71336597204208374 0.44656014442443848
0.59154993295669556 0.72472769021987915 0.44777202606201172
0.65195918083190918 0.73845726251602173 0.45351681113243103
0.71214985847473145 0.7565234899520874 0.46181043982505798
0.76971834897994995 0.77156215906143188 0.47094893455505371
0.82585436105728149 0.79584687948226929 0.49719423055648804
0.35087448358535767 0.80771219730377197 0.49699679017066956
0.36155852675437927 0.80751001834869385 0.4995710551738739
0.37676697969436646 0.80331319570541382 0.49779397249221802
0.39614301919937134 0.79813194274902344 0.49225553870201111
0.42379477620124817 0.79368388652801514 0.48999902606010437
0.45787939429283142 0.79290103912353516 0.48763462901115417
0.50368332862854004 0.79931455850601196 0.49145835638046265
0.55514073371887207 0.80938291549682617 0.4963228702545166
0.60737353563308716 0.82024389505386353 0.50207734107971191
0.66398292779922485 0.83437085151672363 0.51524633169174194
0.71902132034301758 0.85217481851577759 0.52319067716598511
0.77470171451568604 0.86733114719390869 0.53761440515518188
0.82479166984558105 0.87807345390319824 0.55115097761154175
0.45149901509284973 0.91034018993377686 0.59195297956466675
0.45725798606872559 0.91007274389266968 0.59247267246246338
0.46803191304206848 0.90660572052001953 0.59123390913009644
0.48451089859008789 0.90343010425567627 0.59021401405334473
0.50315046310424805 0.905792236328125 0.58750158548355103
0.52786749601364136 0.90393441915512085 0.58514487743377686
0.56523311138153076 0.90512651205062866 0.59166401624679565
0.60864144563674927 0.91142302751541138 0.59851020574569702
0.65304696559906006 0.91877174377441406 0.60437697172164917
0.70047968626022339 0.93108594417572021 0.61976456642150879
0.75245672464370728 0.93760174512863159 0.63844084739685059
0.80189990997314453 0.94674426317214966 0.65821897983551025
0.84744656085968018 0.95320987701416016 0.67535388469696045
0 0.13299311697483063 0.18111208081245422
0.0011282827472314239 0.13906009495258331 0.18806302547454834
0.0051937028765678406 0.1496528834104538 0.19959245622158051
0.01422882080078125 0.15759627521038055 0.20715491473674774
0.097756616771221161 0.16743594408035278 0.22192789614200592
0.22212110459804535 0.17710955440998077 0.24386963248252869
0.33298704028129578 0.18059638142585754 0.26401430368423462
0.44163799285888672 0.18177317082881927 0.28253927826881409
0.53774470090866089 0.18523730337619781 0.30141326785087585
0.6237952709197998 0.1879008412361145 0.31984671950340271
0.70517414808273315 0.19229282438755035 0.33664035797119141
0.780842125415802 0.20570173859596252 0.35526323318481445
0.85484528541564941 0.22798579931259155 0.37946969270706177
0.00010087256669066846 0.16405241191387177 0.19958847761154175
0.0022909725084900856 0.17273741960525513 0.20973449945449829
0.0047121383249759674 0.17884433269500732 0.21840460598468781
0.018859324976801872 0.18243998289108276 0.22333475947380066
0.12133322656154633 0.18887695670127869 0.23595373332500458
0.24016617238521576 0.19583678245544434 0.25522041320800781
0.35036185383796692 0.20001685619354248 0.27608445286750793
0.45623749494552612 0.20210683345794678 0.2940925657749176
0.54873567819595337 0.20540478825569153 0.30855563282966614
0.63372468948364258 0.20970906317234039 0.32655653357505798
0.71340590715408325 0.21854279935359955 0.34631249308586121
0.78957760334014893 0.2293659895658493 0.36570650339126587
0.85952001810073853 0.24997751414775848 0.38811555504798889
0.0013864255743101239 0.20546342432498932 0.22552932798862457
0.0052237566560506821 0.21213595569133759 0.23320069909095764
0.0088290050625801086 0.21610717475414276 0.23818980157375336
0.035361062735319138 0.21932783722877502 0.24213892221450806
0.15630413591861725 0.22710809111595154 0.25811389088630676
0.27617114782333374 0.23371084034442902 0.27808225154876709
0.38315004110336304 0.23509597778320312 0.29669183492660522
0.48022115230560303 0.2357637882232666 0.31143894791603088
0.56703341007232666 0.23468595743179321 0.32170715928077698
0.64772576093673706 0.23959507048130035 0.33766326308250427
0.72586339712142944 0.25250741839408875 0.3597244918346405
0.80112367868423462 0.26956260204315186 0.38340705633163452
0.86452013254165649 0.29416701197624207 0.40694922208786011
0.0022844800259917974 0.25474080443382263 0.25713500380516052
0.0047398586757481098 0.25826048851013184 0.26159164309501648
0.0072052301838994026 0.25935095548629761 0.2629152238368988
0.064216062426567078 0.26218664646148682 0.26461857557296753
0.20166757702827454 0.27193757891654968 0.282011479139328
0.31635981798171997 0.27848803997039795 0.30267387628555298
0.42202430963516235 0.28235277533531189 0.32086631655693054
0.51680231094360352 0.28351360559463501 0.33480462431907654
0.59655529260635376 0.28687846660614014 0.34802144765853882
0.66882544755935669 0.29399269819259644 0.36178922653198242
0.74277472496032715 0.30469569563865662 0.38156190514564514
0.8092421293258667 0.32156994938850403 0.40413510799407959
0.8708764910697937 0.34802988171577454 0.42874020338058472
0.0044903326779603958 0.30910784006118774 0.28993576765060425
0.0075361365452408791 0.31091243028640747 0.29235103726387024
0.013124757446348667 0.30969640612602234 0.29283645749092102
0.1119769960641861 0.31472256779670715 0.29638814926147461
0.23963607847690582 0.32178065180778503 0.30344364047050476
0.34275257587432861 0.32557839155197144 0.31354701519012451
0.44164782762527466 0.32970970869064331 0.33152592182159424
0.53563058376312256 0.33559912443161011 0.35290861129760742
0.62081390619277954 0.3463587760925293 0.37387672066688538
0.69285792112350464 0.35673394799232483 0.3907034695148468
0.75686991214752197 0.37102952599525452 0.40984061360359192
0.81658369302749634 0.38504573702812195 0.42732095718383789
0.87699168920516968 0.40909481048583984 0.45011961460113525
0.0054773818701505661 0.3670164942741394 0.32138815522193909
0.012512566521763802 0.36730048060417175 0.32222524285316467
0.051327768713235855 0.36542010307312012 0.32285815477371216
0.15538287162780762 0.36634576320648193 0.32615259289741516
0.26239535212516785 0.3705633282661438 0.32943511009216309
0.36003813147544861 0.37582552433013916 0.33083638548851013
0.44748815894126892 0.38139757513999939 0.34228113293647766
0.5372273325920105 0.38855522871017456 0.36225047707557678
0.62545740604400635 0.40134960412979126 0.38550713658332825
0.70510274171829224 0.42275276780128479 0.41540494561195374
0.76715028285980225 0.4442506730556488 0.44029748439788818
0.82439309358596802 0.4592587947845459 0.45776534080505371
0.87782633304595947 0.4840971827507019 0.48163339495658875
0.035134751349687576 0.42346584796905518 0.34769028425216675
0.076692216098308563 0.4263092577457428 0.35120561718940735
0.13497456908226013 0.42280998826026917 0.35152179002761841
0.19975438714027405 0.41790285706520081 0.35191327333450317
0.28178280591964722 0.42081567645072937 0.35346627235412598
0.36883160471916199 0.42938089370727539 0.35599455237388611
0.45270779728889465 0.43552795052528381 0.36154186725616455
0.5308229923248291 0.43869376182556152 0.36455252766609192
0.61253833770751953 0.44935008883476257 0.38036283850669861
0.69212478399276733 0.47686398029327393 0.41593468189239502
0.76353240013122559 0.50807136297225952 0.45271554589271545
0.82471346855163574 0.53836727142333984 0.48715305328369141
0.87484335899353027 0.5718727707862854 0.52015554904937744
0.1300884336233139 0.48439016938209534 0.37482169270515442
0.15940822660923004 0.4873509407043457 0.37759596109390259
0.19712981581687927 0.48422062397003174 0.37831863760948181
0.24373191595077515 0.4767005443572998 0.37762737274169922
0.30110281705856323 0.47561508417129517 0.37702855467796326
0.37588673830032349 0.48226600885391235 0.37846624851226807
0.4545498788356781 0.48935738205909729 0.38149508833885193
0.52974772453308105 0.49468296766281128 0.38011479377746582
0.60100585222244263 0.50480598211288452 0.3830111026763916
0.67438596487045288 0.52526146173477173 0.40483096241950989
0.74509590864181519 0.55681979656219482 0.44180333614349365
0.80783402919769287 0.59807842969894409 0.49010166525840759
0.86402350664138794 0.64627456665039062 0.54283010959625244
0.20089897513389587 0.55055832862854004 0.40100312232971191
0.2208661288022995 0.55115455389022827 0.4030667245388031
0.25001344084739685 0.54936903715133667 0.40447518229484558
0.28531470894813538 0.54221212863922119 0.40180444717407227
0.32699769735336304 0.53462445735931396 0.39779588580131531
0.3894646167755127 0.54287934303283691 0.3997853696346283
0.4586537778377533 0.55301153659820557 0.40143308043479919
0.53042364120483398 0.5629151463508606 0.40280991792678833
0.59881824254989624 0.57573866844177246 0.40691044926643372
0.6653444766998291 0.5839914083480835 0.40856531262397766
0.72776466608047485 0.60731679201126099 0.43120056390762329
0.79008668661117554 0.64891713857650757 0.47903844714164734
0.84900885820388794 0.69480550289154053 0.53540945053100586
0.25194934010505676 0.62840849161148071 0.42773610353469849
0.26658892631530762 0.62771207094192505 0.4282984733581543
0.29009965062141418 0.6254580020904541 0.42828726768493652
0.32171013951301575 0.6180681586265564 0.4261874258518219
0.35485514998435974 0.60904204845428467 0.42212888598442078
0.40503636002540588 0.61366552114486694 0.42309966683387756
0.46713048219680786 0.62303280830383301 0.42489778995513916
0.53045773506164551 0.63513892889022827 0.42754432559013367
0.59617322683334351 0.64996933937072754 0.43186423182487488
0.65890961885452271 0.66154402494430542 0.43575996160507202
0.7187877893447876 0.67707145214080811 0.44518446922302246
0.77826386690139771 0.69920599460601807 0.46546390652656555
0.83553308248519897 0.74143123626708984 0.51842856407165527
0.30209836363792419 0.71588551998138428 0.4625297486782074
0.31341180205345154 0.71385973691940308 0.46102514863014221
0.32816743850708008 0.70689958333969116 0.45585578680038452
0.35496786236763 0.70022273063659668 0.45353242754936218
0.38586542010307312 0.69531667232513428 0.45080822706222534
0.42793846130371094 0.69657939672470093 0.45255377888679504
0.48276078701019287 0.70699858665466309 0.45669245719909668
0.53870034217834473 0.71765893697738647 0.45978876948356628
0.59436178207397461 0.72822070121765137 0.46009913086891174
0.65445894002914429 0.74354583024978638 0.46821475028991699
0.71529275178909302 0.76326364278793335 0.48260676860809326
0.77160114049911499 0.77675116062164307 0.48712673783302307
0.82617044448852539 0.79760158061981201 0.50944763422012329
0.35412716865539551 0.81193035840988159 0.50806397199630737
0.36261224746704102 0.81039208173751831 0.50752288103103638
0.37822210788726807 0.80800080299377441 0.50557833909988403
0.40014386177062988 0.80113840103149414 0.50295603275299072
0.42434081435203552 0.79864263534545898 0.49999964237213135
0.45882120728492737 0.79760187864303589 0.49803078174591064
0.50335782766342163 0.8011900782585144 0.50023126602172852
0.55812793970108032 0.81185507774353027 0.50822454690933228
0.60934120416641235 0.8237532377243042 0.51178544759750366
0.66382914781570435 0.83759009838104248 0.52362757921218872
0.71953785419464111 0.85476940870285034 0.53485119342803955
0.7741081714630127 0.86849820613861084 0.54590815305709839
0.8235170841217041 0.87863349914550781 0.56029492616653442
0.44959807395935059 0.91147112846374512 0.5966646671295166
0.45857760310173035 0.91079646348953247 0.59996587038040161
0.46923014521598816 0.91066128015518188 0.59758687019348145
0.48412987589836121 0.90743774175643921 0.59560620784759521
0.50451827049255371 0.90776330232620239 0.59580421447753906
0.52953648567199707 0.90719354152679443 0.59414780139923096
0.56424051523208618 0.90405333042144775 0.5974610447883606
0.60963815450668335 0.91269707679748535 0.60698622465133667
0.65371227264404297 0.92147225141525269 0.61358475685119629
0.70209592580795288 0.93032264709472656 0.6282886266708374
0.75036275386810303 0.93619751930236816 0.64174950122833252
0.80073875188827515 0.94740951061248779 0.66094869375228882
0.84610891342163086 0.95243686437606812 0.67894816398620605
0 0.14144487679004669 0.22248511016368866
0.0003201653016731143 0.14680346846580505 0.23021166026592255
0.0035189162008464336 0.15898570418357849 0.24373264610767365
0.0054983398877084255 0.16899633407592773 0.25326436758041382
0.086296007037162781 0.18113875389099121 0.269735187292099
0.22200129926204681 0.1907336562871933 0.29059284925460815
0.33781978487968445 0.19090655446052551 0.30562236905097961
0.44684293866157532 0.18789525330066681 0.31875070929527283
0.54358375072479248 0.18908162415027618 0.33496224880218506
0.63041138648986816 0.19314536452293396 0.35389590263366699
0.71007299423217773 0.19925734400749207 0.37169259786605835
0.78499472141265869 0.21190811693668365 0.38795137405395508
0.85411947965621948 0.23310735821723938 0.40703824162483215
3.9493338590546045e-06 0.17428605258464813 0.24528113007545471
0.0016666636802256107 0.18025112152099609 0.25464111566543579
0.0042587877251207829 0.18664669990539551 0.26425451040267944
0.012424738146364689 0.19252322614192963 0.26935502886772156
0.11670638620853424 0.19813428819179535 0.27958697080612183
0.24217385053634644 0.20427381992340088 0.29765993356704712
0.35668301582336426 0.20735383033752441 0.31450569629669189
0.45988425612449646 0.20902179181575775 0.32983803749084473
0.55225878953933716 0.21066693961620331 0.34341675043106079
0.63792377710342407 0.21381103992462158 0.35995304584503174
0.71614307165145874 0.22405724227428436 0.37866225838661194
0.79134798049926758 0.23460929095745087 0.39562228322029114
0.85951000452041626 0.25642803311347961 0.415580153465271
0.00042048434261232615 0.21617905795574188 0.27089807391166687
0.0042908163741230965 0.2219473123550415 0.28010952472686768
0.0064789718016982079 0.22496479749679565 0.28697049617767334
0.031702782958745956 0.22709000110626221 0.29094460606575012
0.15897180140018463 0.23217174410820007 0.30179500579833984
0.27919450402259827 0.23830702900886536 0.31772682070732117
0.38817226886749268 0.24017094075679779 0.33287635445594788
0.48148626089096069 0.24215608835220337 0.3473818302154541
0.56900662183761597 0.24333012104034424 0.36021566390991211
0.6494864821434021 0.24687623977661133 0.37293154001235962
0.72456520795822144 0.25736314058303833 0.388824462890625
0.79938894510269165 0.2702060341835022 0.40646666288375854
0.86579066514968872 0.29642927646636963 0.42879793047904968
0.0014658011496067047 0.26439046859741211 0.29674941301345825
0.0054250531829893589 0.27017548680305481 0.30697950720787048
0.0093592479825019836 0.27089372277259827 0.31159719824790955
0.072645075619220734 0.27147433161735535 0.31360906362533569
0.20976965129375458 0.27946004271507263 0.32798656821250916
0.3283466100692749 0.28570005297660828 0.344382643699646
0.42901113629341125 0.28896927833557129 0.35947975516319275
0.51827603578567505 0.29090958833694458 0.37310007214546204
0.59807151556015015 0.29556155204772949 0.38462722301483154
0.66946125030517578 0.30186665058135986 0.39467728137969971
0.74163025617599487 0.31036350131034851 0.40892869234085083
0.80897802114486694 0.32247638702392578 0.42621776461601257
0.87090682983398438 0.34912502765655518 0.4487011730670929
0.0016327801859006286 0.32209870219230652 0.32888269424438477
0.0045690350234508514 0.32471674680709839 0.33496177196502686
0.022729732096195221 0.32327139377593994 0.33817258477210999
0.12367245554924011 0.32575219869613647 0.34144121408462524
0.2523837685585022 0.33103081583976746 0.34939676523208618
0.35782173275947571 0.33449763059616089 0.35997170209884644
0.45345810055732727 0.33917766809463501 0.37483960390090942
0.53988248109817505 0.34457027912139893 0.38958361744880676
