luts/instant_pro/polaroid_690_cold_--.cube
# Created by: G'MIC (https://gmic.eu)
TITLE "polaroid_690_cold_--"
# LUT size
LUT_3D_SIZE 7
# Data domain
DOMAIN_MIN 0.0 0.0 0.0
DOMAIN_MAX 1.0 1.0 1.0
# LUT data points
0.0033389371819794178 0.038737770169973373 0.029104912653565407
0.13544623553752899 0.040917772799730301 0.032898921519517899
0.35757040977478027 0.0059759700670838356 0.025337293744087219
0.54941970109939575 0.0024166181683540344 0.021044936031103134
0.70036262273788452 0.00063021789537742734 0.020014997571706772
0.83936095237731934 0 0.011037429794669151
0.97199314832687378 0 0.0071130492724478245
0.00094863295089453459 0.20147418975830078 0.023750754073262215
0.1171305775642395 0.20964278280735016 0.012205101549625397
0.40250203013420105 0.17982296645641327 0.016911286860704422
0.59208220243453979 0.085756696760654449 0.018816674128174782
0.73772460222244263 0.014152227900922298 0.016341250389814377
0.87105345726013184 0.0025487863458693027 0.011589185334742069
0.98461222648620605 7.1955662861000746e-05 0.0062033110298216343
0.0020907833240926266 0.37263137102127075 0.020753972232341766
0.04330914095044136 0.37454205751419067 0.0076873479411005974
0.3807123601436615 0.38809150457382202 0.0071159959770739079
0.61021649837493896 0.37829670310020447 0.01359246950596571
0.78709119558334351 0.36030465364456177 0.042110323905944824
0.90876156091690063 0.31565511226654053 0.029651252552866936
0.99456572532653809 0.29189389944076538 0.010632234625518322
0.0023906633723527193 0.51616692543029785 0.045020788908004761
0.019890310242772102 0.51690572500228882 0.027497503906488419
0.3086819052696228 0.52865982055664062 0.010596555657684803
0.54670214653015137 0.55923455953598022 0.011238801293075085
0.74669843912124634 0.57962632179260254 0.011521732434630394
0.90560925006866455 0.60137772560119629 0.049933638423681259
0.99203550815582275 0.60015320777893066 0.12691192328929901
0.0028578515630215406 0.66513937711715698 0.083361260592937469
0.027936538681387901 0.66718083620071411 0.058919269591569901
0.29373356699943542 0.66327226161956787 0.024178149178624153
0.50422942638397217 0.6854240894317627 0.011925521306693554
0.69997137784957886 0.70846688747406006 0.013308551162481308
0.87128961086273193 0.72457975149154663 0.011410552076995373
0.99250948429107666 0.73480165004730225 0.095329463481903076
0.18567618727684021 0.79863846302032471 0.14859777688980103
0.26996883749961853 0.79618734121322632 0.13305196166038513
0.40494224429130554 0.7903437614440918 0.079736463725566864
0.55389082431793213 0.79567617177963257 0.048783320933580399
0.7133406400680542 0.80683159828186035 0.021532785147428513
0.86585277318954468 0.81734335422515869 0.0074166390113532543
0.98913460969924927 0.8303946852684021 0.024156771600246429
0.44496878981590271 0.92796963453292847 0.2802136242389679
0.47996661067008972 0.92806380987167358 0.27275565266609192
0.54956018924713135 0.92737340927124023 0.25308555364608765
0.64906740188598633 0.9262729287147522 0.22329080104827881
0.75819700956344604 0.93425941467285156 0.19756166636943817
0.88153517246246338 0.94290447235107422 0.13964322209358215
0.99071097373962402 0.95502662658691406 0.030020575970411301
0.0016463635256513953 0.056835759431123734 0.20694455504417419
0.10520053654909134 0.055075984448194504 0.21959565579891205
0.3487095832824707 0.027202950790524483 0.18777622282505035
0.53268349170684814 0.0042000864632427692 0.18004173040390015
0.67701709270477295 0.00054639927111566067 0.15811212360858917
0.81640607118606567 0.00011830049334093928 0.14300970733165741
0.9615558385848999 0 0.11704767495393753
0.005148270633071661 0.20849481225013733 0.2206256240606308
0.12441167235374451 0.21853795647621155 0.23110046982765198
0.38354653120040894 0.19268566370010376 0.22139091789722443
0.56442081928253174 0.12320176512002945 0.20318195223808289
0.70969349145889282 0.033513717353343964 0.18198436498641968
0.84984958171844482 0.0046307132579386234 0.16182233393192291
0.97947698831558228 0.00070443248841911554 0.14066164195537567
0.0063177971169352531 0.38595998287200928 0.24145445227622986
0.12382619827985764 0.38850119709968567 0.24267086386680603
0.38062351942062378 0.39519798755645752 0.22438831627368927
0.60346782207489014 0.39329949021339417 0.24558790028095245
0.76019078493118286 0.36434292793273926 0.24414683878421783
0.88559919595718384 0.3076741099357605 0.2198459804058075
0.98743695020675659 0.28441855311393738 0.18459844589233398
0.0070321625098586082 0.53713667392730713 0.25862270593643188
0.10032349824905396 0.53142231702804565 0.24283802509307861
0.33540242910385132 0.54213058948516846 0.22126251459121704
0.55051338672637939 0.56166189908981323 0.20530237257480621
0.74234706163406372 0.58471131324768066 0.21852990984916687
0.89999949932098389 0.60313791036605835 0.2635858952999115
0.99212181568145752 0.59022492170333862 0.27120745182037354
0.01105213537812233 0.6790880560874939 0.25033041834831238
0.093216046690940857 0.6775168776512146 0.23910373449325562
0.31889009475708008 0.67132806777954102 0.22226281464099884
0.51604640483856201 0.68782025575637817 0.19842544198036194
0.70398461818695068 0.71013861894607544 0.18228927254676819
0.87120026350021362 0.72463977336883545 0.2067561149597168
0.99234330654144287 0.73396849632263184 0.27293789386749268
0.19724099338054657 0.80235868692398071 0.26533246040344238
0.28312233090400696 0.7993391752243042 0.25818541646003723
0.41237074136734009 0.7956201434135437 0.23676818609237671
0.55968266725540161 0.79882514476776123 0.21818616986274719
0.71386396884918213 0.81247460842132568 0.2068769633769989
0.85895264148712158 0.82084137201309204 0.18824681639671326
0.98534512519836426 0.83088821172714233 0.22152815759181976
0.43167668581008911 0.92880105972290039 0.34420076012611389
0.46543687582015991 0.92994701862335205 0.34354919195175171
0.54259014129638672 0.92709648609161377 0.32337638735771179
0.63820332288742065 0.92441827058792114 0.29738500714302063
0.75458687543869019 0.93451118469238281 0.28083193302154541
0.87159973382949829 0.94079124927520752 0.25118008255958557
0.98477780818939209 0.95200556516647339 0.19985562562942505
0.00069873285247012973 0.086403205990791321 0.42629015445709229
0.017329346388578415 0.085911452770233154 0.45018100738525391
0.35600447654724121 0.061134863644838333 0.46116301417350769
0.53625929355621338 0.061690684407949448 0.40007975697517395
0.66732901334762573 0.015093679539859295 0.36225616931915283
0.79985743761062622 0.0053124222904443741 0.33921608328819275
0.93719470500946045 3.7339155824156478e-05 0.30543789267539978
0.0027050990611314774 0.21604977548122406 0.4263547956943512
0.083963371813297272 0.22803972661495209 0.44690981507301331
0.37257826328277588 0.23742969334125519 0.46225479245185852
0.54234069585800171 0.21390634775161743 0.41667288541793823
0.67588174343109131 0.14431382715702057 0.38118022680282593
0.80508244037628174 0.019815737381577492 0.34622466564178467
0.95373272895812988 0.0018649980193004012 0.30429905652999878
0.0049452390521764755 0.3912358283996582 0.44953024387359619
0.1838478147983551 0.40014272928237915 0.45771527290344238
0.40209314227104187 0.41161409020423889 0.4650021493434906
0.57023173570632935 0.38349652290344238 0.45025798678398132
0.70925045013427734 0.33364963531494141 0.41289779543876648
0.84625482559204102 0.26781517267227173 0.37471961975097656
0.97931647300720215 0.20450693368911743 0.3370811939239502
0.025146275758743286 0.56123471260070801 0.45698541402816772
0.19667774438858032 0.56369954347610474 0.45475900173187256
0.3762810230255127 0.56399810314178467 0.44423967599868774
0.56108498573303223 0.56928068399429321 0.4457247257232666
0.73698800802230835 0.58918190002441406 0.44991415739059448
0.88335627317428589 0.58427655696868896 0.44858241081237793
0.99088853597640991 0.56090497970581055 0.413522869348526
0.010634687729179859 0.70473074913024902 0.44126352667808533
0.16721238195896149 0.7032616138458252 0.43617919087409973
0.34960225224494934 0.69467943906784058 0.41821575164794922
0.52324759960174561 0.69459044933319092 0.39842787384986877
0.70334440469741821 0.71044009923934937 0.40563642978668213
0.86735206842422485 0.72509306669235229 0.42479106783866882
0.98585617542266846 0.7359769344329834 0.46082466840744019
0.19154728949069977 0.81183665990829468 0.42857763171195984
0.27013179659843445 0.80762642621994019 0.42082452774047852
0.40308398008346558 0.80432295799255371 0.40120166540145874
0.54714620113372803 0.80105310678482056 0.37906882166862488
0.70244532823562622 0.81030535697937012 0.37694418430328369
0.85700547695159912 0.82523506879806519 0.38820815086364746
0.98130464553833008 0.83185607194900513 0.40378627181053162
0.39964336156845093 0.93256717920303345 0.46458840370178223
0.43761396408081055 0.92944318056106567 0.45776063203811646
0.5152549147605896 0.92967891693115234 0.44342848658561707
0.62116044759750366 0.92542439699172974 0.41958734393119812
0.73731428384780884 0.93031424283981323 0.40437084436416626
0.86356598138809204 0.94213521480560303 0.39103823900222778
0.97744178771972656 0.95384246110916138 0.37208148837089539
0.0013169681187719107 0.12431402504444122 0.60558336973190308
0.0044068880379199982 0.12693957984447479 0.62424618005752563
0.31320869922637939 0.12883782386779785 0.65620797872543335
0.58458995819091797 0.11831627786159515 0.66334229707717896
0.70498394966125488 0.11927903443574905 0.5952264666557312
0.80908823013305664 0.07776312530040741 0.54379749298095703
0.94039952754974365 0.0045281951315701008 0.52530568838119507
0.0066185146570205688 0.24593034386634827 0.60535484552383423
0.055588651448488235 0.24424773454666138 0.62220960855484009
0.36578857898712158 0.25866168737411499 0.65233111381530762
0.58907055854797363 0.26602452993392944 0.66590774059295654
0.70297753810882568 0.2459816038608551 0.60345280170440674
0.81268560886383057 0.1827671080827713 0.55290728807449341
0.94425147771835327 0.021703504025936127 0.52616262435913086
0.0051709194667637348 0.36949208378791809 0.59255927801132202
0.16854332387447357 0.38590750098228455 0.60935419797897339
0.38555255532264709 0.40680012106895447 0.63922023773193359
0.5828060507774353 0.4301837682723999 0.66545259952545166
0.70811194181442261 0.38440221548080444 0.60829836130142212
0.82459640502929688 0.30959737300872803 0.55076432228088379
0.95301121473312378 0.15000176429748535 0.50248962640762329
0.061152752488851547 0.55924731492996216 0.61832356452941895
0.22028884291648865 0.56724631786346436 0.62517374753952026
0.39192408323287964 0.57956963777542114 0.64075934886932373
0.56923848390579224 0.5979343056678772 0.65224212408065796
0.71940785646438599 0.56348437070846558 0.62128937244415283
0.84813517332077026 0.49688085913658142 0.56780993938446045
0.97531712055206299 0.43254497647285461 0.51247388124465942
0.1017184853553772 0.72630876302719116 0.63134109973907471
0.23532496392726898 0.72773236036300659 0.6315808892250061
0.38306018710136414 0.72391623258590698 0.62523055076599121
0.53885197639465332 0.71518301963806152 0.60569506883621216
0.70773625373840332 0.72140926122665405 0.61184191703796387
0.8653256893157959 0.73297244310379028 0.63201272487640381
0.98526322841644287 0.72410339117050171 0.63633090257644653
0.18491728603839874 0.82560813426971436 0.60862511396408081
0.27122873067855835 0.82478529214859009 0.60582011938095093
0.40728247165679932 0.81902742385864258 0.59298914670944214
0.53433966636657715 0.80923557281494141 0.56498342752456665
0.68846935033798218 0.81138503551483154 0.55480778217315674
0.84732860326766968 0.82640236616134644 0.575031578540802
0.98142516613006592 0.8367687463760376 0.59596514701843262
0.36250931024551392 0.93948483467102051 0.62509477138519287
0.40664511919021606 0.93690210580825806 0.62080448865890503
0.48552379012107849 0.93235564231872559 0.60917204618453979
0.59129035472869873 0.9341728687286377 0.58722734451293945
0.71561890840530396 0.93130159378051758 0.55215859413146973
0.8462451696395874 0.94108635187149048 0.55767607688903809
0.97395652532577515 0.95331496000289917 0.55495369434356689
0.0032169865444302559 0.16219490766525269 0.77095311880111694
0.0085303066298365593 0.16269630193710327 0.78963297605514526
0.32997089624404907 0.169652059674263 0.81191825866699219
0.59563291072845459 0.18530572950839996 0.83932721614837646
0.7663535475730896 0.1959988921880722 0.8283504843711853
0.86289185285568237 0.18096140027046204 0.77238190174102783
0.95646882057189941 0.17054553329944611 0.72732579708099365
0.0084937596693634987 0.26762175559997559 0.77606499195098877
0.078776277601718903 0.26298165321350098 0.78884828090667725
0.37014758586883545 0.27567151188850403 0.80396872758865356
0.60279178619384766 0.29740273952484131 0.83332395553588867
0.76338392496109009 0.30500531196594238 0.83218967914581299
0.86014235019683838 0.28201904892921448 0.77822619676589966
0.95698773860931396 0.24857184290885925 0.73236089944839478
0.0045740911737084389 0.38259708881378174 0.75337153673171997
0.16563348472118378 0.39130014181137085 0.76901400089263916
0.3803553581237793 0.41183257102966309 0.78697586059570312
0.58863610029220581 0.445707768201828 0.81779247522354126
0.7484976053237915 0.46563723683357239 0.82430803775787354
0.84554487466812134 0.42132177948951721 0.77140241861343384
0.9507371187210083 0.35026311874389648 0.72648310661315918
0.0065372390672564507 0.52667617797851562 0.74278593063354492
0.13308097422122955 0.5318940281867981 0.74775683879852295
0.34448757767677307 0.54462367296218872 0.76067215204238892
0.54755967855453491 0.58846640586853027 0.79178625345230103
0.72978276014328003 0.6201668381690979 0.81729722023010254
0.83840548992156982 0.55800235271453857 0.76122623682022095
0.95585429668426514 0.45386901497840881 0.6927945613861084
0.086100496351718903 0.71683645248413086 0.7760118842124939
0.22183685004711151 0.7170756459236145 0.77749365568161011
0.39364343881607056 0.72120183706283569 0.78364866971969604
0.55800747871398926 0.7299005389213562 0.79661005735397339
0.71818912029266357 0.74091106653213501 0.81139165163040161
0.84000974893569946 0.70468598604202271 0.77696120738983154
0.96787536144256592 0.6339377760887146 0.70982939004898071
0.35707187652587891 0.83613187074661255 0.79919528961181641
0.39451971650123596 0.83345651626586914 0.79595333337783813
0.48178985714912415 0.83146613836288452 0.79498040676116943
0.5830388069152832 0.8291049599647522 0.79072368144989014
0.69351047277450562 0.81848615407943726 0.76033979654312134
0.84060323238372803 0.83188146352767944 0.77568739652633667
0.97281485795974731 0.84370839595794678 0.8003355860710144
0.42207768559455872 0.94320517778396606 0.80277615785598755
0.45056146383285522 0.93999177217483521 0.79603457450866699
0.5124620795249939 0.94140702486038208 0.79334992170333862
0.5950387716293335 0.93814367055892944 0.77844172716140747
0.69794732332229614 0.93639540672302246 0.74525660276412964
0.82919013500213623 0.94025570154190063 0.7321130633354187
0.96386361122131348 0.95688974857330322 0.74277675151824951
0.039184272289276123 0.21326707303524017 0.92117869853973389
0.20120523869991302 0.21588900685310364 0.92585384845733643
0.41836214065551758 0.22629128396511078 0.9285932183265686
0.60903489589691162 0.24003022909164429 0.94126385450363159
0.77746814489364624 0.28506791591644287 0.95289868116378784
0.90284460783004761 0.30528399348258972 0.94709402322769165
0.98731207847595215 0.29109051823616028 0.9148445725440979
0.10739240795373917 0.29159590601921082 0.91922318935394287
0.25086531043052673 0.2969268262386322 0.92114073038101196
0.43466708064079285 0.31096652150154114 0.92608082294464111
0.61109954118728638 0.33033952116966248 0.93523609638214111
0.77201884984970093 0.37148073315620422 0.94974815845489502
0.89471292495727539 0.38983279466629028 0.94033008813858032
0.98468029499053955 0.36603391170501709 0.91903179883956909
0.11401422321796417 0.40408849716186523 0.90738683938980103
0.24406842887401581 0.41421616077423096 0.90737414360046387
0.41619202494621277 0.4298686683177948 0.91338837146759033
0.59781229496002197 0.46255496144294739 0.93037897348403931
0.75564432144165039 0.50423514842987061 0.94241249561309814
0.88231068849563599 0.52688348293304443 0.94101011753082275
0.9699251651763916 0.48605683445930481 0.91157704591751099
0.0083974050357937813 0.52734827995300293 0.88212001323699951
0.10286488384008408 0.53151923418045044 0.88453304767608643
0.34467768669128418 0.55330252647399902 0.88861560821533203
0.54774796962738037 0.58635026216506958 0.90484142303466797
0.73672682046890259 0.64408797025680542 0.92841702699661255
0.86623674631118774 0.65958672761917114 0.9331669807434082
0.95297020673751831 0.60568922758102417 0.89746254682540894
0.0036235884763300419 0.68880075216293335 0.88208568096160889
0.031764265149831772 0.69280946254730225 0.88193130493164062
0.28385242819786072 0.68765789270401001 0.88277792930603027
0.48473337292671204 0.6925959587097168 0.88719373941421509
0.69337713718414307 0.73134404420852661 0.90985214710235596
0.86199867725372314 0.75435632467269897 0.92369753122329712
0.94565343856811523 0.70175451040267944 0.88433331251144409
0.30868485569953918 0.82518017292022705 0.90241938829421997
0.36810338497161865 0.82427477836608887 0.90433359146118164
0.47732597589492798 0.82457900047302246 0.90754753351211548
0.5977359414100647 0.82295411825180054 0.91097533702850342
0.72823798656463623 0.82915264368057251 0.91534548997879028
0.8597031831741333 0.84541493654251099 0.92431271076202393
0.96136891841888428 0.80913984775543213 0.89908421039581299
0.55490350723266602 0.94478398561477661 0.92398393154144287
0.57147765159606934 0.94314873218536377 0.91963058710098267
0.61590778827667236 0.94499891996383667 0.91760778427124023
0.67790251970291138 0.94605261087417603 0.91923719644546509
0.74820494651794434 0.94657051563262939 0.90872693061828613
0.83110135793685913 0.94393396377563477 0.89033675193786621
0.95990562438964844 0.95839607715606689 0.89817065000534058
0.39735648036003113 0.32286795973777771 0.99343228340148926
0.4518686830997467 0.32863989472389221 0.99322378635406494
0.54645377397537231 0.33262255787849426 0.99367725849151611
0.66600030660629272 0.34772965312004089 0.99863475561141968
0.78590887784957886 0.38752928376197815 0.99807024002075195
0.90054672956466675 0.44844743609428406 0.99432295560836792
0.99041390419006348 0.48401549458503723 0.99598199129104614
0.40900987386703491 0.37969502806663513 0.99620431661605835
0.45652672648429871 0.38199847936630249 0.99701321125030518
0.547199547290802 0.3922145664691925 0.99603456258773804
0.66212564706802368 0.41118353605270386 0.99612885713577271
0.78329503536224365 0.45199835300445557 0.99674141407012939
0.89629286527633667 0.50997620820999146 0.99502015113830566
0.98841822147369385 0.53606504201889038 0.9968639612197876
0.39025416970252991 0.48239260911941528 0.99138772487640381
0.43818998336791992 0.48911744356155396 0.98985558748245239
0.53136765956878662 0.49790394306182861 0.99003171920776367
0.64855331182479858 0.52273702621459961 0.99039387702941895
0.77018183469772339 0.55876994132995605 0.99178248643875122
0.88815844058990479 0.61126810312271118 0.99534189701080322
0.98044461011886597 0.62175112962722778 0.99221640825271606
0.29717326164245605 0.59805011749267578 0.98635494709014893
0.36427092552185059 0.5994943380355835 0.9868120551109314
0.48463383316993713 0.61463087797164917 0.98457175493240356
0.6236690878868103 0.63791549205780029 0.98364591598510742
0.75069296360015869 0.66604626178741455 0.98420363664627075
0.87885200977325439 0.69947028160095215 0.99090254306793213
0.97621411085128784 0.70701289176940918 0.99131101369857788
0.13091389834880829 0.71090888977050781 0.98342561721801758
0.22391384840011597 0.71039485931396484 0.98232847452163696
0.38548463582992554 0.70965123176574707 0.98088574409484863
0.55958712100982666 0.72100412845611572 0.98017257452011108
0.73374104499816895 0.74603158235549927 0.98441410064697266
0.87253451347351074 0.77347075939178467 0.98725956678390503
0.97645843029022217 0.78735816478729248 0.99035722017288208
0.3848419189453125 0.8296438455581665 0.98266297578811646
0.41534781455993652 0.82696652412414551 0.98340177536010742
0.48837891221046448 0.82344383001327515 0.982574462890625
0.58550560474395752 0.81934374570846558 0.98229551315307617
0.70081138610839844 0.81630665063858032 0.9824831485748291
0.85952669382095337 0.84339219331741333 0.9851495623588562
0.97417932748794556 0.87046486139297485 0.9853825569152832
0.57356339693069458 0.94609111547470093 0.98405957221984863
0.59295344352722168 0.94539082050323486 0.98307698965072632
0.63687258958816528 0.94525468349456787 0.98400574922561646
0.70253443717956543 0.94592589139938354 0.98428052663803101
0.78572005033493042 0.94928985834121704 0.98387390375137329
0.87285584211349487 0.95256149768829346 0.98099881410598755
0.97082895040512085 0.96154946088790894 0.98415660858154297
