luts/instant_pro/polaroid_690_+.cube
# Created by: G'MIC (https://gmic.eu)
TITLE "polaroid_690_+"
# LUT size
LUT_3D_SIZE 13
# Data domain
DOMAIN_MIN 0.0 0.0 0.0
DOMAIN_MAX 1.0 1.0 1.0
# LUT data points
0.082138761878013611 0.10257411003112793 0.066447839140892029
0.115017369389534 0.10373454540967941 0.066900379955768585
0.1523110419511795 0.10266391187906265 0.0658721923828125
0.20585866272449493 0.099096484482288361 0.067389875650405884
0.27321356534957886 0.087307125329971313 0.069091841578483582
0.36212807893753052 0.055205971002578735 0.069915786385536194
0.45515745878219604 0.012761344201862812 0.066889204084873199
0.56441974639892578 0.0037303999997675419 0.062998570501804352
0.66786491870880127 0.0033272537402808666 0.058293286710977554
0.76063317060470581 0.00076582666952162981 0.051663972437381744
0.84171229600906372 0.00097547046607360244 0.04045003280043602
0.91739535331726074 0.0010870839469134808 0.029344880953431129
0.97941052913665771 0.00011435116175562143 0.016623986884951591
0.087113790214061737 0.13515652716159821 0.070699416100978851
0.11919271200895309 0.13588212430477142 0.070394866168498993
0.1577630341053009 0.13484114408493042 0.068877965211868286
0.2160937637090683 0.13232901692390442 0.070700190961360931
0.29414966702461243 0.12662689387798309 0.072328217327594757
0.38532045483589172 0.094176515936851501 0.074375852942466736
0.48446902632713318 0.044722553342580795 0.072537362575531006
0.59252893924713135 0.01246566791087389 0.061336860060691833
0.69373840093612671 0.0055525237694382668 0.052398234605789185
0.78416895866394043 0.0041254679672420025 0.04241180419921875
0.8611186146736145 0.0045705009251832962 0.030207719653844833
0.93196427822113037 0.0040809931233525276 0.020474586635828018
0.98303890228271484 0.0018803465645760298 0.011884921230375767
0.088376335799694061 0.17052155733108521 0.071959428489208221
0.12146079540252686 0.17257152497768402 0.070032380521297455
0.16064275801181793 0.17125317454338074 0.068066373467445374
0.23098435997962952 0.17387479543685913 0.066328801214694977
0.31617158651351929 0.17876750230789185 0.062742345035076141
0.41569927334785461 0.16227124631404877 0.06137828528881073
0.52975016832351685 0.13210301101207733 0.055947203189134598
0.63282430171966553 0.078082412481307983 0.04649454727768898
0.72288131713867188 0.035594355314970016 0.041240394115447998
0.81047165393829346 0.01303564291447401 0.028685774654150009
0.88566875457763672 0.0077861263416707516 0.016476769000291824
0.95242327451705933 0.0050145317800343037 0.0091551691293716431
0.99026143550872803 0.0022174310870468616 0.0059099681675434113
0.08549894392490387 0.22590731084346771 0.067674495279788971
0.12075719237327576 0.23011904954910278 0.065425783395767212
0.16927474737167358 0.23160390555858612 0.061580285429954529
0.24989314377307892 0.23870721459388733 0.051546551287174225
0.33986383676528931 0.24680802226066589 0.039940733462572098
0.45081260800361633 0.25122398138046265 0.03254343569278717
0.57704228162765503 0.25021186470985413 0.027385396882891655
0.68486982583999634 0.2210141122341156 0.019819701090455055
0.76612859964370728 0.18602460622787476 0.018288346007466316
0.84033781290054321 0.15096719563007355 0.011221403256058693
0.91035348176956177 0.11622727662324905 0.0048125023022294044
0.96987754106521606 0.094020813703536987 0.0016026366502046585
0.99476540088653564 0.090304598212242126 0.00035548489540815353
0.067248702049255371 0.30432936549186707 0.05140502005815506
0.11268673837184906 0.30122977495193481 0.053374812006950378
0.17807389795780182 0.308351069688797 0.045960430055856705
0.2574385404586792 0.31584569811820984 0.03397662565112114
0.35538670420646667 0.32651582360267639 0.019097061827778816
0.47195279598236084 0.33987104892730713 0.0078182443976402283
0.5939948558807373 0.34998929500579834 0.0051253675483167171
0.7084006667137146 0.35284578800201416 0.0040918239392340183
0.80005937814712524 0.34629708528518677 0.0031257180962711573
0.86916691064834595 0.33250081539154053 0.0037315518129616976
0.92903381586074829 0.31545332074165344 0.0026729956734925508
0.97527617216110229 0.29871806502342224 0.0034276475198566914
0.99390476942062378 0.29407045245170593 0.0023840512149035931
0.025743372738361359 0.39019697904586792 0.020648641511797905
0.090157829225063324 0.39228937029838562 0.022979466244578362
0.16955704987049103 0.39043387770652771 0.018796749413013458
0.25522306561470032 0.3949868381023407 0.010631127282977104
0.3576405942440033 0.40963613986968994 0.0052867066115140915
0.47010338306427002 0.42434504628181458 0.004756538663059473
0.58511924743652344 0.44228971004486084 0.0047478321939706802
0.69871062040328979 0.45695149898529053 0.0027035730890929699
0.79978877305984497 0.46921959519386292 0.0011802524095401168
0.88075417280197144 0.47519943118095398 0.0027626934461295605
0.93712770938873291 0.46768471598625183 0.0053690741769969463
0.97846138477325439 0.45366784930229187 0.0082875872030854225
0.99478954076766968 0.44303929805755615 0.0046941270120441914
0.006932875607162714 0.48323437571525574 0.003458419581875205
0.057655543088912964 0.48235267400741577 0.003747408976778388
0.15557922422885895 0.47804728150367737 0.0020914564374834299
0.25089374184608459 0.48054602742195129 0.0015397913521155715
0.35153713822364807 0.49107128381729126 0.001942309201695025
0.46008026599884033 0.50560206174850464 0.003735905047506094
0.57185721397399902 0.52656185626983643 0.0034330480266362429
0.68204855918884277 0.54815292358398438 0.0019013647688552737
0.78087037801742554 0.56125789880752563 0.0018202688079327345
0.86222308874130249 0.56820940971374512 0.0045726699754595757
0.92919337749481201 0.5771300196647644 0.0076140756718814373
0.97766929864883423 0.58319884538650513 0.0075645744800567627
0.99644416570663452 0.58267545700073242 0.010512198321521282
0.0085807051509618759 0.57000499963760376 0.00055357988458126783
0.027641400694847107 0.57170796394348145 0.00028345445753075182
0.13872495293617249 0.56631660461425781 0.001767521258443594
0.24999672174453735 0.56515228748321533 0.0019577324856072664
0.34406450390815735 0.57041466236114502 0.00040205413824878633
0.44670692086219788 0.58315944671630859 0.0012214211747050285
0.55607473850250244 0.60183060169219971 0.0012067009229212999
0.6614803671836853 0.62021344900131226 0.0012053395621478558
0.75975042581558228 0.63083475828170776 0.00058457616250962019
0.84491932392120361 0.64276045560836792 0.0023926079738885164
0.91211706399917603 0.65297257900238037 0.0043549034744501114
0.96492105722427368 0.6642765998840332 0.0053657232783734798
0.9964485764503479 0.67470383644104004 0.034939486533403397
0.011850065551698208 0.65331298112869263 0
0.037360787391662598 0.65357011556625366 0
0.14911916851997375 0.64916461706161499 0.00043810677016153932
0.26199018955230713 0.64628362655639648 0.0015392528148368001
0.35713174939155579 0.64728766679763794 0.0014587402110919356
0.45191469788551331 0.65153056383132935 0.0014583512675017118
0.55278521776199341 0.66838628053665161 0.001502302591688931
0.64811444282531738 0.68284422159194946 0.0015108594670891762
0.74315029382705688 0.69155651330947876 0.001378422137349844
0.8297584056854248 0.70254451036453247 0.00036501415888778865
0.89866262674331665 0.71210849285125732 0.0031722125131636858
0.95270025730133057 0.72054445743560791 0.0053250929340720177
0.99124288558959961 0.72895097732543945 0.018523167818784714
0.094750948250293732 0.72974520921707153 0.00013714958913624287
0.15202966332435608 0.72846716642379761 0.0010115081677213311
0.22489850223064423 0.72387272119522095 0.0013438804307952523
0.30175745487213135 0.71993750333786011 0.0017434513429179788
0.3872559666633606 0.71712684631347656 0.0020672518294304609
0.47222325205802917 0.71832925081253052 0.0018457450205460191
0.56662791967391968 0.72652536630630493 0.0015318627702072263
0.65812301635742188 0.73587477207183838 0.0014210121007636189
0.74496811628341675 0.74494987726211548 0.0016831641551107168
0.82171308994293213 0.75466465950012207 0.0022856469731777906
0.88801449537277222 0.76412063837051392 0.0037974936421960592
0.94439828395843506 0.77149605751037598 0.0042976378463208675
0.98787820339202881 0.77813947200775146 0.010705476626753807
0.2716064453125 0.79048317670822144 0.0011981739662587643
0.29491543769836426 0.78938925266265869 0.0044896593317389488
0.33469778299331665 0.78585278987884521 0.0049995719455182552
0.38425090909004211 0.78207099437713623 0.0042570675723254681
0.45386549830436707 0.77879035472869873 0.0039331172592937946
0.51892399787902832 0.77867645025253296 0.0027407179586589336
0.59723401069641113 0.78245741128921509 0.0006847156910225749
0.67786067724227905 0.78911489248275757 0.0022415160201489925
0.75207376480102539 0.7962300181388855 0.0038041057996451855
0.82259058952331543 0.80474686622619629 0.0057355393655598164
0.88447171449661255 0.8137967586517334 0.0068072150461375713
0.93901360034942627 0.82146757841110229 0.007262764498591423
0.98654240369796753 0.82810080051422119 0.022225473076105118
0.40512308478355408 0.84769177436828613 0.02919037826359272
0.41968801617622375 0.84574228525161743 0.02546762116253376
0.44541260600090027 0.84436190128326416 0.019285688176751137
0.48144027590751648 0.84092468023300171 0.015638867393136024
0.53172415494918823 0.83925795555114746 0.010256494395434856
0.58505821228027344 0.83822226524353027 0.0087775588035583496
0.64610189199447632 0.84079384803771973 0.0042180377058684826
0.71041023731231689 0.84601801633834839 0.0063710082322359085
0.77334707975387573 0.85147243738174438 0.010419030673801899
0.83056467771530151 0.85870647430419922 0.020096872001886368
0.88492757081985474 0.86701047420501709 0.025968903675675392
0.93581730127334595 0.87571358680725098 0.032952699810266495
0.97903436422348022 0.88269048929214478 0.10018490254878998
0.52334046363830566 0.91194111108779907 0.2147674560546875
0.53279942274093628 0.91130912303924561 0.20670872926712036
0.54923164844512939 0.91057902574539185 0.1957811713218689
0.57417255640029907 0.90847098827362061 0.18155556917190552
0.61063319444656372 0.90733027458190918 0.16888830065727234
0.65130329132080078 0.90621030330657959 0.14811687171459198
0.69644850492477417 0.9076046347618103 0.13999393582344055
0.74520844221115112 0.91134786605834961 0.15106287598609924
0.79450857639312744 0.91730600595474243 0.17140473425388336
0.84090030193328857 0.92389202117919922 0.19454129040241241
0.88624447584152222 0.93184775114059448 0.21161346137523651
0.92892760038375854 0.94016063213348389 0.23391927778720856
0.9679490327835083 0.94700610637664795 0.27163273096084595
0.08603561669588089 0.10560613870620728 0.09622751921415329
0.11851302534341812 0.10773797333240509 0.096341811120510101
0.153000608086586 0.10815710574388504 0.093905352056026459
0.20366314053535461 0.10370028764009476 0.09302666038274765
0.27455613017082214 0.091681793332099915 0.096090294420719147
0.35667756199836731 0.060698550194501877 0.095426388084888458
0.45137280225753784 0.011190586723387241 0.090599536895751953
0.55684584379196167 0.0038235534448176622 0.09257824718952179
0.65911030769348145 0.0035497329663485289 0.093842118978500366
0.75106561183929443 0.00049025594489648938 0.089489959180355072
0.83389186859130859 0.00070567411603406072 0.075613461434841156
0.91594839096069336 0.00026334874564781785 0.060071758925914764
0.98350518941879272 0 0.046517733484506607
0.091881304979324341 0.1323314905166626 0.099149666726589203
0.12444610893726349 0.13433484733104706 0.10026375204324722
0.16104429960250854 0.13442236185073853 0.10051378607749939
0.21630854904651642 0.12993572652339935 0.099841207265853882
0.28932347893714905 0.11662883311510086 0.097775250673294067
0.37849253416061401 0.086547836661338806 0.095352008938789368
0.47804751992225647 0.036838322877883911 0.090879358351230621
0.58441877365112305 0.0094421384856104851 0.089551158249378204
0.68456488847732544 0.0052459868602454662 0.086725912988185883
0.7749752402305603 0.0039653703570365906 0.080030329525470734
0.85494321584701538 0.0050233728252351284 0.066260799765586853
0.92974096536636353 0.0030530593357980251 0.052349194884300232
0.98387295007705688 0.0014112733770161867 0.041483785957098007
0.093555748462677002 0.1722349226474762 0.10167951136827469
0.12700867652893066 0.17498862743377686 0.10209173709154129
0.16660392284393311 0.17399276793003082 0.10233363509178162
0.23397894203662872 0.17412471771240234 0.098123528063297272
0.31445497274398804 0.17037811875343323 0.091823816299438477
0.41563323140144348 0.16130551695823669 0.088783293962478638
0.52406001091003418 0.11966715753078461 0.0864754319190979
0.62496769428253174 0.066320575773715973 0.08074825257062912
0.71724480390548706 0.028864333406090736 0.07773926854133606
0.80496513843536377 0.010051577351987362 0.069066710770130157
0.88169229030609131 0.0082905786111950874 0.055926304310560226
0.9471859335899353 0.0060903513804078102 0.041533719748258591
0.98919308185577393 0.0042284047231078148 0.030047234147787094
0.089065194129943848 0.23276959359645844 0.10312486439943314
0.12643091380596161 0.23767612874507904 0.10236912220716476
0.17460988461971283 0.23856912553310394 0.10253729671239853
0.25063005089759827 0.24213936924934387 0.094496801495552063
0.34703296422958374 0.24495519697666168 0.085802443325519562
0.45896977186203003 0.25128060579299927 0.078439526259899139
0.57337301969528198 0.23749899864196777 0.076092138886451721
0.67540431022644043 0.21084862947463989 0.068174459040164948
0.75991064310073853 0.17513439059257507 0.065229915082454681
0.83653223514556885 0.13589930534362793 0.056439835578203201
0.90830713510513306 0.098724603652954102 0.041204698383808136
0.96621024608612061 0.07839445024728775 0.028169160708785057
0.99575376510620117 0.071249991655349731 0.017741408199071884
0.065553732216358185 0.31039151549339294 0.096054881811141968
0.11164788901805878 0.31423848867416382 0.09911840409040451
0.17628851532936096 0.3139064610004425 0.090451061725616455
0.2606905996799469 0.32038143277168274 0.078635483980178833
0.36546337604522705 0.33244192600250244 0.06554519385099411
0.47934487462043762 0.34346261620521545 0.048339348286390305
0.59740513563156128 0.35021999478340149 0.042307879775762558
0.71100705862045288 0.35185468196868896 0.04590543732047081
0.79919469356536865 0.34155505895614624 0.044026616960763931
0.86844736337661743 0.32326844334602356 0.036319177597761154
0.92737764120101929 0.30571854114532471 0.026965886354446411
0.97760945558547974 0.28891277313232422 0.016841139644384384
0.99611729383468628 0.28260201215744019 0.011966361664235592
0.02225201204419136 0.40041229128837585 0.07083459198474884
0.083929069340229034 0.4028589129447937 0.070344500243663788
0.16719368100166321 0.40146377682685852 0.058388862758874893
0.25753694772720337 0.40516218543052673 0.045536834746599197
0.36149239540100098 0.4166780412197113 0.032336529344320297
0.47560808062553406 0.43258318305015564 0.019669417291879654
0.58993309736251831 0.44613415002822876 0.012941681779921055
0.70377254486083984 0.45872694253921509 0.013390784151852131
0.80337059497833252 0.4701138436794281 0.016570836305618286
0.88175886869430542 0.47494882345199585 0.020029569044709206
0.93995398283004761 0.46889469027519226 0.021762773394584656
0.983359694480896 0.45632228255271912 0.018050877377390862
0.99857860803604126 0.44860517978668213 0.011342321522533894
0.0061637279577553272 0.49071261286735535 0.037912629544734955
0.054525922983884811 0.49045631289482117 0.034284241497516632
0.15643645823001862 0.48822876811027527 0.025861792266368866
0.25063258409500122 0.48957991600036621 0.01887480728328228
0.35200208425521851 0.49746313691139221 0.012204906903207302
0.46248465776443481 0.51517713069915771 0.0081331292167305946
0.57212728261947632 0.53266888856887817 0.0068583767861127853
0.68362569808959961 0.55145108699798584 0.00872065220028162
0.7853318452835083 0.56376123428344727 0.0074698356911540031
0.8662111759185791 0.57454776763916016 0.0069964691065251827
0.93282997608184814 0.58602124452590942 0.017687778919935226
0.98293048143386841 0.59096121788024902 0.041378650814294815
0.99917399883270264 0.58651053905487061 0.058720815926790237
0.0052055506967008114 0.57720082998275757 0.012382163666188717
0.026057180017232895 0.57897388935089111 0.0082955006510019302
0.14318104088306427 0.57417827844619751 0.0075433021411299706
0.24712890386581421 0.57234114408493042 0.0086385840550065041
0.3445257842540741 0.57500773668289185 0.0053393496200442314
0.45095375180244446 0.58947587013244629 0.0041044047102332115
0.55848425626754761 0.60807204246520996 0.0041655893437564373
0.6621401309967041 0.62408828735351562 0.0057791019789874554
0.76147502660751343 0.63625472784042358 0.005947786383330822
0.84710901975631714 0.64837837219238281 0.0045763053931295872
0.91555917263031006 0.65771037340164185 0.0076912525109946728
0.97135430574417114 0.66773992776870728 0.030339723452925682
0.99677914381027222 0.67638587951660156 0.11479628086090088
0.0086420541629195213 0.6616826057434082 0.0023476844653487206
0.038483068346977234 0.66131782531738281 0.0029479381628334522
0.15654294192790985 0.65426301956176758 0.0043715531937777996
0.26209414005279541 0.65198469161987305 0.0073793148621916771
0.35619300603866577 0.65135306119918823 0.0052785687148571014
0.45378470420837402 0.65673577785491943 0.0054636937566101551
0.5560646653175354 0.67235332727432251 0.0062082326039671898
0.65179944038391113 0.68575453758239746 0.0057268179953098297
0.74569863080978394 0.69603884220123291 0.0072422400116920471
0.83197373151779175 0.70625710487365723 0.0051933289505541325
0.9015122652053833 0.71609407663345337 0.004067783709615469
0.95931136608123779 0.7232973575592041 0.012566898949444294
0.99567735195159912 0.73050463199615479 0.084738127887248993
0.10589074343442917 0.73457187414169312 0.0020002627279609442
0.15082778036594391 0.73024427890777588 0.0065723643638193607
0.22739249467849731 0.72656542062759399 0.0042768591083586216
0.30848732590675354 0.72353529930114746 0.006908027920871973
0.39008074998855591 0.72079789638519287 0.0058133592829108238
0.47515934705734253 0.72159785032272339 0.0072813443839550018
0.5689510703086853 0.72918105125427246 0.0065951179713010788
0.65972113609313965 0.73839312791824341 0.0047922618687152863
0.74559372663497925 0.74672448635101318 0.0042547788470983505
0.82321274280548096 0.75542682409286499 0.0042496477253735065
0.88912218809127808 0.76470375061035156 0.0070949927903711796
0.94827163219451904 0.77221369743347168 0.0097237983718514442
0.99058586359024048 0.77898699045181274 0.064740873873233795
0.27290070056915283 0.79200547933578491 0.0091430367901921272
0.29529431462287903 0.78896266222000122 0.010284828022122383
0.33685529232025146 0.78627681732177734 0.0083856768906116486
0.38857704401016235 0.78310161828994751 0.0052274814806878567
0.45442083477973938 0.78055250644683838 0.007419331930577755
0.52209079265594482 0.77892041206359863 0.0090078916400671005
0.59864503145217896 0.78235208988189697 0.0051881680265069008
0.67911016941070557 0.78874415159225464 0.0038256028201431036
0.75402545928955078 0.79595792293548584 0.0058832652866840363
0.82331621646881104 0.80421894788742065 0.0066850101575255394
0.88454586267471313 0.81295096874237061 0.0073528215289115906
0.94007688760757446 0.82076847553253174 0.016899527981877327
0.98412525653839111 0.82858073711395264 0.084717392921447754
0.40353679656982422 0.84928649663925171 0.082047887146472931
0.41962754726409912 0.8474578857421875 0.075126320123672485
0.44463923573493958 0.84459954500198364 0.062110047787427902
0.48170012235641479 0.84190624952316284 0.046578589826822281
0.53051459789276123 0.84087306261062622 0.035685833543539047
0.58397877216339111 0.83836919069290161 0.025944773107767105
0.64479219913482666 0.84021353721618652 0.016578733921051025
0.70944505929946899 0.8453904390335083 0.023003716021776199
0.77257126569747925 0.85165774822235107 0.035563003271818161
0.82981592416763306 0.85901671648025513 0.046441875398159027
0.88451403379440308 0.86757278442382812 0.060054104775190353
0.93342334032058716 0.87510645389556885 0.085646882653236389
0.97596484422683716 0.88293206691741943 0.16221553087234497
0.51934170722961426 0.91269969940185547 0.25670793652534485
0.5289350152015686 0.91192901134490967 0.24993905425071716
0.54689311981201172 0.9109923243522644 0.23759540915489197
0.57505470514297485 0.90969389677047729 0.22425723075866699
0.60905355215072632 0.90890663862228394 0.21290343999862671
0.64946073293685913 0.9084206223487854 0.19779284298419952
0.69501078128814697 0.90920650959014893 0.18433693051338196
0.7442658543586731 0.91269904375076294 0.1957620233297348
0.79384088516235352 0.91843670606613159 0.21491576731204987
0.84038513898849487 0.92400556802749634 0.23164039850234985
0.88526594638824463 0.93232828378677368 0.2531839907169342
0.92775869369506836 0.94044727087020874 0.27519333362579346
0.96777164936065674 0.94740384817123413 0.30661344528198242
0.085774458944797516 0.10707132518291473 0.13135133683681488
0.1188291534781456 0.11058325320482254 0.13859453797340393
0.15394105017185211 0.11115135997533798 0.14148016273975372
0.20422200858592987 0.10705515742301941 0.13617880642414093
0.27405902743339539 0.096846640110015869 0.13631995022296906
0.35681581497192383 0.067440569400787354 0.1364290863275528
0.45344856381416321 0.016313126310706139 0.13552287220954895
0.55200976133346558 0.0032600851263850927 0.13739714026451111
0.64780694246292114 0.0027449962217360735 0.13776567578315735
0.73832887411117554 0.00073438161052763462 0.13201239705085754
0.82116234302520752 9.4604489277116954e-05 0.11969133466482162
0.90404903888702393 0 0.10583801567554474
0.9757685661315918 0 0.09129517525434494
0.092705897986888885 0.13177923858165741 0.13673350214958191
0.12590289115905762 0.13503184914588928 0.14319664239883423
0.1625097244977951 0.13517469167709351 0.14522679150104523
0.21851934492588043 0.13090264797210693 0.1435038298368454
0.29058417677879333 0.11734982579946518 0.14090661704540253
0.37548717856407166 0.087805293500423431 0.13789011538028717
0.47460579872131348 0.03519916906952858 0.13522769510746002
0.57708156108856201 0.0093630924820899963 0.13536688685417175
0.67552250623703003 0.007418524008244276 0.1339045912027359
0.76439970731735229 0.0052247741259634495 0.12727665901184082
0.84179461002349854 0.0030906677711755037 0.11633875221014023
0.91874188184738159 0.0010276645189151168 0.10490985959768295
0.97856849431991577 0.00032152663334272802 0.090397357940673828
0.094728447496891022 0.17227573692798615 0.14383643865585327
0.1295904815196991 0.17504784464836121 0.14937581121921539
0.1701984703540802 0.17562945187091827 0.15034906566143036
0.23864896595478058 0.17312273383140564 0.15108728408813477
0.3194878101348877 0.1635226309299469 0.14863081276416779
0.41438278555870056 0.14465722441673279 0.14303453266620636
0.51551920175552368 0.097045153379440308 0.13737507164478302
0.61353856325149536 0.045307938009500504 0.13176727294921875
0.70905548334121704 0.017378250136971474 0.1287832111120224
0.79557335376739502 0.010065490379929543 0.12217618525028229
0.8695099949836731 0.0053549371659755707 0.11230207234621048
0.9388962984085083 0.0046881432645022869 0.1004425510764122
0.98522108793258667 0.00229619350284338 0.084991723299026489
0.088818013668060303 0.23687505722045898 0.1550762951374054
0.12857180833816528 0.24191240966320038 0.15731710195541382
0.17859938740730286 0.24264481663703918 0.15530534088611603
0.25422406196594238 0.24099116027355194 0.15604661405086517
0.34862279891967773 0.23644575476646423 0.1522243320941925
0.45868632197380066 0.23773865401744843 0.14958120882511139
0.56430530548095703 0.21835114061832428 0.14553549885749817
0.66217732429504395 0.18657803535461426 0.13631200790405273
0.74994051456451416 0.14507859945297241 0.12999062240123749
0.83045953512191772 0.10091265290975571 0.12083249539136887
0.89974504709243774 0.068304009735584259 0.10957177728414536
0.96130084991455078 0.051146175712347031 0.096878767013549805
0.99625903367996216 0.041138876229524612 0.081933967769145966
