luts/instant_pro/polaroid_690_warm.cube
# Created by: G'MIC (https://gmic.eu)
TITLE "polaroid_690_warm"
# LUT size
LUT_3D_SIZE 7
# Data domain
DOMAIN_MIN 0.0 0.0 0.0
DOMAIN_MAX 1.0 1.0 1.0
# LUT data points
0.1384986937046051 0.083931431174278259 0.061997685581445694
0.20566071569919586 0.079519383609294891 0.062960527837276459
0.32080298662185669 0.044159173965454102 0.063039176166057587
0.48859599232673645 0.0045155840925872326 0.059403903782367706
0.68468964099884033 0.00028321507852524519 0.046178407967090607
0.86422699689865112 0.0009476605337113142 0.025525171309709549
0.99114871025085449 0.0019285912858322263 0.0081171225756406784
0.15302066504955292 0.15991199016571045 0.064921572804450989
0.21958287060260773 0.16595499217510223 0.059474483132362366
0.35493427515029907 0.15084905922412872 0.055131126195192337
0.54898345470428467 0.10717987269163132 0.040721714496612549
0.73579514026641846 0.035220276564359665 0.022507911548018456
0.90427279472351074 0.0071346508339047432 0.0068666944280266762
0.99380385875701904 0.010094542056322098 0.0024608985986560583
0.14822092652320862 0.30594703555107117 0.033464036881923676
0.22781701385974884 0.30416169762611389 0.025638071820139885
0.38521832227706909 0.32814303040504456 0.01039702445268631
0.60368973016738892 0.34720245003700256 0.0070206737145781517
0.8107609748840332 0.35188448429107666 0.0015473309904336929
0.95188778638839722 0.3147946298122406 0.0018823063001036644
0.99922424554824829 0.28971558809280396 0
0.1157049760222435 0.47755312919616699 0.0041456934995949268
0.22388498485088348 0.48202705383300781 0.0038687912747263908
0.37421748042106628 0.48863241076469421 0.0018430224154144526
0.57584798336029053 0.52180927991867065 0.0034581352956593037
0.7891693115234375 0.55380499362945557 0.0012942146277055144
0.96306002140045166 0.57617038488388062 0.0010417115408927202
0.99821698665618896 0.57305359840393066 0.0026037029456347227
0.11307822167873383 0.64140802621841431 0.0016339620342478156
0.22856014966964722 0.64009898900985718 0.001045286888256669
0.38322532176971436 0.6381227970123291 0.0012471516383811831
0.56898671388626099 0.66399860382080078 0.00012925092596560717
0.75220155715942383 0.69026327133178711 0.0023284314665943384
0.92447108030319214 0.71889668703079224 0.00096251541981473565
0.99714416265487671 0.73214930295944214 0.00073782226536422968
0.25161084532737732 0.79624736309051514 0.0028099508490413427
0.3265470564365387 0.79957258701324463 0.0012644599191844463
0.44216731190681458 0.79268449544906616 0.00075593835208564997
0.59897196292877197 0.80358439683914185 2.5491153792245314e-05
0.76486849784851074 0.82123732566833496 0.0010655123041942716
0.91744303703308105 0.83966988325119019 0.00058098585577681661
0.9969104528427124 0.85288029909133911 0.002040608786046505
0.49867182970046997 0.94065696001052856 0.046255014836788177
0.53174233436584473 0.93809711933135986 0.031920954585075378
0.60237616300582886 0.93285679817199707 0.018901944160461426
0.70216268301010132 0.93128901720046997 0.017126688733696938
0.82741016149520874 0.93441557884216309 0.013139852322638035
0.94346016645431519 0.93924307823181152 0.024983588606119156
0.99989014863967896 0.94432216882705688 0.032570198178291321
0.14754597842693329 0.087884478271007538 0.13474893569946289
0.21063649654388428 0.092284739017486572 0.13877704739570618
0.33555099368095398 0.063453748822212219 0.1403009295463562
0.48908588290214539 0.0055135390721261501 0.13219347596168518
0.67124277353286743 0.0013755200197920203 0.11592613905668259
0.846271812915802 8.2576980275916867e-06 0.0971221923828125
0.98773413896560669 0 0.069300875067710876
0.16366073489189148 0.1701287180185318 0.14521203935146332
0.22886531054973602 0.17404630780220032 0.14434997737407684
0.36006695032119751 0.15146544575691223 0.13829329609870911
0.53934037685394287 0.079698167741298676 0.12730614840984344
0.72381067276000977 0.0162989292293787 0.1127135157585144
0.89056575298309326 0.0046106972731649876 0.090224049985408783
0.99448961019515991 0.0016663494752719998 0.051076117902994156
0.15584708750247955 0.32642883062362671 0.14782322943210602
0.23621742427349091 0.32201999425888062 0.13495118916034698
0.400422602891922 0.33267784118652344 0.12377585470676422
0.61343586444854736 0.35084998607635498 0.11230064928531647
0.80376642942428589 0.32995900511741638 0.10153159499168396
0.94351279735565186 0.27888214588165283 0.068243049085140228
1 0.24722625315189362 0.028979746624827385
0.098688952624797821 0.50578665733337402 0.090284906327724457
0.22509825229644775 0.49948856234550476 0.079121440649032593
0.38290512561798096 0.50218695402145386 0.058360215276479721
0.58883959054946899 0.53662455081939697 0.029889380559325218
0.80602008104324341 0.56205260753631592 0.025999225676059723
0.96904736757278442 0.57593929767608643 0.064597740769386292
1 0.56201577186584473 0.070791341364383698
0.10659941285848618 0.66316896677017212 0.027428630739450455
0.23054033517837524 0.659157395362854 0.022596143186092377
0.38686880469322205 0.65435171127319336 0.014189627021551132
0.57185989618301392 0.67411047220230103 0.0091209262609481812
0.76890379190444946 0.70305836200714111 0.0082502774894237518
0.93851220607757568 0.72590154409408569 0.010460588149726391
0.99907511472702026 0.74124324321746826 0.060766197741031647
0.24574670195579529 0.80801749229431152 0.0099254380911588669
0.32221803069114685 0.80655163526535034 0.0085737342014908791
0.44661158323287964 0.80204981565475464 0.0077142901718616486
0.59925687313079834 0.80790972709655762 0.0067005380988121033
0.76370406150817871 0.82211518287658691 0.010197793133556843
0.91890054941177368 0.84296268224716187 0.0072075789794325829
0.99700355529785156 0.85534274578094482 0.0089837163686752319
0.4869692325592041 0.94027620553970337 0.1536739319562912
0.52095448970794678 0.94021260738372803 0.12831708788871765
0.59641122817993164 0.93698358535766602 0.10322717577219009
0.69971585273742676 0.93531817197799683 0.067354954779148102
0.82179969549179077 0.93680465221405029 0.075028561055660248
0.93941742181777954 0.94026011228561401 0.094307050108909607
0.99990701675415039 0.94382274150848389 0.12242560088634491
0.13767459988594055 0.096454396843910217 0.28757494688034058
0.21757914125919342 0.092402003705501556 0.30015337467193604
0.36191448569297791 0.061107873916625977 0.31555092334747314
0.51831620931625366 0.015856454148888588 0.29562103748321533
0.68353581428527832 0.0018307704012840986 0.27108755707740784
0.84973347187042236 0.0036543004680424929 0.25927716493606567
0.97786939144134521 0.00020159552514087409 0.21641410887241364
0.15893331170082092 0.17061173915863037 0.29337841272354126
0.23807209730148315 0.17823058366775513 0.31268486380577087
0.38912317156791687 0.1705116331577301 0.33966979384422302
0.54771608114242554 0.12519338726997375 0.31019136309623718
0.70682454109191895 0.018637698143720627 0.27515798807144165
0.86435198783874512 0.0044188257306814194 0.24663746356964111
0.99061739444732666 1.7233456674148329e-05 0.20091763138771057
0.16255480051040649 0.33921703696250916 0.32755586504936218
0.24434396624565125 0.33706915378570557 0.32996988296508789
0.41668945550918579 0.35703760385513306 0.35571438074111938
0.6030082106590271 0.33266124129295349 0.33206319808959961
0.76510554552078247 0.26004356145858765 0.29236879944801331
0.91621935367584229 0.15895695984363556 0.25088050961494446
0.99956458806991577 0.092538096010684967 0.20982213318347931
0.10792876780033112 0.54141688346862793 0.33553674817085266
0.24693642556667328 0.53776293992996216 0.33842894434928894
0.41302633285522461 0.53310918807983398 0.33014586567878723
0.61267542839050293 0.54893827438354492 0.31729084253311157
0.81264060735702515 0.56748032569885254 0.3328191339969635
0.95916962623596191 0.55665075778961182 0.34123355150222778
0.99988400936126709 0.52211099863052368 0.29903724789619446
0.12476559728384018 0.6959301233291626 0.30815982818603516
0.25199294090270996 0.68970745801925659 0.29941007494926453
0.40773835778236389 0.68202954530715942 0.27735331654548645
0.57953876256942749 0.6841965913772583 0.25676077604293823
0.77619439363479614 0.71033638715744019 0.25629377365112305
0.94039082527160645 0.7323002815246582 0.29102981090545654
0.99850499629974365 0.74511539936065674 0.36909881234169006
0.2473728358745575 0.82517772912979126 0.28310051560401917
0.32599252462387085 0.82118576765060425 0.26467174291610718
0.44357669353485107 0.81342393159866333 0.23916140198707581
0.59100019931793213 0.81025898456573486 0.20266199111938477
0.75839436054229736 0.82637810707092285 0.20529501140117645
0.9155879020690918 0.84682559967041016 0.2289426326751709
0.99713402986526489 0.85556972026824951 0.30363965034484863
0.47448194026947021 0.94260001182556152 0.36840277910232544
0.50694757699966431 0.93783873319625854 0.35851502418518066
0.58630150556564331 0.93647563457489014 0.3399084210395813
0.68405801057815552 0.93189531564712524 0.29230853915214539
0.80917561054229736 0.93402630090713501 0.29680809378623962
0.93112266063690186 0.93806713819503784 0.32284456491470337
0.99943274259567261 0.94211840629577637 0.34860238432884216
0.051873017102479935 0.099947832524776459 0.50690740346908569
0.18277491629123688 0.08838469535112381 0.52665895223617554
0.39416036009788513 0.035486437380313873 0.57318377494812012
0.61915481090545654 0.0037687562871724367 0.60042208433151245
0.74620401859283447 0.0039037368260324001 0.52166569232940674
0.87292683124542236 0.0024863597936928272 0.4714789092540741
0.98906886577606201 0.0022583156824111938 0.44246649742126465
0.076582938432693481 0.17947039008140564 0.52099341154098511
0.20093627274036407 0.18423394858837128 0.54026764631271362
0.41356438398361206 0.17682091891765594 0.57844877243041992
0.62714630365371704 0.14395453035831451 0.60038888454437256
0.75688701868057251 0.096277318894863129 0.5274968147277832
0.880138099193573 0.01973489485681057 0.47579285502433777
0.9839358925819397 0.0059417425654828548 0.44158309698104858
0.10421989113092422 0.32501000165939331 0.5163077712059021
0.22387970983982086 0.3283093273639679 0.52715420722961426
0.41578212380409241 0.35525026917457581 0.5614888072013855
0.62950068712234497 0.37157848477363586 0.58773469924926758
0.762401282787323 0.32766631245613098 0.52744728326797485
0.89546924829483032 0.20224912464618683 0.47179633378982544
0.9957614541053772 0.012008188292384148 0.41325095295906067
0.14064182341098785 0.53721451759338379 0.5529363751411438
0.26939260959625244 0.54246443510055542 0.55701220035552979
0.44171527028083801 0.55641227960586548 0.57097786664962769
0.63252705335617065 0.57584506273269653 0.59065705537796021
0.79252153635025024 0.54396277666091919 0.56254380941390991
0.92411500215530396 0.46969127655029297 0.50072509050369263
0.99923825263977051 0.37553882598876953 0.42870944738388062
0.24594560265541077 0.71329468488693237 0.5623975396156311
0.32536861300468445 0.71710681915283203 0.55558687448501587
0.46140825748443604 0.71390432119369507 0.55614167451858521
0.60802507400512695 0.71279239654541016 0.54305487871170044
0.78226596117019653 0.72646677494049072 0.53874510526657104
0.93150311708450317 0.74282199144363403 0.57502198219299316
0.99942654371261597 0.73751634359359741 0.59530550241470337
0.29678663611412048 0.84503442049026489 0.54180210828781128
0.35765781998634338 0.84201717376708984 0.53394812345504761
0.46963253617286682 0.83362752199172974 0.52231734991073608
0.59962207078933716 0.82487386465072632 0.49044159054756165
0.75312894582748413 0.83106356859207153 0.47673854231834412
0.91066402196884155 0.84872019290924072 0.51056575775146484
0.99484086036682129 0.85989469289779663 0.56225043535232544
0.47975680232048035 0.94597190618515015 0.57652479410171509
0.51519876718521118 0.94421303272247314 0.56925684213638306
0.58277106285095215 0.94162106513977051 0.55566239356994629
0.67660331726074219 0.93812805414199829 0.52718263864517212
0.79093235731124878 0.93316590785980225 0.49867171049118042
0.91845417022705078 0.93895447254180908 0.52514439821243286
0.99923068284988403 0.9436500072479248 0.55308979749679565
0.010028809309005737 0.10045019537210464 0.72796630859375
0.172350212931633 0.087951883673667908 0.74256378412246704
0.40529850125312805 0.041536368429660797 0.76532387733459473
0.63686734437942505 0.0075443941168487072 0.79779869318008423
0.8324849009513855 0.0053918277844786644 0.80032896995544434
0.93657809495925903 0.0056083379313349724 0.73403853178024292
0.9976576566696167 0.0042942422442138195 0.67779010534286499
0.014424910768866539 0.18850885331630707 0.73663538694381714
0.20644013583660126 0.19359925389289856 0.74177074432373047
0.42108765244483948 0.18275858461856842 0.75776016712188721
0.65337735414505005 0.18841265141963959 0.79958045482635498
0.83203059434890747 0.18501295149326324 0.79696118831634521
0.93638604879379272 0.13826169073581696 0.73554319143295288
0.99790722131729126 0.096316412091255188 0.67849630117416382
0.024149501696228981 0.33127081394195557 0.71607494354248047
0.21712183952331543 0.34246945381164551 0.71877771615982056
0.42083436250686646 0.35780000686645508 0.73972165584564209
0.64601457118988037 0.39971822500228882 0.78286236524581909
0.82560735940933228 0.42514926195144653 0.79425334930419922
0.92808818817138672 0.37349411845207214 0.72960221767425537
0.99527186155319214 0.28835824131965637 0.67494511604309082
0.043496537953615189 0.5067063570022583 0.70443463325500488
0.19942294061183929 0.51111918687820435 0.70595157146453857
0.39832517504692078 0.52143824100494385 0.71390849351882935
0.6235053539276123 0.56973695755004883 0.75100862979888916
0.81375819444656372 0.60815149545669556 0.7832145094871521
0.91225910186767578 0.54488497972488403 0.72251921892166138
0.99672281742095947 0.42460229992866516 0.65585625171661377
0.26831901073455811 0.70446193218231201 0.73652905225753784
0.34570473432540894 0.70714652538299561 0.73771136999130249
0.48008424043655396 0.71500420570373535 0.73870640993118286
0.64323323965072632 0.72951853275299072 0.75712418556213379
0.80039060115814209 0.74752187728881836 0.7751457691192627
0.91422921419143677 0.71325981616973877 0.74382853507995605
0.99804604053497314 0.63419336080551147 0.67640835046768188
0.45965498685836792 0.85784727334976196 0.75343829393386841
0.49486669898033142 0.85606026649475098 0.74720734357833862
0.56991755962371826 0.85383462905883789 0.74953585863113403
0.66632020473480225 0.85246807336807251 0.74358981847763062
0.77501022815704346 0.8469918966293335 0.72680425643920898
0.90108191967010498 0.8568916916847229 0.73824441432952881
0.99338746070861816 0.87026703357696533 0.76551085710525513
0.56442296504974365 0.94808799028396606 0.7638089656829834
0.58502626419067383 0.94428598880767822 0.7524639368057251
0.63325995206832886 0.94418305158615112 0.75065809488296509
0.70432060956954956 0.94091981649398804 0.73930138349533081
0.7921828031539917 0.93747740983963013 0.71074765920639038
0.90613925457000732 0.93791419267654419 0.71251136064529419
0.99227350950241089 0.94218546152114868 0.73032718896865845
0.17656190693378448 0.12743477523326874 0.89076411724090576
0.29638791084289551 0.12160295993089676 0.89151984453201294
0.46663913130760193 0.098962225019931793 0.90236574411392212
0.66472923755645752 0.085371144115924835 0.91156917810440063
0.84724229574203491 0.16155412793159485 0.92483919858932495
0.97813111543655396 0.214764803647995 0.92254030704498291
1 0.20076282322406769 0.88569647073745728
0.19559338688850403 0.22452835738658905 0.88507640361785889
0.31115326285362244 0.22555683553218842 0.88734716176986694
0.47771468758583069 0.22539502382278442 0.89819455146789551
0.67129647731781006 0.24030508100986481 0.90385526418685913
0.8478357195854187 0.31411734223365784 0.92262721061706543
0.96923434734344482 0.3433137834072113 0.91576164960861206
0.99969387054443359 0.31401094794273376 0.88167691230773926
0.18725638091564178 0.36399269104003906 0.87636232376098633
0.30103936791419983 0.36793828010559082 0.87852078676223755
0.46598461270332336 0.38155829906463623 0.88528573513031006
0.65906769037246704 0.42510029673576355 0.89238101243972778
0.84025627374649048 0.48732978105545044 0.91571438312530518
0.95912331342697144 0.50693631172180176 0.90930801630020142
0.99944013357162476 0.46220365166664124 0.87392288446426392
0.05291251465678215 0.50190222263336182 0.8503190279006958
0.21728029847145081 0.51224201917648315 0.85329389572143555
0.4277476966381073 0.52901023626327515 0.85642653703689575
0.63657057285308838 0.57395690679550171 0.87522464990615845
0.82399868965148926 0.63748848438262939 0.90146619081497192
0.94180881977081299 0.65778523683547974 0.89927142858505249
0.99714237451553345 0.60696762800216675 0.86995947360992432
0.16501899063587189 0.68117618560791016 0.84973037242889404
0.27352839708328247 0.67860859632492065 0.84749454259872437
0.42230379581451416 0.67587852478027344 0.85126376152038574
0.59279787540435791 0.69063293933868408 0.85577917098999023
0.78611868619918823 0.74231690168380737 0.88303536176681519
0.92626512050628662 0.77741545438766479 0.89462506771087646
0.99080467224121094 0.72213250398635864 0.85655343532562256
0.45266008377075195 0.84165388345718384 0.86875265836715698
0.49350041151046753 0.84177500009536743 0.86619490385055542
0.59062695503234863 0.84474730491638184 0.86969184875488281
0.69490760564804077 0.84612536430358887 0.87724143266677856
0.80860793590545654 0.85322731733322144 0.88153111934661865
0.91688323020935059 0.87440401315689087 0.88923192024230957
0.99189454317092896 0.84127163887023926 0.86836147308349609
0.68675893545150757 0.94674819707870483 0.8912956714630127
0.69842386245727539 0.94576895236968994 0.88856685161590576
0.73325181007385254 0.94260120391845703 0.8872833251953125
0.78290116786956787 0.94272714853286743 0.88559162616729736
0.84126478433609009 0.94231712818145752 0.87827581167221069
0.91353136301040649 0.93962424993515015 0.85975366830825806
0.98869878053665161 0.9454161524772644 0.88004475831985474
0.44629606604576111 0.25219771265983582 0.9854627251625061
0.48970875144004822 0.24613858759403229 0.97987604141235352
0.59792900085449219 0.26638931035995483 0.98489713668823242
0.72416406869888306 0.29140865802764893 0.98665517568588257
0.86129432916641235 0.36866709589958191 0.98724198341369629
0.96999663114547729 0.43697309494018555 0.98652917146682739
1 0.48225283622741699 0.98068159818649292
0.46103820204734802 0.33885994553565979 0.98325252532958984
0.50791066884994507 0.33921352028846741 0.98105138540267944
0.60624080896377563 0.34859365224838257 0.98421245813369751
0.72308605909347534 0.36207711696624756 0.9822075366973877
0.85982435941696167 0.43252682685852051 0.98581385612487793
0.96863842010498047 0.51169741153717041 0.98681819438934326
0.99992245435714722 0.53833723068237305 0.97653424739837646
0.46158158779144287 0.45888587832450867 0.97579669952392578
0.51180768013000488 0.46430650353431702 0.9757879376411438
0.60529452562332153 0.46757161617279053 0.97491955757141113
0.73102915287017822 0.50691193342208862 0.97756528854370117
0.85742217302322388 0.5554269552230835 0.98013299703598022
0.95957237482070923 0.61377614736557007 0.97940760850906372
0.99996340274810791 0.62633877992630005 0.97222661972045898
0.43093830347061157 0.58910638093948364 0.96516549587249756
0.47727486491203308 0.58971667289733887 0.96448642015457153
0.5858955979347229 0.59816175699234009 0.96846270561218262
0.71310102939605713 0.62471127510070801 0.96875613927841187
0.84530705213546753 0.67134386301040649 0.97032028436660767
0.94870775938034058 0.72205549478530884 0.972331702709198
0.99871528148651123 0.73865729570388794 0.96826481819152832
0.35566133260726929 0.70353621244430542 0.95470255613327026
0.40743589401245117 0.70198869705200195 0.95379900932312012
0.51589065790176392 0.70519083738327026 0.955436110496521
0.66873842477798462 0.725910484790802 0.95705568790435791
0.82370138168334961 0.76621037721633911 0.96192657947540283
0.93324810266494751 0.80671519041061401 0.96600699424743652
0.99569690227508545 0.82643622159957886 0.96138459444046021
0.51687365770339966 0.84890520572662354 0.95163571834564209
0.54151487350463867 0.84652012586593628 0.94843482971191406
0.59919875860214233 0.84544748067855835 0.94977754354476929
0.68238657712936401 0.84155166149139404 0.95040810108184814
0.7919812798500061 0.84558212757110596 0.95188158750534058
0.91481620073318481 0.87427127361297607 0.9579969048500061
0.99077737331390381 0.89719045162200928 0.95794039964675903
0.71129792928695679 0.94629663228988647 0.9556306004524231
0.72813922166824341 0.94758176803588867 0.955699622631073
0.76396071910858154 0.94139403104782104 0.95529180765151978
0.80537337064743042 0.94123560190200806 0.95465558767318726
0.87461990118026733 0.93862807750701904 0.95698684453964233
0.93551522493362427 0.94227421283721924 0.95655536651611328
0.99051886796951294 0.94754832983016968 0.963573157787323
