luts/instant_pro/polaroid_669_cold_-.cube
# Created by: G'MIC (https://gmic.eu)
TITLE "polaroid_669_cold_-"
# LUT size
LUT_3D_SIZE 7
# Data domain
DOMAIN_MIN 0.0 0.0 0.0
DOMAIN_MAX 1.0 1.0 1.0
# LUT data points
0 0.12701965868473053 0.15117332339286804
0.0041253035888075829 0.14170880615711212 0.16583563387393951
0.10340700298547745 0.15917468070983887 0.18893389403820038
0.32888871431350708 0.1717458963394165 0.22793525457382202
0.52973103523254395 0.17898030579090118 0.26984253525733948
0.70242297649383545 0.18660217523574829 0.31116613745689392
0.85777038335800171 0.22622288763523102 0.36538013815879822
0.00023351931304205209 0.20133076608181 0.19692385196685791
0.0044302698224782944 0.20851671695709229 0.20117032527923584
0.15234506130218506 0.22090037167072296 0.22426728904247284
0.37818419933319092 0.22974465787410736 0.26337441802024841
0.56666898727416992 0.23173575103282928 0.29822120070457458
0.73006647825241089 0.24780730903148651 0.33809038996696472
0.86591523885726929 0.28767326474189758 0.38867905735969543
0.0046132407151162624 0.30348306894302368 0.26389136910438538
0.009869549423456192 0.30470386147499084 0.26697352528572083
0.22652959823608398 0.31805580854415894 0.27658328413963318
0.43978413939476013 0.32774785161018372 0.3072178065776825
0.62135177850723267 0.3392101526260376 0.35108846426010132
0.75641876459121704 0.37073129415512085 0.39302638173103333
0.87897109985351562 0.40886718034744263 0.43748599290847778
0.021992282941937447 0.41380596160888672 0.32688385248184204
0.11062625050544739 0.4141899049282074 0.33057624101638794
0.27110910415649414 0.41633445024490356 0.33106666803359985
0.44781890511512756 0.43287301063537598 0.33969756960868835
0.61011767387390137 0.44408616423606873 0.36193934082984924
0.76079463958740234 0.50455546379089355 0.43284183740615845
0.87362056970596313 0.57072871923446655 0.50871706008911133
0.1924329549074173 0.54252362251281738 0.38266989588737488
0.24206835031509399 0.53786247968673706 0.38532111048698425
0.31714674830436707 0.52746891975402832 0.38067334890365601
0.45241329073905945 0.54326075315475464 0.38513576984405518
0.59612905979156494 0.57296490669250488 0.39285764098167419
0.72703158855438232 0.60091638565063477 0.41282442212104797
0.84885072708129883 0.68969917297363281 0.51801049709320068
0.29683795571327209 0.70937389135360718 0.44959107041358948
0.32707542181015015 0.70621961355209351 0.45147424936294556
0.3818608820438385 0.69001865386962891 0.44054660201072693
0.47946023941040039 0.70088374614715576 0.44398754835128784
0.59154993295669556 0.72472769021987915 0.44777202606201172
0.71214985847473145 0.7565234899520874 0.46181043982505798
0.82585436105728149 0.79584687948226929 0.49719423055648804
0.45149901509284973 0.91034018993377686 0.59195297956466675
0.46803191304206848 0.90660572052001953 0.59123390913009644
0.50315046310424805 0.905792236328125 0.58750158548355103
0.56523311138153076 0.90512651205062866 0.59166401624679565
0.65304696559906006 0.91877174377441406 0.60437697172164917
0.75245672464370728 0.93760174512863159 0.63844084739685059
0.84744656085968018 0.95320987701416016 0.67535388469696045
0 0.14144487679004669 0.22248511016368866
0.0035189162008464336 0.15898570418357849 0.24373264610767365
0.086296007037162781 0.18113875389099121 0.269735187292099
0.33781978487968445 0.19090655446052551 0.30562236905097961
0.54358375072479248 0.18908162415027618 0.33496224880218506
0.71007299423217773 0.19925734400749207 0.37169259786605835
0.85411947965621948 0.23310735821723938 0.40703824162483215
0.00042048434261232615 0.21617905795574188 0.27089807391166687
0.0064789718016982079 0.22496479749679565 0.28697049617767334
0.15897180140018463 0.23217174410820007 0.30179500579833984
0.38817226886749268 0.24017094075679779 0.33287635445594788
0.56900662183761597 0.24333012104034424 0.36021566390991211
0.72456520795822144 0.25736314058303833 0.388824462890625
0.86579066514968872 0.29642927646636963 0.42879793047904968
0.0016327801859006286 0.32209870219230652 0.32888269424438477
0.022729732096195221 0.32327139377593994 0.33817258477210999
0.2523837685585022 0.33103081583976746 0.34939676523208618
0.45345810055732727 0.33917766809463501 0.37483960390090942
0.61928975582122803 0.35450762510299683 0.40589463710784912
0.75775134563446045 0.37353885173797607 0.43230366706848145
0.87542867660522461 0.41428372263908386 0.47372758388519287
0.078007474541664124 0.44187313318252563 0.38605675101280212
0.16719196736812592 0.43980401754379272 0.39065694808959961
0.29647096991539001 0.4300457239151001 0.38701879978179932
0.46515774726867676 0.44241788983345032 0.39150786399841309
0.62175124883651733 0.46362856030464172 0.41688758134841919
0.76889574527740479 0.51657378673553467 0.4795089066028595
0.87078607082366943 0.5756872296333313 0.54212445020675659
0.21583451330661774 0.5630384087562561 0.42756164073944092
0.26236540079116821 0.56272035837173462 0.4288657009601593
0.34370577335357666 0.54827284812927246 0.42906254529953003
0.46628677845001221 0.56328874826431274 0.4275432825088501
0.60809075832366943 0.5846560001373291 0.43336793780326843
0.73336243629455566 0.61595779657363892 0.45984959602355957
0.84761422872543335 0.70038926601409912 0.55995792150497437
0.30817005038261414 0.72185415029525757 0.47963151335716248
0.33924156427383423 0.72039234638214111 0.48356059193611145
0.39412719011306763 0.70534825325012207 0.47526109218597412
0.48168259859085083 0.70844137668609619 0.47283196449279785
0.59842407703399658 0.73455691337585449 0.48134511709213257
0.71795523166656494 0.76559871435165405 0.504161536693573
0.82677310705184937 0.80161875486373901 0.53364598751068115
0.45454248785972595 0.91175365447998047 0.61379706859588623
0.47081875801086426 0.91433882713317871 0.61093133687973022
0.50660097599029541 0.90737414360046387 0.60859614610671997
0.56602668762207031 0.9088134765625 0.61115086078643799
0.65288060903549194 0.92193067073822021 0.62436681985855103
0.75034981966018677 0.93797165155410767 0.65513604879379272
0.84606009721755981 0.95252066850662231 0.68716138601303101
0 0.17090292274951935 0.33647423982620239
0.00215123500674963 0.18285910785198212 0.35495477914810181
0.085646010935306549 0.20366992056369781 0.38668939471244812
0.36127838492393494 0.22019150853157043 0.421680748462677
0.56509619951248169 0.21961550414562225 0.44177713990211487
0.72628390789031982 0.21826019883155823 0.45950895547866821
0.8579334020614624 0.23846162855625153 0.48081931471824646
0 0.24312895536422729 0.38245922327041626
0.0017563763540238142 0.25009086728096008 0.40192785859107971
0.17831440269947052 0.26076042652130127 0.42571458220481873
0.40759557485580444 0.26983070373535156 0.44863682985305786
0.58931094408035278 0.27625384926795959 0.46611878275871277
0.7384074330329895 0.26704010367393494 0.47556009888648987
0.8669586181640625 0.30204632878303528 0.50469988584518433
0.0039416742511093616 0.35414719581604004 0.44103077054023743
0.044782452285289764 0.3573051393032074 0.45797526836395264
0.29375118017196655 0.36431705951690674 0.47919508814811707
0.47873219847679138 0.36950856447219849 0.49385616183280945
0.62716400623321533 0.37033948302268982 0.50351119041442871
0.75744163990020752 0.38978397846221924 0.51927584409713745
0.87203502655029297 0.42425504326820374 0.54325342178344727
0.10359513759613037 0.4874042272567749 0.48888698220252991
0.23130132257938385 0.48499175906181335 0.50041526556015015
0.36342716217041016 0.47909730672836304 0.50158059597015381
0.50192683935165405 0.4787655770778656 0.50128090381622314
0.64434921741485596 0.50174140930175781 0.52959161996841431
0.76468342542648315 0.54269838333129883 0.57286524772644043
0.86033612489700317 0.59028291702270508 0.60830098390579224
0.27535858750343323 0.61928814649581909 0.52752363681793213
0.31340283155441284 0.61572563648223877 0.5270351767539978
0.38768878579139709 0.59705150127410889 0.52243447303771973
0.49180316925048828 0.59153765439987183 0.51724553108215332
0.62317097187042236 0.61711543798446655 0.52937597036361694
0.73979955911636353 0.65007257461547852 0.55054843425750732
0.84197944402694702 0.73141336441040039 0.63783210515975952
0.3387482762336731 0.75673812627792358 0.56303608417510986
0.36644580960273743 0.75160008668899536 0.55940276384353638
0.415445476770401 0.73909419775009155 0.54998785257339478
0.48948881030082703 0.72856110334396362 0.54152011871337891
0.60091972351074219 0.74972259998321533 0.54838788509368896
0.71988499164581299 0.77581477165222168 0.56347835063934326
0.82298111915588379 0.81748533248901367 0.59730046987533569
0.46768373250961304 0.92248392105102539 0.66513520479202271
0.47896799445152283 0.91802489757537842 0.6589587926864624
0.51411932706832886 0.91873055696487427 0.65690869092941284
0.56763309240341187 0.91682463884353638 0.65331423282623291
0.6496739387512207 0.92371660470962524 0.66395920515060425
0.74861174821853638 0.9391709566116333 0.68665003776550293
0.84308761358261108 0.95401185750961304 0.71854346990585327
0 0.2137676477432251 0.48417192697525024
0.0032719182781875134 0.22097338736057281 0.50303357839584351
0.063027292490005493 0.23421873152256012 0.53325951099395752
0.41077351570129395 0.26184767484664917 0.57161003351211548
0.5943371057510376 0.27873814105987549 0.59214210510253906
0.75331902503967285 0.32669374346733093 0.62381613254547119
0.8727039098739624 0.36080315709114075 0.64169919490814209
0.00053923361701890826 0.28301644325256348 0.51904475688934326
0.0020292692352086306 0.28931033611297607 0.54091554880142212
0.1615215390920639 0.29121071100234985 0.56852936744689941
0.46011132001876831 0.31826838850975037 0.59929567575454712
0.62058985233306885 0.34027084708213806 0.61728543043136597
0.7569156289100647 0.37989082932472229 0.63436388969421387
0.87242585420608521 0.40123075246810913 0.64705216884613037
0.0020575281232595444 0.38613063097000122 0.56123286485671997
0.042138490825891495 0.39340001344680786 0.57741272449493408
0.30082634091377258 0.39790770411491394 0.60547339916229248
0.50777506828308105 0.42175641655921936 0.63444429636001587
0.64482265710830688 0.44276005029678345 0.64450222253799438
0.76225155591964722 0.44987472891807556 0.64298278093338013
0.86519992351531982 0.45213216543197632 0.64122688770294189
0.11466602981090546 0.52418261766433716 0.61903393268585205
0.24614129960536957 0.52821624279022217 0.62401515245437622
0.3789098858833313 0.53497803211212158 0.63468676805496216
0.53704667091369629 0.54629898071289062 0.65599387884140015
0.65744739770889282 0.55315935611724854 0.66095995903015137
0.76215642690658569 0.5625227689743042 0.66457587480545044
0.85894209146499634 0.58584952354431152 0.67448824644088745
0.28900688886642456 0.67632436752319336 0.64412480592727661
0.34351259469985962 0.67506998777389526 0.64645493030548096
0.43492782115936279 0.6743043065071106 0.65451925992965698
0.53106659650802612 0.6612975001335144 0.65390503406524658
0.63946235179901123 0.66583144664764404 0.6519540548324585
0.74570709466934204 0.7034180760383606 0.67754954099655151
0.83861804008483887 0.75949984788894653 0.72840768098831177
0.36064216494560242 0.80626428127288818 0.66377550363540649
0.39014491438865662 0.80569416284561157 0.66678923368453979
0.45204931497573853 0.79360973834991455 0.66185986995697021
0.5200800895690918 0.77786087989807129 0.65158367156982422
0.61052799224853516 0.77967840433120728 0.65191125869750977
0.72282701730728149 0.8019983172416687 0.66008144617080688
0.8215222954750061 0.84355169534683228 0.69255971908569336
0.48788675665855408 0.93910342454910278 0.73172521591186523
0.50104343891143799 0.9373670220375061 0.732624351978302
0.53269517421722412 0.93434029817581177 0.72646605968475342
0.57796186208724976 0.9319644570350647 0.72050482034683228
0.64771634340286255 0.93018907308578491 0.71673238277435303
0.74514925479888916 0.94466930627822876 0.73558855056762695
0.8433496356010437 0.95639979839324951 0.76131737232208252
0 0.27077189087867737 0.65370529890060425
0.001881139469332993 0.2736060619354248 0.66885548830032349
0.034614786505699158 0.27738994359970093 0.69571393728256226
0.43639704585075378 0.31156682968139648 0.72594624757766724
0.64369809627532959 0.35676789283752441 0.74319887161254883
0.76455342769622803 0.40983569622039795 0.7546955943107605
0.85975641012191772 0.53465878963470459 0.78691202402114868
0.0014307060046121478 0.33965328335762024 0.67570853233337402
0.0020130830816924572 0.3389313817024231 0.69104510545730591
0.10689719766378403 0.3289700448513031 0.71469473838806152
0.47325959801673889 0.36968904733657837 0.73975759744644165
0.65804207324981689 0.42086324095726013 0.7553589940071106
0.76574158668518066 0.47360637784004211 0.76707541942596436
0.85733675956726074 0.58031988143920898 0.79440206289291382
0.0043339896947145462 0.44656455516815186 0.69908064603805542
0.097188405692577362 0.44374850392341614 0.71251213550567627
0.29319301247596741 0.43764790892601013 0.72804969549179077
0.5094454288482666 0.47318026423454285 0.75210797786712646
0.67046827077865601 0.52980649471282959 0.77157306671142578
0.76733452081680298 0.57175582647323608 0.78270816802978516
0.85222125053405762 0.63751798868179321 0.79825413227081299
0.078494161367416382 0.56312131881713867 0.71939080953598022
0.2129405289888382 0.56847840547561646 0.72298789024353027
0.37578222155570984 0.57344132661819458 0.73243439197540283
0.5326392650604248 0.59188711643218994 0.75743502378463745
0.67503374814987183 0.64630252122879028 0.7834203839302063
0.76083552837371826 0.67581945657730103 0.79188328981399536
0.8482438325881958 0.67690521478652954 0.78201884031295776
0.30935603380203247 0.71313941478729248 0.7545134425163269
0.36049816012382507 0.71685129404067993 0.75697976350784302
0.44845747947692871 0.725178062915802 0.76285791397094727
0.56465518474578857 0.73305708169937134 0.77385902404785156
0.66568261384963989 0.74910354614257812 0.78524839878082275
0.75533676147460938 0.76355820894241333 0.7916906476020813
0.83653849363327026 0.76422750949859619 0.79346162080764771
0.42607367038726807 0.8527558445930481 0.7747693657875061
0.44927632808685303 0.85356569290161133 0.77707254886627197
0.50468158721923828 0.85156857967376709 0.77908474206924438
0.57457667589187622 0.84477710723876953 0.77745687961578369
0.63953262567520142 0.83223795890808105 0.76567453145980835
0.72825533151626587 0.8449169397354126 0.77072256803512573
0.82189571857452393 0.88249903917312622 0.79788172245025635
0.52733767032623291 0.95919120311737061 0.80345398187637329
0.53873252868652344 0.95376157760620117 0.80082553625106812
0.56659656763076782 0.9551125168800354 0.80237394571304321
0.61015349626541138 0.95157372951507568 0.7999798059463501
0.66664969921112061 0.94487512111663818 0.79015064239501953
0.74324727058410645 0.94861924648284912 0.79197937250137329
0.84318852424621582 0.96061748266220093 0.80936187505722046
0 0.34784910082817078 0.81730884313583374
0.0012095881393179297 0.34632375836372375 0.82214725017547607
0.055542949587106705 0.34399008750915527 0.83389824628829956
0.45815145969390869 0.39092907309532166 0.84298479557037354
0.67505204677581787 0.47598177194595337 0.85502451658248901
0.78956729173660278 0.55277973413467407 0.85538166761398315
0.85807222127914429 0.61270630359649658 0.85947215557098389
0.00017997891700360924 0.41130796074867249 0.82224899530410767
0.0038457384798675776 0.40724313259124756 0.8270106315612793
0.1497599333524704 0.39339235424995422 0.84035331010818481
0.48812204599380493 0.44572740793228149 0.84779512882232666
0.68618988990783691 0.53799760341644287 0.85529649257659912
0.78790414333343506 0.60573959350585938 0.85843133926391602
0.85406529903411865 0.65313476324081421 0.86280328035354614
0.077867724001407623 0.51764595508575439 0.82704716920852661
0.17830261588096619 0.51295429468154907 0.8305809497833252
0.33699014782905579 0.50997626781463623 0.8366081714630127
0.51720792055130005 0.54177355766296387 0.84920823574066162
0.68568223714828491 0.63025927543640137 0.85807651281356812
0.78275001049041748 0.68291723728179932 0.86041980981826782
0.84465223550796509 0.72182893753051758 0.86630403995513916
0.16207271814346313 0.62988495826721191 0.81581616401672363
0.28300651907920837 0.63504588603973389 0.8209107518196106
0.41543790698051453 0.64513671398162842 0.82477498054504395
0.54518610239028931 0.65286719799041748 0.84172952175140381
0.68229097127914429 0.71749347448348999 0.85815536975860596
0.77423727512359619 0.77367508411407471 0.8632664680480957
0.83284586668014526 0.80133777856826782 0.86953908205032349
0.29537197947502136 0.76093316078186035 0.8288499116897583
0.34443119168281555 0.76313644647598267 0.82984137535095215
0.43924152851104736 0.76291811466217041 0.82977497577667236
0.55359494686126709 0.76890593767166138 0.83959853649139404
0.6662975549697876 0.80082648992538452 0.85386174917221069
0.76758641004562378 0.85039389133453369 0.86684262752532959
0.82841193675994873 0.87173080444335938 0.8739694356918335
0.45700231194496155 0.88424789905548096 0.84563946723937988
0.47362786531448364 0.88811445236206055 0.84694916009902954
0.53111869096755981 0.88784980773925781 0.8486475944519043
0.60464471578598022 0.89321446418762207 0.85277169942855835
0.68565517663955688 0.89652484655380249 0.86089479923248291
0.76219707727432251 0.91178792715072632 0.86655318737030029
0.83346867561340332 0.92037838697433472 0.87283957004547119
0.61366850137710571 0.97471135854721069 0.86728298664093018
0.62103402614593506 0.97298038005828857 0.86739546060562134
0.639179527759552 0.97093230485916138 0.86758720874786377
0.67806988954544067 0.96834635734558105 0.86709988117218018
0.71986973285675049 0.96842992305755615 0.86858457326889038
0.76857948303222656 0.96739101409912109 0.86305612325668335
0.84758424758911133 0.97023552656173706 0.86566358804702759
0.080213643610477448 0.48583841323852539 0.91801857948303223
0.13602948188781738 0.4785420298576355 0.92028772830963135
0.34336265921592712 0.49024718999862671 0.91878598928451538
0.55659234523773193 0.5442926287651062 0.92003923654556274
0.70538508892059326 0.63773626089096069 0.91742974519729614
0.79780441522598267 0.72679191827774048 0.91315943002700806
0.85712343454360962 0.78508573770523071 0.9133305549621582
0.19678843021392822 0.54247528314590454 0.9161677360534668
0.26833483576774597 0.53783971071243286 0.91757440567016602
0.39986354112625122 0.5400010347366333 0.91743761301040649
0.56757712364196777 0.58923906087875366 0.9164661169052124
0.70499175786972046 0.66842591762542725 0.91578930616378784
0.79893738031387329 0.7553105354309082 0.91376733779907227
0.85362786054611206 0.80650234222412109 0.91406291723251343
0.34951353073120117 0.64640295505523682 0.90926527976989746
0.38916400074958801 0.64240354299545288 0.9085506796836853
0.46900215744972229 0.63992428779602051 0.91169780492782593
0.58598154783248901 0.66477209329605103 0.91363304853439331
0.70274734497070312 0.72891455888748169 0.91378265619277954
0.79513561725616455 0.80471229553222656 0.91398829221725464
0.8465651273727417 0.8365204930305481 0.91399466991424561
0.39363619685173035 0.74873870611190796 0.898459792137146
0.43340584635734558 0.74853312969207764 0.89844846725463867
0.50269752740859985 0.74583667516708374 0.90187138319015503
0.59543484449386597 0.74908453226089478 0.90837031602859497
0.69686436653137207 0.79266238212585449 0.9101073145866394
0.7883414626121521 0.85168814659118652 0.91384375095367432
0.84450095891952515 0.88478779792785645 0.91453593969345093
0.37143802642822266 0.84034103155136108 0.89321911334991455
0.40553715825080872 0.83804261684417725 0.8932756781578064
0.4786568284034729 0.83789628744125366 0.8950619101524353
0.58473354578018188 0.83825331926345825 0.89834505319595337
0.69180852174758911 0.86377143859863281 0.90652048587799072
0.78378778696060181 0.89940339326858521 0.91434544324874878
0.84138250350952148 0.92240530252456665 0.91358530521392822
0.50735127925872803 0.93446683883666992 0.9019281268119812
0.52357691526412964 0.93167275190353394 0.9016263484954834
0.55767214298248291 0.92823916673660278 0.9009544849395752
0.60996276140213013 0.92882472276687622 0.90210223197937012
0.6865842342376709 0.92904376983642578 0.90635579824447632
0.78120970726013184 0.94308322668075562 0.91455370187759399
0.85616558790206909 0.95921379327774048 0.92084836959838867
0.65700852870941162 0.98885643482208252 0.91557067632675171
0.66592198610305786 0.98743307590484619 0.9160647988319397
0.68589878082275391 0.98662489652633667 0.91571259498596191
0.71741831302642822 0.98569631576538086 0.91603618860244751
0.76314759254455566 0.98440730571746826 0.92099106311798096
0.81505787372589111 0.98290598392486572 0.92146092653274536
0.87755495309829712 0.98740065097808838 0.92742347717285156
