luts/instant_pro/polaroid_690_cold.cube
# Created by: G'MIC (https://gmic.eu)
TITLE "polaroid_690_cold"
# LUT size
LUT_3D_SIZE 7
# Data domain
DOMAIN_MIN 0.0 0.0 0.0
DOMAIN_MAX 1.0 1.0 1.0
# LUT data points
0.0031378353014588356 0.14469912648200989 0.13477452099323273
0.075484901666641235 0.14557814598083496 0.13687832653522491
0.2258351594209671 0.13489629328250885 0.13686525821685791
0.41598102450370789 0.083384796977043152 0.1381123960018158
0.63743513822555542 0.0073638916946947575 0.13346217572689056
0.83244812488555908 0.0039215688593685627 0.12452418357133865
0.97229313850402832 0.0022224425338208675 0.11605758965015411
0.0049227098934352398 0.20428454875946045 0.14658880233764648
0.077458277344703674 0.20475488901138306 0.14417551457881927
0.2600768506526947 0.19724598526954651 0.14003293216228485
0.48994854092597961 0.18136216700077057 0.13877013325691223
0.69945567846298218 0.083083055913448334 0.12825484573841095
0.86879581212997437 0.015473085455596447 0.11890080571174622
0.98389190435409546 0.0065422505140304565 0.10463754832744598
0.0039215688593685627 0.3072364330291748 0.14262150228023529
0.054213594645261765 0.31261560320854187 0.14028346538543701
0.29073348641395569 0.33333665132522583 0.12513731420040131
0.55367368459701538 0.35680657625198364 0.10179935395717621
0.77717626094818115 0.36067980527877808 0.094886466860771179
0.91097539663314819 0.32416963577270508 0.083907261490821838
0.99797320365905762 0.30542528629302979 0.068573474884033203
0.001592538901604712 0.47077208757400513 0.11223316937685013
0.016129676252603531 0.47126302123069763 0.10533161461353302
0.27279621362686157 0.49154508113861084 0.074679583311080933
0.52005249261856079 0.53448355197906494 0.01930631697177887
0.75042492151260376 0.57364112138748169 0.0092323748394846916
0.92278605699539185 0.59321737289428711 0.014855882152915001
0.99918609857559204 0.5910261869430542 0.067175246775150299
0.0021269554272294044 0.66181337833404541 0.0087839914485812187
0.006466839462518692 0.65233975648880005 0.010378490202128887
0.26009669899940491 0.65337765216827393 0.0089058373123407364
0.50829601287841797 0.6763986349105835 0.0066103017888963223
0.71515834331512451 0.70494574308395386 0.0070792404003441334
0.89301824569702148 0.7215803861618042 0.0064662410877645016
0.99386787414550781 0.72836148738861084 0.029579192399978638
0.095009550452232361 0.79704010486602783 0.003603318240493536
0.19858203828334808 0.79157829284667969 0.0038340699393302202
0.37274804711341858 0.78435409069061279 0.0055159623734652996
0.55634576082229614 0.79104459285736084 0.0066340579651296139
0.73062431812286377 0.80576872825622559 0.007598488125950098
0.87941867113113403 0.81949633359909058 0.0092798266559839249
0.98722755908966064 0.8270992636680603 0.0091710556298494339
0.43728357553482056 0.91764873266220093 0.21267656981945038
0.47332474589347839 0.91506004333496094 0.19521543383598328
0.55364501476287842 0.91290295124053955 0.16514408588409424
0.65763115882873535 0.91184759140014648 0.13018643856048584
0.77443909645080566 0.92068946361541748 0.13919936120510101
0.88389694690704346 0.93321758508682251 0.14487375319004059
0.97721034288406372 0.94701743125915527 0.16414906084537506
0.0023852179292589426 0.14629752933979034 0.19681437313556671
0.054205965250730515 0.14700005948543549 0.19905988872051239
0.21529786288738251 0.14020875096321106 0.19887794554233551
0.40622472763061523 0.089573398232460022 0.20227496325969696
0.62142801284790039 0.0054514715448021889 0.19741500914096832
0.81962460279464722 0.0040500117465853691 0.18242757022380829
0.97085785865783691 0.0015517440624535084 0.16191817820072174
0.0040164124220609665 0.19876447319984436 0.21222573518753052
0.064847491681575775 0.1990085244178772 0.20915798842906952
0.25678399205207825 0.1883566826581955 0.2109563946723938
0.47560188174247742 0.13964806497097015 0.20263859629631042
0.67807340621948242 0.036249753087759018 0.19064927101135254
0.85796868801116943 0.006935792975127697 0.17820394039154053
0.98443925380706787 0.0070899366401135921 0.16239020228385925
0.0039215688593685627 0.32367351651191711 0.21787413954734802
0.043634586036205292 0.32570227980613708 0.21791447699069977
0.30488619208335876 0.33786410093307495 0.22403095662593842
0.56772208213806152 0.35743474960327148 0.21690176427364349
0.76783031225204468 0.33424219489097595 0.2066957950592041
0.90703433752059937 0.28401729464530945 0.18409770727157593
0.99515730142593384 0.25848099589347839 0.16467747092247009
0.0018296035705134273 0.4970703125 0.20458100736141205
0.01145508699119091 0.49711266160011292 0.19915209710597992
0.27617806196212769 0.50532358884811401 0.17872592806816101
0.53294628858566284 0.5407181978225708 0.15356290340423584
0.75896424055099487 0.57630753517150879 0.13337782025337219
0.92014014720916748 0.59149706363677979 0.18396781384944916
0.99199771881103516 0.57855570316314697 0.21711765229701996
8.0662146501708776e-05 0.67318952083587646 0.15939714014530182
0.0064303381368517876 0.66913789510726929 0.14968766272068024
0.2594400942325592 0.66535252332687378 0.12547729909420013
0.50845366716384888 0.68595659732818604 0.090511813759803772
0.71850860118865967 0.70733392238616943 0.066667251288890839
0.89591628313064575 0.72276973724365234 0.1019231453537941
0.98830658197402954 0.7265779972076416 0.21657954156398773
0.082144990563392639 0.80218607187271118 0.16012753546237946
0.1924964040517807 0.79704838991165161 0.14406390488147736
0.37124601006507874 0.78916072845458984 0.10595177859067917
0.55147814750671387 0.79121500253677368 0.077538527548313141
0.7245897650718689 0.80449396371841431 0.074700362980365753
0.87903016805648804 0.81839656829833984 0.087003521621227264
0.98340797424316406 0.82925534248352051 0.17405092716217041
0.43131804466247559 0.9182320237159729 0.3064919114112854
0.46438479423522949 0.915382981300354 0.29374989867210388
0.54659885168075562 0.91394978761672974 0.27319803833961487
0.65141856670379639 0.91315561532974243 0.24769915640354156
0.76685142517089844 0.92109090089797974 0.24694530665874481
0.88096147775650024 0.93312090635299683 0.26337414979934692
0.97236961126327515 0.94720637798309326 0.27813675999641418
0.0015958449803292751 0.15143780410289764 0.33269083499908447
0.018731959164142609 0.14968739449977875 0.35570895671844482
0.25362193584442139 0.13748092949390411 0.38356849551200867
0.44312563538551331 0.098705649375915527 0.35208016633987427
0.63610982894897461 0.0043528536334633827 0.33672294020652771
0.81526726484298706 0.0039804494008421898 0.30892893671989441
0.96176177263259888 0.0025562960654497147 0.27828711271286011
0.001881333882920444 0.2060321718454361 0.35008993744850159
0.023944750428199768 0.20419013500213623 0.36696085333824158
0.27857014536857605 0.20436322689056396 0.39468395709991455
0.48467791080474854 0.16492316126823425 0.37292194366455078
0.66488409042358398 0.038819212466478348 0.34018415212631226
0.82732117176055908 0.0039464314468204975 0.30876821279525757
0.97026354074478149 0.00071698357351124287 0.26431137323379517
0.00038628673064522445 0.345815509557724 0.37753263115882874
0.030340636149048805 0.34411633014678955 0.39580515027046204
0.31825509667396545 0.35758510231971741 0.41577422618865967
0.55175989866256714 0.32664927840232849 0.39380297064781189
0.72547847032546997 0.26058366894721985 0.35929366946220398
0.8822447657585144 0.16239090263843536 0.31618276238441467
0.99185085296630859 0.09459560364484787 0.28300955891609192
0.0013564465334638953 0.54163068532943726 0.41349467635154724
0.011990027502179146 0.54476320743560791 0.40716361999511719
0.28816637396812439 0.54360806941986084 0.39730361104011536
0.54861801862716675 0.5602918267250061 0.39151981472969055
0.76407897472381592 0.58029168844223022 0.40000820159912109
0.91501659154891968 0.56959855556488037 0.40916839241981506
0.99472105503082275 0.53765249252319336 0.37125921249389648
0.0021173215936869383 0.70692235231399536 0.38889783620834351
0.0093826595693826675 0.70009529590606689 0.37800326943397522
0.27416536211967468 0.69022077322006226 0.35704934597015381
0.51576691865921021 0.69488173723220825 0.34795889258384705
0.72807055711746216 0.70979368686676025 0.35994207859039307
0.88955867290496826 0.72261637449264526 0.38695821166038513
0.99144011735916138 0.73188453912734985 0.45243096351623535
0.079498127102851868 0.81325447559356689 0.37551328539848328
0.18988959491252899 0.80797511339187622 0.36547482013702393
0.36968562006950378 0.79996192455291748 0.3476012647151947
0.54256874322891235 0.79495090246200562 0.317364901304245
0.72004300355911255 0.80349248647689819 0.33323293924331665
0.87099754810333252 0.82102996110916138 0.36330315470695496
0.98273646831512451 0.83288097381591797 0.40673175454139709
0.41137906908988953 0.92139321565628052 0.4581095278263092
0.45033034682273865 0.91767996549606323 0.44522309303283691
0.52865862846374512 0.91432029008865356 0.43183904886245728
0.63449597358703613 0.91251510381698608 0.40424641966819763
0.75960487127304077 0.92204940319061279 0.40414786338806152
0.87013924121856689 0.93272548913955688 0.42207875847816467
0.96512526273727417 0.94875931739807129 0.44224795699119568
0.0037096808664500713 0.16344964504241943 0.55388063192367554
0.011421144008636475 0.15084463357925415 0.57838243246078491
0.26314184069633484 0.10801190882921219 0.62267434597015381
0.55554389953613281 0.01700776070356369 0.6460985541343689
0.70460772514343262 0.0088171567767858505 0.58128470182418823
0.84069657325744629 0.010014073923230171 0.52538490295410156
0.96005344390869141 0.0065949982963502407 0.49763274192810059
0.0018675262108445168 0.21257810294628143 0.57276350259780884
0.010537674650549889 0.20937895774841309 0.58819150924682617
0.28317698836326599 0.19970007240772247 0.63064664602279663
0.56590378284454346 0.16780516505241394 0.65042930841445923
0.71722602844238281 0.11398512870073318 0.58230537176132202
0.84502047300338745 0.021517869085073471 0.52961260080337524
0.96919256448745728 0.0039842491969466209 0.49319115281105042
0.00080777338007465005 0.33583912253379822 0.56508970260620117
0.0094352420419454575 0.33870238065719604 0.58422446250915527
0.29351666569709778 0.35690203309059143 0.6208498477935791
0.5778307318687439 0.37586119771003723 0.64922302961349487
0.72851186990737915 0.32319840788841248 0.58237761259078979
0.85946536064147949 0.20385189354419708 0.52709335088729858
0.97959882020950317 0.016683166846632957 0.46615317463874817
0.0045295418240129948 0.55474084615707397 0.60932415723800659
0.018677849322557449 0.55426549911499023 0.61183744668960571
0.33052760362625122 0.56510639190673828 0.62744361162185669
0.56849908828735352 0.58520746231079102 0.64396440982818604
0.74331009387969971 0.54995393753051758 0.61284899711608887
0.88292825222015381 0.47393092513084412 0.55270600318908691
0.99232977628707886 0.38502243161201477 0.48795327544212341
0.014728561043739319 0.73010396957397461 0.62734103202819824
0.11645045876502991 0.72901105880737305 0.6208004355430603
0.35848230123519897 0.72137951850891113 0.61001503467559814
0.54131978750228882 0.7126583456993103 0.59522473812103271
0.72729778289794922 0.71886062622070312 0.60701078176498413
0.88317537307739258 0.73366689682006836 0.63789588212966919
0.98180985450744629 0.7253609299659729 0.64959895610809326
0.18757613003253937 0.82618802785873413 0.61157810688018799
0.27044025063514709 0.82335299253463745 0.60057914257049561
0.4086269736289978 0.81777364015579224 0.59086781740188599
0.56309956312179565 0.80764687061309814 0.56625163555145264
0.70590943098068237 0.80793607234954834 0.55493175983428955
0.86397475004196167 0.8243710994720459 0.5815703272819519
0.97511065006256104 0.8362046480178833 0.62145203351974487
0.42304453253746033 0.9293094277381897 0.64295125007629395
0.46146464347839355 0.92509299516677856 0.6329275369644165
0.52928560972213745 0.91838312149047852 0.61240774393081665
0.62191909551620483 0.91964519023895264 0.59384894371032715
0.73690211772918701 0.91942620277404785 0.56375938653945923
0.85572570562362671 0.93336009979248047 0.59253144264221191
0.94563353061676025 0.9491545557975769 0.62352627515792847
0.0025898055173456669 0.15735602378845215 0.77204471826553345
0.0074443593621253967 0.14629200100898743 0.78640598058700562
0.27211794257164001 0.1057872548699379 0.81008011102676392
0.57981723546981812 0.02028382197022438 0.842537522315979
0.78701144456863403 0.0093890773132443428 0.83906775712966919
0.89594393968582153 0.010781950317323208 0.77604901790618896
0.97675639390945435 0.0082158111035823822 0.72903734445571899
0.0020244673360139132 0.22050328552722931 0.774466872215271
0.0093850530683994293 0.21244417130947113 0.78517597913742065
0.28597047924995422 0.20645123720169067 0.80850392580032349
0.59218901395797729 0.19660545885562897 0.8409309983253479
0.78817278146743774 0.18402600288391113 0.83937805891036987
0.8914027214050293 0.14564217627048492 0.77577918767929077
0.98147636651992798 0.097717106342315674 0.72278076410293579
0.00089717190712690353 0.33805692195892334 0.7566344141960144
0.0047745048068463802 0.34109127521514893 0.77242416143417358
0.2990974485874176 0.35717764496803284 0.79621338844299316
0.58093440532684326 0.40482047200202942 0.8275260329246521
0.7772221565246582 0.42334577441215515 0.83209800720214844
0.87842655181884766 0.37506529688835144 0.77253013849258423
0.97804123163223267 0.28538507223129272 0.7193758487701416
0.0025506261736154556 0.51257431507110596 0.75283390283584595
0.0046861087903380394 0.51492029428482056 0.754447340965271
0.26515090465545654 0.52522140741348267 0.76496201753616333
0.55128902196884155 0.5835731029510498 0.80427336692810059
0.75233978033065796 0.62472611665725708 0.82366985082626343
0.86573708057403564 0.55103814601898193 0.76425200700759888
0.97216141223907471 0.43430295586585999 0.69127351045608521
0.038560591638088226 0.71927118301391602 0.78308594226837158
0.15478867292404175 0.72116690874099731 0.78338998556137085
0.38666316866874695 0.7184099555015564 0.78879415988922119
0.5738489031791687 0.72611510753631592 0.80067926645278931
0.74529880285263062 0.74199825525283813 0.81426370143890381
0.86021029949188232 0.7096102237701416 0.78948324918746948
0.97020441293716431 0.64425420761108398 0.7257121205329895
0.40457907319068909 0.83483529090881348 0.80469018220901489
0.43977141380310059 0.83388036489486694 0.79789620637893677
0.52067345380783081 0.83107668161392212 0.79742556810379028
0.62622076272964478 0.82873791456222534 0.78642481565475464
0.72981065511703491 0.82407104969024658 0.77063250541687012
0.85416221618652344 0.83106094598770142 0.78273278474807739
0.95338594913482666 0.84539389610290527 0.81446874141693115
0.50808990001678467 0.93249428272247314 0.81338351964950562
0.53082847595214844 0.92870014905929565 0.79557538032531738
0.57363361120223999 0.92883342504501343 0.79206055402755737
0.64836043119430542 0.92742902040481567 0.78330510854721069
0.73529571294784546 0.92547953128814697 0.75673484802246094
0.83456701040267944 0.93459337949752808 0.76212972402572632
0.93100178241729736 0.95419019460678101 0.79641467332839966
0.007920239120721817 0.16730356216430664 0.92248356342315674
0.057099360972642899 0.15325967967510223 0.92865514755249023
0.35959458351135254 0.14055272936820984 0.93063265085220337
0.60861831903457642 0.11293026804924011 0.94136136770248413
0.79914182424545288 0.17143149673938751 0.95351624488830566
0.93084609508514404 0.22229309380054474 0.95094090700149536
0.99420952796936035 0.21997518837451935 0.92024117708206177
0.0058528976514935493 0.23696213960647583 0.92138826847076416
0.080396048724651337 0.22821769118309021 0.9277414083480835
0.37623864412307739 0.23697197437286377 0.9308050274848938
0.61244034767150879 0.2531159520149231 0.94027388095855713
0.79752326011657715 0.30964007973670959 0.94998371601104736
0.91946780681610107 0.35222423076629639 0.94455075263977051
0.9888615608215332 0.33482342958450317 0.91739839315414429
0.0044082640670239925 0.35841944813728333 0.91124707460403442
0.082047976553440094 0.36022523045539856 0.91728919744491577
0.37763300538063049 0.38444426655769348 0.91959673166275024
0.59898835420608521 0.42927530407905579 0.92722839117050171
0.78592890501022339 0.49688228964805603 0.9426383376121521
0.90222442150115967 0.52912247180938721 0.93866598606109619
0.98056644201278687 0.48982742428779602 0.90931183099746704
0.0029775132425129414 0.50346118211746216 0.8829580545425415
0.013474512845277786 0.50832152366638184 0.89232534170150757
0.31402531266212463 0.53284507989883423 0.90080416202545166
0.56214797496795654 0.59016984701156616 0.90804272890090942
0.75940972566604614 0.64706265926361084 0.9283912181854248
0.88398855924606323 0.67084527015686035 0.927234947681427
0.95899248123168945 0.62406843900680542 0.89662480354309082
0.0074126450344920158 0.68693572282791138 0.88487803936004639
0.023991737514734268 0.68992602825164795 0.88561087846755981
0.27500757575035095 0.68282485008239746 0.88605606555938721
0.51297158002853394 0.6987345814704895 0.89079523086547852
0.72940844297409058 0.73955339193344116 0.91115355491638184
0.87458533048629761 0.76179665327072144 0.92437958717346191
0.94399869441986084 0.71406680345535278 0.8878781795501709
0.38883864879608154 0.8249434232711792 0.90196073055267334
0.43172904849052429 0.82329386472702026 0.90291845798492432
0.52658087015151978 0.82198196649551392 0.90447831153869629
0.64184820652008057 0.82713204622268677 0.90696185827255249
0.75601053237915039 0.83054095506668091 0.91402947902679443
0.86756139993667603 0.84248834848403931 0.91651320457458496
0.94533789157867432 0.81724643707275391 0.90052050352096558
0.62263965606689453 0.93447661399841309 0.92037820816040039
0.63716822862625122 0.93542063236236572 0.91920822858810425
0.66852182149887085 0.93502688407897949 0.91336709260940552
0.71642804145812988 0.93489581346511841 0.90706348419189453
0.77432262897491455 0.93904036283493042 0.91068899631500244
0.84434413909912109 0.94264388084411621 0.90272456407546997
0.92413049936294556 0.95099383592605591 0.90477675199508667
0.34760448336601257 0.26150715351104736 0.99537950754165649
0.40899229049682617 0.26145431399345398 0.99428772926330566
0.53117877244949341 0.26143234968185425 0.99811321496963501
0.67077010869979858 0.28879040479660034 0.99680525064468384
0.80518501996994019 0.35501164197921753 0.99727785587310791
0.91669672727584839 0.45865532755851746 0.99329352378845215
0.98851162195205688 0.5092778205871582 0.99074912071228027
0.36847704648971558 0.33185717463493347 0.99648761749267578
0.42469146847724915 0.34085628390312195 0.9916609525680542
0.53868019580841064 0.33996623754501343 0.99565130472183228
0.67546898126602173 0.37655478715896606 0.99443495273590088
0.80506378412246704 0.4472506046295166 0.99319016933441162
0.91002774238586426 0.5285601019859314 0.99339443445205688
0.98565042018890381 0.5651366114616394 0.9889826774597168
0.37416493892669678 0.46489065885543823 0.99157840013504028
0.4319145679473877 0.46560397744178772 0.99139904975891113
0.54175972938537598 0.48244604468345642 0.99041211605072021
0.66831392049789429 0.51608055830001831 0.98869705200195312
0.79862523078918457 0.57562935352325439 0.98973184823989868
0.90047484636306763 0.63380980491638184 0.99125820398330688
0.97764283418655396 0.64799100160598755 0.98741692304611206
0.31445366144180298 0.59678739309310913 0.98692995309829712
0.38280579447746277 0.60193157196044922 0.9853861927986145
0.51188033819198608 0.61910533905029297 0.98526787757873535
0.65750861167907715 0.64648807048797607 0.98441487550735474
0.78150296211242676 0.67329311370849609 0.98150217533111572
0.8906518816947937 0.71227788925170898 0.9815986156463623
0.96211689710617065 0.72540968656539917 0.98665112257003784
0.18491668999195099 0.71032989025115967 0.97676235437393188
0.26696574687957764 0.70764350891113281 0.97624301910400391
0.42882660031318665 0.71124815940856934 0.97441476583480835
0.606403648853302 0.72504240274429321 0.97593313455581665
0.77147608995437622 0.75577342510223389 0.9789959192276001
0.8853377103805542 0.78474444150924683 0.9800879955291748
0.95350295305252075 0.79730743169784546 0.98036402463912964
0.46075156331062317 0.82780605554580688 0.9722326397895813
0.48807474970817566 0.82486152648925781 0.97328478097915649
0.5552869439125061 0.82287967205047607 0.97301548719406128
0.63991761207580566 0.81827974319458008 0.97293424606323242
0.7451164722442627 0.81846833229064941 0.97193825244903564
0.86776542663574219 0.85404014587402344 0.9748307466506958
0.94311326742172241 0.87790477275848389 0.97529792785644531
0.65398699045181274 0.9415898323059082 0.97382199764251709
0.65875661373138428 0.93912363052368164 0.97302663326263428
0.69993329048156738 0.9396553635597229 0.97413176298141479
0.74656075239181519 0.93990200757980347 0.97110277414321899
0.80269140005111694 0.94732016324996948 0.97263211011886597
0.86362099647521973 0.95584499835968018 0.97189503908157349
0.92725920677185059 0.97052133083343506 0.97220563888549805
