luts/instant_pro/polaroid_665_negative_-.cube
# Created by: G'MIC (https://gmic.eu)
TITLE "polaroid_665_negative_-"
# LUT size
LUT_3D_SIZE 13
# Data domain
DOMAIN_MIN 0.0 0.0 0.0
DOMAIN_MAX 1.0 1.0 1.0
# LUT data points
0.031756144016981125 0.031756144016981125 0.031756144016981125
0.044638227671384811 0.044638227671384811 0.044638227671384811
0.066813193261623383 0.066813193261623383 0.066813193261623383
0.097602531313896179 0.097602531313896179 0.097602531313896179
0.13673193752765656 0.13673193752765656 0.13673193752765656
0.18254433572292328 0.18254433572292328 0.18254433572292328
0.23218394815921783 0.23218394815921783 0.23218394815921783
0.28185778856277466 0.28185778856277466 0.28185778856277466
0.33069157600402832 0.33069157600402832 0.33069157600402832
0.3801426887512207 0.3801426887512207 0.3801426887512207
0.43294847011566162 0.43294847011566162 0.43294847011566162
0.4909949004650116 0.4909949004650116 0.4909949004650116
0.55301183462142944 0.55301183462142944 0.55301183462142944
0.069303639233112335 0.069303639233112335 0.069303639233112335
0.075775429606437683 0.075775429606437683 0.075775429606437683
0.091908261179924011 0.091908261179924011 0.091908261179924011
0.12057815492153168 0.12057815492153168 0.12057815492153168
0.15950317680835724 0.15950317680835724 0.15950317680835724
0.20485912263393402 0.20485912263393402 0.20485912263393402
0.2524268627166748 0.2524268627166748 0.2524268627166748
0.29920011758804321 0.29920011758804321 0.29920011758804321
0.34482067823410034 0.34482067823410034 0.34482067823410034
0.3910614550113678 0.3910614550113678 0.3910614550113678
0.44097760319709778 0.44097760319709778 0.44097760319709778
0.49708440899848938 0.49708440899848938 0.49708440899848938
0.55928266048431396 0.55928266048431396 0.55928266048431396
0.12295448780059814 0.12295448780059814 0.12295448780059814
0.12358716875314713 0.12358716875314713 0.12358716875314713
0.13313570618629456 0.13313570618629456 0.13313570618629456
0.15775978565216064 0.15775978565216064 0.15775978565216064
0.19391728937625885 0.19391728937625885 0.19391728937625885
0.23656569421291351 0.23656569421291351 0.23656569421291351
0.28055629134178162 0.28055629134178162 0.28055629134178162
0.32244053483009338 0.32244053483009338 0.32244053483009338
0.36381456255912781 0.36381456255912781 0.36381456255912781
0.40739884972572327 0.40739884972572327 0.40739884972572327
0.45525914430618286 0.45525914430618286 0.45525914430618286
0.51010376214981079 0.51010376214981079 0.51010376214981079
0.57086348533630371 0.57086348533630371 0.57086348533630371
0.19123987853527069 0.19123987853527069 0.19123987853527069
0.18868111073970795 0.18868111073970795 0.18868111073970795
0.19282534718513489 0.19282534718513489 0.19282534718513489
0.21008524298667908 0.21008524298667908 0.21008524298667908
0.23894660174846649 0.23894660174846649 0.23894660174846649
0.27476745843887329 0.27476745843887329 0.27476745843887329
0.31282427906990051 0.31282427906990051 0.31282427906990051
0.34898221492767334 0.34898221492767334 0.34898221492767334
0.38697457313537598 0.38697457313537598 0.38697457313537598
0.42920422554016113 0.42920422554016113 0.42920422554016113
0.47663924098014832 0.47663924098014832 0.47663924098014832
0.53052395582199097 0.53052395582199097 0.53052395582199097
0.58923196792602539 0.58923196792602539 0.58923196792602539
0.26772364974021912 0.26772364974021912 0.26772364974021912
0.26328012347221375 0.26328012347221375 0.26328012347221375
0.26286721229553223 0.26286721229553223 0.26286721229553223
0.27194404602050781 0.27194404602050781 0.27194404602050781
0.29044553637504578 0.29044553637504578 0.29044553637504578
0.31608325242996216 0.31608325242996216 0.31608325242996216
0.34526887536048889 0.34526887536048889 0.34526887536048889
0.37697896361351013 0.37697896361351013 0.37697896361351013
0.41283193230628967 0.41283193230628967 0.41283193230628967
0.45432493090629578 0.45432493090629578 0.45432493090629578
0.50186043977737427 0.50186043977737427 0.50186043977737427
0.55541181564331055 0.55541181564331055 0.55541181564331055
0.61261492967605591 0.61261492967605591 0.61261492967605591
0.34226569533348083 0.34226569533348083 0.34226569533348083
0.33780989050865173 0.33780989050865173 0.33780989050865173
0.33466532826423645 0.33466532826423645 0.33466532826423645
0.33718517422676086 0.33718517422676086 0.33718517422676086
0.34644332528114319 0.34644332528114319 0.34644332528114319
0.36158397793769836 0.36158397793769836 0.36158397793769836
0.38210317492485046 0.38210317492485046 0.38210317492485046
0.40852117538452148 0.40852117538452148 0.40852117538452148
0.44171112775802612 0.44171112775802612 0.44171112775802612
0.48187753558158875 0.48187753558158875 0.48187753558158875
0.52905499935150146 0.52905499935150146 0.52905499935150146
0.58212924003601074 0.58212924003601074 0.58212924003601074
0.63859975337982178 0.63859975337982178 0.63859975337982178
0.41269016265869141 0.41269016265869141 0.41269016265869141
0.40922856330871582 0.40922856330871582 0.40922856330871582
0.40525093674659729 0.40525093674659729 0.40525093674659729
0.40400469303131104 0.40400469303131104 0.40400469303131104
0.40632504224777222 0.40632504224777222 0.40632504224777222
0.41348814964294434 0.41348814964294434 0.41348814964294434
0.42635124921798706 0.42635124921798706 0.42635124921798706
0.44691899418830872 0.44691899418830872 0.44691899418830872
0.47558289766311646 0.47558289766311646 0.47558289766311646
0.51242578029632568 0.51242578029632568 0.51242578029632568
0.55712980031967163 0.55712980031967163 0.55712980031967163
0.60922914743423462 0.60922914743423462 0.60922914743423462
0.66544294357299805 0.66544294357299805 0.66544294357299805
0.4807647168636322 0.4807647168636322 0.4807647168636322
0.47848683595657349 0.47848683595657349 0.47848683595657349
0.4749683141708374 0.4749683141708374 0.4749683141708374
0.47199270129203796 0.47199270129203796 0.47199270129203796
0.47080120444297791 0.47080120444297791 0.47080120444297791
0.47299298644065857 0.47299298644065857 0.47299298644065857
0.48013389110565186 0.48013389110565186 0.48013389110565186
0.49438321590423584 0.49438321590423584 0.49438321590423584
0.51648896932601929 0.51648896932601929 0.51648896932601929
0.54662835597991943 0.54662835597991943 0.54662835597991943
0.58631807565689087 0.58631807565689087 0.58631807565689087
0.63537615537643433 0.63537615537643433 0.63537615537643433
0.69046074151992798 0.69046074151992798 0.69046074151992798
0.54920381307601929 0.54920381307601929 0.54920381307601929
0.54796034097671509 0.54796034097671509 0.54796034097671509
0.54549717903137207 0.54549717903137207 0.54549717903137207
0.54237669706344604 0.54237669706344604 0.54237669706344604
0.53977525234222412 0.53977525234222412 0.53977525234222412
0.5392758846282959 0.5392758846282959 0.5392758846282959
0.54243934154510498 0.54243934154510498 0.54243934154510498
0.55084866285324097 0.55084866285324097 0.55084866285324097
0.56541568040847778 0.56541568040847778 0.56541568040847778
0.58707940578460693 0.58707940578460693 0.58707940578460693
0.61860197782516479 0.61860197782516479 0.61860197782516479
0.66264432668685913 0.66264432668685913 0.66264432668685913
0.71479982137680054 0.71479982137680054 0.71479982137680054
0.6199570894241333 0.6199570894241333 0.6199570894241333
0.61981809139251709 0.61981809139251709 0.61981809139251709
0.61821442842483521 0.61821442842483521 0.61821442842483521
0.61544907093048096 0.61544907093048096 0.61544907093048096
0.61273461580276489 0.61273461580276489 0.61273461580276489
0.61080598831176758 0.61080598831176758 0.61080598831176758
0.61152416467666626 0.61152416467666626 0.61152416467666626
0.61561083793640137 0.61561083793640137 0.61561083793640137
0.62380808591842651 0.62380808591842651 0.62380808591842651
0.63706386089324951 0.63706386089324951 0.63706386089324951
0.65945887565612793 0.65945887565612793 0.65945887565612793
0.69762086868286133 0.69762086868286133 0.69762086868286133
0.74581682682037354 0.74581682682037354 0.74581682682037354
0.69470506906509399 0.69470506906509399 0.69470506906509399
0.69474261999130249 0.69474261999130249 0.69474261999130249
0.69327402114868164 0.69327402114868164 0.69327402114868164
0.69093513488769531 0.69093513488769531 0.69093513488769531
0.68796193599700928 0.68796193599700928 0.68796193599700928
0.68612897396087646 0.68612897396087646 0.68612897396087646
0.68544870615005493 0.68544870615005493 0.68544870615005493
0.68736004829406738 0.68736004829406738 0.68736004829406738
0.69161766767501831 0.69161766767501831 0.69161766767501831
0.69986677169799805 0.69986677169799805 0.69986677169799805
0.71647924184799194 0.71647924184799194 0.71647924184799194
0.74681371450424194 0.74681371450424194 0.74681371450424194
0.78774344921112061 0.78774344921112061 0.78774344921112061
0.77167290449142456 0.77167290449142456 0.77167290449142456
0.77137750387191772 0.77137750387191772 0.77137750387191772
0.7692263126373291 0.7692263126373291 0.7692263126373291
0.76689833402633667 0.76689833402633667 0.76689833402633667
0.76430672407150269 0.76430672407150269 0.76430672407150269
0.76278293132781982 0.76278293132781982 0.76278293132781982
0.76249998807907104 0.76249998807907104 0.76249998807907104
0.76333498954772949 0.76333498954772949 0.76333498954772949
0.76677542924880981 0.76677542924880981 0.76677542924880981
0.77200597524642944 0.77200597524642944 0.77200597524642944
0.78440344333648682 0.78440344333648682 0.78440344333648682
0.80721032619476318 0.80721032619476318 0.80721032619476318
0.83936035633087158 0.83936035633087158 0.83936035633087158
0.84728515148162842 0.84728515148162842 0.84728515148162842
0.8464084267616272 0.8464084267616272 0.8464084267616272
0.84408175945281982 0.84408175945281982 0.84408175945281982
0.84148144721984863 0.84148144721984863 0.84148144721984863
0.8394315242767334 0.8394315242767334 0.8394315242767334
0.83855301141738892 0.83855301141738892 0.83855301141738892
0.83930391073226929 0.83930391073226929 0.83930391073226929
0.84073334932327271 0.84073334932327271 0.84073334932327271
0.84350919723510742 0.84350919723510742 0.84350919723510742
0.84642094373703003 0.84642094373703003 0.84642094373703003
0.85494577884674072 0.85494577884674072 0.85494577884674072
0.87178820371627808 0.87178820371627808 0.87178820371627808
0.89676278829574585 0.89676278829574585 0.89676278829574585
0.072387591004371643 0.072387591004371643 0.072387591004371643
0.084218010306358337 0.084218010306358337 0.084218010306358337
0.10387187451124191 0.10387187451124191 0.10387187451124191
0.12967590987682343 0.12967590987682343 0.12967590987682343
0.16264359652996063 0.16264359652996063 0.16264359652996063
0.20431205630302429 0.20431205630302429 0.20431205630302429
0.2526458203792572 0.2526458203792572 0.2526458203792572
0.30116859078407288 0.30116859078407288 0.30116859078407288
0.34736472368240356 0.34736472368240356 0.34736472368240356
0.39404428005218506 0.39404428005218506 0.39404428005218506
0.44421964883804321 0.44421964883804321 0.44421964883804321
0.50025629997253418 0.50025629997253418 0.50025629997253418
0.56063574552536011 0.56063574552536011 0.56063574552536011
0.10358994454145432 0.10358994454145432 0.10358994454145432
0.10920450836420059 0.10920450836420059 0.10920450836420059
0.12316834926605225 0.12316834926605225 0.12316834926605225
0.14754721522331238 0.14754721522331238 0.14754721522331238
0.18113109469413757 0.18113109469413757 0.18113109469413757
0.22248467803001404 0.22248467803001404 0.22248467803001404
0.26835015416145325 0.26835015416145325 0.26835015416145325
0.31417641043663025 0.31417641043663025 0.31417641043663025
0.35823240876197815 0.35823240876197815 0.35823240876197815
0.40264737606048584 0.40264737606048584 0.40264737606048584
0.45049247145652771 0.45049247145652771 0.45049247145652771
0.50523227453231812 0.50523227453231812 0.50523227453231812
0.56676864624023438 0.56676864624023438 0.56676864624023438
0.15141968429088593 0.15141968429088593 0.15141968429088593
0.15109081566333771 0.15109081566333771 0.15109081566333771
0.15834961831569672 0.15834961831569672 0.15834961831569672
0.18028493225574493 0.18028493225574493 0.18028493225574493
0.21252647042274475 0.21252647042274475 0.21252647042274475
0.2508406937122345 0.2508406937122345 0.2508406937122345
0.29200559854507446 0.29200559854507446 0.29200559854507446
0.33310946822166443 0.33310946822166443 0.33310946822166443
0.37430736422538757 0.37430736422538757 0.37430736422538757
0.41701534390449524 0.41701534390449524 0.41701534390449524
0.46374613046646118 0.46374613046646118 0.46374613046646118
0.51751279830932617 0.51751279830932617 0.51751279830932617
0.57808476686477661 0.57808476686477661 0.57808476686477661
0.21528179943561554 0.21528179943561554 0.21528179943561554
0.2119867354631424 0.2119867354631424 0.2119867354631424
0.21475359797477722 0.21475359797477722 0.21475359797477722
0.22968621551990509 0.22968621551990509 0.22968621551990509
0.25475212931632996 0.25475212931632996 0.25475212931632996
0.2862304151058197 0.2862304151058197 0.2862304151058197
0.32081764936447144 0.32081764936447144 0.32081764936447144
0.35689786076545715 0.35689786076545715 0.35689786076545715
0.39540278911590576 0.39540278911590576 0.39540278911590576
0.43757665157318115 0.43757665157318115 0.43757665157318115
0.48464840650558472 0.48464840650558472 0.48464840650558472
0.53791451454162598 0.53791451454162598 0.53791451454162598
0.59608882665634155 0.59608882665634155 0.59608882665634155
0.28914105892181396 0.28914105892181396 0.28914105892181396
0.28456336259841919 0.28456336259841919 0.28456336259841919
0.28311371803283691 0.28311371803283691 0.28311371803283691
0.28972992300987244 0.28972992300987244 0.28972992300987244
0.30459991097450256 0.30459991097450256 0.30459991097450256
0.32596513628959656 0.32596513628959656 0.32596513628959656
0.35225501656532288 0.35225501656532288 0.35225501656532288
0.38326403498649597 0.38326403498649597 0.38326403498649597
0.41984167695045471 0.41984167695045471 0.41984167695045471
0.46196383237838745 0.46196383237838745 0.46196383237838745
0.50930619239807129 0.50930619239807129 0.50930619239807129
0.56212538480758667 0.56212538480758667 0.56212538480758667
0.61874616146087646 0.61874616146087646 0.61874616146087646
0.3635200560092926 0.3635200560092926 0.3635200560092926
0.35851797461509705 0.35851797461509705 0.35851797461509705
0.35380008816719055 0.35380008816719055 0.35380008816719055
0.35353538393974304 0.35353538393974304 0.35353538393974304
0.3591371476650238 0.3591371476650238 0.3591371476650238
0.37028929591178894 0.37028929591178894 0.37028929591178894
0.38729637861251831 0.38729637861251831 0.38729637861251831
0.41309323906898499 0.41309323906898499 0.41309323906898499
0.44747504591941833 0.44747504591941833 0.44747504591941833
0.48859882354736328 0.48859882354736328 0.48859882354736328
0.53549987077713013 0.53549987077713013 0.53549987077713013
0.5876469612121582 0.5876469612121582 0.5876469612121582
0.64302027225494385 0.64302027225494385 0.64302027225494385
0.43292218446731567 0.43292218446731567 0.43292218446731567
0.42865258455276489 0.42865258455276489 0.42865258455276489
0.42304229736328125 0.42304229736328125 0.42304229736328125
0.41893681883811951 0.41893681883811951 0.41893681883811951
0.41819959878921509 0.41819959878921509 0.41819959878921509
0.42126196622848511 0.42126196622848511 0.42126196622848511
0.43060752749443054 0.43060752749443054 0.43060752749443054
0.45016995072364807 0.45016995072364807 0.45016995072364807
0.48032256960868835 0.48032256960868835 0.48032256960868835
0.51786309480667114 0.51786309480667114 0.51786309480667114
0.56233447790145874 0.56233447790145874 0.56233447790145874
0.61332672834396362 0.61332672834396362 0.61332672834396362
0.66772925853729248 0.66772925853729248 0.66772925853729248
0.49800437688827515 0.49800437688827515 0.49800437688827515
0.49550977349281311 0.49550977349281311 0.49550977349281311
0.4907824695110321 0.4907824695110321 0.4907824695110321
0.48576593399047852 0.48576593399047852 0.48576593399047852
0.4817517101764679 0.4817517101764679 0.4817517101764679
0.48066100478172302 0.48066100478172302 0.48066100478172302
0.48511666059494019 0.48511666059494019 0.48511666059494019
0.49832692742347717 0.49832692742347717 0.49832692742347717
0.52074688673019409 0.52074688673019409 0.52074688673019409
0.55163586139678955 0.55163586139678955 0.55163586139678955
0.59084731340408325 0.59084731340408325 0.59084731340408325
0.63873350620269775 0.63873350620269775 0.63873350620269775
0.69139283895492554 0.69139283895492554 0.69139283895492554
0.56244784593582153 0.56244784593582153 0.56244784593582153
0.56171286106109619 0.56171286106109619 0.56171286106109619
0.55895686149597168 0.55895686149597168 0.55895686149597168
0.5545385479927063 0.5545385479927063 0.5545385479927063
0.54985755681991577 0.54985755681991577 0.54985755681991577
0.54711395502090454 0.54711395502090454 0.54711395502090454
0.54791998863220215 0.54791998863220215 0.54791998863220215
0.55534529685974121 0.55534529685974121 0.55534529685974121
0.56963002681732178 0.56963002681732178 0.56963002681732178
0.5916283130645752 0.5916283130645752 0.5916283130645752
0.62314713001251221 0.62314713001251221 0.62314713001251221
0.66593670845031738 0.66593670845031738 0.66593670845031738
0.71638190746307373 0.71638190746307373 0.71638190746307373
0.62931746244430542 0.62931746244430542 0.62931746244430542
0.63019263744354248 0.63019263744354248 0.63019263744354248
0.62914681434631348 0.62914681434631348 0.62914681434631348
0.62596362829208374 0.62596362829208374 0.62596362829208374
0.62171477079391479 0.62171477079391479 0.62171477079391479
0.61801481246948242 0.61801481246948242 0.61801481246948242
0.61703020334243774 0.61703020334243774 0.61703020334243774
0.61981052160263062 0.61981052160263062 0.61981052160263062
0.62746095657348633 0.62746095657348633 0.62746095657348633
0.64128947257995605 0.64128947257995605 0.64128947257995605
0.66438770294189453 0.66438770294189453 0.66438770294189453
0.70104897022247314 0.70104897022247314 0.70104897022247314
0.74722301959991455 0.74722301959991455 0.74722301959991455
0.70138955116271973 0.70138955116271973 0.70138955116271973
0.70258647203445435 0.70258647203445435 0.70258647203445435
0.7019539475440979 0.7019539475440979 0.7019539475440979
0.6994512677192688 0.6994512677192688 0.6994512677192688
0.6958242654800415 0.6958242654800415 0.6958242654800415
0.69232308864593506 0.69232308864593506 0.69232308864593506
0.69049346446990967 0.69049346446990967 0.69049346446990967
0.69077277183532715 0.69077277183532715 0.69077277183532715
0.69429641962051392 0.69429641962051392 0.69429641962051392
0.70260310173034668 0.70260310173034668 0.70260310173034668
0.71961897611618042 0.71961897611618042 0.71961897611618042
0.74909466505050659 0.74909466505050659 0.74909466505050659
0.78820914030075073 0.78820914030075073 0.78820914030075073
0.77652323246002197 0.77652323246002197 0.77652323246002197
0.77714961767196655 0.77714961767196655 0.77714961767196655
0.7762412428855896 0.7762412428855896 0.7762412428855896
0.77361512184143066 0.77361512184143066 0.77361512184143066
0.77046173810958862 0.77046173810958862 0.77046173810958862
0.76768034696578979 0.76768034696578979 0.76768034696578979
0.76569223403930664 0.76569223403930664 0.76569223403930664
0.76568067073822021 0.76568067073822021 0.76568067073822021
0.76717835664749146 0.76717835664749146 0.76717835664749146
0.77243506908416748 0.77243506908416748 0.77243506908416748
0.7848130464553833 0.7848130464553833 0.7848130464553833
0.80712103843688965 0.80712103843688965 0.80712103843688965
0.83847212791442871 0.83847212791442871 0.83847212791442871
0.85081690549850464 0.85081690549850464 0.85081690549850464
0.85085088014602661 0.85085088014602661 0.85085088014602661
0.84922873973846436 0.84922873973846436 0.84922873973846436
0.84669941663742065 0.84669941663742065 0.84669941663742065
0.84395617246627808 0.84395617246627808 0.84395617246627808
0.84158229827880859 0.84158229827880859 0.84158229827880859
0.84043610095977783 0.84043610095977783 0.84043610095977783
0.84018808603286743 0.84018808603286743 0.84018808603286743
0.84156721830368042 0.84156721830368042 0.84156721830368042
0.84462326765060425 0.84462326765060425 0.84462326765060425
0.85334044694900513 0.85334044694900513 0.85334044694900513
0.86992764472961426 0.86992764472961426 0.86992764472961426
0.89402174949645996 0.89402174949645996 0.89402174949645996
0.1265440434217453 0.1265440434217453 0.1265440434217453
0.13966332376003265 0.13966332376003265 0.13966332376003265
0.15841794013977051 0.15841794013977051 0.15841794013977051
0.17774373292922974 0.17774373292922974 0.17774373292922974
0.19881819188594818 0.19881819188594818 0.19881819188594818
0.23342536389827728 0.23342536389827728 0.23342536389827728
0.28062570095062256 0.28062570095062256 0.28062570095062256
0.32699701189994812 0.32699701189994812 0.32699701189994812
0.36915755271911621 0.36915755271911621 0.36915755271911621
0.41253000497817993 0.41253000497817993 0.41253000497817993
0.46060130000114441 0.46060130000114441 0.46060130000114441
0.51475685834884644 0.51475685834884644 0.51475685834884644
0.57281887531280518 0.57281887531280518 0.57281887531280518
0.15090836584568024 0.15090836584568024 0.15090836584568024
0.1592189222574234 0.1592189222574234 0.1592189222574234
0.17357634007930756 0.17357634007930756 0.17357634007930756
0.19197951257228851 0.19197951257228851 0.19197951257228851
0.21519225835800171 0.21519225835800171 0.21519225835800171
0.24910014867782593 0.24910014867782593 0.24910014867782593
0.29203024506568909 0.29203024506568909 0.29203024506568909
0.33537620306015015 0.33537620306015015 0.33537620306015015
0.37698441743850708 0.37698441743850708 0.37698441743850708
0.41986125707626343 0.41986125707626343 0.41986125707626343
0.46731722354888916 0.46731722354888916 0.46731722354888916
0.52118939161300659 0.52118939161300659 0.52118939161300659
0.58015429973602295 0.58015429973602295 0.58015429973602295
0.19100652635097504 0.19100652635097504 0.19100652635097504
0.19441406428813934 0.19441406428813934 0.19441406428813934
0.20371676981449127 0.20371676981449127 0.20371676981449127
0.22066736221313477 0.22066736221313477 0.22066736221313477
0.24446628987789154 0.24446628987789154 0.24446628987789154
0.27545884251594543 0.27545884251594543 0.27545884251594543
0.31186968088150024 0.31186968088150024 0.31186968088150024
0.35085049271583557 0.35085049271583557 0.35085049271583557
0.39044672250747681 0.39044672250747681 0.39044672250747681
0.43352529406547546 0.43352529406547546 0.43352529406547546
0.48054853081703186 0.48054853081703186 0.48054853081703186
0.53353226184844971 0.53353226184844971 0.53353226184844971
0.59213507175445557 0.59213507175445557 0.59213507175445557
0.24808360636234283 0.24808360636234283 0.24808360636234283
0.24818852543830872 0.24818852543830872 0.24818852543830872
0.25241154432296753 0.25241154432296753 0.25241154432296753
0.26450178027153015 0.26450178027153015 0.26450178027153015
0.28370261192321777 0.28370261192321777 0.28370261192321777
0.30878445506095886 0.30878445506095886 0.30878445506095886
0.33841514587402344 0.33841514587402344 0.33841514587402344
0.37241405248641968 0.37241405248641968 0.37241405248641968
0.41082099080085754 0.41082099080085754 0.41082099080085754
0.45339369773864746 0.45339369773864746 0.45339369773864746
0.50033223628997803 0.50033223628997803 0.50033223628997803
0.55284565687179565 0.55284565687179565 0.55284565687179565
0.60923069715499878 0.60923069715499878 0.60923069715499878
0.31798872351646423 0.31798872351646423 0.31798872351646423
0.31520113348960876 0.31520113348960876 0.31520113348960876
0.3145468533039093 0.3145468533039093 0.3145468533039093
0.31916049122810364 0.31916049122810364 0.31916049122810364
0.33010876178741455 0.33010876178741455 0.33010876178741455
0.34659340977668762 0.34659340977668762 0.34659340977668762
0.36919388175010681 0.36919388175010681 0.36919388175010681
0.39870938658714294 0.39870938658714294 0.39870938658714294
