luts/instant_pro/polaroid_690_cold_++.cube
# Created by: G'MIC (https://gmic.eu)
TITLE "polaroid_690_cold_++"
# LUT size
LUT_3D_SIZE 5
# Data domain
DOMAIN_MIN 0.0 0.0 0.0
DOMAIN_MAX 1.0 1.0 1.0
# LUT data points
0.21922044456005096 0.32156863808631897 0.36731842160224915
0.26988741755485535 0.31374707818031311 0.36598780751228333
0.42419236898422241 0.30399051308631897 0.36139065027236938
0.66584151983261108 0.27261695265769958 0.35903847217559814
0.92042422294616699 0.22693093121051788 0.35296839475631714
0.21093223989009857 0.3508879542350769 0.36557847261428833
0.28311619162559509 0.3575114905834198 0.36358237266540527
0.50233888626098633 0.37072637677192688 0.36312618851661682
0.746601402759552 0.36768355965614319 0.35550758242607117
0.96150064468383789 0.35225680470466614 0.34668555855751038
0.19977886974811554 0.49118661880493164 0.361960768699646
0.29175427556037903 0.48898971080780029 0.35931673645973206
0.50423425436019897 0.53155350685119629 0.34982970356941223
0.79036557674407959 0.60233986377716064 0.33595764636993408
0.98253244161605835 0.62267398834228516 0.35217729210853577
0.18052759766578674 0.71362698078155518 0.34149870276451111
0.30739733576774597 0.70657747983932495 0.3367939293384552
0.51428687572479248 0.72428488731384277 0.32775130867958069
0.7620546817779541 0.75317078828811646 0.32201921939849854
0.97191095352172852 0.78002464771270752 0.34506964683532715
0.45257425308227539 0.90564912557601929 0.38833260536193848
0.51245641708374023 0.90094566345214844 0.38176643848419189
0.64782369136810303 0.90238481760025024 0.37484270334243774
0.81362360715866089 0.91527247428894043 0.38393738865852356
0.95450866222381592 0.93133187294006348 0.40344661474227905
0.20066733658313751 0.31462845206260681 0.4055822491645813
0.26274102926254272 0.31178423762321472 0.41688153147697449
0.42729532718658447 0.29986563324928284 0.41281792521476746
0.64765483140945435 0.25220456719398499 0.40769726037979126
0.90122133493423462 0.11593537032604218 0.38412937521934509
0.19454878568649292 0.35960322618484497 0.41969424486160278
0.28376644849777222 0.36339592933654785 0.42326512932777405
0.49087542295455933 0.35388278961181641 0.41872712969779968
0.71426510810852051 0.31454077363014221 0.40548723936080933
0.94888424873352051 0.27549004554748535 0.39032867550849915
0.13721813261508942 0.52658563852310181 0.42788910865783691
0.28154823184013367 0.52294784784317017 0.42830380797386169
0.51932418346405029 0.5509340763092041 0.41607567667961121
0.80015677213668823 0.59807425737380981 0.42421051859855652
0.98075395822525024 0.5926741361618042 0.42498007416725159
0.094946824014186859 0.73856770992279053 0.40722924470901489
0.2782156765460968 0.7297942042350769 0.40067487955093384
0.51186567544937134 0.7329520583152771 0.39191564917564392
0.77148449420928955 0.76305472850799561 0.39838448166847229
0.9745941162109375 0.78174710273742676 0.4367888867855072
0.42587730288505554 0.90944927930831909 0.46196416020393372
0.49438992142677307 0.90843194723129272 0.45411062240600586
0.63292825222015381 0.90567374229431152 0.43818852305412292
0.80525416135787964 0.91512757539749146 0.44890034198760986
0.95167523622512817 0.93222355842590332 0.47792977094650269
0.15983419120311737 0.31123760342597961 0.56824636459350586
0.28301611542701721 0.30725482106208801 0.59493249654769897
0.52240139245986938 0.29098838567733765 0.62825250625610352
0.69498932361602783 0.2702602744102478 0.57643204927444458
0.90652978420257568 0.15570999681949615 0.55711251497268677
0.13442058861255646 0.36319833993911743 0.57512515783309937
0.27874022722244263 0.37205266952514648 0.60215270519256592
0.54060286283493042 0.37131452560424805 0.643657386302948
0.71774744987487793 0.33500155806541443 0.58042711019515991
0.92701560258865356 0.21115577220916748 0.54561913013458252
0.092907503247261047 0.54483878612518311 0.6050536036491394
0.27677521109580994 0.55655014514923096 0.61582678556442261
0.53565263748168945 0.58022594451904297 0.63761276006698608
0.77262866497039795 0.52712392807006836 0.59548431634902954
0.97003030776977539 0.43895155191421509 0.52803462743759155
0.054835673421621323 0.7727130651473999 0.62301468849182129
0.26530134677886963 0.76755928993225098 0.60960030555725098
0.51522815227508545 0.75460034608840942 0.58396404981613159
0.77386474609375 0.77005976438522339 0.60002440214157104
0.96258485317230225 0.78318804502487183 0.65672272443771362
0.40346676111221313 0.91925632953643799 0.64939230680465698
0.46999838948249817 0.91385054588317871 0.63489878177642822
0.60373175144195557 0.91149783134460449 0.61580425500869751
0.78233039379119873 0.91409295797348022 0.60405850410461426
0.93510901927947998 0.93348795175552368 0.65338563919067383
0.12017261236906052 0.30883657932281494 0.82990568876266479
0.3126014769077301 0.30342018604278564 0.84220987558364868
0.58756619691848755 0.29008230566978455 0.87565290927886963
0.82829147577285767 0.2802034318447113 0.88490235805511475
0.96596825122833252 0.26535937190055847 0.82675522565841675
0.019256053492426872 0.36791214346885681 0.83109098672866821
0.27506384253501892 0.37495279312133789 0.83845788240432739
0.57448434829711914 0.38814499974250793 0.87289035320281982
0.82583767175674438 0.40979501605033875 0.88757896423339844
0.96138197183609009 0.36842647194862366 0.8225058913230896
0.0038280710577964783 0.52634286880493164 0.79765874147415161
0.14272305369377136 0.52234387397766113 0.80656647682189941
0.51043885946273804 0.57444149255752563 0.84282582998275757
0.79926049709320068 0.63910531997680664 0.87638401985168457
0.94308704137802124 0.5496864914894104 0.80875897407531738
0.15974585711956024 0.77181130647659302 0.83844268321990967
0.33299112319946289 0.76897376775741577 0.84018498659133911
0.56997144222259521 0.76932209730148315 0.85243970155715942
0.79668653011322021 0.79455065727233887 0.87040966749191284
0.94162702560424805 0.73688375949859619 0.82168054580688477
0.55176621675491333 0.91998302936553955 0.86418282985687256
0.58958762884140015 0.92157286405563354 0.86031240224838257
0.67015916109085083 0.92284154891967773 0.85914599895477295
0.77389305830001831 0.92131304740905762 0.83470326662063599
0.91570836305618286 0.94087213277816772 0.86132967472076416
0.38566374778747559 0.34999570250511169 0.98816359043121338
0.4780154824256897 0.35437226295471191 0.98792898654937744
0.64998084306716919 0.36019143462181091 0.99134624004364014
0.8387264609336853 0.43242719769477844 0.99177229404449463
0.97714734077453613 0.51765596866607666 0.98555183410644531
0.37413400411605835 0.43028229475021362 0.98566144704818726
0.46665182709693909 0.43574756383895874 0.98650765419006348
0.64665424823760986 0.45969927310943604 0.98875313997268677
0.83365750312805176 0.54566580057144165 0.9874081015586853
0.96720921993255615 0.60199165344238281 0.98214250802993774
0.25678902864456177 0.58731484413146973 0.97712147235870361
0.39303284883499146 0.59810727834701538 0.97476881742477417
0.61823952198028564 0.6292230486869812 0.977985680103302
0.82144474983215332 0.69257950782775879 0.97759014368057251
0.95229178667068481 0.72317904233932495 0.97312796115875244
0.24867092072963715 0.76619738340377808 0.96371901035308838
0.34929671883583069 0.76003885269165039 0.96239209175109863
0.55254065990447998 0.75601637363433838 0.96174770593643188
0.80553370714187622 0.79994940757751465 0.96811819076538086
0.93554162979125977 0.83440428972244263 0.96741694211959839
0.64218473434448242 0.92752194404602051 0.96148836612701416
0.67442315816879272 0.9258502721786499 0.96244114637374878
0.74636596441268921 0.92900353670120239 0.96248477697372437
0.83030706644058228 0.92573189735412598 0.9563102126121521
0.9180033802986145 0.9515947699546814 0.9611818790435791
