luts/instant_pro/polaroid_690_cold_-.cube
# Created by: G'MIC (https://gmic.eu)
TITLE "polaroid_690_cold_-"
# LUT size
LUT_3D_SIZE 13
# Data domain
DOMAIN_MIN 0.0 0.0 0.0
DOMAIN_MAX 1.0 1.0 1.0
# LUT data points
0.0024474498350173235 0.094425618648529053 0.067566215991973877
0.017120525240898132 0.09473583847284317 0.06702868640422821
0.08972632884979248 0.093083761632442474 0.068577095866203308
0.18141826987266541 0.084465399384498596 0.070993967354297638
0.27460885047912598 0.064148500561714172 0.076996713876724243
0.37014254927635193 0.026456989347934723 0.077222712337970734
0.46615362167358398 0.0053576151840388775 0.078640945255756378
0.56003481149673462 0.0026782017666846514 0.081722661852836609
0.64847570657730103 0.0016718845581635833 0.085279904305934906
0.73539078235626221 0.0012866300530731678 0.086802296340465546
0.81468266248703003 0.0021226771641522646 0.085721708834171295
0.89319372177124023 0.0031201380770653486 0.084212422370910645
0.96653503179550171 0.0024801217950880527 0.079892583191394806
0.0037049236707389355 0.14160095155239105 0.077351152896881104
0.013763487339019775 0.13722874224185944 0.072939947247505188
0.084825493395328522 0.13458047807216644 0.073701687157154083
0.1913657933473587 0.12610892951488495 0.076766006648540497
0.29214543104171753 0.10979832708835602 0.080542862415313721
0.3898979127407074 0.076712273061275482 0.084831729531288147
0.48869886994361877 0.032981619238853455 0.084034234285354614
0.58338814973831177 0.01096369419246912 0.085687018930912018
0.67334342002868652 0.0046554864384233952 0.088089063763618469
0.75603872537612915 0.0047300751321017742 0.090766936540603638
0.83331644535064697 0.0040458976291120052 0.090124867856502533
0.90956956148147583 0.0077703888528048992 0.087502285838127136
0.97288972139358521 0.0084329638630151749 0.083702340722084045
0.0032869975548237562 0.19327940046787262 0.084220483899116516
0.0091851474717259407 0.19308152794837952 0.079057581722736359
0.078380793333053589 0.19577988982200623 0.077558122575283051
0.2039942592382431 0.19687241315841675 0.078692071139812469
0.31564414501190186 0.18617680668830872 0.081675603985786438
0.42332684993743896 0.1638767421245575 0.091407507658004761
0.52746868133544922 0.13207387924194336 0.095470130443572998
0.61883437633514404 0.087708219885826111 0.095496296882629395
0.70122057199478149 0.043923966586589813 0.093946926295757294
0.7792317271232605 0.021305937319993973 0.093440018594264984
0.85375207662582397 0.0076770409941673279 0.090923026204109192
0.92546093463897705 0.012088192626833916 0.088855132460594177
0.98129290342330933 0.011260014027357101 0.084497697651386261
0.0045798057690262794 0.25819393992424011 0.093020044267177582
0.0079916557297110558 0.26002144813537598 0.088845811784267426
0.056386984884738922 0.26338434219360352 0.083877131342887878
0.19952584803104401 0.27222263813018799 0.078780047595500946
0.33302664756774902 0.27455639839172363 0.077671810984611511
0.45370537042617798 0.27063724398612976 0.090480014681816101
0.56534194946289062 0.25789663195610046 0.10200473666191101
0.65775138139724731 0.23520587384700775 0.10698945075273514
0.73548305034637451 0.20430666208267212 0.10694548487663269
0.80424660444259644 0.17181552946567535 0.10428870469331741
0.87431788444519043 0.1380174309015274 0.099670231342315674
0.93971121311187744 0.11554231494665146 0.093586623668670654
0.98875218629837036 0.10811831802129745 0.08753763884305954
0.0090167177841067314 0.33766117691993713 0.10460679233074188
0.0088150026276707649 0.33662253618240356 0.10245231539011002
0.043106887489557266 0.33763134479522705 0.094330117106437683
0.18559262156486511 0.34971162676811218 0.088744625449180603
0.32532411813735962 0.35744845867156982 0.077631033957004547
0.45010685920715332 0.36248186230659485 0.070438578724861145
0.56725066900253296 0.36400958895683289 0.077951245009899139
0.66872835159301758 0.36060884594917297 0.092420481145381927
0.75802719593048096 0.35681784152984619 0.11156315356492996
0.82871139049530029 0.34122741222381592 0.11755093187093735
0.89396661520004272 0.32649913430213928 0.11670742928981781
0.95109587907791138 0.31073468923568726 0.10852128267288208
0.99153745174407959 0.30401629209518433 0.10019209980964661
0.011668635532259941 0.41676026582717896 0.11343024671077728
0.0095895351842045784 0.41463467478752136 0.11094897240400314
0.033569935709238052 0.41211017966270447 0.10427835583686829
0.17248833179473877 0.42210200428962708 0.10142110288143158
0.30807515978813171 0.43406835198402405 0.085114605724811554
0.43215882778167725 0.44613808393478394 0.060594025999307632
0.55028575658798218 0.45533350110054016 0.050602603703737259
0.65716373920440674 0.4639621376991272 0.05250181257724762
0.75576627254486084 0.47459939122200012 0.079160161316394806
0.83792722225189209 0.48359200358390808 0.11395793408155441
0.90308111906051636 0.48114013671875 0.13370203971862793
0.95895063877105713 0.46901041269302368 0.13153019547462463
0.99395543336868286 0.4625251293182373 0.12404638528823853
0.011764706112444401 0.49122679233551025 0.11798800528049469
0.011315095238387585 0.48861813545227051 0.11543088406324387
0.02933654747903347 0.48576012253761292 0.11070439964532852
0.1627676784992218 0.49200740456581116 0.1051633208990097
0.28999161720275879 0.5068976879119873 0.086547449231147766
0.41283437609672546 0.51953703165054321 0.057768564671278
0.52696305513381958 0.53447812795639038 0.0377337746322155
0.63584375381469727 0.5522315502166748 0.022272147238254547
0.73187845945358276 0.56449794769287109 0.028711460530757904
0.81782960891723633 0.57729601860046387 0.052510712295770645
0.89387297630310059 0.58911621570587158 0.10571371018886566
0.95794832706451416 0.59451782703399658 0.15401020646095276
0.99358505010604858 0.59343636035919189 0.17019128799438477
0.010828504338860512 0.56936657428741455 0.11914786696434021
0.010829087346792221 0.56741875410079956 0.11689276248216629
0.020013114437460899 0.56285059452056885 0.11199553310871124
0.14642998576164246 0.56570672988891602 0.10693136602640152
0.27676376700401306 0.57631939649581909 0.085136428475379944
0.39296412467956543 0.58779507875442505 0.058901287615299225
0.50183039903640747 0.60296982526779175 0.035091504454612732
0.60731631517410278 0.62406003475189209 0.015506206080317497
0.70804506540298462 0.64034831523895264 0.010397219099104404
0.7991599440574646 0.65181046724319458 0.0167058315128088
0.87863707542419434 0.66170608997344971 0.053955212235450745
0.94491243362426758 0.66912060976028442 0.12814702093601227
0.9866606593132019 0.67506319284439087 0.19130297005176544
0.0081295240670442581 0.64615082740783691 0.12096265703439713
0.0092502068728208542 0.64748466014862061 0.11473128199577332
0.019149720668792725 0.64414352178573608 0.10592640936374664
0.14833846688270569 0.6396515965461731 0.097568437457084656
0.27661833167076111 0.64512312412261963 0.080693155527114868
0.38634899258613586 0.65506035089492798 0.055430319160223007
0.49085500836372375 0.66867852210998535 0.032972060143947601
0.59619390964508057 0.68558108806610107 0.018486905843019485
0.69241052865982056 0.69722181558609009 0.010255147702991962
0.7835039496421814 0.70769882202148438 0.0083595272153615952
0.86456382274627686 0.71520465612411499 0.025187009945511818
0.93400669097900391 0.71929728984832764 0.085956811904907227
0.98542231321334839 0.7255713939666748 0.16431526839733124
0.012910700403153896 0.7192499041557312 0.12390682846307755
0.024134362116456032 0.71997928619384766 0.11674050986766815
0.088859438896179199 0.71937721967697144 0.10841402411460876
0.20706164836883545 0.71156233549118042 0.10105182230472565
0.31021532416343689 0.71122431755065918 0.081773392856121063
0.40920794010162354 0.71715390682220459 0.062969088554382324
0.50488042831420898 0.72686910629272461 0.046952910721302032
0.6019633412361145 0.73710858821868896 0.036827895790338516
0.69320911169052124 0.74627333879470825 0.023965543136000633
0.77731585502624512 0.75483721494674683 0.020145490765571594
0.8575819730758667 0.76220756769180298 0.032580927014350891
0.92787915468215942 0.7674795389175415 0.074107497930526733
0.98265910148620605 0.77098757028579712 0.13663846254348755
0.14884965121746063 0.78455990552902222 0.14675953984260559
0.18179027736186981 0.78262829780578613 0.14237047731876373
0.23262584209442139 0.77789455652236938 0.1368558257818222
0.30514270067214966 0.77427691221237183 0.12674921751022339
0.37746840715408325 0.77129346132278442 0.11105629056692123
0.45621302723884583 0.77395915985107422 0.097648829221725464
0.54155737161636353 0.7804185152053833 0.083254344761371613
0.62131327390670776 0.78661692142486572 0.079931639134883881
0.70596086978912354 0.79433119297027588 0.071885637938976288
0.78227502107620239 0.80194348096847534 0.065324299037456512
0.8558577299118042 0.80783361196517944 0.065161749720573425
0.92287814617156982 0.81420707702636719 0.10354132205247879
0.9791102409362793 0.82024526596069336 0.14858523011207581
0.31811061501502991 0.84126400947570801 0.20111019909381866
0.33262175321578979 0.83919006586074829 0.19371972978115082
0.36368343234062195 0.83651167154312134 0.18700875341892242
0.41008943319320679 0.83517611026763916 0.17805205285549164
0.46389943361282349 0.83303487300872803 0.16907492280006409
0.52403682470321655 0.8333396315574646 0.1532684862613678
0.58958941698074341 0.83684521913528442 0.14767976105213165
0.65636599063873291 0.84162050485610962 0.15035288035869598
0.72960740327835083 0.84726572036743164 0.14833322167396545
0.7984200119972229 0.8555341362953186 0.14738932251930237
0.86342132091522217 0.86196088790893555 0.14754821360111237
0.92285877466201782 0.86925143003463745 0.15819926559925079
0.97579759359359741 0.87639588117599487 0.18796597421169281
0.43858069181442261 0.90690153837203979 0.2882213294506073
0.45313557982444763 0.90595638751983643 0.27914798259735107
0.47507655620574951 0.90561860799789429 0.27604767680168152
0.50720417499542236 0.90259784460067749 0.26701053977012634
0.54849594831466675 0.90281194448471069 0.25820690393447876
0.5938599705696106 0.9038093090057373 0.24986264109611511
0.64526206254959106 0.90484946966171265 0.24541456997394562
0.69896429777145386 0.9087531566619873 0.24390652775764465
0.75890630483627319 0.91412532329559326 0.24477589130401611
0.81856107711791992 0.92191535234451294 0.249341681599617
0.87433940172195435 0.9276958703994751 0.24905174970626831
0.92830848693847656 0.93400692939758301 0.24857620894908905
0.97948563098907471 0.94104236364364624 0.24922053515911102
0.0021061466541141272 0.098449662327766418 0.11916728317737579
0.011374948546290398 0.097970061004161835 0.12172579020261765
0.079213805496692657 0.10024981200695038 0.11762139946222305
0.17630118131637573 0.096398085355758667 0.12125794589519501
0.27078089118003845 0.080817908048629761 0.12517593801021576
0.36852297186851501 0.041436437517404556 0.12494625151157379
0.46333146095275879 0.0090308096259832382 0.12572675943374634
0.55485987663269043 0.0040669310837984085 0.1323569118976593
0.64409971237182617 0.0023688820656388998 0.13045445084571838
0.72913897037506104 0.0018056832486763597 0.13015890121459961
0.8088299036026001 0.0021689620334655046 0.12728764116764069
0.88832646608352661 0.0024400597903877497 0.12330851703882217
0.96289306879043579 0.0014495999785140157 0.11918004602193832
0.0040466156788170338 0.14304664731025696 0.13209092617034912
0.011438407003879547 0.14154747128486633 0.1301063746213913
0.079581812024116516 0.14150604605674744 0.13031753897666931
0.18788991868495941 0.13626556098461151 0.13453179597854614
0.28962713479995728 0.12005437165498734 0.13342469930648804
0.38792234659194946 0.086609557271003723 0.1359827071428299
0.48561713099479675 0.041336897760629654 0.13290201127529144
0.57962679862976074 0.011228284798562527 0.13038238883018494
0.66962552070617676 0.0062140072695910931 0.1321430504322052
0.75234562158584595 0.0062074847519397736 0.13320326805114746
0.82921046018600464 0.0055493973195552826 0.13105352222919464
0.90398842096328735 0.0057275658473372459 0.1266908198595047
0.97094058990478516 0.0049194484017789364 0.12202651053667068
0.0043144077062606812 0.19568745791912079 0.14741140604019165
0.0089204376563429832 0.19535635411739349 0.13998368382453918
0.077419742941856384 0.19866420328617096 0.13879254460334778
0.2050311267375946 0.20243543386459351 0.14294154942035675
0.31794324517250061 0.19319120049476624 0.1417306512594223
0.42147958278656006 0.17120635509490967 0.14699484407901764
0.52149933576583862 0.13974751532077789 0.14562018215656281
0.61340427398681641 0.097916081547737122 0.14111804962158203
0.69518935680389404 0.050180621445178986 0.13802807033061981
0.7746158242225647 0.022290054708719254 0.13607139885425568
0.84976100921630859 0.010094511322677135 0.13398931920528412
0.92140918970108032 0.010645877569913864 0.12987484037876129
0.97942072153091431 0.0051102582365274429 0.12500274181365967
0.0053298948332667351 0.2652132511138916 0.15820421278476715
0.0076312795281410217 0.26517027616500854 0.14879080653190613
0.06476331502199173 0.26883187890052795 0.14540277421474457
0.20629774034023285 0.27622830867767334 0.14897489547729492
0.33843147754669189 0.27916619181632996 0.1468033641576767
0.45499742031097412 0.27718845009803772 0.1549079418182373
0.56321167945861816 0.26510930061340332 0.16097848117351532
0.65200591087341309 0.24046844244003296 0.16096596419811249
0.72800302505493164 0.20786680281162262 0.15753547847270966
0.80017328262329102 0.17357306182384491 0.15086546540260315
0.87072968482971191 0.1371169239282608 0.14438202977180481
0.93670415878295898 0.11159377545118332 0.13681782782077789
0.98719120025634766 0.097729653120040894 0.13022008538246155
0.0099888965487480164 0.34351363778114319 0.16300442814826965
0.010196730494499207 0.34272009134292603 0.15820479393005371
0.059346728026866913 0.34506601095199585 0.15488886833190918
0.20371486246585846 0.35508555173873901 0.15625898540019989
0.33376795053482056 0.363840252161026 0.15077872574329376
0.4550139307975769 0.36910849809646606 0.1498522013425827
0.56914901733398438 0.37028181552886963 0.1553415060043335
0.67017871141433716 0.37098652124404907 0.16574455797672272
0.75537461042404175 0.36174267530441284 0.1757245808839798
0.82519048452377319 0.34311500191688538 0.17316918075084686
0.88753652572631836 0.31984466314315796 0.16730736196041107
0.94588154554367065 0.30192646384239197 0.15689429640769958
0.99172335863113403 0.29509428143501282 0.14642836153507233
0.011888197623193264 0.42220667004585266 0.16609616577625275
0.011819398030638695 0.42029201984405518 0.16367895901203156
0.049740705639123917 0.41926217079162598 0.15998843312263489
0.19208033382892609 0.42803698778152466 0.15845072269439697
0.31632038950920105 0.43960943818092346 0.15149806439876556
0.43707966804504395 0.45175004005432129 0.14236608147621155
0.54903602600097656 0.46268710494041443 0.13523735105991364
0.65419691801071167 0.47110038995742798 0.13967600464820862
0.75369030237197876 0.4812982976436615 0.15776407718658447
0.83367210626602173 0.48626458644866943 0.17807929217815399
0.89671522378921509 0.47660240530967712 0.18916173279285431
0.95306193828582764 0.46300014853477478 0.1832021176815033
0.9919666051864624 0.45759421586990356 0.17234645783901215
0.011792141944169998 0.49683055281639099 0.1715371161699295
0.010425417684018612 0.49493283033370972 0.16823866963386536
0.035251632332801819 0.49293935298919678 0.16157972812652588
0.17650578916072845 0.4985191822052002 0.15721623599529266
0.29855784773826599 0.5112234354019165 0.14858309924602509
0.41784387826919556 0.5235857367515564 0.135456383228302
0.52845102548599243 0.53992968797683716 0.12083669751882553
0.632598876953125 0.55729758739471436 0.1084919199347496
0.73102545738220215 0.56970852613449097 0.1085742861032486
0.81434124708175659 0.58112519979476929 0.13050217926502228
0.89094322919845581 0.5930781364440918 0.17215241491794586
0.95650160312652588 0.59689068794250488 0.20454442501068115
0.992057204246521 0.59183907508850098 0.2140161395072937
0.0090982923284173012 0.57484358549118042 0.17189984023571014
0.0097295278683304787 0.57350641489028931 0.16841118037700653
0.02814800851047039 0.5701453685760498 0.1627332866191864
0.16118711233139038 0.5709831714630127 0.15758700668811798
0.28328287601470947 0.57955163717269897 0.14542146027088165
0.40044814348220825 0.59141784906387329 0.12874163687229156
0.50656640529632568 0.60919851064682007 0.111741803586483
0.60885840654373169 0.6282770037651062 0.085885114967823029
0.71037465333938599 0.64215916395187378 0.075392872095108032
0.79975521564483643 0.65302163362503052 0.08945898711681366
0.87613981962203979 0.66219228506088257 0.13430353999137878
0.94386571645736694 0.6695905327796936 0.18878470361232758
0.98891568183898926 0.67562085390090942 0.23687781393527985
0.0078302565962076187 0.65052527189254761 0.17070072889328003
0.0091875707730650902 0.65262705087661743 0.16479413211345673
0.02940165251493454 0.64957970380783081 0.1578606516122818
0.16639681160449982 0.6465446949005127 0.15341633558273315
0.28236335515975952 0.64894688129425049 0.14097245037555695
0.39210087060928345 0.65877121686935425 0.1224031001329422
0.49557098746299744 0.6743285059928894 0.10367593169212341
0.5996740460395813 0.68821853399276733 0.082293115556240082
0.69589436054229736 0.69822150468826294 0.070938840508460999
0.78551048040390015 0.70804011821746826 0.071594864130020142
0.86284148693084717 0.71586567163467407 0.10638280957937241
0.93258386850357056 0.72216403484344482 0.16236555576324463
0.98668897151947021 0.72713595628738403 0.21377040445804596
0.010622256435453892 0.72332745790481567 0.1696612536907196
0.029231322929263115 0.72426408529281616 0.16553357243537903
0.103473961353302 0.72364234924316406 0.1589290052652359
0.21885950863361359 0.71912509202957153 0.15430706739425659
0.31672140955924988 0.71626132726669312 0.14230360090732574
0.41519561409950256 0.72019332647323608 0.12690405547618866
0.51293504238128662 0.73019349575042725 0.1203712597489357
0.60860514640808105 0.739207923412323 0.1095544844865799
0.69767171144485474 0.74828177690505981 0.089091219007968903
0.77751970291137695 0.75564920902252197 0.086948588490486145
0.8577156662940979 0.76320284605026245 0.11159767955541611
0.92779576778411865 0.76903879642486572 0.15416000783443451
0.98271876573562622 0.77321344614028931 0.19396379590034485
0.15312665700912476 0.78730660676956177 0.18959468603134155
0.18619018793106079 0.78496956825256348 0.18588696420192719
0.24564136564731598 0.78289568424224854 0.18058763444423676
0.31321990489959717 0.77980023622512817 0.17292237281799316
0.38457277417182922 0.7756202220916748 0.16354642808437347
0.46088817715644836 0.77618348598480225 0.15112599730491638
0.55011773109436035 0.7827455997467041 0.14715464413166046
0.63119721412658691 0.78909087181091309 0.1434933990240097
0.71132063865661621 0.79706007242202759 0.13123664259910583
0.78378582000732422 0.80377310514450073 0.13017216324806213
0.85790938138961792 0.80896246433258057 0.13802003860473633
0.92542862892150879 0.8154178261756897 0.1670825332403183
0.97911274433135986 0.82167136669158936 0.20104536414146423
0.32151418924331665 0.84381705522537231 0.23224493861198425
0.33540278673171997 0.84061777591705322 0.22739747166633606
0.36754834651947021 0.83973097801208496 0.22279302775859833
0.41053423285484314 0.83848404884338379 0.21637649834156036
0.4651603102684021 0.83526808023452759 0.2068459540605545
0.52541989088058472 0.8339046835899353 0.19227911531925201
0.59273004531860352 0.83692049980163574 0.18478341400623322
0.66195082664489746 0.84215706586837769 0.18552771210670471
0.7300603985786438 0.84904992580413818 0.18844489753246307
0.79777967929840088 0.8575211763381958 0.19063423573970795
0.86409777402877808 0.86274725198745728 0.19297601282596588
0.92397850751876831 0.87020820379257202 0.20588049292564392
0.97674506902694702 0.87718099355697632 0.22799864411354065
0.43987691402435303 0.90878164768218994 0.31072765588760376
0.45180815458297729 0.90770310163497925 0.3047640323638916
0.47370582818984985 0.9075775146484375 0.29931735992431641
0.50593036413192749 0.90605932474136353 0.29323992133140564
0.54565554857254028 0.9042624831199646 0.2838594913482666
0.59139454364776611 0.90415942668914795 0.27484869956970215
0.64444506168365479 0.90483087301254272 0.26824432611465454
0.70053964853286743 0.90813684463500977 0.26575043797492981
0.75571107864379883 0.91191226243972778 0.26741248369216919
0.81571972370147705 0.91993540525436401 0.2728264331817627
0.87341296672821045 0.92759734392166138 0.27727073431015015
0.92778921127319336 0.93498915433883667 0.28047087788581848
0.97911137342453003 0.9427872896194458 0.28062808513641357
0.0011082966811954975 0.10272102802991867 0.18717484176158905
0.0067151240073144436 0.1062924712896347 0.19648085534572601
0.064917773008346558 0.10955783724784851 0.19750103354454041
0.17302928864955902 0.10952726006507874 0.19713605940341949
0.26901072263717651 0.1007254347205162 0.19113802909851074
0.36498624086380005 0.069415703415870667 0.19168975949287415
0.45805791020393372 0.026185622438788414 0.19192454218864441
0.54749816656112671 0.0044664568267762661 0.19151443243026733
0.6340293288230896 0.0035744013730436563 0.18752171099185944
0.71738594770431519 0.0022325552999973297 0.17824164032936096
0.79828429222106934 0.0018309649312868714 0.17369291186332703
0.87874984741210938 0.0016354728722944856 0.1683133989572525
0.9561457633972168 6.9651883677579463e-05 0.16258040070533752
0.0031672010663896799 0.14605848491191864 0.20216648280620575
0.0077012456022202969 0.14716650545597076 0.20539756119251251
0.06616617739200592 0.14825066924095154 0.2081574946641922
0.17950230836868286 0.14755913615226746 0.20674644410610199
0.28323662281036377 0.13427740335464478 0.20172958076000214
0.38001668453216553 0.10386353731155396 0.20177412033081055
0.47504442930221558 0.057880416512489319 0.19739854335784912
0.56680059432983398 0.01701139472424984 0.19254545867443085
0.65373462438583374 0.006430651992559433 0.19111238420009613
0.73669886589050293 0.0065634483471512794 0.1868823915719986
0.81601476669311523 0.0062978407368063927 0.18190661072731018
0.89300823211669922 0.0043396595865488052 0.17530505359172821
0.96478104591369629 0.0029174506198614836 0.16785190999507904
0.0036028244066983461 0.19981850683689117 0.21907269954681396
0.0074190925806760788 0.2014974057674408 0.21910743415355682
0.073211044073104858 0.20460455119609833 0.2208133190870285
0.19899912178516388 0.20849362015724182 0.22503457963466644
0.30758875608444214 0.19325935840606689 0.21563234925270081
0.41017413139343262 0.17434820532798767 0.2114052027463913
0.50830894708633423 0.14581620693206787 0.21154981851577759
0.59767961502075195 0.10211721807718277 0.20434384047985077
0.67853927612304688 0.05056019127368927 0.19843301177024841
0.75811219215393066 0.021771300584077835 0.19452784955501556
0.83722424507141113 0.010258574038743973 0.19000032544136047
0.90925377607345581 0.0098168617114424706 0.18298883736133575
0.97061002254486084 0.0044078151695430279 0.17493909597396851
0.0039778766222298145 0.27200603485107422 0.23442573845386505
0.0057365568354725838 0.2719387412071228 0.23155201971530914
0.077119685709476471 0.27534961700439453 0.23090930283069611
0.21417117118835449 0.28193196654319763 0.23515070974826813
0.33340027928352356 0.28133881092071533 0.22836928069591522
0.44572851061820984 0.27617338299751282 0.2297634482383728
0.55184680223464966 0.26220229268074036 0.23326480388641357
0.63655811548233032 0.23738254606723785 0.22798724472522736
0.71304464340209961 0.20134814083576202 0.22246164083480835
0.78782892227172852 0.16286872327327728 0.21311067044734955
0.86002027988433838 0.12691126763820648 0.20178531110286713
0.9266161322593689 0.094085246324539185 0.19341461360454559
0.98219728469848633 0.07492547482252121 0.18412321805953979
0.0069514256902039051 0.35390001535415649 0.24416592717170715
0.0073512508533895016 0.35337194800376892 0.24067899584770203
0.078149668872356415 0.35460951924324036 0.23823414742946625
0.21784751117229462 0.36119493842124939 0.23848536610603333
