luts/instant_pro/polaroid_690_warm.cube
# Created by: G'MIC (https://gmic.eu)
TITLE "polaroid_690_warm"
# LUT size
LUT_3D_SIZE 5
# Data domain
DOMAIN_MIN 0.0 0.0 0.0
DOMAIN_MAX 1.0 1.0 1.0
# LUT data points
0.1384986937046051 0.083931431174278259 0.061997685581445694
0.2570796012878418 0.06797974556684494 0.062823429703712463
0.48859599232673645 0.0045155840925872326 0.059403903782367706
0.77686607837677002 0.0014060375979170203 0.036370549350976944
0.99114871025085449 0.0019285912858322263 0.0081171225756406784
0.15267495810985565 0.22349917888641357 0.056556176394224167
0.28656843304634094 0.23013949394226074 0.042203161865472794
0.59507840871810913 0.24048407375812531 0.014931353740394115
0.85155898332595825 0.15405301749706268 0.003389889607205987
0.99739962816238403 0.085061058402061462 4.9635942559689283e-05
0.1157049760222435 0.47755312919616699 0.0041456934995949268
0.29166156053543091 0.48131844401359558 0.0022890279069542885
0.57584798336029053 0.52180927991867065 0.0034581352956593037
0.87788766622543335 0.56337761878967285 0.0015766667202115059
0.99821698665618896 0.57305359840393066 0.0026037029456347227
0.1656113862991333 0.72143775224685669 0.0015723134856671095
0.33609417080879211 0.71672433614730835 0.00073529413202777505
0.58003032207489014 0.73421019315719604 0
0.84294074773788452 0.76880800724029541 0.0013863956555724144
0.9962228536605835 0.79305416345596313 0.0019927679095417261
0.49867182970046997 0.94065696001052856 0.046255014836788177
0.56391733884811401 0.93604618310928345 0.028376994654536247
0.70216268301010132 0.93128901720046997 0.017126688733696938
0.88600265979766846 0.93743115663528442 0.018822792917490005
0.99989014863967896 0.94432216882705688 0.032570198178291321
0.14793132245540619 0.092687912285327911 0.19622209668159485
0.27600085735321045 0.086835287511348724 0.21671529114246368
0.49233329296112061 0.0093122897669672966 0.19578871130943298
0.76001375913619995 1.9791546947089955e-05 0.17906001210212708
0.97907966375350952 0 0.12561777234077454
0.16990187764167786 0.23644392192363739 0.21966291964054108
0.30598625540733337 0.24309425055980682 0.22354833781719208
0.57225275039672852 0.19322836399078369 0.21374410390853882
0.82326579093933105 0.062040694057941437 0.17344887554645538
0.99780625104904175 0.0097726713865995407 0.12146688997745514
0.084772683680057526 0.52598679065704346 0.21056234836578369
0.30771997570991516 0.50834882259368896 0.19913098216056824
0.60088640451431274 0.54111111164093018 0.16763651371002197
0.89663499593734741 0.57158452272415161 0.20250795781612396
1 0.54385179281234741 0.20125786960124969
0.16865885257720947 0.75052344799041748 0.13796460628509521
0.33227211236953735 0.74186468124389648 0.10791756212711334
0.57534289360046387 0.74263560771942139 0.065001137554645538
0.84752845764160156 0.78108453750610352 0.057444073259830475
0.99980628490447998 0.8044283390045166 0.17408747971057892
0.47787967324256897 0.93851399421691895 0.26767590641975403
0.54507339000701904 0.9371488094329834 0.23118545114994049
0.69404798746109009 0.93402040004730225 0.17066246271133423
0.87904804944992065 0.93660014867782593 0.19368097186088562
0.99962353706359863 0.94260156154632568 0.24851854145526886
0.051873017102479935 0.099947832524776459 0.50690740346908569
0.28544169664382935 0.067563928663730621 0.54524427652359009
0.61915481090545654 0.0037687562871724367 0.60042208433151245
0.80858570337295532 0.0029723374173045158 0.49285811185836792
0.98906886577606201 0.0022583156824111938 0.44246649742126465
0.094321154057979584 0.24133411049842834 0.51424580812454224
0.30743974447250366 0.25507602095603943 0.55311965942382812
0.630168616771698 0.27003633975982666 0.59834110736846924
0.82015889883041382 0.17666767537593842 0.49795573949813843
0.99042636156082153 0.0050034765154123306 0.43425896763801575
0.14064182341098785 0.53721451759338379 0.5529363751411438
0.35015615820884705 0.54849094152450562 0.56110435724258423
0.63252705335617065 0.57584506273269653 0.59065705537796021
0.85897916555404663 0.50488215684890747 0.53083944320678711
0.99923825263977051 0.37553882598876953 0.42870944738388062
0.26536554098129272 0.78294950723648071 0.5485880970954895
0.38809499144554138 0.78058844804763794 0.54153001308441162
0.59612983465194702 0.76568722724914551 0.51023358106613159
0.84707891941070557 0.7910839319229126 0.52120769023895264
0.99620002508163452 0.81179952621459961 0.59072375297546387
0.47975680232048035 0.94597190618515015 0.57652479410171509
0.54612910747528076 0.94238293170928955 0.56579720973968506
0.67660331726074219 0.93812805414199829 0.52718263864517212
0.85946661233901978 0.93634474277496338 0.51346814632415771
0.99923068284988403 0.9436500072479248 0.55308979749679565
0.041157413274049759 0.10569516569375992 0.819050133228302
0.3291986882686615 0.084966473281383514 0.83077919483184814
0.64295154809951782 0.0234196987003088 0.86088794469833374
0.91665679216384888 0.063084833323955536 0.87025946378707886
0.99967581033706665 0.057449474930763245 0.79494225978851318
0.081736050546169281 0.26454192399978638 0.81299209594726562
0.34216207265853882 0.27390488982200623 0.82266819477081299
0.65716564655303955 0.31610903143882751 0.85075002908706665
0.90663599967956543 0.361919105052948 0.86264824867248535
0.99956971406936646 0.30805951356887817 0.78547722101211548
0.015140353702008724 0.49815919995307922 0.77821546792984009
0.28975299000740051 0.51066243648529053 0.78416705131530762
0.62090849876403809 0.56751608848571777 0.81583982706069946
0.88569778203964233 0.63248962163925171 0.85000580549240112
0.99762839078903198 0.52641779184341431 0.77727973461151123
0.35989326238632202 0.78009712696075439 0.81038278341293335
0.466636061668396 0.78336817026138306 0.81083875894546509
0.66291612386703491 0.79058492183685303 0.82265013456344604
0.86385011672973633 0.81526702642440796 0.84070098400115967
0.98902589082717896 0.74969977140426636 0.78731274604797363
0.63209164142608643 0.94774025678634644 0.83606642484664917
0.66316241025924683 0.94421213865280151 0.82771044969558716
0.74075323343276978 0.9419788122177124 0.82199603319168091
0.85159003734588623 0.93971705436706543 0.79310530424118042
0.99183076620101929 0.94465762376785278 0.81842368841171265
0.44629606604576111 0.25219771265983582 0.9854627251625061
0.54090398550033569 0.25534093379974365 0.98448044061660767
0.72416406869888306 0.29140865802764893 0.98665517568588257
0.92000728845596313 0.39705285429954529 0.98527508974075317
1 0.48225283622741699 0.98068159818649292
0.46458753943443298 0.3957882821559906 0.98134404420852661
0.55563879013061523 0.40290763974189758 0.97982263565063477
0.72670632600784302 0.42673379182815552 0.97905892133712769
0.91449970006942749 0.52861702442169189 0.98298889398574829
0.99974077939987183 0.57881152629852295 0.97404187917709351
0.43093830347061157 0.58910638093948364 0.96516549587249756
0.52521288394927979 0.59247744083404541 0.96730387210845947
0.71310102939605713 0.62471127510070801 0.96875613927841187
0.90150058269500732 0.6960563063621521 0.97195780277252197
0.99871528148651123 0.73865729570388794 0.96826481819152832
0.42099201679229736 0.7806398868560791 0.95183467864990234
0.49141240119934082 0.77580952644348145 0.94934070110321045
0.64237791299819946 0.77371340990066528 0.95233678817749023
0.87041902542114258 0.82250857353210449 0.95897161960601807
0.9916996955871582 0.86411380767822266 0.9592207670211792
0.71129792928695679 0.94629663228988647 0.9556306004524231
0.74580115079879761 0.9436948299407959 0.95500987768173218
0.80537337064743042 0.94123560190200806 0.95465558767318726
0.90223735570907593 0.93827193975448608 0.95330333709716797
0.99051886796951294 0.94754832983016968 0.963573157787323
