luts/instant_pro/polaroid_690_warm.cube
# Created by: G'MIC (https://gmic.eu)
TITLE "polaroid_690_warm"
# LUT size
LUT_3D_SIZE 13
# Data domain
DOMAIN_MIN 0.0 0.0 0.0
DOMAIN_MAX 1.0 1.0 1.0
# LUT data points
0.1384986937046051 0.083931431174278259 0.061997685581445694
0.17100860178470612 0.083682507276535034 0.063598409295082092
0.20566071569919586 0.079519383609294891 0.062960527837276459
0.2570796012878418 0.06797974556684494 0.062823429703712463
0.32080298662185669 0.044159173965454102 0.063039176166057587
0.39749529957771301 0.015308335423469543 0.061047885566949844
0.48859599232673645 0.0045155840925872326 0.059403903782367706
0.58425724506378174 0.00050009932601824403 0.05441616103053093
0.68468964099884033 0.00028321507852524519 0.046178407967090607
0.77686607837677002 0.0014060375979170203 0.036370549350976944
0.86422699689865112 0.0009476605337113142 0.025525171309709549
0.9477384090423584 0.00083389284554868937 0.013902881182730198
0.99114871025085449 0.0019285912858322263 0.0081171225756406784
0.14763505756855011 0.12015128135681152 0.064193308353424072
0.17588777840137482 0.12214653193950653 0.063433162868022919
0.21409857273101807 0.1215009018778801 0.062625095248222351
0.26911729574203491 0.11349008232355118 0.062082972377538681
0.33680522441864014 0.089482851326465607 0.062371782958507538
0.41853901743888855 0.0520285964012146 0.060907430946826935
0.50978767871856689 0.017082288861274719 0.056358832865953445
0.60995745658874512 0.0034391067456454039 0.048642326146364212
0.70880663394927979 0.005479760468006134 0.03616001084446907
0.80040621757507324 0.0055750380270183086 0.024894610047340393
0.88427525758743286 0.0044310027733445168 0.016726056113839149
0.95944374799728394 0.0039515178650617599 0.0087114972993731499
0.99092775583267212 0.0058200312778353691 0.0060026580467820168
0.15302066504955292 0.15991199016571045 0.064921572804450989
0.17791645228862762 0.16444836556911469 0.061547074466943741
0.21958287060260773 0.16595499217510223 0.059474483132362366
0.27754288911819458 0.16525720059871674 0.055516935884952545
0.35493427515029907 0.15084905922412872 0.055131126195192337
0.44803294539451599 0.13616937398910522 0.048703495413064957
0.54898345470428467 0.10717987269163132 0.040721714496612549
0.64499837160110474 0.072374708950519562 0.033778741955757141
0.73579514026641846 0.035220276564359665 0.022507911548018456
0.82318788766860962 0.012748508714139462 0.011738661676645279
0.90427279472351074 0.0071346508339047432 0.0068666944280266762
0.97214365005493164 0.0049199573695659637 0.0033518474083393812
0.99380385875701904 0.010094542056322098 0.0024608985986560583
0.15267495810985565 0.22349917888641357 0.056556176394224167
0.17887178063392639 0.22368580102920532 0.05431009829044342
0.2247018963098526 0.22435274720191956 0.049302045255899429
0.28656843304634094 0.23013949394226074 0.042203161865472794
0.37656688690185547 0.23869819939136505 0.031824477016925812
0.48029807209968567 0.24440161883831024 0.02038930170238018
0.59507840871810913 0.24048407375812531 0.014931353740394115
0.69111937284469604 0.21936821937561035 0.011623098514974117
0.77454650402069092 0.18766860663890839 0.0069741643965244293
0.85155898332595825 0.15405301749706268 0.003389889607205987
0.92746120691299438 0.11973724514245987 0.0011726079974323511
0.98552680015563965 0.098237372934818268 6.9741639890708029e-05
0.99739962816238403 0.085061058402061462 4.9635942559689283e-05
0.14822092652320862 0.30594703555107117 0.033464036881923676
0.18239125609397888 0.30353793501853943 0.031879499554634094
0.22781701385974884 0.30416169762611389 0.025638071820139885
0.29291632771492004 0.31376302242279053 0.016080010682344437
0.38521832227706909 0.32814303040504456 0.01039702445268631
0.49103802442550659 0.34213200211524963 0.0064587462693452835
0.60368973016738892 0.34720245003700256 0.0070206737145781517
0.71368598937988281 0.35366085171699524 0.0045194141566753387
0.8107609748840332 0.35188448429107666 0.0015473309904336929
0.88478207588195801 0.33423945307731628 0.0019655413925647736
0.95188778638839722 0.3147946298122406 0.0018823063001036644
0.99383848905563354 0.29861825704574585 0.00045737472828477621
0.99922424554824829 0.28971558809280396 0
0.13726462423801422 0.39304563403129578 0.012383135966956615
0.17556552588939667 0.38892632722854614 0.0090684480965137482
0.2267719954252243 0.39158114790916443 0.0052904915064573288
0.29225966334342957 0.39852264523506165 0.0019893720746040344
0.3805469274520874 0.41081482172012329 0.0029942980036139488
0.48424097895622253 0.42732778191566467 0.0042831720784306526
0.59260338544845581 0.44039547443389893 0.005359395407140255
0.70484697818756104 0.45463716983795166 0.0034821154549717903
0.80770158767700195 0.46635332703590393 0.0018185185035690665
0.89841747283935547 0.47380337119102478 0.0019803214818239212
0.96708852052688599 0.4664749801158905 0.0015804814174771309
0.99546891450881958 0.45358720421791077 0.0013061523204669356
0.99902945756912231 0.44134971499443054 0.00039819456287659705
0.1157049760222435 0.47755312919616699 0.0041456934995949268
0.16313150525093079 0.47819620370864868 0.0039798212237656116
0.22388498485088348 0.48202705383300781 0.0038687912747263908
0.29166156053543091 0.48131844401359558 0.0022890279069542885
0.37421748042106628 0.48863241076469421 0.0018430224154144526
0.47239550948143005 0.50530087947845459 0.0036127427592873573
0.57584798336029053 0.52180927991867065 0.0034581352956593037
0.68947333097457886 0.54079937934875488 0.0016049852129071951
0.7891693115234375 0.55380499362945557 0.0012942146277055144
0.87788766622543335 0.56337761878967285 0.0015766667202115059
0.96306002140045166 0.57617038488388062 0.0010417115408927202
0.99236917495727539 0.57723790407180786 0.0022328544873744249
0.99821698665618896 0.57305359840393066 0.0026037029456347227
0.093241550028324127 0.5610358715057373 0.0029779770411550999
0.15400801599025726 0.56147313117980957 0.0033986258786171675
0.221380814909935 0.56148552894592285 0.0014910978497937322
0.29069945216178894 0.55872392654418945 0.00076536292908713222
0.3688606321811676 0.56314164400100708 0.0014328750548884273
0.46570411324501038 0.57725954055786133 0.0019429824315011501
0.56355243921279907 0.59351962804794312 0.0020258286967873573
0.66679906845092773 0.60899823904037476 0.0022490855772048235
0.76563072204589844 0.62362790107727051 0.0019707921892404556
0.85813730955123901 0.63812845945358276 0.0011866252170875669
0.94296646118164062 0.65178203582763672 4.1019215132109821e-05
0.98883306980133057 0.66021215915679932 0.0020096274092793465
0.99778300523757935 0.66882222890853882 0.002503563417121768
0.11307822167873383 0.64140802621841431 0.0016339620342478156
0.16024762392044067 0.64245885610580444 0.0018095726845785975
0.22856014966964722 0.64009898900985718 0.001045286888256669
0.30505898594856262 0.63723611831665039 0.00098441634327173233
0.38322532176971436 0.6381227970123291 0.0012471516383811831
0.47572571039199829 0.64955592155456543 0.00014217600983101875
0.56898671388626099 0.66399860382080078 0.00012925092596560717
0.66078144311904907 0.67690330743789673 0.001705169677734375
0.75220155715942383 0.69026327133178711 0.0023284314665943384
0.84091043472290039 0.70460981130599976 0.0020232705865055323
0.92447108030319214 0.71889668703079224 0.00096251541981473565
0.98804193735122681 0.7310558557510376 0.0011539533734321594
0.99714416265487671 0.73214930295944214 0.00073782226536422968
0.1656113862991333 0.72143775224685669 0.0015723134856671095
0.20820370316505432 0.72103911638259888 0.0015318627702072263
0.26848167181015015 0.72005754709243774 0.00076777138747274876
0.33609417080879211 0.71672433614730835 0.00073529413202777505
0.4107358455657959 0.7161787748336792 0.0010359222069382668
0.4958895742893219 0.72443431615829468 4.308364077587612e-05
0.58003032207489014 0.73421019315719604 0
0.66922199726104736 0.74584168195724487 0.0012921651359647512
0.75901830196380615 0.75821739435195923 0.0018463284941390157
0.84294074773788452 0.76880800724029541 0.0013863956555724144
0.92041683197021484 0.78076398372650146 0.00097021961119025946
0.98144125938415527 0.79033881425857544 0.0014814938185736537
0.9962228536605835 0.79305416345596313 0.0019927679095417261
0.25161084532737732 0.79624736309051514 0.0028099508490413427
0.27968963980674744 0.79911893606185913 0.0016915265005081892
0.3265470564365387 0.79957258701324463 0.0012644599191844463
0.38244003057479858 0.79544663429260254 0.0015250560827553272
0.44216731190681458 0.79268449544906616 0.00075593835208564997
0.51917582750320435 0.7964593768119812 9.5741424956941046e-06
0.59897196292877197 0.80358439683914185 2.5491153792245314e-05
0.67885011434555054 0.8108864426612854 0.0016855725552886724
0.76486849784851074 0.82123732566833496 0.0010655123041942716
0.84685158729553223 0.83072870969772339 0.00014495849609375
0.91744303703308105 0.83966988325119019 0.00058098585577681661
0.97720873355865479 0.84747284650802612 0.0011471916222944856
0.9969104528427124 0.85288029909133911 0.002040608786046505
0.37186315655708313 0.8693200945854187 0.0056308223865926266
0.38813096284866333 0.87143182754516602 0.0041805640794336796
0.41730588674545288 0.87077754735946655 0.0056725447066128254
0.46363654732704163 0.86643850803375244 0.0067879022099077702
0.51147365570068359 0.86236703395843506 0.0061329561285674572
0.56751126050949097 0.86441290378570557 0.0034949956461787224
0.63797944784164429 0.87006282806396484 0.0025185528211295605
0.71591013669967651 0.87229907512664795 0.0070110098458826542
0.78871852159500122 0.87896823883056641 0.0064742593094706535
0.85746169090270996 0.88746285438537598 0.0045990440994501114
0.92354977130889893 0.89219170808792114 0.0074081867933273315
0.98038512468338013 0.89693605899810791 0.0075230766087770462
0.99826627969741821 0.90152114629745483 0.0085024517029523849
0.49867182970046997 0.94065696001052856 0.046255014836788177
0.5096890926361084 0.93971103429794312 0.037360187619924545
0.53174233436584473 0.93809711933135986 0.031920954585075378
0.56391733884811401 0.93604618310928345 0.028376994654536247
0.60237616300582886 0.93285679817199707 0.018901944160461426
0.64896225929260254 0.9319496750831604 0.016579616814851761
0.70216268301010132 0.93128901720046997 0.017126688733696938
0.76351451873779297 0.9319460391998291 0.015616682358086109
0.82741016149520874 0.93441557884216309 0.013139852322638035
0.88600265979766846 0.93743115663528442 0.018822792917490005
0.94346016645431519 0.93924307823181152 0.024983588606119156
0.98966509103775024 0.94117015600204468 0.026425380259752274
0.99989014863967896 0.94432216882705688 0.032570198178291321
0.14328040182590485 0.085494235157966614 0.090214766561985016
0.1750098317861557 0.087950579822063446 0.091560915112495422
0.2065330445766449 0.088097348809242249 0.089107230305671692
0.25632894039154053 0.077253334224224091 0.088541887700557709
0.32734960317611694 0.047546118497848511 0.09090278297662735
0.39824086427688599 0.013591272756457329 0.087656565010547638
0.49047967791557312 0.0029979031533002853 0.087110467255115509
0.58490729331970215 0.0017744476208463311 0.084245018661022186
0.67999446392059326 0.00083362357690930367 0.074711546301841736
0.77193677425384521 0.0012417064281180501 0.064688451588153839
0.85784786939620972 0.00064966536592692137 0.05258820578455925
0.94032853841781616 0.0003662109375 0.037684481590986252
0.99316954612731934 0.00071470969123765826 0.02747395820915699
0.15346887707710266 0.1183924525976181 0.093848854303359985
0.18252258002758026 0.12340161204338074 0.093785196542739868
0.21699441969394684 0.12710145115852356 0.092490822076797485
0.27185201644897461 0.11496203392744064 0.093057997524738312
0.33942040801048279 0.087752215564250946 0.09406319260597229
0.41894498467445374 0.052508112043142319 0.09088858962059021
0.50883638858795166 0.016480479389429092 0.085928462445735931
0.60808777809143066 0.0068427440710365772 0.079892806708812714
0.70767509937286377 0.0061295153573155403 0.066488660871982574
0.79761821031570435 0.0063210879452526569 0.05479947105050087
0.879108726978302 0.0048110662028193474 0.042872857302427292
0.95349544286727905 0.0035907372366636992 0.030485998839139938
0.99204206466674805 0.0036844739224761724 0.021903872489929199
0.15836121141910553 0.16704222559928894 0.099519155919551849
0.18601320683956146 0.16938191652297974 0.097129195928573608
0.22375175356864929 0.17093455791473389 0.09647408127784729
0.2833956778049469 0.16242405772209167 0.094026215374469757
0.36237728595733643 0.15408976376056671 0.092780351638793945
0.45437365770339966 0.13632206618785858 0.087838403880596161
0.54774516820907593 0.10127176344394684 0.074257791042327881
0.64208066463470459 0.060760632157325745 0.070250540971755981
0.73516213893890381 0.026873091235756874 0.057768113911151886
0.8223385214805603 0.0116526884958148 0.04375680536031723
0.90206682682037354 0.0074762832373380661 0.030029596760869026
0.96980446577072144 0.0049189100973308086 0.019269786775112152
0.99566441774368286 0.0045697977766394615 0.012218625284731388
0.15831214189529419 0.2328396737575531 0.10079733282327652
0.18662722408771515 0.23117470741271973 0.096311397850513458
0.22869592905044556 0.22876991331577301 0.089958116412162781
0.29883632063865662 0.23352597653865814 0.085640877485275269
0.38896298408508301 0.24132202565670013 0.077195443212985992
0.48697581887245178 0.2443176656961441 0.065113678574562073
0.59373933076858521 0.23527714610099792 0.055816605687141418
0.68762576580047607 0.20953017473220825 0.047121699899435043
0.7738073468208313 0.17125217616558075 0.035990111529827118
0.85108405351638794 0.13606666028499603 0.026514345780014992
0.92637449502944946 0.097877979278564453 0.015694187954068184
0.98461443185806274 0.077768348157405853 0.0054918178357183933
0.99924165010452271 0.067165657877922058 0.0023466073907911777
0.1494121253490448 0.31503763794898987 0.071897320449352264
0.18331247568130493 0.31237304210662842 0.072782643139362335
0.23257081210613251 0.3126465380191803 0.065628707408905029
0.30185821652412415 0.31856438517570496 0.056417651474475861
0.39193570613861084 0.33166414499282837 0.038982465863227844
0.49507895112037659 0.34308528900146484 0.031859051436185837
0.60956382751464844 0.35240989923477173 0.026084242388606071
0.71966433525085449 0.35737940669059753 0.019976058974862099
0.81207889318466187 0.34842121601104736 0.014225918799638748
0.88355934619903564 0.3272855281829834 0.011893133632838726
0.94832837581634521 0.3042292594909668 0.010193349793553352
0.99224269390106201 0.28444701433181763 0.0052816951647400856
0.99982047080993652 0.27686604857444763 0.0012616923777386546
0.13446125388145447 0.40286168456077576 0.037640813738107681
0.17672695219516754 0.40154778957366943 0.037950403988361359
0.22834049165248871 0.40248310565948486 0.031799629330635071
0.29762086272239685 0.40457314252853394 0.025651415809988976
0.38587677478790283 0.41719886660575867 0.013206317089498043
0.48681554198265076 0.43294832110404968 0.0096283853054046631
0.59868788719177246 0.44669529795646667 0.0080646742135286331
0.71184134483337402 0.45908227562904358 0.0059621622785925865
0.81389874219894409 0.46784687042236328 0.0072892731986939907
0.89863073825836182 0.46887955069541931 0.0075570051558315754
0.9640924334526062 0.45877709984779358 0.0069187837652862072
0.99592584371566772 0.44727802276611328 0.0061613344587385654
0.99990576505661011 0.4384150505065918 0.0043045342899858952
0.10940539836883545 0.48938137292861938 0.013260710053145885
0.16142714023590088 0.49048617482185364 0.012206567451357841
0.22014400362968445 0.48880165815353394 0.0066329357214272022
0.29036217927932739 0.4864746630191803 0.006354866549372673
0.37714627385139465 0.49588820338249207 0.0058176973834633827
0.47509968280792236 0.51320153474807739 0.0067642363719642162
0.57912993431091309 0.52888625860214233 0.0084880758076906204
0.69246125221252441 0.54321044683456421 0.0071245529688894749
0.79717296361923218 0.55629956722259521 0.0061013465747237206
0.88584631681442261 0.56425505876541138 0.0071324966847896576
0.96192818880081177 0.57398349046707153 0.0056747733615338802
0.99561727046966553 0.57664734125137329 0.0065992618910968304
0.99966073036193848 0.56868582963943481 0.0096467109397053719
0.091456487774848938 0.57272744178771973 0.0055082882754504681
0.1501937061548233 0.5734328031539917 0.0058104423806071281
0.22012455761432648 0.57099831104278564 0.0034643884282559156
0.29185029864311218 0.56673479080200195 0.0033180983737111092
0.3758547306060791 0.57163113355636597 0.004473966546356678
0.47043284773826599 0.58522456884384155 0.005745996255427599
0.56794100999832153 0.60016125440597534 0.0067900563590228558
0.67479062080383301 0.61486226320266724 0.0088809290900826454
0.77492654323577881 0.62990492582321167 0.0074425493367016315
0.86695295572280884 0.64130479097366333 0.0050177779048681259
0.9488060474395752 0.65444111824035645 0.0018540177261456847
0.99013686180114746 0.66192710399627686 0.0056559694930911064
0.99872481822967529 0.66770946979522705 0.01254933699965477
0.11423549056053162 0.65310543775558472 0.0059825824573636055
0.16233710944652557 0.65262317657470703 0.0063723097555339336
0.23171646893024445 0.65006107091903687 0.0044996072538197041
0.30764207243919373 0.64704030752182007 0.0051161074079573154
0.38730555772781372 0.64728236198425293 0.0057653537951409817
0.4786093533039093 0.65632814168930054 0.0042731789872050285
0.57142037153244019 0.66847378015518188 0.0035117205698043108
0.66944283246994019 0.68340671062469482 0.0057231830433011055
0.76302975416183472 0.69708693027496338 0.0064888149499893188
0.85235655307769775 0.71006685495376587 0.0051864474080502987
0.93186026811599731 0.72131657600402832 0.0058427550829946995
0.98273289203643799 0.73026704788208008 0.0073273451998829842
0.99696952104568481 0.73467987775802612 0.0055885463953018188
0.16546544432640076 0.72927701473236084 0.0063903960399329662
0.20699261128902435 0.7292742133140564 0.005299003329128027
0.26709863543510437 0.72643148899078369 0.0042607923969626427
0.33607009053230286 0.72403472661972046 0.0049212435260415077
0.41077929735183716 0.72362929582595825 0.0055246241390705109
0.49601152539253235 0.72914987802505493 0.0030250698328018188
0.58262735605239868 0.73865526914596558 0.0014433617470785975
0.67285746335983276 0.75070905685424805 0.0050332462415099144
0.76268672943115234 0.76158022880554199 0.0056342780590057373
0.84862250089645386 0.77294027805328369 0.0042771431617438793
0.92420613765716553 0.78411269187927246 0.0040377150289714336
0.9776686429977417 0.79225194454193115 0.0050427154637873173
0.99577140808105469 0.79661732912063599 0.0093148918822407722
0.24847561120986938 0.79997682571411133 0.0066472971811890602
0.27996283769607544 0.80364906787872314 0.0064672133885324001
0.32748740911483765 0.80339360237121582 0.0054280301555991173
0.3832339346408844 0.79992735385894775 0.0040861242450773716
0.44756811857223511 0.7968595027923584 0.004227357916533947
0.52326047420501709 0.79911571741104126 0.0029303308110684156
0.60506135225296021 0.80652785301208496 0.002131039509549737
0.68431669473648071 0.81321293115615845 0.0045418981462717056
0.76603657007217407 0.82192182540893555 0.0049414541572332382
0.84804624319076538 0.83272212743759155 0.0045005199499428272
0.91915535926818848 0.84160774946212769 0.0040735281072556973
0.97480505704879761 0.84826558828353882 0.0039487951435148716
0.99538862705230713 0.85351860523223877 0.0044520958326756954
0.36467024683952332 0.87236684560775757 0.0058993618004024029
0.38511377573013306 0.87450093030929565 0.0065672332420945168
0.41841909289360046 0.87443345785140991 0.0078864153474569321
0.46385839581489563 0.87154251337051392 0.0039177839644253254
0.51739501953125 0.86818581819534302 0.0039479276165366173
0.57404273748397827 0.86860865354537964 0.0038243911694735289
0.64177066087722778 0.87174791097640991 0.0043440875597298145
0.71876966953277588 0.87469393014907837 0.006701749749481678
0.78984814882278442 0.88030087947845459 0.0065648993477225304
0.85757052898406982 0.88788032531738281 0.0064043533056974411
0.92258685827255249 0.89213281869888306 0.0070149139501154423
0.97764438390731812 0.89631205797195435 0.005583654623478651
0.9972119927406311 0.90088170766830444 0.0059188543818891048
0.49389678239822388 0.94098591804504395 0.076317086815834045
0.50543516874313354 0.94074368476867676 0.069596968591213226
0.52766352891921997 0.93921297788619995 0.061068203300237656
0.55915415287017822 0.93817514181137085 0.047857202589511871
0.60239565372467041 0.93601024150848389 0.041872046887874603
0.65079635381698608 0.93532252311706543 0.032828446477651596
0.7053566575050354 0.93431425094604492 0.023933051154017448
0.76611006259918213 0.93507605791091919 0.028358159586787224
0.82696795463562012 0.93706417083740234 0.031002193689346313
0.88615655899047852 0.93863308429718018 0.038800723850727081
0.94165706634521484 0.93962407112121582 0.044689793139696121
0.98837357759475708 0.94195854663848877 0.047893181443214417
0.99974542856216431 0.94459599256515503 0.0534515380859375
0.14754597842693329 0.087884478271007538 0.13474893569946289
0.17726902663707733 0.091394521296024323 0.1400333046913147
0.21063649654388428 0.092284739017486572 0.13877704739570618
0.26393723487854004 0.08536936342716217 0.13901352882385254
0.33555099368095398 0.063453748822212219 0.1403009295463562
0.40579068660736084 0.028081199154257774 0.13733118772506714
0.48908588290214539 0.0055135390721261501 0.13219347596168518
0.581562340259552 0.0025143492966890335 0.12611797451972961
0.67124277353286743 0.0013755200197920203 0.11592613905668259
0.75946652889251709 0.00036000271211378276 0.10591631382703781
0.846271812915802 8.2576980275916867e-06 0.0971221923828125
0.92784035205841064 0 0.086403943598270416
0.98773413896560669 0 0.069300875067710876
0.15751002728939056 0.11794083565473557 0.13591943681240082
0.18683643639087677 0.12608514726161957 0.14068008959293365
0.22227032482624054 0.13006900250911713 0.14164577424526215
0.27769112586975098 0.11932630091905594 0.13987314701080322
0.3431658148765564 0.096760183572769165 0.13814269006252289
0.41988104581832886 0.055826719850301743 0.13475207984447479
0.50600427389144897 0.013785059563815594 0.12972259521484375
0.6041141152381897 0.0074199303053319454 0.12592105567455292
0.69899213314056396 0.0057439766824245453 0.11434091627597809
0.78313744068145752 0.0038821052294224501 0.10444379597902298
0.86572557687759399 0.0020807452965527773 0.095142215490341187
0.94263005256652832 0.00075619266135618091 0.081723295152187347
0.98986595869064331 0.00053642125567421317 0.06229916587471962
0.16366073489189148 0.1701287180185318 0.14521203935146332
0.19233489036560059 0.17161308228969574 0.14473715424537659
0.22886531054973602 0.17404630780220032 0.14434997737407684
0.2879645824432373 0.16490870714187622 0.14256171882152557
0.36006695032119751 0.15146544575691223 0.13829329609870911
0.44791316986083984 0.12420590221881866 0.13501173257827759
0.53934037685394287 0.079698167741298676 0.12730614840984344
0.63280194997787476 0.037539836019277573 0.1216050386428833
0.72381067276000977 0.0162989292293787 0.1127135157585144
0.80905377864837646 0.0093360450118780136 0.1023658886551857
0.89056575298309326 0.0046106972731649876 0.090224049985408783
0.96168094873428345 0.0035311230458319187 0.07262565940618515
0.99448961019515991 0.0016663494752719998 0.051076117902994156
0.16424743831157684 0.23837324976921082 0.15441690385341644
0.19294698536396027 0.23593117296695709 0.15150453150272369
0.23262573778629303 0.23345841467380524 0.14551085233688354
0.30243977904319763 0.23764480650424957 0.14223890006542206
0.38910156488418579 0.23992905020713806 0.14139449596405029
0.48737800121307373 0.23799853026866913 0.14075683057308197
0.58476203680038452 0.21764744818210602 0.13113893568515778
0.67533165216445923 0.18697932362556458 0.12164858728647232
0.76026767492294312 0.14759904146194458 0.10969537496566772
0.84074395895004272 0.099188320338726044 0.097168654203414917
0.91688442230224609 0.068398162722587585 0.080000869929790497
