luts/instant_pro/polaroid_690_cold_+.cube
# Created by: G'MIC (https://gmic.eu)
TITLE "polaroid_690_cold_+"
# LUT size
LUT_3D_SIZE 13
# Data domain
DOMAIN_MIN 0.0 0.0 0.0
DOMAIN_MAX 1.0 1.0 1.0
# LUT data points
0.0054534315131604671 0.21445213258266449 0.21544823050498962
0.010077428072690964 0.21376913785934448 0.21338914334774017
0.017547877505421638 0.21311512589454651 0.21182498335838318
0.070231400430202484 0.21022120118141174 0.20984333753585815
0.16306599974632263 0.20462381839752197 0.20705285668373108
0.26725411415100098 0.19237121939659119 0.20476138591766357
0.38370248675346375 0.17389924824237823 0.2032197117805481
0.49510785937309265 0.14878195524215698 0.20184944570064545
0.59975403547286987 0.11795878410339355 0.200155109167099
0.70339834690093994 0.054990671575069427 0.19623415172100067
0.79664671421051025 0.0076018539257347584 0.19260838627815247
0.87880301475524902 0.0049761752597987652 0.19059230387210846
0.9476667046546936 0.0040991241112351418 0.1904960572719574
0.005061175674200058 0.2201245129108429 0.21231932938098907
0.010786034166812897 0.2218598872423172 0.21327920258045197
0.029852982610464096 0.22623272240161896 0.21261304616928101
0.097683548927307129 0.22453422844409943 0.21054928004741669
0.18337196111679077 0.217055544257164 0.2080322653055191
0.29086869955062866 0.20719684660434723 0.20495776832103729
0.40519073605537415 0.19284345209598541 0.201594278216362
0.51901531219482422 0.16741849482059479 0.19972893595695496
0.62716591358184814 0.13907398283481598 0.19662134349346161
0.72586715221405029 0.09335906058549881 0.19282814860343933
0.8163527250289917 0.024754483252763748 0.18828971683979034
0.89464312791824341 0.0078265620395541191 0.1849636435508728
0.95550781488418579 0.0053834053687751293 0.1832377165555954
0.0032885831315070391 0.22809389233589172 0.21067427098751068
0.0098536023870110512 0.23584394156932831 0.21182076632976532
0.037442166358232498 0.24335893988609314 0.21049037575721741
0.11873699724674225 0.24635818600654602 0.20736442506313324
0.21778024733066559 0.24296633899211884 0.20587173104286194
0.32912564277648926 0.23700784146785736 0.20388428866863251
0.44428214430809021 0.23199978470802307 0.200025275349617
0.55833488702774048 0.21057417988777161 0.19534887373447418
0.66242676973342896 0.18026188015937805 0.19173680245876312
0.75633209943771362 0.14892514050006866 0.1875285804271698
0.83845359086990356 0.10761719942092896 0.18372750282287598
0.91385805606842041 0.061644252389669418 0.17916011810302734
0.97309756278991699 0.034153267741203308 0.17418985068798065
0.0019340364960953593 0.26327088475227356 0.20869924128055573
0.0062810708768665791 0.26293143630027771 0.20857186615467072
0.043243780732154846 0.26726126670837402 0.20708107948303223
0.13853529095649719 0.27540820837020874 0.20302271842956543
0.25138458609580994 0.2825171947479248 0.20170411467552185
0.37009021639823914 0.2923395037651062 0.19922050833702087
0.49686998128890991 0.29819807410240173 0.19358885288238525
0.62020045518875122 0.29103457927703857 0.18629689514636993
0.71420294046401978 0.26681014895439148 0.18276107311248779
0.79229515790939331 0.24650157988071442 0.17884902656078339
0.8661617636680603 0.2200065553188324 0.17781463265419006
0.93143033981323242 0.20185734331607819 0.17386890947818756
0.98079931735992432 0.18520432710647583 0.16821169853210449
0.0017703636549413204 0.32600420713424683 0.20665910840034485
0.0048873452469706535 0.32011604309082031 0.20310100913047791
0.042933743447065353 0.32137608528137207 0.20042389631271362
0.14945229887962341 0.33268564939498901 0.19509305059909821
0.26931342482566833 0.35047587752342224 0.18944279849529266
0.39284804463386536 0.36566495895385742 0.18421439826488495
0.52345579862594604 0.37579163908958435 0.17748840153217316
0.65424293279647827 0.38223260641098022 0.17044797539710999
0.74987822771072388 0.37872418761253357 0.16916090250015259
0.82676905393600464 0.36514574289321899 0.16842688620090485
0.88729697465896606 0.34879186749458313 0.17166109383106232
0.94625496864318848 0.33470094203948975 0.16834527254104614
0.98629564046859741 0.3239884078502655 0.16333644092082977
0.00073094089748337865 0.40176284313201904 0.19368107616901398
0.0019369985675439239 0.39394304156303406 0.1907857358455658
0.030385455116629601 0.39188447594642639 0.18762233853340149
0.14747436344623566 0.40398648381233215 0.18227452039718628
0.26847934722900391 0.42562508583068848 0.17311765253543854
0.39172181487083435 0.44704201817512512 0.15949074923992157
0.51894849538803101 0.46292930841445923 0.14918108284473419
0.64513558149337769 0.47424706816673279 0.13743333518505096
0.74990552663803101 0.47991040349006653 0.13526022434234619
0.83814120292663574 0.48544946312904358 0.144068643450737
0.90105503797531128 0.48376920819282532 0.16296200454235077
0.95931905508041382 0.47238624095916748 0.16330274939537048
0.99194109439849854 0.46020755171775818 0.15868271887302399
0.0026605941820889711 0.48939397931098938 0.17395417392253876
0.0043676788918673992 0.482747882604599 0.17290498316287994
0.013647415675222874 0.47762781381607056 0.17078906297683716
0.11943900585174561 0.48213997483253479 0.16847172379493713
0.2524227499961853 0.50310486555099487 0.15582534670829773
0.38113176822662354 0.5245743989944458 0.13869324326515198
0.50635802745819092 0.54202961921691895 0.11915866285562515
0.62164139747619629 0.55690944194793701 0.094324313104152679
0.73037689924240112 0.56794959306716919 0.078259289264678955
0.82230848073959351 0.57808691263198853 0.083388246595859528
0.89555925130844116 0.59018385410308838 0.11974388360977173
0.96278554201126099 0.59660786390304565 0.16183032095432281
0.99166989326477051 0.58557009696960449 0.18948674201965332
0.0022722282446920872 0.57676547765731812 0.15612487494945526
0.0044086831621825695 0.57004761695861816 0.15238824486732483
0.0088134612888097763 0.56538820266723633 0.14813761413097382
0.07848714292049408 0.5641016960144043 0.14336208999156952
0.23248839378356934 0.5766175389289856 0.13201199471950531
0.36368855834007263 0.59467881917953491 0.11468113958835602
0.48472410440444946 0.61192160844802856 0.087910808622837067
0.60015207529067993 0.62974506616592407 0.05373026430606842
0.71112942695617676 0.64859205484390259 0.029170436784625053
0.80350059270858765 0.65888297557830811 0.029494058340787888
0.88018602132797241 0.66482800245285034 0.065650343894958496
0.94687199592590332 0.66983109712600708 0.13386030495166779
0.99350768327713013 0.67318838834762573 0.19667057693004608
0.00045149560901336372 0.66055864095687866 0.13172674179077148
0.0042528640478849411 0.65317511558532715 0.12665368616580963
0.0098161734640598297 0.6496807336807251 0.12208946049213409
0.053819246590137482 0.64841479063034058 0.1139335036277771
0.22299663722515106 0.65136259794235229 0.10657981783151627
0.35740530490875244 0.66151708364486694 0.089078269898891449
0.4722311794757843 0.67672199010848999 0.061950936913490295
0.5869373083114624 0.69403582811355591 0.03070017509162426
0.69625365734100342 0.70796620845794678 0.022260239347815514
0.78849351406097412 0.71668553352355957 0.018906805664300919
0.8678438663482666 0.72139102220535278 0.035084504634141922
0.93257606029510498 0.72518342733383179 0.10477327555418015
0.98496484756469727 0.72612857818603516 0.17956066131591797
0.00080862606409937143 0.73397952318191528 0.11194959282875061
0.0018363952403888106 0.72970432043075562 0.10814656317234039
0.01374397985637188 0.72704982757568359 0.10071686655282974
0.10970693826675415 0.72757524251937866 0.090910173952579498
0.25314715504646301 0.72675800323486328 0.082202911376953125
0.37300649285316467 0.7273903489112854 0.067443311214447021
0.48325270414352417 0.73448801040649414 0.056679341942071915
0.59165829420089722 0.74454569816589355 0.042316138744354248
0.69277560710906982 0.75600844621658325 0.032126080244779587
0.78093463182449341 0.76388800144195557 0.030518446117639542
0.85919773578643799 0.76953142881393433 0.043459050357341766
0.92436450719833374 0.77348411083221436 0.096226289868354797
0.97658354043960571 0.77451944351196289 0.17476625740528107
0.036780577152967453 0.79450291395187378 0.13280579447746277
0.059677198529243469 0.79159450531005859 0.12597449123859406
0.13355372846126556 0.79140454530715942 0.11901149153709412
0.23157225549221039 0.78834718465805054 0.11340302228927612
0.32494920492172241 0.78497976064682007 0.10290221869945526
0.42081472277641296 0.78354978561401367 0.086665615439414978
0.5184360146522522 0.78733921051025391 0.084402047097682953
0.61256110668182373 0.79463315010070801 0.07955595850944519
0.69881135225296021 0.80215281248092651 0.081848099827766418
0.78286844491958618 0.80947726964950562 0.083400711417198181
0.85501235723495483 0.8150288462638855 0.098086535930633545
0.91931980848312378 0.81936752796173096 0.14410053193569183
0.97258228063583374 0.82212692499160767 0.19560928642749786
0.23972688615322113 0.84894639253616333 0.20065261423587799
0.26407513022422791 0.84689772129058838 0.1922677755355835
0.30814918875694275 0.84649688005447388 0.18618905544281006
0.36061352491378784 0.84589499235153198 0.17991010844707489
0.42818155884742737 0.84279501438140869 0.16926479339599609
0.49416294693946838 0.84032773971557617 0.15527656674385071
0.56785577535629272 0.8409389853477478 0.1538337767124176
0.64754724502563477 0.84706568717956543 0.16047564148902893
0.72190713882446289 0.85295885801315308 0.16904173791408539
0.79156786203384399 0.85734266042709351 0.17858527600765228
0.85686641931533813 0.86285567283630371 0.18819573521614075
0.91651672124862671 0.86900359392166138 0.21041582524776459
0.96471494436264038 0.87291061878204346 0.24515920877456665
0.40202432870864868 0.90707731246948242 0.31623822450637817
0.41815730929374695 0.90748316049575806 0.30855700373649597
0.44396615028381348 0.90693885087966919 0.30174160003662109
0.48065707087516785 0.90583592653274536 0.2975609302520752
0.52522814273834229 0.90480124950408936 0.29122212529182434
0.57731586694717407 0.90231508016586304 0.28402447700500488
0.63194137811660767 0.90164434909820557 0.27624303102493286
0.689910888671875 0.90588802099227905 0.2812962532043457
0.75144511461257935 0.91047108173370361 0.29478853940963745
0.80796432495117188 0.9140663743019104 0.30752000212669373
0.86347538232803345 0.92020004987716675 0.31802546977996826
0.9132390022277832 0.92499262094497681 0.32993286848068237
0.95644950866699219 0.93084084987640381 0.35722336173057556
0.0045579047873616219 0.21326817572116852 0.21598048508167267
0.0094014033675193787 0.21266530454158783 0.21700005233287811
0.019470948725938797 0.21118184924125671 0.21605736017227173
0.076425008475780487 0.2077285498380661 0.21477001905441284
0.16541852056980133 0.20073497295379639 0.2147260308265686
0.26265588402748108 0.18929110467433929 0.21214394271373749
0.37501770257949829 0.16769963502883911 0.2125186026096344
0.48529011011123657 0.1405303031206131 0.21469593048095703
0.59233224391937256 0.094851523637771606 0.21214093267917633
0.69527220726013184 0.030149482190608978 0.20559199154376984
0.78933340311050415 0.0086980927735567093 0.20286256074905396
0.87698185443878174 0.0048966351896524429 0.1988140195608139
0.95445734262466431 0.0025201835669577122 0.1944580078125
0.0041854856535792351 0.21940787136554718 0.21974669396877289
0.0090796081349253654 0.2204962819814682 0.22325611114501953
0.029877845197916031 0.22280541062355042 0.22246921062469482
0.10064562410116196 0.21934525668621063 0.21936674416065216
0.18961870670318604 0.21128435432910919 0.21799232065677643
0.29093042016029358 0.20021438598632812 0.21387937664985657
0.40099021792411804 0.18298561871051788 0.21092163026332855
0.51262050867080688 0.15528400242328644 0.21080499887466431
0.61986589431762695 0.11680610477924347 0.20815165340900421
0.72105544805526733 0.060890242457389832 0.20301809906959534
0.81061971187591553 0.015752261504530907 0.19853630661964417
0.89109611511230469 0.0098355459049344063 0.19471023976802826
0.96273708343505859 0.0057277604937553406 0.1904820054769516
0.0027920291759073734 0.23095317184925079 0.22356316447257996
0.0075037041679024696 0.23573549091815948 0.22583086788654327
0.038720566779375076 0.24011263251304626 0.22540749609470367
0.12202407419681549 0.23900747299194336 0.22115200757980347
0.22231476008892059 0.23603050410747528 0.21867966651916504
0.33692255616188049 0.23369510471820831 0.21671947836875916
0.45217311382293701 0.22138385474681854 0.21422110497951508
0.560158371925354 0.19699293375015259 0.21068765223026276
0.65776437520980835 0.16464655101299286 0.2053496390581131
0.75122487545013428 0.1257612556219101 0.19921982288360596
0.83531546592712402 0.073269680142402649 0.19504295289516449
0.91077816486358643 0.040213894098997116 0.1908746063709259
0.97462970018386841 0.018696295097470284 0.18547163903713226
0.0018754996126517653 0.26974910497665405 0.22185942530632019
0.0075507517904043198 0.27275103330612183 0.22423936426639557
0.04372628778219223 0.27649182081222534 0.22559159994125366
0.14375817775726318 0.27968248724937439 0.22319810092449188
0.26027435064315796 0.28318548202514648 0.22169069945812225
0.3870576024055481 0.29063516855239868 0.21781641244888306
0.50807714462280273 0.28935983777046204 0.21267229318618774
0.61439162492752075 0.27694255113601685 0.2057764083147049
0.70496463775634766 0.25508317351341248 0.20241990685462952
0.78780490159988403 0.22816361486911774 0.19771237671375275
0.86326372623443604 0.19951768219470978 0.1934773325920105
0.93135082721710205 0.17710845172405243 0.18811941146850586
0.97724044322967529 0.15842068195343018 0.18388979136943817
0.0018287957645952702 0.32493862509727478 0.21656543016433716
0.0094193257391452789 0.32754546403884888 0.22015315294265747
0.037941742688417435 0.33134075999259949 0.22008168697357178
0.14586023986339569 0.33990770578384399 0.21729388833045959
0.27219703793525696 0.35197752714157104 0.21232669055461884
0.40233397483825684 0.36367589235305786 0.20641538500785828
0.53079110383987427 0.37430587410926819 0.19994278252124786
0.65123200416564941 0.37818187475204468 0.19941027462482452
0.74739664793014526 0.37053343653678894 0.19941443204879761
0.82293397188186646 0.35338902473449707 0.19535376131534576
0.88715147972106934 0.33618748188018799 0.19327619671821594
0.94728416204452515 0.32164391875267029 0.18695710599422455
0.98427277803421021 0.31237554550170898 0.18392029404640198
0.0019540973007678986 0.40673691034317017 0.20953530073165894
0.0068631488829851151 0.40217405557632446 0.21064223349094391
0.02452634833753109 0.4007931649684906 0.20656359195709229
0.13790486752986908 0.41074559092521667 0.20289140939712524
0.26366177201271057 0.42993655800819397 0.1964036226272583
0.39051234722137451 0.44864824414253235 0.18653765320777893
0.52010065317153931 0.46307626366615295 0.17748476564884186
0.64397317171096802 0.47189342975616455 0.17588438093662262
0.75313174724578857 0.47655007243156433 0.17557258903980255
0.84206235408782959 0.48342022299766541 0.18403331935405731
0.90577977895736694 0.47919544577598572 0.19550007581710815
0.96314412355422974 0.46596366167068481 0.19147895276546478
0.99141579866409302 0.45491725206375122 0.18950875103473663
0.0023914412595331669 0.49785897135734558 0.20032094419002533
0.0054358989000320435 0.49060279130935669 0.19889320433139801
0.010848206467926502 0.48317188024520874 0.19224748015403748
0.11438138037919998 0.48781353235244751 0.18612547218799591
0.24913571774959564 0.50827133655548096 0.17889028787612915
0.3761717677116394 0.5283082127571106 0.16802653670310974
0.50665104389190674 0.54480439424514771 0.15124286711215973
0.62231349945068359 0.55783212184906006 0.13845789432525635
0.73155146837234497 0.56666296720504761 0.13536553084850311
0.82416129112243652 0.57718867063522339 0.14868989586830139
0.8966449499130249 0.58773869276046753 0.1769879013299942
0.96244657039642334 0.59220176935195923 0.20357394218444824
0.99097591638565063 0.58281594514846802 0.223706915974617
0.0015701742377132177 0.58368057012557983 0.18441767990589142
0.0044933096505701542 0.5759391188621521 0.18289613723754883
0.0097235888242721558 0.57114511728286743 0.17752212285995483
0.077162571251392365 0.57193344831466675 0.16936048865318298
0.23235194385051727 0.58240592479705811 0.16212312877178192
0.36023822426795959 0.59919595718383789 0.15289868414402008
0.48551341891288757 0.61528825759887695 0.13400742411613464
0.60303354263305664 0.6324695348739624 0.10702072083950043
0.71069836616516113 0.64656394720077515 0.099658533930778503
0.80214321613311768 0.65678662061691284 0.10436166822910309
0.87692791223526001 0.6633639931678772 0.14247633516788483
0.94452548027038574 0.66684174537658691 0.19413109123706818
0.98731809854507446 0.67136949300765991 0.24454763531684875
0.0010824913624674082 0.66725492477416992 0.16350197792053223
0.0054748686961829662 0.65991270542144775 0.16468381881713867
0.009379248134791851 0.65651476383209229 0.1571345329284668
0.05436522513628006 0.65628218650817871 0.14736713469028473
0.22074808180332184 0.65886181592941284 0.14144085347652435
0.35069721937179565 0.66759860515594482 0.13548365235328674
0.47272863984107971 0.68055266141891479 0.11873339116573334
0.59076559543609619 0.69610822200775146 0.092611633241176605
0.69661229848861694 0.70701795816421509 0.079606287181377411
0.78740084171295166 0.71709048748016357 0.085767440497875214
0.8648076057434082 0.72202605009078979 0.11839012056589127
0.9312099814414978 0.72534996271133423 0.17397607862949371
0.98278689384460449 0.7275233268737793 0.23446013033390045
0.0028958937618881464 0.73808836936950684 0.15878285467624664
0.0040125381201505661 0.7318418025970459 0.15696336328983307
0.013702781870961189 0.73094755411148071 0.1440860778093338
0.10376573354005814 0.73214483261108398 0.1331871896982193
0.25227794051170349 0.72962909936904907 0.1305939108133316
0.37130367755889893 0.72988498210906982 0.12711718678474426
0.48448875546455383 0.73660528659820557 0.12168459594249725
0.59585750102996826 0.74662089347839355 0.11047835648059845
0.69580823183059692 0.75685739517211914 0.096832364797592163
0.78029859066009521 0.76447725296020508 0.10312061756849289
0.85804253816604614 0.7699090838432312 0.12146675586700439
0.92452776432037354 0.77378219366073608 0.16389138996601105
0.98069697618484497 0.7758173942565918 0.2251451164484024
0.039368633180856705 0.796825110912323 0.17541998624801636
0.058547914028167725 0.79448789358139038 0.1686553955078125
0.12930180132389069 0.79370570182800293 0.16173486411571503
0.22812934219837189 0.79070490598678589 0.15934531390666962
0.32417607307434082 0.78672707080841064 0.15546511113643646
0.42442649602890015 0.78463345766067505 0.146736741065979
0.51903241872787476 0.7876390814781189 0.1451585590839386
0.61259984970092773 0.794319748878479 0.1407635509967804
0.70342212915420532 0.80285185575485229 0.13993823528289795
0.78283953666687012 0.80917024612426758 0.14816467463970184
0.85540670156478882 0.81517940759658813 0.1596362441778183
0.92044836282730103 0.81978034973144531 0.19003766775131226
0.97589033842086792 0.82328373193740845 0.23576299846172333
0.2336747795343399 0.85074335336685181 0.23846860229969025
0.26107996702194214 0.84880900382995605 0.2280840277671814
0.30089002847671509 0.84834557771682739 0.22814756631851196
0.35123077034950256 0.84709680080413818 0.22536276280879974
0.42505183815956116 0.84287369251251221 0.21214374899864197
0.4952428936958313 0.84010618925094604 0.19829513132572174
0.5692821741104126 0.84136873483657837 0.1940382719039917
0.64663797616958618 0.84687978029251099 0.20015294849872589
0.72105616331100464 0.85316014289855957 0.20923824608325958
0.79174703359603882 0.85775244235992432 0.21929925680160522
0.85627084970474243 0.8634192943572998 0.22833159565925598
0.9161638617515564 0.86947870254516602 0.24466544389724731
0.96561682224273682 0.87474089860916138 0.28360277414321899
0.39849653840065002 0.90831828117370605 0.34277397394180298
0.41746747493743896 0.9084746241569519 0.33555495738983154
0.43840336799621582 0.90775036811828613 0.33460378646850586
0.47434663772583008 0.90605819225311279 0.32810190320014954
0.52324455976486206 0.90459150075912476 0.31621962785720825
0.57494407892227173 0.90147364139556885 0.30802375078201294
0.62856024503707886 0.90158134698867798 0.30222773551940918
0.68758147954940796 0.90527236461639404 0.30835261940956116
0.75107657909393311 0.91082733869552612 0.31926077604293823
0.80698257684707642 0.91419941186904907 0.33147749304771423
0.86260700225830078 0.91970765590667725 0.34290114045143127
0.91275888681411743 0.92530518770217896 0.35599890351295471
0.95685368776321411 0.93096047639846802 0.38372910022735596
0.0014959297841414809 0.2110326886177063 0.22619074583053589
0.0061729880981147289 0.21058548986911774 0.23214232921600342
0.01827208511531353 0.20872315764427185 0.23258653283119202
0.080555766820907593 0.20583786070346832 0.23380157351493835
0.167923703789711 0.20124301314353943 0.23664498329162598
0.26560238003730774 0.18987466394901276 0.23805007338523865
0.3728802502155304 0.16663536429405212 0.23865883052349091
0.47747072577476501 0.13263800740242004 0.23849494755268097
0.58202981948852539 0.07414679229259491 0.23191992938518524
0.68468308448791504 0.0095714041963219643 0.22015151381492615
0.77881836891174316 0.005606423132121563 0.21668221056461334
0.86814278364181519 0.0043432498350739479 0.2134406715631485
0.9516109824180603 0.00091284955851733685 0.20795553922653198
0.0013467676471918821 0.2180466502904892 0.23322303593158722
0.0040634903125464916 0.21889816224575043 0.23781238496303558
0.025536885485053062 0.21793496608734131 0.23964200913906097
0.10257076472043991 0.21419578790664673 0.23847393691539764
0.19064225256443024 0.20799341797828674 0.23762361705303192
0.29082342982292175 0.19547858834266663 0.23692318797111511
0.39716750383377075 0.17319799959659576 0.2358294278383255
0.50179457664489746 0.13933499157428741 0.23614050447940826
0.60592800378799438 0.080255322158336639 0.23142319917678833
0.70969945192337036 0.019336909055709839 0.22106188535690308
0.80208343267440796 0.0082341358065605164 0.21679563820362091
0.88470882177352905 0.0080747418105602264 0.2131098210811615
0.96180260181427002 0.0042559006251394749 0.20809628069400787
0.0012441448634490371 0.23104304075241089 0.23886138200759888
0.0036357205826789141 0.23508860170841217 0.2433287650346756
0.03190937265753746 0.23617488145828247 0.24470163881778717
0.12121368199586868 0.23318623006343842 0.24300990998744965
0.22340454161167145 0.2281663566827774 0.23967595398426056
0.33583691716194153 0.22127740085124969 0.24021951854228973
0.4446130096912384 0.20422761142253876 0.23611980676651001
0.54707354307174683 0.17452965676784515 0.23396539688110352
0.6427847146987915 0.13132338225841522 0.23037213087081909
0.73907160758972168 0.071523018181324005 0.22424183785915375
0.82692855596542358 0.031894639134407043 0.21803379058837891
0.90569144487380981 0.018577022477984428 0.21345953643321991
0.97035932540893555 0.0096658747643232346 0.20795084536075592
0.0015318627702072263 0.27555906772613525 0.24630162119865417
0.006526558194309473 0.28049424290657043 0.25104787945747375
0.038165565580129623 0.28369596600532532 0.25424408912658691
0.14453434944152832 0.28252771496772766 0.25307565927505493
0.26376944780349731 0.28147563338279724 0.24752175807952881
0.38814431428909302 0.28236207365989685 0.24816808104515076
0.50192737579345703 0.27314600348472595 0.24487206339836121
0.59679180383682251 0.25892776250839233 0.23994661867618561
0.6873508095741272 0.23049196600914001 0.23329071700572968
0.77538913488388062 0.18660023808479309 0.23112015426158905
0.85553663969039917 0.16133184731006622 0.22324669361114502
0.92595911026000977 0.12616690993309021 0.21491843461990356
0.97811049222946167 0.099823415279388428 0.20935596525669098
0.0019688026513904333 0.33631855249404907 0.25512880086898804
0.0090837813913822174 0.33873376250267029 0.25551426410675049
0.028850959613919258 0.34034621715545654 0.25213909149169922
0.14292648434638977 0.34412163496017456 0.249839186668396
0.27257201075553894 0.35437306761741638 0.24747887253761292
