luts/instant_pro/polaroid_665_-.cube
# Created by: G'MIC (https://gmic.eu)
TITLE "polaroid_665_-"
# LUT size
LUT_3D_SIZE 7
# Data domain
DOMAIN_MIN 0.0 0.0 0.0
DOMAIN_MAX 1.0 1.0 1.0
# LUT data points
0.040451094508171082 0.040451094508171082 0.040451094508171082
0.076723180711269379 0.076723180711269379 0.076723180711269379
0.14229688048362732 0.14229688048362732 0.14229688048362732
0.22618995606899261 0.22618995606899261 0.22618995606899261
0.30527713894844055 0.30527713894844055 0.30527713894844055
0.37953585386276245 0.37953585386276245 0.37953585386276245
0.46946871280670166 0.46946871280670166 0.46946871280670166
0.10851069539785385 0.10851069539785385 0.10851069539785385
0.1265643835067749 0.1265643835067749 0.1265643835067749
0.17598618566989899 0.17598618566989899 0.17598618566989899
0.25651848316192627 0.25651848316192627 0.25651848316192627
0.33287540078163147 0.33287540078163147 0.33287540078163147
0.39736440777778625 0.39736440777778625 0.39736440777778625
0.48518773913383484 0.48518773913383484 0.48518773913383484
0.2404177188873291 0.2404177188873291 0.2404177188873291
0.23501917719841003 0.23501917719841003 0.23501917719841003
0.25195086002349854 0.25195086002349854 0.25195086002349854
0.30793270468711853 0.30793270468711853 0.30793270468711853
0.37502118945121765 0.37502118945121765 0.37502118945121765
0.43416336178779602 0.43416336178779602 0.43416336178779602
0.53282350301742554 0.53282350301742554 0.53282350301742554
0.35316908359527588 0.35316908359527588 0.35316908359527588
0.34692525863647461 0.34692525863647461 0.34692525863647461
0.34601104259490967 0.34601104259490967 0.34601104259490967
0.36676546931266785 0.36676546931266785 0.36676546931266785
0.40515622496604919 0.40515622496604919 0.40515622496604919
0.47890883684158325 0.47890883684158325 0.47890883684158325
0.61006885766983032 0.61006885766983032 0.61006885766983032
0.45529305934906006 0.45529305934906006 0.45529305934906006
0.45608016848564148 0.45608016848564148 0.45608016848564148
0.45763781666755676 0.45763781666755676 0.45763781666755676
0.46441683173179626 0.46441683173179626 0.46441683173179626
0.47724708914756775 0.47724708914756775 0.47724708914756775
0.52060723304748535 0.52060723304748535 0.52060723304748535
0.64593958854675293 0.64593958854675293 0.64593958854675293
0.60502010583877563 0.60502010583877563 0.60502010583877563
0.60758298635482788 0.60758298635482788 0.60758298635482788
0.61269307136535645 0.61269307136535645 0.61269307136535645
0.62331974506378174 0.62331974506378174 0.62331974506378174
0.6366240382194519 0.6366240382194519 0.6366240382194519
0.64950162172317505 0.64950162172317505 0.64950162172317505
0.7130202054977417 0.7130202054977417 0.7130202054977417
0.79717463254928589 0.79717463254928589 0.79717463254928589
0.79327094554901123 0.79327094554901123 0.79327094554901123
0.79487431049346924 0.79487431049346924 0.79487431049346924
0.8077203631401062 0.8077203631401062 0.8077203631401062
0.82637089490890503 0.82637089490890503 0.82637089490890503
0.83429384231567383 0.83429384231567383 0.83429384231567383
0.85767477750778198 0.85767477750778198 0.85767477750778198
0.12421268969774246 0.12421268969774246 0.12421268969774246
0.15522274374961853 0.15522274374961853 0.15522274374961853
0.20925697684288025 0.20925697684288025 0.20925697684288025
0.28287240862846375 0.28287240862846375 0.28287240862846375
0.34650671482086182 0.34650671482086182 0.34650671482086182
0.40593412518501282 0.40593412518501282 0.40593412518501282
0.48716536164283752 0.48716536164283752 0.48716536164283752
0.16738715767860413 0.16738715767860413 0.16738715767860413
0.19901606440544128 0.19901606440544128 0.19901606440544128
0.23816198110580444 0.23816198110580444 0.23816198110580444
0.29792484641075134 0.29792484641075134 0.29792484641075134
0.35963252186775208 0.35963252186775208 0.35963252186775208
0.41728469729423523 0.41728469729423523 0.41728469729423523
0.49958202242851257 0.49958202242851257 0.49958202242851257
0.2857782244682312 0.2857782244682312 0.2857782244682312
0.29158702492713928 0.29158702492713928 0.29158702492713928
0.30234959721565247 0.30234959721565247 0.30234959721565247
0.33803725242614746 0.33803725242614746 0.33803725242614746
0.38886860013008118 0.38886860013008118 0.38886860013008118
0.4522387683391571 0.4522387683391571 0.4522387683391571
0.54706168174743652 0.54706168174743652 0.54706168174743652
0.38657549023628235 0.38657549023628235 0.38657549023628235
0.38731768727302551 0.38731768727302551 0.38731768727302551
0.38321602344512939 0.38321602344512939 0.38321602344512939
0.39145961403846741 0.39145961403846741 0.39145961403846741
0.4177679717540741 0.4177679717540741 0.4177679717540741
0.49472391605377197 0.49472391605377197 0.49472391605377197
0.6120721697807312 0.6120721697807312 0.6120721697807312
0.47756347060203552 0.47756347060203552 0.47756347060203552
0.48204320669174194 0.48204320669174194 0.48204320669174194
0.48530295491218567 0.48530295491218567 0.48530295491218567
0.48739832639694214 0.48739832639694214 0.48739832639694214
0.49451470375061035 0.49451470375061035 0.49451470375061035
0.5484473705291748 0.5484473705291748 0.5484473705291748
0.65633827447891235 0.65633827447891235 0.65633827447891235
0.62360835075378418 0.62360835075378418 0.62360835075378418
0.62879198789596558 0.62879198789596558 0.62879198789596558
0.63416832685470581 0.63416832685470581 0.63416832685470581
0.64074337482452393 0.64074337482452393 0.64074337482452393
0.64882630109786987 0.64882630109786987 0.64882630109786987
0.66202127933502197 0.66202127933502197 0.66202127933502197
0.71469235420227051 0.71469235420227051 0.71469235420227051
0.80890107154846191 0.80890107154846191 0.80890107154846191
0.80845576524734497 0.80845576524734497 0.80845576524734497
0.80880612134933472 0.80880612134933472 0.80880612134933472
0.81568551063537598 0.81568551063537598 0.81568551063537598
0.82766485214233398 0.82766485214233398 0.82766485214233398
0.83247661590576172 0.83247661590576172 0.83247661590576172
0.85158294439315796 0.85158294439315796 0.85158294439315796
0.25524991750717163 0.25524991750717163 0.25524991750717163
0.26111024618148804 0.26111024618148804 0.26111024618148804
0.28304862976074219 0.28304862976074219 0.28304862976074219
0.33461108803749084 0.33461108803749084 0.33461108803749084
0.3908621072769165 0.3908621072769165 0.3908621072769165
0.45242559909820557 0.45242559909820557 0.45242559909820557
0.53122854232788086 0.53122854232788086 0.53122854232788086
0.28523498773574829 0.28523498773574829 0.28523498773574829
0.29838526248931885 0.29838526248931885 0.29838526248931885
0.31320416927337646 0.31320416927337646 0.31320416927337646
0.34869730472564697 0.34869730472564697 0.34869730472564697
0.40475130081176758 0.40475130081176758 0.40475130081176758
0.46213439106941223 0.46213439106941223 0.46213439106941223
0.53901118040084839 0.53901118040084839 0.53901118040084839
0.32464507222175598 0.32464507222175598 0.32464507222175598
0.35363501310348511 0.35363501310348511 0.35363501310348511
0.370004802942276 0.370004802942276 0.370004802942276
0.39810964465141296 0.39810964465141296 0.39810964465141296
0.44647106528282166 0.44647106528282166 0.44647106528282166
0.5046771764755249 0.5046771764755249 0.5046771764755249
0.58240753412246704 0.58240753412246704 0.58240753412246704
0.4045642614364624 0.4045642614364624 0.4045642614364624
0.42137432098388672 0.42137432098388672 0.42137432098388672
0.44005128741264343 0.44005128741264343 0.44005128741264343
0.45843547582626343 0.45843547582626343 0.45843547582626343
0.48955634236335754 0.48955634236335754 0.48955634236335754
0.55560392141342163 0.55560392141342163 0.55560392141342163
0.65447616577148438 0.65447616577148438 0.65447616577148438
0.5049399733543396 0.5049399733543396 0.5049399733543396
0.52039974927902222 0.52039974927902222 0.52039974927902222
0.54546928405761719 0.54546928405761719 0.54546928405761719
0.5509105920791626 0.5509105920791626 0.5509105920791626
0.56058663129806519 0.56058663129806519 0.56058663129806519
0.6098671555519104 0.6098671555519104 0.6098671555519104
0.70904457569122314 0.70904457569122314 0.70904457569122314
0.66413825750350952 0.66413825750350952 0.66413825750350952
0.67064303159713745 0.67064303159713745 0.67064303159713745
0.68177908658981323 0.68177908658981323 0.68177908658981323
0.68348485231399536 0.68348485231399536 0.68348485231399536
0.68387258052825928 0.68387258052825928 0.68387258052825928
0.69587522745132446 0.69587522745132446 0.69587522745132446
0.74859178066253662 0.74859178066253662 0.74859178066253662
0.83604264259338379 0.83604264259338379 0.83604264259338379
0.83601415157318115 0.83601415157318115 0.83601415157318115
0.83349674940109253 0.83349674940109253 0.83349674940109253
0.83303207159042358 0.83303207159042358 0.83303207159042358
0.84058201313018799 0.84058201313018799 0.84058201313018799
0.84952646493911743 0.84952646493911743 0.84952646493911743
0.86697632074356079 0.86697632074356079 0.86697632074356079
0.375486820936203 0.375486820936203 0.375486820936203
0.36888796091079712 0.36888796091079712 0.36888796091079712
0.37396156787872314 0.37396156787872314 0.37396156787872314
0.39220017194747925 0.39220017194747925 0.39220017194747925
0.43532538414001465 0.43532538414001465 0.43532538414001465
0.53045260906219482 0.53045260906219482 0.53045260906219482
0.63280004262924194 0.63280004262924194 0.63280004262924194
0.40590620040893555 0.40590620040893555 0.40590620040893555
0.41119185090065002 0.41119185090065002 0.41119185090065002
0.41234311461448669 0.41234311461448669 0.41234311461448669
0.42335742712020874 0.42335742712020874 0.42335742712020874
0.46473813056945801 0.46473813056945801 0.46473813056945801
0.53505390882492065 0.53505390882492065 0.53505390882492065
0.63126152753829956 0.63126152753829956 0.63126152753829956
0.42416879534721375 0.42416879534721375 0.42416879534721375
0.44907677173614502 0.44907677173614502 0.44907677173614502
0.46289601922035217 0.46289601922035217 0.46289601922035217
0.48092293739318848 0.48092293739318848 0.48092293739318848
0.52756112813949585 0.52756112813949585 0.52756112813949585
0.58300423622131348 0.58300423622131348 0.58300423622131348
0.65583735704421997 0.65583735704421997 0.65583735704421997
0.44114604592323303 0.44114604592323303 0.44114604592323303
0.45838144421577454 0.45838144421577454 0.45838144421577454
0.49892884492874146 0.49892884492874146 0.49892884492874146
0.53741645812988281 0.53741645812988281 0.53741645812988281
0.57468080520629883 0.57468080520629883 0.57468080520629883
0.63148289918899536 0.63148289918899536 0.63148289918899536
0.7138826847076416 0.7138826847076416 0.7138826847076416
0.52406805753707886 0.52406805753707886 0.52406805753707886
0.5429530143737793 0.5429530143737793 0.5429530143737793
0.59073054790496826 0.59073054790496826 0.59073054790496826
0.61501848697662354 0.61501848697662354 0.61501848697662354
0.6333235502243042 0.6333235502243042 0.6333235502243042
0.67703622579574585 0.67703622579574585 0.67703622579574585
0.75723457336425781 0.75723457336425781 0.75723457336425781
0.69138616323471069 0.69138616323471069 0.69138616323471069
0.69546133279800415 0.69546133279800415 0.69546133279800415
0.72212499380111694 0.72212499380111694 0.72212499380111694
0.72881472110748291 0.72881472110748291 0.72881472110748291
0.72973859310150146 0.72973859310150146 0.72973859310150146
0.74441546201705933 0.74441546201705933 0.74441546201705933
0.79032284021377563 0.79032284021377563 0.79032284021377563
0.85380381345748901 0.85380381345748901 0.85380381345748901
0.8526427149772644 0.8526427149772644 0.8526427149772644
0.85721898078918457 0.85721898078918457 0.85721898078918457
0.85731679201126099 0.85731679201126099 0.85731679201126099
0.8611987829208374 0.8611987829208374 0.8611987829208374
0.8712698221206665 0.8712698221206665 0.8712698221206665
0.88943946361541748 0.88943946361541748 0.88943946361541748
0.51353782415390015 0.51353782415390015 0.51353782415390015
0.50643932819366455 0.50643932819366455 0.50643932819366455
0.51378941535949707 0.51378941535949707 0.51378941535949707
0.52253717184066772 0.52253717184066772 0.52253717184066772
0.52949744462966919 0.52949744462966919 0.52949744462966919
0.58133912086486816 0.58133912086486816 0.58133912086486816
0.7042650580406189 0.7042650580406189 0.7042650580406189
0.54549860954284668 0.54549860954284668 0.54549860954284668
0.54830807447433472 0.54830807447433472 0.54830807447433472
0.54893219470977783 0.54893219470977783 0.54893219470977783
0.54644834995269775 0.54644834995269775 0.54644834995269775
0.55274975299835205 0.55274975299835205 0.55274975299835205
0.60405141115188599 0.60405141115188599 0.60405141115188599
0.71646809577941895 0.71646809577941895 0.71646809577941895
0.56841003894805908 0.56841003894805908 0.56841003894805908
0.58353805541992188 0.58353805541992188 0.58353805541992188
0.58698034286499023 0.58698034286499023 0.58698034286499023
0.58791744709014893 0.58791744709014893 0.58791744709014893
0.59155702590942383 0.59155702590942383 0.59155702590942383
0.64153861999511719 0.64153861999511719 0.64153861999511719
0.74339044094085693 0.74339044094085693 0.74339044094085693
0.5645606517791748 0.5645606517791748 0.5645606517791748
0.57465994358062744 0.57465994358062744 0.57465994358062744
0.59869205951690674 0.59869205951690674 0.59869205951690674
0.62734800577163696 0.62734800577163696 0.62734800577163696
0.65034645795822144 0.65034645795822144 0.65034645795822144
0.69327437877655029 0.69327437877655029 0.69327437877655029
0.76576530933380127 0.76576530933380127 0.76576530933380127
0.5946003794670105 0.5946003794670105 0.5946003794670105
0.59963464736938477 0.59963464736938477 0.59963464736938477
0.62990641593933105 0.62990641593933105 0.62990641593933105
0.66635900735855103 0.66635900735855103 0.66635900735855103
0.6980057954788208 0.6980057954788208 0.6980057954788208
0.73735558986663818 0.73735558986663818 0.73735558986663818
0.79276090860366821 0.79276090860366821 0.79276090860366821
0.69188845157623291 0.69188845157623291 0.69188845157623291
0.69882875680923462 0.69882875680923462 0.69882875680923462
0.72518330812454224 0.72518330812454224 0.72518330812454224
0.74694639444351196 0.74694639444351196 0.74694639444351196
0.77109330892562866 0.77109330892562866 0.77109330892562866
0.79918873310089111 0.79918873310089111 0.79918873310089111
0.83636468648910522 0.83636468648910522 0.83636468648910522
0.84504818916320801 0.84504818916320801 0.84504818916320801
0.84281450510025024 0.84281450510025024 0.84281450510025024
0.85242980718612671 0.85242980718612671 0.85242980718612671
0.86361080408096313 0.86361080408096313 0.86361080408096313
0.87965595722198486 0.87965595722198486 0.87965595722198486
0.89553618431091309 0.89553618431091309 0.89553618431091309
0.9143366813659668 0.9143366813659668 0.9143366813659668
0.68110328912734985 0.68110328912734985 0.68110328912734985
0.67871475219726562 0.67871475219726562 0.67871475219726562
0.6852601170539856 0.6852601170539856 0.6852601170539856
0.70032995939254761 0.70032995939254761 0.70032995939254761
0.71226233243942261 0.71226233243942261 0.71226233243942261
0.70037651062011719 0.70037651062011719 0.70037651062011719
0.74277973175048828 0.74277973175048828 0.74277973175048828
0.70559680461883545 0.70559680461883545 0.70559680461883545
0.70512944459915161 0.70512944459915161 0.70512944459915161
0.70814961194992065 0.70814961194992065 0.70814961194992065
0.71350157260894775 0.71350157260894775 0.71350157260894775
0.71728438138961792 0.71728438138961792 0.71728438138961792
0.7162775993347168 0.7162775993347168 0.7162775993347168
0.74626094102859497 0.74626094102859497 0.74626094102859497
0.73320168256759644 0.73320168256759644 0.73320168256759644
0.73146367073059082 0.73146367073059082 0.73146367073059082
0.73252183198928833 0.73252183198928833 0.73252183198928833
0.73643952608108521 0.73643952608108521 0.73643952608108521
0.73618733882904053 0.73618733882904053 0.73618733882904053
0.74428129196166992 0.74428129196166992 0.74428129196166992
0.77999526262283325 0.77999526262283325 0.77999526262283325
0.73902451992034912 0.73902451992034912 0.73902451992034912
0.73535186052322388 0.73535186052322388 0.73535186052322388
0.74262005090713501 0.74262005090713501 0.74262005090713501
0.76157164573669434 0.76157164573669434 0.76157164573669434
0.76476114988327026 0.76476114988327026 0.76476114988327026
0.77369707822799683 0.77369707822799683 0.77369707822799683
0.80079191923141479 0.80079191923141479 0.80079191923141479
0.74272352457046509 0.74272352457046509 0.74272352457046509
0.73271220922470093 0.73271220922470093 0.73271220922470093
0.74043315649032593 0.74043315649032593 0.74043315649032593
0.76764440536499023 0.76764440536499023 0.76764440536499023
0.78984040021896362 0.78984040021896362 0.78984040021896362
0.81077653169631958 0.81077653169631958 0.81077653169631958
0.83707863092422485 0.83707863092422485 0.83707863092422485
0.75329476594924927 0.75329476594924927 0.75329476594924927
0.76221531629562378 0.76221531629562378 0.76221531629562378
0.7710997462272644 0.7710997462272644 0.7710997462272644
0.79433941841125488 0.79433941841125488 0.79433941841125488
0.83107191324234009 0.83107191324234009 0.83107191324234009
0.86001861095428467 0.86001861095428467 0.86001861095428467
0.88203126192092896 0.88203126192092896 0.88203126192092896
0.85018283128738403 0.85018283128738403 0.85018283128738403
0.85050994157791138 0.85050994157791138 0.85050994157791138
0.85419851541519165 0.85419851541519165 0.85419851541519165
0.8724217414855957 0.8724217414855957 0.8724217414855957
0.90780353546142578 0.90780353546142578 0.90780353546142578
0.92838579416275024 0.92838579416275024 0.92838579416275024
0.93927949666976929 0.93927949666976929 0.93927949666976929
0.84859955310821533 0.84859955310821533 0.84859955310821533
0.8464738130569458 0.8464738130569458 0.8464738130569458
0.85345196723937988 0.85345196723937988 0.85345196723937988
0.86779940128326416 0.86779940128326416 0.86779940128326416
0.87653827667236328 0.87653827667236328 0.87653827667236328
0.86989635229110718 0.86989635229110718 0.86989635229110718
0.86532878875732422 0.86532878875732422 0.86532878875732422
0.85721492767333984 0.85721492767333984 0.85721492767333984
0.85653084516525269 0.85653084516525269 0.85653084516525269
0.86554098129272461 0.86554098129272461 0.86554098129272461
0.87804591655731201 0.87804591655731201 0.87804591655731201
0.8831932544708252 0.8831932544708252 0.8831932544708252
0.86892980337142944 0.86892980337142944 0.86892980337142944
0.85934829711914062 0.85934829711914062 0.85934829711914062
0.87042349576950073 0.87042349576950073 0.87042349576950073
0.86838042736053467 0.86838042736053467 0.86838042736053467
0.87903159856796265 0.87903159856796265 0.87903159856796265
0.88975697755813599 0.88975697755813599 0.88975697755813599
0.89134448766708374 0.89134448766708374 0.89134448766708374
0.88246095180511475 0.88246095180511475 0.88246095180511475
0.8754040002822876 0.8754040002822876 0.8754040002822876
0.88447362184524536 0.88447362184524536 0.88447362184524536
0.88363289833068848 0.88363289833068848 0.88363289833068848
0.88864141702651978 0.88864141702651978 0.88864141702651978
0.89987540245056152 0.89987540245056152 0.89987540245056152
0.89826440811157227 0.89826440811157227 0.89826440811157227
0.88945502042770386 0.88945502042770386 0.88945502042770386
0.88527894020080566 0.88527894020080566 0.88527894020080566
0.88885742425918579 0.88885742425918579 0.88885742425918579
0.88772827386856079 0.88772827386856079 0.88772827386856079
0.88343673944473267 0.88343673944473267 0.88343673944473267
0.89387637376785278 0.89387637376785278 0.89387637376785278
0.90339761972427368 0.90339761972427368 0.90339761972427368
0.91015321016311646 0.91015321016311646 0.91015321016311646
0.91478908061981201 0.91478908061981201 0.91478908061981201
0.88283461332321167 0.88283461332321167 0.88283461332321167
0.8871690034866333 0.8871690034866333 0.8871690034866333
0.87926614284515381 0.87926614284515381 0.87926614284515381
0.88921815156936646 0.88921815156936646 0.88921815156936646
0.91522789001464844 0.91522789001464844 0.91522789001464844
0.93715649843215942 0.93715649843215942 0.93715649843215942
0.94525498151779175 0.94525498151779175 0.94525498151779175
0.90923517942428589 0.90923517942428589 0.90923517942428589
0.91035181283950806 0.91035181283950806 0.91035181283950806
0.90645700693130493 0.90645700693130493 0.90645700693130493
0.91754674911499023 0.91754674911499023 0.91754674911499023
0.9504997730255127 0.9504997730255127 0.9504997730255127
0.96922522783279419 0.96922522783279419 0.96922522783279419
0.97412234544754028 0.97412234544754028 0.97412234544754028
