luts/instant_pro/polaroid_690_warm_-.cube
# Created by: G'MIC (https://gmic.eu)
TITLE "polaroid_690_warm_-"
# LUT size
LUT_3D_SIZE 13
# Data domain
DOMAIN_MIN 0.0 0.0 0.0
DOMAIN_MAX 1.0 1.0 1.0
# LUT data points
0.086301259696483612 0.047371659427881241 0.027836579829454422
0.12626218795776367 0.046604067087173462 0.0279985461384058
0.18682347238063812 0.032711490988731384 0.031283196061849594
0.25933665037155151 0.013511598110198975 0.032393794506788254
0.33812797069549561 0.0072584114968776703 0.031932726502418518
0.42039576172828674 0.0057810167782008648 0.02914905920624733
0.50368916988372803 0.0026609832420945168 0.022452380508184433
0.59161436557769775 0.0013359518488869071 0.017228534445166588
0.68097758293151855 0.000280881387880072 0.012194195762276649
0.76743078231811523 0.0022006614599376917 0.0095153357833623886
0.85146826505661011 0.00329438759945333 0.006962465588003397
0.93094319105148315 0.0028472901321947575 0.0041086236014962196
0.98221170902252197 0.0011071298504248261 0.0039215688593685627
0.098142571747303009 0.098266258835792542 0.029186397790908813
0.13812048733234406 0.10024114698171616 0.02901134081184864
0.19958612322807312 0.08451138436794281 0.030754463747143745
0.26923790574073792 0.059022717177867889 0.029411735013127327
0.35054326057434082 0.030788781121373177 0.027022581547498703
0.43771576881408691 0.012551161460578442 0.024635136127471924
0.52882885932922363 0.0069514256902039051 0.018863767385482788
0.61680352687835693 0.0042093312367796898 0.013391576707363129
0.70227533578872681 0.0014076682273298502 0.010652115568518639
0.78875231742858887 0.0039215688593685627 0.0066266679205000401
0.87196475267410278 0.0039301253855228424 0.0043686809949576855
0.94465368986129761 0.0045294966548681259 0.003773797769099474
0.98571550846099854 0.0040217232890427113 0.0039215688593685627
0.10527794063091278 0.15535692870616913 0.02478758804500103
0.14465712010860443 0.15710769593715668 0.024851810187101364
0.20496658980846405 0.1489880383014679 0.022519772872328758
0.27935406565666199 0.13577914237976074 0.020895760506391525
0.37250038981437683 0.12058774381875992 0.019842484965920448
0.46830844879150391 0.10622193664312363 0.01874827966094017
0.557961106300354 0.065243005752563477 0.012619691900908947
0.64468330144882202 0.035166677087545395 0.0087134120985865593
0.72824454307556152 0.012939438223838806 0.0070560681633651257
0.81333190202713013 0.0045438129454851151 0.0019473955035209656
0.89251691102981567 0.0049777161329984665 0.00061102473409846425
0.9606894850730896 0.0065634185448288918 0.00035339055466465652
0.99187052249908447 0.0044635697267949581 0.0013059279881417751
0.11013031005859375 0.22639985382556915 0.01873149536550045
0.14973950386047363 0.22753813862800598 0.015144392848014832
0.2052113264799118 0.22882035374641418 0.0084784263744950294
0.28936633467674255 0.22901833057403564 0.0092894462868571281
0.39083993434906006 0.23407739400863647 0.011942260898649693
0.4905085563659668 0.23510344326496124 0.011820251122117043
0.59174394607543945 0.22215782105922699 0.0060076094232499599
0.6841120719909668 0.19894635677337646 0.0027385037392377853
0.76401162147521973 0.15730224549770355 0.0012731814058497548
0.84101539850234985 0.12209916859865189 8.5808249423280358e-05
0.91341185569763184 0.084205120801925659 0.00045125625911168754
0.97794002294540405 0.066623702645301819 0.00013504028902389109
0.99872183799743652 0.060618039220571518 0
0.10703575611114502 0.3118603527545929 0.01198190450668335
0.15236940979957581 0.31320679187774658 0.0070892036892473698
0.20943334698677063 0.31729558110237122 0.0029309440869837999
0.29191818833351135 0.32631599903106689 0.0033803903497755527
0.39210045337677002 0.33569711446762085 0.0061022741720080376
0.49230015277862549 0.33917176723480225 0.0055220960639417171
0.59778565168380737 0.34049400687217712 0.0042927758768200874
0.70675569772720337 0.34515124559402466 0.0023968266323208809
0.79124993085861206 0.33044335246086121 0.002235607011243701
0.86425817012786865 0.31036597490310669 0.00055449240608140826
0.93452394008636475 0.29647713899612427 0.0020172717049717903
0.98992794752120972 0.28688359260559082 0.0014451867900788784
0.99981480836868286 0.27798756957054138 0.00037740072002634406
0.096958965063095093 0.39812102913856506 0.004978568758815527
0.14899522066116333 0.39983144402503967 0.0034767750184983015
0.20884107053279877 0.40299862623214722 0.0022028007078915834
0.28675538301467896 0.41038411855697632 0.0020658904686570168
0.37792566418647766 0.4201507568359375 0.0030756033957004547
0.48161333799362183 0.431367427110672 0.004015559796243906
0.5884435772895813 0.44036361575126648 0.0036235135048627853
0.69851088523864746 0.44927266240119934 0.0019049252150580287
0.79270541667938232 0.45287534594535828 0.0017110786866396666
0.87770974636077881 0.45659065246582031 0.0010912726866081357
0.95565241575241089 0.45843967795372009 0.0013076333561912179
0.99461013078689575 0.45198932290077209 0.0025306851603090763
0.99966627359390259 0.44259652495384216 0.0026532041374593973
0.095092341303825378 0.4832804799079895 0.001698916545137763
0.1524817943572998 0.4843689501285553 0.0030969956424087286
0.21856176853179932 0.48596292734146118 0.0024227516259998083
0.29489597678184509 0.49127456545829773 0.0022642547264695168
0.37710455060005188 0.49887582659721375 0.0025721082929521799
0.47610893845558167 0.51149576902389526 0.0033430061303079128
0.58077400922775269 0.52175015211105347 0.0025977788027375937
0.68709731101989746 0.53099542856216431 0.0020849490538239479
0.78299510478973389 0.54028373956680298 0.0033910414204001427
0.87230449914932251 0.55243110656738281 0.0032090130262076855
0.95441305637359619 0.56681805849075317 0.0019832237157970667
0.99441874027252197 0.57348001003265381 0.0029599058907479048
0.99982261657714844 0.56864804029464722 0.0039876899681985378
0.10849031805992126 0.56216233968734741 0.0017920699901878834
0.16179612278938293 0.56144744157791138 0.0023482677061110735
0.22748148441314697 0.56262749433517456 0.002329209353774786
0.3055206835269928 0.56491768360137939 0.0023284314665943384
0.38377121090888977 0.57137614488601685 0.0027943928726017475
0.47422116994857788 0.58229726552963257 0.0023733549751341343
0.57118839025497437 0.59214812517166138 0.0019684585276991129
0.67306619882583618 0.60140985250473022 0.0022098016925156116
0.77031928300857544 0.61357200145721436 0.0033739276695996523
0.85963290929794312 0.62739163637161255 0.0038324992638081312
0.93787002563476562 0.64057749509811401 0.003209028160199523
0.98868304491043091 0.65288281440734863 0.0035753885749727488
0.99886226654052734 0.66363346576690674 0.002063945634290576
0.15248584747314453 0.64140820503234863 0.0013251360505819321
0.19864380359649658 0.63810461759567261 0.0013228023890405893
0.25307181477546692 0.63497579097747803 0.0019200344104319811
0.31880959868431091 0.63341355323791504 0.0023159850388765335
0.39024096727371216 0.63904380798339844 0.0022918700706213713
0.47476458549499512 0.64969199895858765 0.0016721090069040656
0.56939077377319336 0.66061317920684814 0.00050672644283622503
0.66334402561187744 0.67245256900787354 0.00070770864840596914
0.75794333219528198 0.68517082929611206 0.0015153323765844107
0.84519124031066895 0.6980743408203125 0.0025979734491556883
0.92555689811706543 0.71157956123352051 0.002266124589368701
0.98896431922912598 0.72449362277984619 0.0020336227025836706
0.99986910820007324 0.72936135530471802 0.0043179681524634361
0.21949951350688934 0.72057998180389404 0.00015887092740740627
0.25760930776596069 0.7174493670463562 0.00074248970486223698
0.30414021015167236 0.71438014507293701 0.0010491764405742288
0.3581061065196991 0.71075773239135742 0.0020575281232595444
0.41737127304077148 0.71171826124191284 0.0015717301284894347
0.49602857232093811 0.72120946645736694 0.0014678506413474679
0.58080732822418213 0.72989147901535034 0.00036954693496227264
0.67116379737854004 0.74070942401885986 0.00040426815394312143
0.75986027717590332 0.75361359119415283 0.0010330349905416369
0.84570872783660889 0.76588696241378784 0.0023284314665943384
0.92516976594924927 0.77636140584945679 0.0028905381914228201
0.98399168252944946 0.78397738933563232 0.0053403964266180992
0.99890244007110596 0.7892412543296814 0.0084660397842526436
0.30504533648490906 0.79875391721725464 0.0013179405359551311
0.33414721488952637 0.79578578472137451 0.0011545816669240594
0.36345788836479187 0.79492008686065674 0.00051486445590853691
0.41258862614631653 0.79275894165039062 0.00078582763671875
0.46616515517234802 0.78987020254135132 0.0011897068470716476
0.53493064641952515 0.7942015528678894 0.0012934516416862607
0.60923683643341064 0.80046719312667847 0.0011600120924413204
0.68710631132125854 0.80852854251861572 0.0015981786418706179
0.77491337060928345 0.81918829679489136 0.0028050891123712063
0.85775971412658691 0.82781374454498291 0.0039215688593685627
0.92981636524200439 0.83516883850097656 0.0060668946243822575
0.98162221908569336 0.84000259637832642 0.010697203688323498
0.99820208549499512 0.84528005123138428 0.0093462327495217323
0.40655702352523804 0.87259370088577271 0.0036731045693159103
0.42689549922943115 0.87201958894729614 0.0028531691059470177
0.44980475306510925 0.87091964483261108 0.0019717346876859665
0.48885729908943176 0.86901545524597168 0.00064573099371045828
0.53961664438247681 0.86496472358703613 0.0027994641568511724
0.59776985645294189 0.86658549308776855 0.0023492251057177782
0.66012382507324219 0.87000918388366699 0.0013596777571365237
0.72672569751739502 0.87485802173614502 0.0054262797348201275
0.80317264795303345 0.88138061761856079 0.0048439325764775276
0.87240171432495117 0.88698345422744751 0.0043148566037416458
0.93537992238998413 0.89198517799377441 0.0098104886710643768
0.98385310173034668 0.89598619937896729 0.013046698644757271
0.99877113103866577 0.8997231125831604 0.01021047867834568
0.52199923992156982 0.94100254774093628 0.10728521645069122
0.5338820219039917 0.94107484817504883 0.10355503112077713
0.55265659093856812 0.93927305936813354 0.096683233976364136
0.58190768957138062 0.93885362148284912 0.086276516318321228
0.6229204535484314 0.9383552074432373 0.078209623694419861
0.66976141929626465 0.93680471181869507 0.062276054173707962
0.71985882520675659 0.93639731407165527 0.052827589213848114
0.77667099237442017 0.93937671184539795 0.06024334579706192
0.83457398414611816 0.94115978479385376 0.057762518525123596
0.8913649320602417 0.94360828399658203 0.060765314847230911
0.94537955522537231 0.94633227586746216 0.070830114185810089
0.98905479907989502 0.94836670160293579 0.072822153568267822
0.99977344274520874 0.95220929384231567 0.079629801213741302
0.092377558350563049 0.046716861426830292 0.062370628118515015
0.13011370599269867 0.049170162528753281 0.067626997828483582
0.1908637136220932 0.039909124374389648 0.073119357228279114
0.26181867718696594 0.022755356505513191 0.073968000710010529
0.3359590470790863 0.0090157752856612206 0.069232627749443054
0.41655397415161133 0.0056295357644557953 0.065781973302364349
0.50110572576522827 0.003054390661418438 0.059176981449127197
0.58899617195129395 0.0014094184152781963 0.054471828043460846
0.6775134801864624 0.00041518866783007979 0.047718122601509094
0.76424294710159302 0.00048697975580580533 0.039800815284252167
0.8486250638961792 0.00058752321638166904 0.030119713395833969
0.92987000942230225 0.00047822840861044824 0.016636941581964493
0.98592972755432129 0.00034540213528089225 0.0083451364189386368
0.10737216472625732 0.093433812260627747 0.067143335938453674
0.1466154009103775 0.099537089467048645 0.074410699307918549
0.20617265999317169 0.088101089000701904 0.076929576694965363
0.27631646394729614 0.065340079367160797 0.075515180826187134
0.34972301125526428 0.037346813827753067 0.068729117512702942
0.43374219536781311 0.01678905077278614 0.064574912190437317
0.52142196893692017 0.0072268168441951275 0.05850779265165329
0.61082309484481812 0.0042287339456379414 0.052612423896789551
0.6991196870803833 0.0021141651086509228 0.047017131000757217
0.78486746549606323 0.0034127926919609308 0.03726482018828392
0.86659455299377441 0.0012158113531768322 0.024350948631763458
0.9412652850151062 0.0021700391080230474 0.0146687226369977
0.98667114973068237 0.0023821364156901836 0.0095858853310346603
0.11950209736824036 0.15515491366386414 0.072483167052268982
0.15768714249134064 0.15930445492267609 0.075218722224235535
0.21395885944366455 0.15446680784225464 0.069207809865474701
0.28825786709785461 0.14312602579593658 0.067634075880050659
0.37496832013130188 0.13457624614238739 0.066682882606983185
0.46591252088546753 0.11304047703742981 0.061378315091133118
0.55246758460998535 0.070480301976203918 0.057084597647190094
0.6396021842956543 0.034220527857542038 0.047865699976682663
0.72382128238677979 0.01426569651812315 0.042532484978437424
0.80762338638305664 0.0051466850563883781 0.03097248449921608
0.88747632503509521 0.0039694993756711483 0.017258228734135628
0.95546525716781616 0.0054422416724264622 0.01252308301627636
0.99272304773330688 0.0021573384292423725 0.0080989766865968704
0.12659889459609985 0.23376692831516266 0.068911969661712646
0.16549311578273773 0.23387347161769867 0.062199387699365616
0.2182488888502121 0.23504911363124847 0.052205298095941544
0.29751190543174744 0.23784379661083221 0.046067766845226288
0.39466926455497742 0.24302077293395996 0.045124981552362442
0.49544802308082581 0.24257928133010864 0.048880469053983688
0.59443718194961548 0.22747565805912018 0.04670390859246254
0.67874926328659058 0.19652174413204193 0.039207816123962402
0.75886982679367065 0.15891550481319427 0.029719334095716476
0.83612281084060669 0.11630167067050934 0.022646436467766762
0.91091114282608032 0.084424547851085663 0.013638889417052269
0.97354477643966675 0.064093418419361115 0.0063961255364120007
0.9990575909614563 0.05796876922249794 0.0020629283972084522
0.12541621923446655 0.32037317752838135 0.051441505551338196
0.1658037006855011 0.31965741515159607 0.043435968458652496
0.22061061859130859 0.32318761944770813 0.033869650214910507
0.29746612906455994 0.33057209849357605 0.025423910468816757
0.3969561755657196 0.34151831269264221 0.020736394450068474
0.50034946203231812 0.34620946645736694 0.022253388538956642
0.60702699422836304 0.34886074066162109 0.021230375394225121
0.7067798376083374 0.3482431173324585 0.022636517882347107
0.79437315464019775 0.33624717593193054 0.019231325015425682
0.86629903316497803 0.31394591927528381 0.017653297632932663
0.93562918901443481 0.29631638526916504 0.012430976144969463
0.98641902208328247 0.27725955843925476 0.0091945575550198555
0.99979448318481445 0.26676276326179504 0.0031498479656875134
0.11615137010812759 0.40723344683647156 0.027890343219041824
0.16137008368968964 0.4081633985042572 0.025658387690782547
0.22152121365070343 0.40948706865310669 0.021738074719905853
0.29414641857147217 0.41363957524299622 0.014319401234388351
0.38535860180854797 0.42531868815422058 0.012790544889867306
0.48737949132919312 0.43665453791618347 0.012353275902569294
0.59364515542984009 0.44467645883560181 0.0089781219139695168
0.70226502418518066 0.45308351516723633 0.0092196594923734665
0.80318194627761841 0.46015644073486328 0.0086862305179238319
0.88572162389755249 0.46093916893005371 0.010476325638592243
0.95756667852401733 0.45720598101615906 0.0092592425644397736
0.9948570728302002 0.4451349675655365 0.010007821023464203
0.99999010562896729 0.43335092067718506 0.0093897804617881775
0.1139938086271286 0.49097126722335815 0.01381969079375267
0.15972086787223816 0.49222669005393982 0.011845248751342297
0.22352446615695953 0.49080204963684082 0.010413913987576962
0.29708260297775269 0.4937879741191864 0.0095856161788105965
0.37961286306381226 0.50181227922439575 0.0092286206781864166
0.47729665040969849 0.51649779081344604 0.0069354190491139889
0.58242905139923096 0.52640020847320557 0.0061952327378094196
0.69268238544464111 0.53449720144271851 0.0059979306533932686
0.79207175970077515 0.54434943199157715 0.0088366791605949402
0.88010036945343018 0.55766725540161133 0.0064961151219904423
0.95644772052764893 0.56830334663391113 0.0095184026286005974
0.99631989002227783 0.5739130973815918 0.01763814315199852
1 0.56991124153137207 0.026568932458758354
0.1255083829164505 0.56953495740890503 0.0062788422219455242
0.17366330325603485 0.56907647848129272 0.0072148190811276436
0.23390489816665649 0.56745851039886475 0.0082126092165708542
0.30571341514587402 0.56896913051605225 0.0084804315119981766
0.38277316093444824 0.57236367464065552 0.0082298582419753075
0.47448873519897461 0.58485120534896851 0.006562461145222187
0.57447010278701782 0.59506303071975708 0.0059372545219957829
0.68028432130813599 0.60608220100402832 0.0068695666268467903
0.77726399898529053 0.62012439966201782 0.005058931652456522
0.86679214239120483 0.6328742504119873 0.0044117346405982971
0.9448663592338562 0.64548110961914062 0.0064215268939733505
0.99246674776077271 0.65652203559875488 0.013144100084900856
0.99964636564254761 0.66797059774398804 0.048970256000757217
0.16309846937656403 0.6477697491645813 0.0046891304664313793
0.20418497920036316 0.64497417211532593 0.0040976880118250847
0.25843971967697144 0.64198744297027588 0.0062723048031330109
0.32248812913894653 0.6391143798828125 0.0069960798136889935
0.39423003792762756 0.64257931709289551 0.007145571056753397
0.47916719317436218 0.65300369262695312 0.0069829006679356098
0.57465004920959473 0.66253817081451416 0.0039002662524580956
0.66954463720321655 0.67503941059112549 0.0043407813645899296
0.76412880420684814 0.69051635265350342 0.0043781055137515068
0.85337638854980469 0.70389449596405029 0.0047583784908056259
0.93107897043228149 0.71507084369659424 0.0051484052091836929
0.98741006851196289 0.72543978691101074 0.006421990692615509
0.9989168643951416 0.73476475477218628 0.018881883472204208
0.22484025359153748 0.72480320930480957 0.0023266512434929609
0.25669685006141663 0.7223517894744873 0.0056790369562804699
0.30171036720275879 0.71985554695129395 0.005564461462199688
0.36027041077613831 0.7169191837310791 0.0081272199749946594
0.42414498329162598 0.71629911661148071 0.0059036253951489925
0.49907416105270386 0.72344774007797241 0.0060844719409942627
0.5831947922706604 0.73110359907150269 0.0045135649852454662
0.67156720161437988 0.74203485250473022 0.0041033877059817314
0.75983178615570068 0.75471562147140503 0.0040078107267618179
0.84720534086227417 0.7674177885055542 0.0052631301805377007
0.92511588335037231 0.77847778797149658 0.0048542246222496033
0.9800262451171875 0.78657138347625732 0.0054073706269264221
0.99777042865753174 0.79447680711746216 0.0088214203715324402
0.30418869853019714 0.80063778162002563 0.0042120842263102531
0.32935163378715515 0.79930788278579712 0.0045965756289660931
0.36376819014549255 0.79797136783599854 0.0041795019060373306
0.41673937439918518 0.7953639030456543 0.0031317467801272869
0.47171661257743835 0.79310840368270874 0.0048377392813563347
0.5375446081161499 0.79536205530166626 0.0060945251025259495
0.60866844654083252 0.8002200722694397 0.0061357985250651836
0.68816792964935303 0.80845171213150024 0.0042728949338197708
0.77172183990478516 0.81896215677261353 0.0041437186300754547
0.85251837968826294 0.82756763696670532 0.0038720373995602131
0.92660927772521973 0.83678996562957764 0.0045735528692603111
0.97804194688796997 0.84357297420501709 0.0068613989278674126
0.99716991186141968 0.84908890724182129 0.0066314996220171452
0.40147125720977783 0.87332272529602051 0.014284933917224407
0.42115268111228943 0.87274980545043945 0.015606540255248547
0.4487970769405365 0.8719477653503418 0.012071123346686363
0.48889148235321045 0.87036740779876709 0.0057594897225499153
0.53736013174057007 0.86660480499267578 0.0094201331958174706
0.59343892335891724 0.86680048704147339 0.004810752347111702
0.65692341327667236 0.86980241537094116 0.0041904076933860779
0.72501939535140991 0.87496894598007202 0.0042550330981612206
0.79778605699539185 0.88142663240432739 0.0046992730349302292
0.86742258071899414 0.88706320524215698 0.0049759959802031517
0.93204748630523682 0.89283901453018188 0.0073909834027290344
0.98087447881698608 0.89796751737594604 0.0076519236899912357
0.99822282791137695 0.90222573280334473 0.010525408200919628
0.51946073770523071 0.94012331962585449 0.15643405914306641
0.53102922439575195 0.9388195276260376 0.15472409129142761
0.55291050672531128 0.93885260820388794 0.14909206330776215
0.58207446336746216 0.93814349174499512 0.13222476840019226
0.61937910318374634 0.93648302555084229 0.11324217915534973
0.66561198234558105 0.93684214353561401 0.095197148621082306
0.71757322549819946 0.93685531616210938 0.080473490059375763
0.77452659606933594 0.93912184238433838 0.084243535995483398
0.83287352323532104 0.94105947017669678 0.089746527373790741
0.88924288749694824 0.94331151247024536 0.091811671853065491
0.9436526894569397 0.94622766971588135 0.10259797424077988
0.98829191923141479 0.94886606931686401 0.10930719971656799
0.99987417459487915 0.95186930894851685 0.12261201441287994
0.097076445817947388 0.051687981933355331 0.12052404135465622
0.13455228507518768 0.051625553518533707 0.12675154209136963
0.19618281722068787 0.045396439731121063 0.1322212815284729
0.26491644978523254 0.032155893743038177 0.1302286684513092
0.33679375052452087 0.013964125886559486 0.12157648056745529
0.41970077157020569 0.0080091441050171852 0.12300653010606766
0.50393688678741455 0.0046655992045998573 0.12525860965251923
0.58801674842834473 0.0030296326149255037 0.12168173491954803
0.66879165172576904 0.0016972859157249331 0.11335854977369308
0.75021457672119141 0.00015339571109507233 0.10298246145248413
0.83409214019775391 1.7951517293113284e-05 0.087713591754436493
0.91682785749435425 0 0.07062365859746933
0.98143649101257324 0 0.057302452623844147
0.11628139764070511 0.09507257491350174 0.12667608261108398
0.15418018400669098 0.099789880216121674 0.1330205500125885
0.21272610127925873 0.092960089445114136 0.13702479004859924
0.28126436471939087 0.081200286746025085 0.1362050473690033
0.35001742839813232 0.057566892355680466 0.12836392223834991
0.43025532364845276 0.022973572835326195 0.1230892688035965
0.51823270320892334 0.0095665277913212776 0.12095586955547333
0.60575008392333984 0.0065766875632107258 0.117830790579319
0.6883208155632019 0.0046809776686131954 0.11254492402076721
0.77149289846420288 0.0034416648559272289 0.10284106433391571
0.85356318950653076 0.0022070193663239479 0.08555641770362854
0.93245488405227661 0.00027413462521508336 0.071732722222805023
0.98453307151794434 0 0.058743033558130264
0.13178806006908417 0.15596809983253479 0.13183188438415527
0.16779659688472748 0.15910620987415314 0.13492825627326965
0.22634805738925934 0.157075434923172 0.13531740009784698
0.30067005753517151 0.14857335388660431 0.13808143138885498
0.37485295534133911 0.13603305816650391 0.13600492477416992
0.46063885092735291 0.10803563892841339 0.13171131908893585
0.54582697153091431 0.066599301993846893 0.12358277291059494
0.63020169734954834 0.029296277090907097 0.11644912511110306
0.71313691139221191 0.014732914045453072 0.11024942994117737
0.79546904563903809 0.0056062135845422745 0.10023577511310577
0.87643837928771973 0.0041266046464443207 0.084726504981517792
0.9506382942199707 0.0032921137753874063 0.07203713059425354
0.99130606651306152 0.0017761230701580644 0.055115450173616409
0.14050726592540741 0.24141457676887512 0.13742995262145996
0.17561744153499603 0.24090424180030823 0.13306877017021179
0.23380155861377716 0.24400055408477783 0.12995125353336334
0.31215983629226685 0.24497929215431213 0.13222655653953552
0.40211465954780579 0.24518460035324097 0.13851253688335419
0.49744188785552979 0.24173547327518463 0.14097261428833008
0.58778578042984009 0.21957877278327942 0.13355334103107452
0.66871005296707153 0.18350811302661896 0.12378005683422089
0.74767214059829712 0.14814561605453491 0.11293850839138031
0.82581555843353271 0.10540856420993805 0.099586650729179382
0.90218144655227661 0.070965394377708435 0.083249062299728394
