luts/instant_pro/polaroid_665_negative_-.cube
# Created by: G'MIC (https://gmic.eu)
TITLE "polaroid_665_negative_-"
# LUT size
LUT_3D_SIZE 7
# Data domain
DOMAIN_MIN 0.0 0.0 0.0
DOMAIN_MAX 1.0 1.0 1.0
# LUT data points
0.031756144016981125 0.031756144016981125 0.031756144016981125
0.066813193261623383 0.066813193261623383 0.066813193261623383
0.13673193752765656 0.13673193752765656 0.13673193752765656
0.23218394815921783 0.23218394815921783 0.23218394815921783
0.33069157600402832 0.33069157600402832 0.33069157600402832
0.43294847011566162 0.43294847011566162 0.43294847011566162
0.55301183462142944 0.55301183462142944 0.55301183462142944
0.12295448780059814 0.12295448780059814 0.12295448780059814
0.13313570618629456 0.13313570618629456 0.13313570618629456
0.19391728937625885 0.19391728937625885 0.19391728937625885
0.28055629134178162 0.28055629134178162 0.28055629134178162
0.36381456255912781 0.36381456255912781 0.36381456255912781
0.45525914430618286 0.45525914430618286 0.45525914430618286
0.57086348533630371 0.57086348533630371 0.57086348533630371
0.26772364974021912 0.26772364974021912 0.26772364974021912
0.26286721229553223 0.26286721229553223 0.26286721229553223
0.29044553637504578 0.29044553637504578 0.29044553637504578
0.34526887536048889 0.34526887536048889 0.34526887536048889
0.41283193230628967 0.41283193230628967 0.41283193230628967
0.50186043977737427 0.50186043977737427 0.50186043977737427
0.61261492967605591 0.61261492967605591 0.61261492967605591
0.41269016265869141 0.41269016265869141 0.41269016265869141
0.40525093674659729 0.40525093674659729 0.40525093674659729
0.40632504224777222 0.40632504224777222 0.40632504224777222
0.42635124921798706 0.42635124921798706 0.42635124921798706
0.47558289766311646 0.47558289766311646 0.47558289766311646
0.55712980031967163 0.55712980031967163 0.55712980031967163
0.66544294357299805 0.66544294357299805 0.66544294357299805
0.54920381307601929 0.54920381307601929 0.54920381307601929
0.54549717903137207 0.54549717903137207 0.54549717903137207
0.53977525234222412 0.53977525234222412 0.53977525234222412
0.54243934154510498 0.54243934154510498 0.54243934154510498
0.56541568040847778 0.56541568040847778 0.56541568040847778
0.61860197782516479 0.61860197782516479 0.61860197782516479
0.71479982137680054 0.71479982137680054 0.71479982137680054
0.69470506906509399 0.69470506906509399 0.69470506906509399
0.69327402114868164 0.69327402114868164 0.69327402114868164
0.68796193599700928 0.68796193599700928 0.68796193599700928
0.68544870615005493 0.68544870615005493 0.68544870615005493
0.69161766767501831 0.69161766767501831 0.69161766767501831
0.71647924184799194 0.71647924184799194 0.71647924184799194
0.78774344921112061 0.78774344921112061 0.78774344921112061
0.84728515148162842 0.84728515148162842 0.84728515148162842
0.84408175945281982 0.84408175945281982 0.84408175945281982
0.8394315242767334 0.8394315242767334 0.8394315242767334
0.83930391073226929 0.83930391073226929 0.83930391073226929
0.84350919723510742 0.84350919723510742 0.84350919723510742
0.85494577884674072 0.85494577884674072 0.85494577884674072
0.89676278829574585 0.89676278829574585 0.89676278829574585
0.1265440434217453 0.1265440434217453 0.1265440434217453
0.15841794013977051 0.15841794013977051 0.15841794013977051
0.19881819188594818 0.19881819188594818 0.19881819188594818
0.28062570095062256 0.28062570095062256 0.28062570095062256
0.36915755271911621 0.36915755271911621 0.36915755271911621
0.46060130000114441 0.46060130000114441 0.46060130000114441
0.57281887531280518 0.57281887531280518 0.57281887531280518
0.19100652635097504 0.19100652635097504 0.19100652635097504
0.20371676981449127 0.20371676981449127 0.20371676981449127
0.24446628987789154 0.24446628987789154 0.24446628987789154
0.31186968088150024 0.31186968088150024 0.31186968088150024
0.39044672250747681 0.39044672250747681 0.39044672250747681
0.48054853081703186 0.48054853081703186 0.48054853081703186
0.59213507175445557 0.59213507175445557 0.59213507175445557
0.31798872351646423 0.31798872351646423 0.31798872351646423
0.3145468533039093 0.3145468533039093 0.3145468533039093
0.33010876178741455 0.33010876178741455 0.33010876178741455
0.36919388175010681 0.36919388175010681 0.36919388175010681
0.43545317649841309 0.43545317649841309 0.43545317649841309
0.52407610416412354 0.52407610416412354 0.52407610416412354
0.62986767292022705 0.62986767292022705 0.62986767292022705
0.45821374654769897 0.45821374654769897 0.45821374654769897
0.44760972261428833 0.44760972261428833 0.44760972261428833
0.4385276734828949 0.4385276734828949 0.4385276734828949
0.4458998441696167 0.4458998441696167 0.4458998441696167
0.49495989084243774 0.49495989084243774 0.49495989084243774
0.57548302412033081 0.57548302412033081 0.57548302412033081
0.67506247758865356 0.67506247758865356 0.67506247758865356
0.58016979694366455 0.58016979694366455 0.58016979694366455
0.57801103591918945 0.57801103591918945 0.57801103591918945
0.56671923398971558 0.56671923398971558 0.56671923398971558
0.56190007925033569 0.56190007925033569 0.56190007925033569
0.58308905363082886 0.58308905363082886 0.58308905363082886
0.63701963424682617 0.63701963424682617 0.63701963424682617
0.72403091192245483 0.72403091192245483 0.72403091192245483
0.71180629730224609 0.71180629730224609 0.71180629730224609
0.71445310115814209 0.71445310115814209 0.71445310115814209
0.70778554677963257 0.70778554677963257 0.70778554677963257
0.70005327463150024 0.70005327463150024 0.70005327463150024
0.703377366065979 0.703377366065979 0.703377366065979
0.73093008995056152 0.73093008995056152 0.73093008995056152
0.79499262571334839 0.79499262571334839 0.79499262571334839
0.85572463274002075 0.85572463274002075 0.85572463274002075
0.85586804151535034 0.85586804151535034 0.85586804151535034
0.85027843713760376 0.85027843713760376 0.85027843713760376
0.84433209896087646 0.84433209896087646 0.84433209896087646
0.84303832054138184 0.84303832054138184 0.84303832054138184
0.8558763861656189 0.8558763861656189 0.8558763861656189
0.89542883634567261 0.89542883634567261 0.89542883634567261
0.25828984379768372 0.25828984379768372 0.25828984379768372
0.29943940043449402 0.29943940043449402 0.29943940043449402
0.31462335586547852 0.31462335586547852 0.31462335586547852
0.35887420177459717 0.35887420177459717 0.35887420177459717
0.4204413890838623 0.4204413890838623 0.4204413890838623
0.50354456901550293 0.50354456901550293 0.50354456901550293
0.6113470196723938 0.6113470196723938 0.6113470196723938
0.29405456781387329 0.29405456781387329 0.29405456781387329
0.32431256771087646 0.32431256771087646 0.32431256771087646
0.35280019044876099 0.35280019044876099 0.35280019044876099
0.38305220007896423 0.38305220007896423 0.38305220007896423
0.43891966342926025 0.43891966342926025 0.43891966342926025
0.52743864059448242 0.52743864059448242 0.52743864059448242
0.63364487886428833 0.63364487886428833 0.63364487886428833
0.38769382238388062 0.38769382238388062 0.38769382238388062
0.40056875348091125 0.40056875348091125 0.40056875348091125
0.41358128190040588 0.41358128190040588 0.41358128190040588
0.43400171399116516 0.43400171399116516 0.43400171399116516
0.49034368991851807 0.49034368991851807 0.49034368991851807
0.5708014965057373 0.5708014965057373 0.5708014965057373
0.66569459438323975 0.66569459438323975 0.66569459438323975
0.51488727331161499 0.51488727331161499 0.51488727331161499
0.51208376884460449 0.51208376884460449 0.51208376884460449
0.503692626953125 0.503692626953125 0.503692626953125
0.50895029306411743 0.50895029306411743 0.50895029306411743
0.54934495687484741 0.54934495687484741 0.54934495687484741
0.61833304166793823 0.61833304166793823 0.61833304166793823
0.70431315898895264 0.70431315898895264 0.70431315898895264
0.63458859920501709 0.63458859920501709 0.63458859920501709
0.63141661882400513 0.63141661882400513 0.63141661882400513
0.61770981550216675 0.61770981550216675 0.61770981550216675
0.61098438501358032 0.61098438501358032 0.61098438501358032
0.62761515378952026 0.62761515378952026 0.62761515378952026
0.67734837532043457 0.67734837532043457 0.67734837532043457
0.75227159261703491 0.75227159261703491 0.75227159261703491
0.7516598105430603 0.7516598105430603 0.7516598105430603
0.75236552953720093 0.75236552953720093 0.75236552953720093
0.74369412660598755 0.74369412660598755 0.74369412660598755
0.73398733139038086 0.73398733139038086 0.73398733139038086
0.73525232076644897 0.73525232076644897 0.73525232076644897
0.76271229982376099 0.76271229982376099 0.76271229982376099
0.81769973039627075 0.81769973039627075 0.81769973039627075
0.87534552812576294 0.87534552812576294 0.87534552812576294
0.87563019990921021 0.87563019990921021 0.87563019990921021
0.86966460943222046 0.86966460943222046 0.86966460943222046
0.86143141984939575 0.86143141984939575 0.86143141984939575
0.85769379138946533 0.85769379138946533 0.85769379138946533
0.86986684799194336 0.86986684799194336 0.86986684799194336
0.9047929048538208 0.9047929048538208 0.9047929048538208
0.40669766068458557 0.40669766068458557 0.40669766068458557
0.43464452028274536 0.43464452028274536 0.43464452028274536
0.46182990074157715 0.46182990074157715 0.46182990074157715
0.47641104459762573 0.47641104459762573 0.47641104459762573
0.49213269352912903 0.49213269352912903 0.49213269352912903
0.55949431657791138 0.55949431657791138 0.55949431657791138
0.6624988317489624 0.6624988317489624 0.6624988317489624
0.43411058187484741 0.43411058187484741 0.43411058187484741
0.45979595184326172 0.45979595184326172 0.45979595184326172
0.48932495713233948 0.48932495713233948 0.48932495713233948
0.48998236656188965 0.48998236656188965 0.48998236656188965
0.51284110546112061 0.51284110546112061 0.51284110546112061
0.58777463436126709 0.58777463436126709 0.58777463436126709
0.68490225076675415 0.68490225076675415 0.68490225076675415
0.48041945695877075 0.48041945695877075 0.48041945695877075
0.50358885526657104 0.50358885526657104 0.50358885526657104
0.51907598972320557 0.51907598972320557 0.51907598972320557
0.52429783344268799 0.52429783344268799 0.52429783344268799
0.55822038650512695 0.55822038650512695 0.55822038650512695
0.6271178126335144 0.6271178126335144 0.6271178126335144
0.7106093168258667 0.7106093168258667 0.7106093168258667
0.56877505779266357 0.56877505779266357 0.56877505779266357
0.57973587512969971 0.57973587512969971 0.57973587512969971
0.58061373233795166 0.58061373233795166 0.58061373233795166
0.58388417959213257 0.58388417959213257 0.58388417959213257
0.60979098081588745 0.60979098081588745 0.60979098081588745
0.66671818494796753 0.66671818494796753 0.66671818494796753
0.74087023735046387 0.74087023735046387 0.74087023735046387
0.68232607841491699 0.68232607841491699 0.68232607841491699
0.68118226528167725 0.68118226528167725 0.68118226528167725
0.6743084192276001 0.6743084192276001 0.6743084192276001
0.6693306565284729 0.6693306565284729 0.6693306565284729
0.67529749870300293 0.67529749870300293 0.67529749870300293
0.71828442811965942 0.71828442811965942 0.71828442811965942
0.78391867876052856 0.78391867876052856 0.78391867876052856
0.79480594396591187 0.79480594396591187 0.79480594396591187
0.78999042510986328 0.78999042510986328 0.78999042510986328
0.7844892144203186 0.7844892144203186 0.7844892144203186
0.77814137935638428 0.77814137935638428 0.77814137935638428
0.77285069227218628 0.77285069227218628 0.77285069227218628
0.79451173543930054 0.79451173543930054 0.79451173543930054
0.84086155891418457 0.84086155891418457 0.84086155891418457
0.90042990446090698 0.90042990446090698 0.90042990446090698
0.89731782674789429 0.89731782674789429 0.89731782674789429
0.8923143744468689 0.8923143744468689 0.8923143744468689
0.88664686679840088 0.88664686679840088 0.88664686679840088
0.881103515625 0.881103515625 0.881103515625
0.88875854015350342 0.88875854015350342 0.88875854015350342
0.91630995273590088 0.91630995273590088 0.91630995273590088
0.56535196304321289 0.56535196304321289 0.56535196304321289
0.57931292057037354 0.57931292057037354 0.57931292057037354
0.60253161191940308 0.60253161191940308 0.60253161191940308
0.62249875068664551 0.62249875068664551 0.62249875068664551
0.61904448270797729 0.61904448270797729 0.61904448270797729
0.65064120292663574 0.65064120292663574 0.65064120292663574
0.71591198444366455 0.71591198444366455 0.71591198444366455
0.59185212850570679 0.59185212850570679 0.59185212850570679
0.6008715033531189 0.6008715033531189 0.6008715033531189
0.61590975522994995 0.61590975522994995 0.61590975522994995
0.62448573112487793 0.62448573112487793 0.62448573112487793
0.63466060161590576 0.63466060161590576 0.63466060161590576
0.67276906967163086 0.67276906967163086 0.67276906967163086
0.73278278112411499 0.73278278112411499 0.73278278112411499
0.60289067029953003 0.60289067029953003 0.60289067029953003
0.61896008253097534 0.61896008253097534 0.61896008253097534
0.63033699989318848 0.63033699989318848 0.63033699989318848
0.63708370923995972 0.63708370923995972 0.63708370923995972
0.65664249658584595 0.65664249658584595 0.65664249658584595
0.69926649332046509 0.69926649332046509 0.69926649332046509
0.75799334049224854 0.75799334049224854 0.75799334049224854
0.62849849462509155 0.62849849462509155 0.62849849462509155
0.64911311864852905 0.64911311864852905 0.64911311864852905
0.66103821992874146 0.66103821992874146 0.66103821992874146
0.6683495044708252 0.6683495044708252 0.6683495044708252
0.68447744846343994 0.68447744846343994 0.68447744846343994
0.72323483228683472 0.72323483228683472 0.72323483228683472
0.77496451139450073 0.77496451139450073 0.77496451139450073
0.70465004444122314 0.70465004444122314 0.70465004444122314
0.71428632736206055 0.71428632736206055 0.71428632736206055
0.72125238180160522 0.72125238180160522 0.72125238180160522
0.72848296165466309 0.72848296165466309 0.72848296165466309
0.72950452566146851 0.72950452566146851 0.72950452566146851
0.76132190227508545 0.76132190227508545 0.76132190227508545
0.8080981969833374 0.8080981969833374 0.8080981969833374
0.8307233452796936 0.8307233452796936 0.8307233452796936
0.81170123815536499 0.81170123815536499 0.81170123815536499
0.81112468242645264 0.81112468242645264 0.81112468242645264
0.81895923614501953 0.81895923614501953 0.81895923614501953
0.81327229738235474 0.81327229738235474 0.81327229738235474
0.82649016380310059 0.82649016380310059 0.82649016380310059
0.85867816209793091 0.85867816209793091 0.85867816209793091
0.91884851455688477 0.91884851455688477 0.91884851455688477
0.91061615943908691 0.91061615943908691 0.91061615943908691
0.90865093469619751 0.90865093469619751 0.90865093469619751
0.9115297794342041 0.9115297794342041 0.9115297794342041
0.90878176689147949 0.90878176689147949 0.90878176689147949
0.90921705961227417 0.90921705961227417 0.90921705961227417
0.92672300338745117 0.92672300338745117 0.92672300338745117
0.72364246845245361 0.72364246845245361 0.72364246845245361
0.73228073120117188 0.73228073120117188 0.73228073120117188
0.74424231052398682 0.74424231052398682 0.74424231052398682
0.76250225305557251 0.76250225305557251 0.76250225305557251
0.77330756187438965 0.77330756187438965 0.77330756187438965
0.77832424640655518 0.77832424640655518 0.77832424640655518
0.78785496950149536 0.78785496950149536 0.78785496950149536
0.73886638879776001 0.73886638879776001 0.73886638879776001
0.74363487958908081 0.74363487958908081 0.74363487958908081
0.74949479103088379 0.74949479103088379 0.74949479103088379
0.76125037670135498 0.76125037670135498 0.76125037670135498
0.77505779266357422 0.77505779266357422 0.77505779266357422
0.78196412324905396 0.78196412324905396 0.78196412324905396
0.78434079885482788 0.78434079885482788 0.78434079885482788
0.74108070135116577 0.74108070135116577 0.74108070135116577
0.74681174755096436 0.74681174755096436 0.74681174755096436
0.75155162811279297 0.75155162811279297 0.75155162811279297
0.76094955205917358 0.76094955205917358 0.76094955205917358
0.77661442756652832 0.77661442756652832 0.77661442756652832
0.79245090484619141 0.79245090484619141 0.79245090484619141
0.80866050720214844 0.80866050720214844 0.80866050720214844
0.74507468938827515 0.74507468938827515 0.74507468938827515
0.75088322162628174 0.75088322162628174 0.75088322162628174
0.75833535194396973 0.75833535194396973 0.75833535194396973
0.76967847347259521 0.76967847347259521 0.76967847347259521
0.78512740135192871 0.78512740135192871 0.78512740135192871
0.8028874397277832 0.8028874397277832 0.8028874397277832
0.81891387701034546 0.81891387701034546 0.81891387701034546
0.7830466628074646 0.7830466628074646 0.7830466628074646
0.77839082479476929 0.77839082479476929 0.77839082479476929
0.78424191474914551 0.78424191474914551 0.78424191474914551
0.79951411485671997 0.79951411485671997 0.79951411485671997
0.80969548225402832 0.80969548225402832 0.80969548225402832
0.82375669479370117 0.82375669479370117 0.82375669479370117
0.84463244676589966 0.84463244676589966 0.84463244676589966
0.85657757520675659 0.85657757520675659 0.85657757520675659
0.8423190712928772 0.8423190712928772 0.8423190712928772
0.84387606382369995 0.84387606382369995 0.84387606382369995
0.85917145013809204 0.85917145013809204 0.85917145013809204
0.86429500579833984 0.86429500579833984 0.86429500579833984
0.86847990751266479 0.86847990751266479 0.86847990751266479
0.88472694158554077 0.88472694158554077 0.88472694158554077
0.93033725023269653 0.93033725023269653 0.93033725023269653
0.92388778924942017 0.92388778924942017 0.92388778924942017
0.92705976963043213 0.92705976963043213 0.92705976963043213
0.93732756376266479 0.93732756376266479 0.93732756376266479
0.94017511606216431 0.94017511606216431 0.94017511606216431
0.93422538042068481 0.93422538042068481 0.93422538042068481
0.94170385599136353 0.94170385599136353 0.94170385599136353
0.87100118398666382 0.87100118398666382 0.87100118398666382
0.87293565273284912 0.87293565273284912 0.87293565273284912
0.87282353639602661 0.87282353639602661 0.87282353639602661
0.88079220056533813 0.88079220056533813 0.88079220056533813
0.89663553237915039 0.89663553237915039 0.89663553237915039
0.89882922172546387 0.89882922172546387 0.89882922172546387
0.8965798020362854 0.8965798020362854 0.8965798020362854
0.87830328941345215 0.87830328941345215 0.87830328941345215
0.87883317470550537 0.87883317470550537 0.87883317470550537
0.87703788280487061 0.87703788280487061 0.87703788280487061
0.88420850038528442 0.88420850038528442 0.88420850038528442
0.89892762899398804 0.89892762899398804 0.89892762899398804
0.89911526441574097 0.89911526441574097 0.89911526441574097
0.88878113031387329 0.88878113031387329 0.88878113031387329
0.87950891256332397 0.87950891256332397 0.87950891256332397
0.87751883268356323 0.87751883268356323 0.87751883268356323
0.87560701370239258 0.87560701370239258 0.87560701370239258
0.88365525007247925 0.88365525007247925 0.88365525007247925
0.89880895614624023 0.89880895614624023 0.89880895614624023
0.90736478567123413 0.90736478567123413 0.90736478567123413
0.90041542053222656 0.90041542053222656 0.90041542053222656
0.87863254547119141 0.87863254547119141 0.87863254547119141
0.87246078252792358 0.87246078252792358 0.87246078252792358
0.87140607833862305 0.87140607833862305 0.87140607833862305
0.88140708208084106 0.88140708208084106 0.88140708208084106
0.89759409427642822 0.89759409427642822 0.89759409427642822
0.91091799736022949 0.91091799736022949 0.91091799736022949
0.90569072961807251 0.90569072961807251 0.90569072961807251
0.88297379016876221 0.88297379016876221 0.88297379016876221
0.87651205062866211 0.87651205062866211 0.87651205062866211
0.87834715843200684 0.87834715843200684 0.87834715843200684
0.88942438364028931 0.88942438364028931 0.88942438364028931
0.90101999044418335 0.90101999044418335 0.90101999044418335
0.90776622295379639 0.90776622295379639 0.90776622295379639
0.91313779354095459 0.91313779354095459 0.91313779354095459
0.91098779439926147 0.91098779439926147 0.91098779439926147
0.9046366810798645 0.9046366810798645 0.9046366810798645
0.90943044424057007 0.90943044424057007 0.90943044424057007
0.92075842618942261 0.92075842618942261 0.92075842618942261
0.92700231075286865 0.92700231075286865 0.92700231075286865
0.92691302299499512 0.92691302299499512 0.92691302299499512
0.93329894542694092 0.93329894542694092 0.93329894542694092
0.95829164981842041 0.95829164981842041 0.95829164981842041
0.95839601755142212 0.95839601755142212 0.95839601755142212
0.96591877937316895 0.96591877937316895 0.96591877937316895
0.97557210922241211 0.97557210922241211 0.97557210922241211
0.97771137952804565 0.97771137952804565 0.97771137952804565
0.97116994857788086 0.97116994857788086 0.97116994857788086
0.97265374660491943 0.97265374660491943 0.97265374660491943
