luts/instant_pro/polaroid_690_warm_++.cube
# Created by: G'MIC (https://gmic.eu)
TITLE "polaroid_690_warm_++"
# LUT size
LUT_3D_SIZE 5
# Data domain
DOMAIN_MIN 0.0 0.0 0.0
DOMAIN_MAX 1.0 1.0 1.0
# LUT data points
0.38254904747009277 0.28863328695297241 0.23743002116680145
0.40686908364295959 0.28509426116943359 0.23651482164859772
0.52918392419815063 0.27392092347145081 0.23265159130096436
0.75318747758865356 0.22884051501750946 0.22558903694152832
0.98123723268508911 0.16269771754741669 0.21086174249649048
0.38462385535240173 0.32515040040016174 0.23337581753730774
0.42976468801498413 0.33051156997680664 0.23172473907470703
0.60518044233322144 0.35158145427703857 0.22452323138713837
0.82588231563568115 0.33620437979698181 0.21199873089790344
0.99510544538497925 0.3153441846370697 0.19855299592018127
0.40057438611984253 0.47719809412956238 0.21488356590270996
0.45708480477333069 0.47642844915390015 0.21014215052127838
0.6234251856803894 0.51505172252655029 0.18722090125083923
0.8857312798500061 0.5793108344078064 0.15488070249557495
0.99853318929672241 0.59743785858154297 0.17886483669281006
0.42952179908752441 0.71085447072982788 0.1448499858379364
0.49277359247207642 0.70068603754043579 0.13945990800857544
0.64040309190750122 0.72193211317062378 0.10618513822555542
0.85779494047164917 0.77091711759567261 0.022557411342859268
0.99981796741485596 0.80788594484329224 0.090283818542957306
0.57671207189559937 0.94100290536880493 0.20587252080440521
0.62490850687026978 0.93663090467453003 0.1884034276008606
0.74343878030776978 0.93379509449005127 0.15674911439418793
0.90280348062515259 0.93734896183013916 0.2016410231590271
0.99997198581695557 0.94343632459640503 0.28168407082557678
0.38276493549346924 0.28799521923065186 0.27346155047416687
0.42040824890136719 0.28341019153594971 0.28979605436325073
0.53756201267242432 0.26646095514297485 0.28543576598167419
0.72741085290908813 0.20378117263317108 0.27920472621917725
0.97214186191558838 0.0070274951867759228 0.25081866979598999
0.38336384296417236 0.33714622259140015 0.29214993119239807
0.43773642182350159 0.33771607279777527 0.29696378111839294
0.5947149395942688 0.32329410314559937 0.28927192091941833
0.79882234334945679 0.2794589102268219 0.27114805579185486
0.99403494596481323 0.21173118054866791 0.24968443810939789
0.38789862394332886 0.50867563486099243 0.29649174213409424
0.45679149031639099 0.50306576490402222 0.29125073552131653
0.63686972856521606 0.53097081184387207 0.27897614240646362
0.89801400899887085 0.57453638315200806 0.286479651927948
0.99958103895187378 0.56678682565689087 0.28639641404151917
0.40117529034614563 0.73071813583374023 0.25420555472373962
0.47866782546043396 0.72618848085403442 0.25026828050613403
0.63993102312088013 0.73435640335083008 0.22696118056774139
0.86339432001113892 0.77912318706512451 0.21782426536083221
0.99946808815002441 0.80744534730911255 0.2861836850643158
0.5617021918296814 0.94306445121765137 0.32820534706115723
0.61321306228637695 0.94088518619537354 0.31652024388313293
0.73338311910629272 0.93621814250946045 0.28865805268287659
0.89594894647598267 0.93955284357070923 0.32336121797561646
1 0.94330626726150513 0.39325651526451111
0.38184994459152222 0.28310069441795349 0.46739378571510315
0.44886329770088196 0.27470967173576355 0.4972306489944458
0.63029807806015015 0.25027424097061157 0.54012763500213623
0.78505343198776245 0.22171948850154877 0.47871711850166321
0.98249346017837524 0.028912652283906937 0.46299159526824951
0.37727329134941101 0.34064918756484985 0.47090065479278564
0.44915315508842468 0.33953621983528137 0.50673037767410278
0.65124309062957764 0.34365186095237732 0.55816173553466797
0.81059527397155762 0.29706603288650513 0.48427650332450867
0.99016690254211426 0.11782585829496384 0.44612300395965576
0.3900921642780304 0.5266343355178833 0.51958757638931274
0.46909204125404358 0.53941255807876587 0.53184753656387329
0.66484230756759644 0.56093764305114746 0.5587158203125
0.87069052457809448 0.50272846221923828 0.50835353136062622
0.99997252225875854 0.40957939624786377 0.42822667956352234
0.39689892530441284 0.77922004461288452 0.53548544645309448
0.4684959352016449 0.77614825963973999 0.52550703287124634
0.63597142696380615 0.76554322242736816 0.49804490804672241
0.86911427974700928 0.79153811931610107 0.51479226350784302
0.99747544527053833 0.81770199537277222 0.59144014120101929
0.55942684412002563 0.94893848896026611 0.5809592604637146
0.60510778427124023 0.94555038213729858 0.56662487983703613
0.7163841724395752 0.94062215089797974 0.53714227676391602
0.878379225730896 0.93818414211273193 0.53281271457672119
0.99737387895584106 0.94361734390258789 0.60537135601043701
0.39345887303352356 0.27216774225234985 0.77931362390518188
0.48887732625007629 0.26383259892463684 0.79487419128417969
0.68994414806365967 0.24114313721656799 0.82858270406723022
0.92130249738693237 0.22245964407920837 0.84611773490905762
0.99937742948532104 0.20191550254821777 0.77409636974334717
0.36718040704727173 0.34537622332572937 0.77397900819778442
0.4679928719997406 0.34306821227073669 0.7887798547744751
0.68777620792388916 0.35037142038345337 0.82857942581176758
0.91915214061737061 0.3760228157043457 0.84677225351333618
0.99851232767105103 0.33398750424385071 0.76878738403320312
0.33076989650726318 0.49720770120620728 0.7391543984413147
0.41706141829490662 0.50279027223587036 0.75018006563186646
0.65850895643234253 0.55216652154922485 0.79722100496292114
0.90475344657897949 0.62478154897689819 0.83760517835617065
0.99949991703033447 0.52724552154541016 0.75556808710098267
0.44240209460258484 0.77656906843185425 0.78783684968948364
0.51968026161193848 0.77751237154006958 0.78813356161117554
0.69466280937194824 0.78868472576141357 0.80622708797454834
0.8833916187286377 0.82493495941162109 0.82836014032363892
0.99863690137863159 0.75085711479187012 0.76785480976104736
0.6909220814704895 0.94589912891387939 0.83163821697235107
0.71672201156616211 0.94656169414520264 0.82665765285491943
0.78343254327774048 0.94471710920333862 0.82093089818954468
0.87934184074401855 0.93880099058151245 0.79475420713424683
0.99104422330856323 0.94390952587127686 0.83103567361831665
0.52675753831863403 0.31694409251213074 0.97187739610671997
0.59772294759750366 0.31686526536941528 0.97183245420455933
0.74774414300918579 0.32531630992889404 0.97723287343978882
0.93050533533096313 0.39367339015007019 0.98088639974594116
1 0.48667740821838379 0.97107064723968506
0.51759254932403564 0.40078195929527283 0.96756452322006226
0.59099489450454712 0.40325629711151123 0.96843856573104858
0.74867022037506104 0.4296870231628418 0.9730345606803894
0.92328959703445435 0.51346850395202637 0.97452306747436523
1 0.58740764856338501 0.96772438287734985
0.46974518895149231 0.5616878867149353 0.95606380701065063
0.55530482530593872 0.56898635625839233 0.95630425214767456
0.73661792278289795 0.6091035008430481 0.95838743448257446
0.91472733020782471 0.6930694580078125 0.96276795864105225
0.99920809268951416 0.73918861150741577 0.95949476957321167
0.47565183043479919 0.77342724800109863 0.9399535059928894
0.52869284152984619 0.76772946119308472 0.93923795223236084
0.66958165168762207 0.76778441667556763 0.94103020429611206
0.88740986585617065 0.83122307062149048 0.94911843538284302
0.99566167593002319 0.87306052446365356 0.95062202215194702
0.76288115978240967 0.94749903678894043 0.94760680198669434
0.78417754173278809 0.94741374254226685 0.94526344537734985
0.84664863348007202 0.9422498345375061 0.94941574335098267
0.92405563592910767 0.94228684902191162 0.95198112726211548
0.99484086036682129 0.94738686084747314 0.95526492595672607
