luts/instant_pro/polaroid_665.cube
# Created by: G'MIC (https://gmic.eu)
TITLE "polaroid_665"
# LUT size
LUT_3D_SIZE 13
# Data domain
DOMAIN_MIN 0.0 0.0 0.0
DOMAIN_MAX 1.0 1.0 1.0
# LUT data points
0.058585073798894882 0.058585073798894882 0.058585073798894882
0.05720621719956398 0.05720621719956398 0.05720621719956398
0.062462408095598221 0.062462408095598221 0.062462408095598221
0.07575690746307373 0.07575690746307373 0.07575690746307373
0.097657144069671631 0.097657144069671631 0.097657144069671631
0.12659916281700134 0.12659916281700134 0.12659916281700134
0.16072456538677216 0.16072456538677216 0.16072456538677216
0.19831934571266174 0.19831934571266174 0.19831934571266174
0.23804382979869843 0.23804382979869843 0.23804382979869843
0.28017908334732056 0.28017908334732056 0.28017908334732056
0.32702809572219849 0.32702809572219849 0.32702809572219849
0.38043212890625 0.38043212890625 0.38043212890625
0.441059410572052 0.441059410572052 0.441059410572052
0.070925936102867126 0.070925936102867126 0.070925936102867126
0.068950429558753967 0.068950429558753967 0.068950429558753967
0.073615416884422302 0.073615416884422302 0.073615416884422302
0.086590982973575592 0.086590982973575592 0.086590982973575592
0.10964853316545486 0.10964853316545486 0.10964853316545486
0.14058899879455566 0.14058899879455566 0.14058899879455566
0.17697978019714355 0.17697978019714355 0.17697978019714355
0.21557338535785675 0.21557338535785675 0.21557338535785675
0.2550361156463623 0.2550361156463623 0.2550361156463623
0.29545772075653076 0.29545772075653076 0.29545772075653076
0.33923631906509399 0.33923631906509399 0.33923631906509399
0.39000424742698669 0.39000424742698669 0.39000424742698669
0.44879570603370667 0.44879570603370667 0.44879570603370667
0.094877533614635468 0.094877533614635468 0.094877533614635468
0.0922866091132164 0.0922866091132164 0.0922866091132164
0.094980485737323761 0.094980485737323761 0.094980485737323761
0.10615921020507812 0.10615921020507812 0.10615921020507812
0.12946608662605286 0.12946608662605286 0.12946608662605286
0.16156706213951111 0.16156706213951111 0.16156706213951111
0.19926834106445312 0.19926834106445312 0.19926834106445312
0.23929522931575775 0.23929522931575775 0.23929522931575775
0.27815157175064087 0.27815157175064087 0.27815157175064087
0.31618759036064148 0.31618759036064148 0.31618759036064148
0.35698032379150391 0.35698032379150391 0.35698032379150391
0.40473064780235291 0.40473064780235291 0.40473064780235291
0.46221745014190674 0.46221745014190674 0.46221745014190674
0.13368216156959534 0.13368216156959534 0.13368216156959534
0.13009247183799744 0.13009247183799744 0.13009247183799744
0.13001205027103424 0.13001205027103424 0.13001205027103424
0.13859483599662781 0.13859483599662781 0.13859483599662781
0.15915030241012573 0.15915030241012573 0.15915030241012573
0.18908160924911499 0.18908160924911499 0.18908160924911499
0.22620733082294464 0.22620733082294464 0.22620733082294464
0.26691916584968567 0.26691916584968567 0.26691916584968567
0.30512300133705139 0.30512300133705139 0.30512300133705139
0.34066444635391235 0.34066444635391235 0.34066444635391235
0.37933659553527832 0.37933659553527832 0.37933659553527832
0.42568999528884888 0.42568999528884888 0.42568999528884888
0.48395025730133057 0.48395025730133057 0.48395025730133057
0.18435567617416382 0.18435567617416382 0.18435567617416382
0.17998950183391571 0.17998950183391571 0.17998950183391571
0.17782509326934814 0.17782509326934814 0.17782509326934814
0.18265517055988312 0.18265517055988312 0.18265517055988312
0.19739487767219543 0.19739487767219543 0.19739487767219543
0.2213205099105835 0.2213205099105835 0.2213205099105835
0.25375622510910034 0.25375622510910034 0.25375622510910034
0.29231354594230652 0.29231354594230652 0.29231354594230652
0.32936528325080872 0.32936528325080872 0.32936528325080872
0.36454632878303528 0.36454632878303528 0.36454632878303528
0.40565115213394165 0.40565115213394165 0.40565115213394165
0.45590400695800781 0.45590400695800781 0.45590400695800781
0.51762640476226807 0.51762640476226807 0.51762640476226807
0.23895993828773499 0.23895993828773499 0.23895993828773499
0.23507867753505707 0.23507867753505707 0.23507867753505707
0.23240439593791962 0.23240439593791962 0.23240439593791962
0.2341892421245575 0.2341892421245575 0.2341892421245575
0.24221067130565643 0.24221067130565643 0.24221067130565643
0.25746104121208191 0.25746104121208191 0.25746104121208191
0.28078624606132507 0.28078624606132507 0.28078624606132507
0.3113938570022583 0.3113938570022583 0.3113938570022583
0.34586849808692932 0.34586849808692932 0.34586849808692932
0.38439396023750305 0.38439396023750305 0.38439396023750305
0.43282932043075562 0.43282932043075562 0.43282932043075562
0.4930310845375061 0.4930310845375061 0.4930310845375061
0.56262016296386719 0.56262016296386719 0.56262016296386719
0.29372283816337585 0.29372283816337585 0.29372283816337585
0.29205289483070374 0.29205289483070374 0.29205289483070374
0.29077619314193726 0.29077619314193726 0.29077619314193726
0.29106533527374268 0.29106533527374268 0.29106533527374268
0.29423642158508301 0.29423642158508301 0.29423642158508301
0.30092114210128784 0.30092114210128784 0.30092114210128784
0.31363114714622498 0.31363114714622498 0.31363114714622498
0.33421498537063599 0.33421498537063599 0.33421498537063599
0.3627450168132782 0.3627450168132782 0.3627450168132782
0.40234607458114624 0.40234607458114624 0.40234607458114624
0.45778939127922058 0.45778939127922058 0.45778939127922058
0.5289350152015686 0.5289350152015686 0.5289350152015686
0.60767608880996704 0.60767608880996704 0.60767608880996704
0.35166415572166443 0.35166415572166443 0.35166415572166443
0.352741539478302 0.352741539478302 0.352741539478302
0.3544585108757019 0.3544585108757019 0.3544585108757019
0.35520026087760925 0.35520026087760925 0.35520026087760925
0.35565924644470215 0.35565924644470215 0.35565924644470215
0.35667100548744202 0.35667100548744202 0.35667100548744202
0.36083868145942688 0.36083868145942688 0.36083868145942688
0.37143984436988831 0.37143984436988831 0.37143984436988831
0.39050078392028809 0.39050078392028809 0.39050078392028809
0.42463952302932739 0.42463952302932739 0.42463952302932739
0.48184478282928467 0.48184478282928467 0.48184478282928467
0.55833595991134644 0.55833595991134644 0.55833595991134644
0.64116150140762329 0.64116150140762329 0.64116150140762329
0.41860520839691162 0.41860520839691162 0.41860520839691162
0.42300158739089966 0.42300158739089966 0.42300158739089966
0.4274604320526123 0.4274604320526123 0.4274604320526123
0.4298052191734314 0.4298052191734314 0.4298052191734314
0.42906641960144043 0.42906641960144043 0.42906641960144043
0.42747306823730469 0.42747306823730469 0.42747306823730469
0.42669513821601868 0.42669513821601868 0.42669513821601868
0.42991062998771667 0.42991062998771667 0.42991062998771667
0.43988248705863953 0.43988248705863953 0.43988248705863953
0.46447136998176575 0.46447136998176575 0.46447136998176575
0.51571542024612427 0.51571542024612427 0.51571542024612427
0.58591377735137939 0.58591377735137939 0.58591377735137939
0.66249549388885498 0.66249549388885498 0.66249549388885498
0.5019792914390564 0.5019792914390564 0.5019792914390564
0.50701266527175903 0.50701266527175903 0.50701266527175903
0.51228421926498413 0.51228421926498413 0.51228421926498413
0.5150335431098938 0.5150335431098938 0.5150335431098938
0.51505285501480103 0.51505285501480103 0.51505285501480103
0.51330137252807617 0.51330137252807617 0.51330137252807617
0.5118720531463623 0.5118720531463623 0.5118720531463623
0.5125318169593811 0.5125318169593811 0.5125318169593811
0.51871299743652344 0.51871299743652344 0.51871299743652344
0.53668570518493652 0.53668570518493652 0.53668570518493652
0.57336330413818359 0.57336330413818359 0.57336330413818359
0.62614232301712036 0.62614232301712036 0.62614232301712036
0.68924432992935181 0.68924432992935181 0.68924432992935181
0.60205596685409546 0.60205596685409546 0.60205596685409546
0.60510909557342529 0.60510909557342529 0.60510909557342529
0.60863858461380005 0.60863858461380005 0.60863858461380005
0.61071228981018066 0.61071228981018066 0.61071228981018066
0.61144202947616577 0.61144202947616577 0.61144202947616577
0.6113356351852417 0.6113356351852417 0.6113356351852417
0.61196541786193848 0.61196541786193848 0.61196541786193848
0.61445343494415283 0.61445343494415283 0.61445343494415283
0.6211584210395813 0.6211584210395813 0.6211584210395813
0.63476395606994629 0.63476395606994629 0.63476395606994629
0.65671253204345703 0.65671253204345703 0.65671253204345703
0.68819719552993774 0.68819719552993774 0.68819719552993774
0.73309206962585449 0.73309206962585449 0.73309206962585449
0.71062052249908447 0.71062052249908447 0.71062052249908447
0.711040198802948 0.711040198802948 0.711040198802948
0.71164852380752563 0.71164852380752563 0.71164852380752563
0.71271705627441406 0.71271705627441406 0.71271705627441406
0.71416795253753662 0.71416795253753662 0.71416795253753662
0.71647930145263672 0.71647930145263672 0.71647930145263672
0.72052961587905884 0.72052961587905884 0.72052961587905884
0.72657579183578491 0.72657579183578491 0.72657579183578491
0.73494970798492432 0.73494970798492432 0.73494970798492432
0.74611687660217285 0.74611687660217285 0.74611687660217285
0.75858801603317261 0.75858801603317261 0.75858801603317261
0.77212423086166382 0.77212423086166382 0.77212423086166382
0.79788815975189209 0.79788815975189209 0.79788815975189209
0.8187142014503479 0.8187142014503479 0.8187142014503479
0.81740850210189819 0.81740850210189819 0.81740850210189819
0.81619942188262939 0.81619942188262939 0.81619942188262939
0.81630539894104004 0.81630539894104004 0.81630539894104004
0.81827092170715332 0.81827092170715332 0.81827092170715332
0.82253634929656982 0.82253634929656982 0.82253634929656982
0.8296387791633606 0.8296387791633606 0.8296387791633606
0.83844453096389771 0.83844453096389771 0.83844453096389771
0.8471032977104187 0.8471032977104187 0.8471032977104187
0.85550475120544434 0.85550475120544434 0.85550475120544434
0.86159032583236694 0.86159032583236694 0.86159032583236694
0.86452025175094604 0.86452025175094604 0.86452025175094604
0.87610232830047607 0.87610232830047607 0.87610232830047607
0.079622365534305573 0.079622365534305573 0.079622365534305573
0.079205051064491272 0.079205051064491272 0.079205051064491272
0.08514898270368576 0.08514898270368576 0.08514898270368576
0.098245374858379364 0.098245374858379364 0.098245374858379364
0.11883947253227234 0.11883947253227234 0.11883947253227234
0.14621682465076447 0.14621682465076447 0.14621682465076447
0.17859469354152679 0.17859469354152679 0.17859469354152679
0.21427512168884277 0.21427512168884277 0.21427512168884277
0.25163692235946655 0.25163692235946655 0.25163692235946655
0.29146111011505127 0.29146111011505127 0.29146111011505127
0.335722416639328 0.335722416639328 0.335722416639328
0.38739749789237976 0.38739749789237976 0.38739749789237976
0.44740778207778931 0.44740778207778931 0.44740778207778931
0.088938035070896149 0.088938035070896149 0.088938035070896149
0.089270301163196564 0.089270301163196564 0.089270301163196564
0.095674805343151093 0.095674805343151093 0.095674805343151093
0.1092006042599678 0.1092006042599678 0.1092006042599678
0.13083766400814056 0.13083766400814056 0.13083766400814056
0.15970468521118164 0.15970468521118164 0.15970468521118164
0.19380252063274384 0.19380252063274384 0.19380252063274384
0.22995077073574066 0.22995077073574066 0.22995077073574066
0.26850801706314087 0.26850801706314087 0.26850801706314087
0.30650854110717773 0.30650854110717773 0.30650854110717773
0.34844970703125 0.34844970703125 0.34844970703125
0.39726659655570984 0.39726659655570984 0.39726659655570984
0.45537960529327393 0.45537960529327393 0.45537960529327393
0.10985597968101501 0.10985597968101501 0.10985597968101501
0.1109488233923912 0.1109488233923912 0.1109488233923912
0.11690180003643036 0.11690180003643036 0.11690180003643036
0.12946446239948273 0.12946446239948273 0.12946446239948273
0.15076158940792084 0.15076158940792084 0.15076158940792084
0.18011023104190826 0.18011023104190826 0.18011023104190826
0.21510973572731018 0.21510973572731018 0.21510973572731018
0.25271385908126831 0.25271385908126831 0.25271385908126831
0.29040041565895081 0.29040041565895081 0.29040041565895081
0.32766160368919373 0.32766160368919373 0.32766160368919373
0.3670903742313385 0.3670903742313385 0.3670903742313385
0.41370269656181335 0.41370269656181335 0.41370269656181335
0.46988967061042786 0.46988967061042786 0.46988967061042786
0.14880155026912689 0.14880155026912689 0.14880155026912689
0.14914464950561523 0.14914464950561523 0.14914464950561523
0.15212917327880859 0.15212917327880859 0.15212917327880859
0.16145934164524078 0.16145934164524078 0.16145934164524078
0.17981407046318054 0.17981407046318054 0.17981407046318054
0.20645228028297424 0.20645228028297424 0.20645228028297424
0.24001742899417877 0.24001742899417877 0.24001742899417877
0.27778080105781555 0.27778080105781555 0.27778080105781555
0.31540459394454956 0.31540459394454956 0.31540459394454956
0.35204970836639404 0.35204970836639404 0.35204970836639404
0.39088469743728638 0.39088469743728638 0.39088469743728638
0.43694823980331421 0.43694823980331421 0.43694823980331421
0.49351385235786438 0.49351385235786438 0.49351385235786438
0.20552219450473785 0.20552219450473785 0.20552219450473785
0.20232515037059784 0.20232515037059784 0.20232515037059784
0.20035257935523987 0.20035257935523987 0.20035257935523987
0.20454466342926025 0.20454466342926025 0.20454466342926025
0.21674121916294098 0.21674121916294098 0.21674121916294098
0.23674152791500092 0.23674152791500092 0.23674152791500092
0.26493930816650391 0.26493930816650391 0.26493930816650391
0.30047240853309631 0.30047240853309631 0.30047240853309631
0.33798283338546753 0.33798283338546753 0.33798283338546753
0.37568998336791992 0.37568998336791992 0.37568998336791992
0.41743889451026917 0.41743889451026917 0.41743889451026917
0.46751436591148376 0.46751436591148376 0.46751436591148376
0.52752900123596191 0.52752900123596191 0.52752900123596191
0.26306957006454468 0.26306957006454468 0.26306957006454468
0.25914448499679565 0.25914448499679565 0.25914448499679565
0.25508809089660645 0.25508809089660645 0.25508809089660645
0.25519716739654541 0.25519716739654541 0.25519716739654541
0.26035726070404053 0.26035726070404053 0.26035726070404053
0.27121374011039734 0.27121374011039734 0.27121374011039734
0.28963175415992737 0.28963175415992737 0.28963175415992737
0.31848907470703125 0.31848907470703125 0.31848907470703125
0.35472220182418823 0.35472220182418823 0.35472220182418823
0.39545673131942749 0.39545673131942749 0.39545673131942749
0.4440426230430603 0.4440426230430603 0.4440426230430603
0.50274240970611572 0.50274240970611572 0.50274240970611572
0.56965494155883789 0.56965494155883789 0.56965494155883789
0.31658276915550232 0.31658276915550232 0.31658276915550232
0.31516119837760925 0.31516119837760925 0.31516119837760925
0.31300348043441772 0.31300348043441772 0.31300348043441772
0.31185668706893921 0.31185668706893921 0.31185668706893921
0.31179121136665344 0.31179121136665344 0.31179121136665344
0.31371790170669556 0.31371790170669556 0.31371790170669556
0.32140073180198669 0.32140073180198669 0.32140073180198669
0.34067299962043762 0.34067299962043762 0.34067299962043762
0.37166908383369446 0.37166908383369446 0.37166908383369446
0.41345688700675964 0.41345688700675964 0.41345688700675964
0.46809506416320801 0.46809506416320801 0.46809506416320801
0.53600776195526123 0.53600776195526123 0.53600776195526123
0.61044073104858398 0.61044073104858398 0.61044073104858398
0.37249049544334412 0.37249049544334412 0.37249049544334412
0.3746258020401001 0.3746258020401001 0.3746258020401001
0.37583786249160767 0.37583786249160767 0.37583786249160767
0.3750145435333252 0.3750145435333252 0.3750145435333252
0.3725641667842865 0.3725641667842865 0.3725641667842865
0.36953389644622803 0.36953389644622803 0.36953389644622803
0.36963516473770142 0.36963516473770142 0.36963516473770142
0.37891903519630432 0.37891903519630432 0.37891903519630432
0.40027317404747009 0.40027317404747009 0.40027317404747009
0.43636420369148254 0.43636420369148254 0.43636420369148254
0.49155843257904053 0.49155843257904053 0.49155843257904053
0.56324666738510132 0.56324666738510132 0.56324666738510132
0.64151483774185181 0.64151483774185181 0.64151483774185181
0.43671917915344238 0.43671917915344238 0.43671917915344238
0.44240939617156982 0.44240939617156982 0.44240939617156982
0.44687405228614807 0.44687405228614807 0.44687405228614807
0.44796094298362732 0.44796094298362732 0.44796094298362732
0.4447665810585022 0.4447665810585022 0.4447665810585022
0.43994525074958801 0.43994525074958801 0.43994525074958801
0.43659535050392151 0.43659535050392151 0.43659535050392151
0.4386044442653656 0.4386044442653656 0.4386044442653656
0.45003980398178101 0.45003980398178101 0.45003980398178101
0.47660607099533081 0.47660607099533081 0.47660607099533081
0.52388662099838257 0.52388662099838257 0.52388662099838257
0.58873933553695679 0.58873933553695679 0.58873933553695679
0.66224521398544312 0.66224521398544312 0.66224521398544312
0.51702648401260376 0.51702648401260376 0.51702648401260376
0.52361470460891724 0.52361470460891724 0.52361470460891724
0.52910149097442627 0.52910149097442627 0.52910149097442627
0.53089296817779541 0.53089296817779541 0.53089296817779541
0.52877998352050781 0.52877998352050781 0.52877998352050781
0.52482032775878906 0.52482032775878906 0.52482032775878906
0.52107095718383789 0.52107095718383789 0.52107095718383789
0.52062094211578369 0.52062094211578369 0.52062094211578369
0.5267646312713623 0.5267646312713623 0.5267646312713623
0.5441964864730835 0.5441964864730835 0.5441964864730835
0.57633066177368164 0.57633066177368164 0.57633066177368164
0.62372952699661255 0.62372952699661255 0.62372952699661255
0.6852571964263916 0.6852571964263916 0.6852571964263916
0.61495959758758545 0.61495959758758545 0.61495959758758545
0.61876708269119263 0.61876708269119263 0.61876708269119263
0.62256360054016113 0.62256360054016113 0.62256360054016113
0.62371528148651123 0.62371528148651123 0.62371528148651123
0.62304097414016724 0.62304097414016724 0.62304097414016724
0.62117791175842285 0.62117791175842285 0.62117791175842285
0.61996906995773315 0.61996906995773315 0.61996906995773315
0.62129503488540649 0.62129503488540649 0.62129503488540649
0.62677145004272461 0.62677145004272461 0.62677145004272461
0.63855522871017456 0.63855522871017456 0.63855522871017456
0.65609937906265259 0.65609937906265259 0.65609937906265259
0.68008315563201904 0.68008315563201904 0.68008315563201904
0.72448086738586426 0.72448086738586426 0.72448086738586426
0.72026222944259644 0.72026222944259644 0.72026222944259644
0.72158539295196533 0.72158539295196533 0.72158539295196533
0.72248411178588867 0.72248411178588867 0.72248411178588867
0.72284549474716187 0.72284549474716187 0.72284549474716187
0.72318214178085327 0.72318214178085327 0.72318214178085327
0.72425293922424316 0.72425293922424316 0.72425293922424316
0.72679042816162109 0.72679042816162109 0.72679042816162109
0.73169881105422974 0.73169881105422974 0.73169881105422974
0.73938179016113281 0.73938179016113281 0.73938179016113281
0.75030058622360229 0.75030058622360229 0.75030058622360229
0.75974768400192261 0.75974768400192261 0.75974768400192261
0.76660621166229248 0.76660621166229248 0.76660621166229248
0.79100632667541504 0.79100632667541504 0.79100632667541504
0.82500481605529785 0.82500481605529785 0.82500481605529785
0.82489216327667236 0.82489216327667236 0.82489216327667236
0.82422572374343872 0.82422572374343872 0.82422572374343872
0.8240472674369812 0.8240472674369812 0.8240472674369812
0.8249741792678833 0.8249741792678833 0.8249741792678833
0.82806897163391113 0.82806897163391113 0.82806897163391113
0.83392304182052612 0.83392304182052612 0.83392304182052612
0.84152376651763916 0.84152376651763916 0.84152376651763916
0.85045230388641357 0.85045230388641357 0.85045230388641357
0.85999870300292969 0.85999870300292969 0.85999870300292969
0.8662152886390686 0.8662152886390686 0.8662152886390686
0.86399322748184204 0.86399322748184204 0.86399322748184204
0.87379127740859985 0.87379127740859985 0.87379127740859985
0.11132923513650894 0.11132923513650894 0.11132923513650894
0.11143843829631805 0.11143843829631805 0.11143843829631805
0.11743627488613129 0.11743627488613129 0.11743627488613129
0.12967705726623535 0.12967705726623535 0.12967705726623535
0.14852313697338104 0.14852313697338104 0.14852313697338104
0.17382499575614929 0.17382499575614929 0.17382499575614929
0.20384523272514343 0.20384523272514343 0.20384523272514343
0.23771694302558899 0.23771694302558899 0.23771694302558899
0.27348107099533081 0.27348107099533081 0.27348107099533081
0.31090998649597168 0.31090998649597168 0.31090998649597168
0.35158035159111023 0.35158035159111023 0.35158035159111023
0.40138491988182068 0.40138491988182068 0.40138491988182068
0.46130144596099854 0.46130144596099854 0.46130144596099854
0.11747463792562485 0.11747463792562485 0.11747463792562485
0.11990697681903839 0.11990697681903839 0.11990697681903839
0.12780925631523132 0.12780925631523132 0.12780925631523132
0.1412472128868103 0.1412472128868103 0.1412472128868103
0.16095365583896637 0.16095365583896637 0.16095365583896637
0.18706141412258148 0.18706141412258148 0.18706141412258148
0.21818256378173828 0.21818256378173828 0.21818256378173828
0.25268176198005676 0.25268176198005676 0.25268176198005676
0.2890770435333252 0.2890770435333252 0.2890770435333252
0.32576373219490051 0.32576373219490051 0.32576373219490051
0.36515375971794128 0.36515375971794128 0.36515375971794128
0.41176432371139526 0.41176432371139526 0.41176432371139526
0.46874892711639404 0.46874892711639404 0.46874892711639404
0.13059993088245392 0.13059993088245392 0.13059993088245392
0.137261763215065 0.137261763215065 0.137261763215065
0.14749233424663544 0.14749233424663544 0.14749233424663544
0.16153733432292938 0.16153733432292938 0.16153733432292938
0.18108507990837097 0.18108507990837097 0.18108507990837097
0.20692935585975647 0.20692935585975647 0.20692935585975647
0.23831085860729218 0.23831085860729218 0.23831085860729218
0.27355426549911499 0.27355426549911499 0.27355426549911499
0.31025630235671997 0.31025630235671997 0.31025630235671997
0.34702160954475403 0.34702160954475403 0.34702160954475403
0.38538295030593872 0.38538295030593872 0.38538295030593872
0.42960625886917114 0.42960625886917114 0.42960625886917114
0.48346352577209473 0.48346352577209473 0.48346352577209473
0.16294786334037781 0.16294786334037781 0.16294786334037781
0.17130602896213531 0.17130602896213531 0.17130602896213531
0.18062329292297363 0.18062329292297363 0.18062329292297363
0.19220174849033356 0.19220174849033356 0.19220174849033356
0.20923419296741486 0.20923419296741486 0.20923419296741486
0.23244112730026245 0.23244112730026245 0.23244112730026245
0.26207742094993591 0.26207742094993591 0.26207742094993591
0.29723808169364929 0.29723808169364929 0.29723808169364929
0.33456709980964661 0.33456709980964661 0.33456709980964661
0.37182453274726868 0.37182453274726868 0.37182453274726868
0.41030290722846985 0.41030290722846985 0.41030290722846985
0.45415025949478149 0.45415025949478149 0.45415025949478149
0.50771617889404297 0.50771617889404297 0.50771617889404297
0.22484593093395233 0.22484593093395233 0.22484593093395233
0.22507579624652863 0.22507579624652863 0.22507579624652863
0.22686567902565002 0.22686567902565002 0.22686567902565002
0.23342515528202057 0.23342515528202057 0.23342515528202057
0.24487325549125671 0.24487325549125671 0.24487325549125671
0.26195132732391357 0.26195132732391357 0.26195132732391357
0.28644672036170959 0.28644672036170959 0.28644672036170959
0.31995958089828491 0.31995958089828491 0.31995958089828491
0.35801103711128235 0.35801103711128235 0.35801103711128235
