luts/instant_pro/polaroid_669_cold_--.cube
# Created by: G'MIC (https://gmic.eu)
TITLE "polaroid_669_cold_--"
# LUT size
LUT_3D_SIZE 5
# Data domain
DOMAIN_MIN 0.0 0.0 0.0
DOMAIN_MAX 1.0 1.0 1.0
# LUT data points
0 0.04148700088262558 0.041754391044378281
0.082095637917518616 0.099690549075603485 0.094847992062568665
0.36953029036521912 0.14348287880420685 0.18804015219211578
0.62782108783721924 0.17775149643421173 0.28688845038414001
0.8444100022315979 0.23897573351860046 0.37185513973236084
0.0039215688593685627 0.2508920431137085 0.19607239961624146
0.11103874444961548 0.2629968523979187 0.20522588491439819
0.42996567487716675 0.27943629026412964 0.27871504426002502
0.6678544282913208 0.29318830370903015 0.35067594051361084
0.86949032545089722 0.35172897577285767 0.42065083980560303
0.066482335329055786 0.42293030023574829 0.33662378787994385
0.21730998158454895 0.42769148945808411 0.34341621398925781
0.45486629009246826 0.43395870923995972 0.34865495562553406
0.68214195966720581 0.4744260311126709 0.40812933444976807
0.87691682577133179 0.5785224437713623 0.51681512594223022
0.26400616765022278 0.62347990274429321 0.43045419454574585
0.3324991762638092 0.61432176828384399 0.42684978246688843
0.46752265095710754 0.62128305435180664 0.42765983939170837
0.65262144804000854 0.65488588809967041 0.43353837728500366
0.83987408876419067 0.74018013477325439 0.50730907917022705
0.45319446921348572 0.92018240690231323 0.5938149094581604
0.48675039410591125 0.91996234655380249 0.59236687421798706
0.56881111860275269 0.91863143444061279 0.59086573123931885
0.72422116994857788 0.93596810102462769 0.62053209543228149
0.89676129817962646 0.95986884832382202 0.67061489820480347
0 0.1025766134262085 0.26447585225105286
0.015035965479910374 0.15418103337287903 0.30803126096725464
0.37585341930389404 0.19924446940422058 0.36771875619888306
0.63171613216400146 0.21167431771755219 0.39979475736618042
0.84169328212738037 0.25361433625221252 0.45134726166725159
0.0066252914257347584 0.28558251261711121 0.35436287522315979
0.12896452844142914 0.29319003224372864 0.38861611485481262
0.4456782341003418 0.30244553089141846 0.41621631383895874
0.66320878267288208 0.31219857931137085 0.44654548168182373
0.86221599578857422 0.36133238673210144 0.48875996470451355
0.16483348608016968 0.46950557827949524 0.45046523213386536
0.28243881464004517 0.462147057056427 0.45461204648017883
0.48839399218559265 0.46084612607955933 0.45335429906845093
0.69165533781051636 0.50366145372390747 0.50230306386947632
0.87250739336013794 0.58522051572799683 0.57431811094284058
0.29782620072364807 0.66111618280410767 0.50598490238189697
0.36264544725418091 0.64916235208511353 0.49809461832046509
0.47850123047828674 0.6403687596321106 0.49275293946266174
0.65938675403594971 0.67186015844345093 0.49833965301513672
0.83821779489517212 0.75912660360336304 0.57458317279815674
0.45562782883644104 0.92693090438842773 0.63035249710083008
0.49285584688186646 0.92402344942092896 0.63115066289901733
0.57110953330993652 0.91751927137374878 0.62648516893386841
0.71953797340393066 0.9421810507774353 0.64927113056182861
0.8944166898727417 0.95748275518417358 0.6974797248840332
0 0.20236250758171082 0.50037211179733276
0.0067032757215201855 0.22069674730300903 0.5260014533996582
0.42109483480453491 0.26771563291549683 0.57803672552108765
0.66289794445037842 0.30823427438735962 0.60993683338165283
0.86383867263793945 0.36072492599487305 0.63997948169708252
8.6705826106481254e-05 0.34135562181472778 0.55149322748184204
0.1111326664686203 0.33904960751533508 0.5785062313079834
0.48374903202056885 0.37536704540252686 0.61672651767730713
0.68980926275253296 0.41054335236549377 0.6387256383895874
0.86516803503036499 0.4161456823348999 0.639484703540802
0.16685102880001068 0.52513134479522705 0.61939519643783569
0.33415582776069641 0.53159815073013306 0.62660044431686401
0.53550785779953003 0.54531431198120117 0.65534377098083496
0.70323002338409424 0.55291914939880371 0.65758222341537476
0.86076390743255615 0.58139026165008545 0.67230224609375
0.32374963164329529 0.74051308631896973 0.64941251277923584
0.40654033422470093 0.73924177885055542 0.65951752662658691
0.51491761207580566 0.71577125787734985 0.65010184049606323
0.67572301626205444 0.72429639101028442 0.6454351544380188
0.84914755821228027 0.8097795844078064 0.714630126953125
0.4782738983631134 0.94991117715835571 0.7289128303527832
0.50701451301574707 0.94544821977615356 0.72448885440826416
0.5831298828125 0.93712002038955688 0.71905672550201416
0.70978730916976929 0.94397753477096558 0.71713489294052124
0.89685583114624023 0.96346926689147949 0.75593084096908569
0 0.31052282452583313 0.73531323671340942
0.0010284273885190487 0.30382898449897766 0.75038576126098633
0.4338756799697876 0.35119163990020752 0.77801579236984253
0.71351379156112671 0.4375990629196167 0.80239403247833252
0.8637319803237915 0.55250352621078491 0.82489991188049316
0.0042056962847709656 0.42752259969711304 0.75217539072036743
0.075126335024833679 0.40396901965141296 0.76910662651062012
0.4879988431930542 0.44531330466270447 0.79311984777450562
0.72084981203079224 0.53533464670181274 0.81105279922485352
0.86119192838668823 0.6373828649520874 0.83758503198623657
0.12514813244342804 0.58240002393722534 0.75792765617370605
0.3151908814907074 0.59221053123474121 0.77129346132278442
0.52351933717727661 0.6099737286567688 0.79932886362075806
0.72627341747283936 0.69493269920349121 0.82982909679412842
0.85546565055847168 0.75456321239471436 0.84566307067871094
0.35617628693580627 0.79994595050811768 0.80276608467102051
0.42321062088012695 0.80453836917877197 0.80784332752227783
0.5604662299156189 0.8169410228729248 0.8165251612663269
0.71664482355117798 0.83670222759246826 0.83512228727340698
0.8580394983291626 0.84118622541427612 0.83886224031448364
0.55594485998153687 0.97400778532028198 0.84568899869918823
0.58809369802474976 0.97051990032196045 0.84636300802230835
0.64814627170562744 0.97037231922149658 0.84614413976669312
0.73317283391952515 0.9626699686050415 0.83102148771286011
0.90477257966995239 0.96906602382659912 0.84558200836181641
0.01972535066306591 0.47642219066619873 0.92546188831329346
0.13979019224643707 0.45833703875541687 0.93046736717224121
0.52560520172119141 0.51793360710144043 0.9310377836227417
0.75556153059005737 0.6476941704750061 0.93610990047454834
0.88757658004760742 0.76225566864013672 0.93984830379486084
0.20378093421459198 0.57139676809310913 0.92652297019958496
0.32723477482795715 0.56811749935150146 0.92742842435836792
0.54964584112167358 0.59793692827224731 0.9316859245300293
0.75620889663696289 0.71251434087753296 0.93538057804107666
0.88588249683380127 0.80297201871871948 0.94050419330596924
0.33107131719589233 0.73453313112258911 0.91336488723754883
0.41532957553863525 0.73026525974273682 0.91706138849258423
0.55840843915939331 0.72850567102432251 0.92614781856536865
0.74280613660812378 0.80321931838989258 0.93344122171401978
0.88506931066513062 0.87485074996948242 0.94337743520736694
0.34972080588340759 0.8904116153717041 0.91483420133590698
0.41107285022735596 0.88591420650482178 0.91447174549102783
0.53545135259628296 0.87922376394271851 0.91572654247283936
0.73671573400497437 0.89672219753265381 0.93541222810745239
0.90509605407714844 0.94538944959640503 0.95587778091430664
0.65984827280044556 0.99402463436126709 0.95232194662094116
0.68299460411071777 0.99010646343231201 0.95229756832122803
0.7385404109954834 0.98744940757751465 0.95445930957794189
0.82492929697036743 0.9900934100151062 0.9612804651260376
0.94954532384872437 0.98702609539031982 0.97151607275009155
