luts/instant_pro/polaroid_690_-.cube
# Created by: G'MIC (https://gmic.eu)
TITLE "polaroid_690_-"
# LUT size
LUT_3D_SIZE 5
# Data domain
DOMAIN_MIN 0.0 0.0 0.0
DOMAIN_MAX 1.0 1.0 1.0
# LUT data points
0.040796510875225067 0.041725501418113708 0.036538500338792801
0.18546907603740692 0.027016164734959602 0.038644663989543915
0.45021763443946838 0.00065594841726124287 0.030549202114343643
0.74844098091125488 0.0022520027123391628 0.015504306182265282
0.97585159540176392 0 0.0078431377187371254
0.015756465494632721 0.19621682167053223 0.032032940536737442
0.2103378027677536 0.20655025541782379 0.015389147214591503
0.56327706575393677 0.19766826927661896 0.0083705531433224678
0.83647263050079346 0.070566572248935699 0.0018437105463817716
0.99649178981781006 0.035672850906848907 0.00011556288518477231
0.0031426972709596157 0.48923742771148682 0.0039215688593685627
0.16361311078071594 0.47587674856185913 0.00311430380679667
0.54586929082870483 0.51761972904205322 0.0067169787362217903
0.85308891534805298 0.56224519014358521 0.0027611376717686653
0.99655580520629883 0.58204126358032227 0.0045280307531356812
0.010856403969228268 0.73361474275588989 0
0.21167315542697906 0.7299884557723999 0
0.54438012838363647 0.73380750417709351 0.0015318627702072263
0.82054382562637329 0.76644498109817505 0.0039215688593685627
0.99077624082565308 0.78554666042327881 0.0026975444052368402
0.48927581310272217 0.92991620302200317 0.14673779904842377
0.55351483821868896 0.92851340770721436 0.11941381543874741
0.68800818920135498 0.92775952816009521 0.078098013997077942
0.83994251489639282 0.94165581464767456 0.088919200003147125
0.97239154577255249 0.9602515697479248 0.11212068796157837
0.015570113435387611 0.051009651273488998 0.19173043966293335
0.18331921100616455 0.034215472638607025 0.21021316945552826
0.45321434736251831 0.0014641855377703905 0.19375455379486084
0.73543477058410645 0 0.17351748049259186
0.97143268585205078 0 0.12068424373865128
0.018255315721035004 0.20328643918037415 0.21883822977542877
0.22715811431407928 0.22286151349544525 0.23959906399250031
0.53797417879104614 0.15378107130527496 0.22218804061412811
0.80573540925979614 0.028064308688044548 0.1800553947687149
0.99061310291290283 0.0051039303652942181 0.1354396641254425
0.0063989227637648582 0.51288294792175293 0.22110734879970551
0.19550159573554993 0.52072334289550781 0.21592582762241364
0.56598412990570068 0.53876954317092896 0.17869585752487183
0.86374467611312866 0.57501864433288574 0.22472758591175079
0.99731969833374023 0.55490988492965698 0.23607128858566284
0.012882067821919918 0.75129777193069458 0.19046913087368011
0.24569535255432129 0.74346506595611572 0.15610234439373016
0.54541736841201782 0.74388635158538818 0.11675535887479782
0.82176434993743896 0.76867532730102539 0.1305331289768219
0.98226344585418701 0.78848958015441895 0.25990355014801025
0.47683814167976379 0.93263733386993408 0.35264113545417786
0.54085910320281982 0.92774230241775513 0.33112248778343201
0.67383092641830444 0.92645001411437988 0.28717502951622009
0.83155596256256104 0.94074374437332153 0.29920658469200134
0.96348249912261963 0.9595712423324585 0.33825221657752991
0.0015114429406821728 0.064490854740142822 0.51451694965362549
0.11711009591817856 0.027152176946401596 0.5566866397857666
0.56601971387863159 0.0026057972572743893 0.59682857990264893
0.78442370891571045 0.00016542321827728301 0.50319254398345947
0.96080863475799561 0.0044491784647107124 0.46888619661331177
0.0026176152750849724 0.21880185604095459 0.52364897727966309
0.19616115093231201 0.238062784075737 0.56759703159332275
0.59196263551712036 0.23531651496887207 0.60539597272872925
0.79540538787841797 0.13624183833599091 0.51143217086791992
0.97846812009811401 0.00302275107242167 0.44944992661476135
0.0066531011834740639 0.53946840763092041 0.57022905349731445
0.25765687227249146 0.54961824417114258 0.58111584186553955
0.60042542219161987 0.57710069417953491 0.60421907901763916
0.82861864566802979 0.50753223896026611 0.55001670122146606
0.99211078882217407 0.38705837726593018 0.45833137631416321
0.20237091183662415 0.77862143516540527 0.58041548728942871
0.35999935865402222 0.77172577381134033 0.57341009378433228
0.57747024297714233 0.7598298192024231 0.53721195459365845
0.81472122669219971 0.77194100618362427 0.56007832288742065
0.97035855054855347 0.79598689079284668 0.61590218544006348
0.48657557368278503 0.93621331453323364 0.61633354425430298
0.53845876455307007 0.93255162239074707 0.60651499032974243
0.66022288799285889 0.93243122100830078 0.57123267650604248
0.80476588010787964 0.93800812959671021 0.55773502588272095
0.94573712348937988 0.95953726768493652 0.59901857376098633
0.0019510455895215273 0.07256559282541275 0.81306368112564087
0.16724272072315216 0.033933617174625397 0.82445919513702393
0.60105997323989868 0.010639550164341927 0.85179334878921509
0.88380396366119385 0.034896116703748703 0.8634108304977417
0.9919697642326355 0.057927343994379044 0.79418998956680298
0.0055588516406714916 0.25152426958084106 0.80105262994766235
0.23993955552577972 0.25729489326477051 0.8201412558555603
0.62081962823867798 0.29131481051445007 0.8463207483291626
0.87061041593551636 0.35086387395858765 0.85658299922943115
0.9873160719871521 0.3137933611869812 0.78591305017471313
0.0036740023642778397 0.4915202260017395 0.77217364311218262
0.1906607449054718 0.50249284505844116 0.78353226184844971
0.58907026052474976 0.57075649499893188 0.81608539819717407
0.83988106250762939 0.63090717792510986 0.8412623405456543
0.9638819694519043 0.54360359907150269 0.77569752931594849
0.32241234183311462 0.77370333671569824 0.81033730506896973
0.44200822710990906 0.76832163333892822 0.81553387641906738
0.64040225744247437 0.77811121940612793 0.8254808783531189
0.82315433025360107 0.80128228664398193 0.84029269218444824
0.95741724967956543 0.74012333154678345 0.78966605663299561
0.59990161657333374 0.94314110279083252 0.84303480386734009
0.62388598918914795 0.94173610210418701 0.83678966760635376
0.69532144069671631 0.94559222459793091 0.83284693956375122
0.79557257890701294 0.94489037990570068 0.80001640319824219
0.92635601758956909 0.9656982421875 0.82398998737335205
0.37863922119140625 0.22771324217319489 0.98359191417694092
0.49632766842842102 0.22619281709194183 0.98382699489593506
0.69720345735549927 0.2654794454574585 0.98521190881729126
0.87917304039001465 0.38881927728652954 0.98811691999435425
0.98941749334335327 0.49818974733352661 0.98105710744857788
0.40803283452987671 0.38085579872131348 0.97899389266967773
0.51914715766906738 0.38908156752586365 0.98002892732620239
0.7001456618309021 0.42948004603385925 0.98135107755661011
0.86706626415252686 0.53224635124206543 0.98282527923583984
0.98203074932098389 0.59280961751937866 0.97841089963912964
0.36272960901260376 0.58614814281463623 0.96489733457565308
0.4856967031955719 0.59957921504974365 0.96308398246765137
0.67966163158416748 0.63139301538467407 0.96806013584136963
0.84512007236480713 0.68761330842971802 0.97217309474945068
0.96021628379821777 0.72727513313293457 0.9740903377532959
0.39442828297615051 0.77151352167129517 0.9533461332321167
0.4654657244682312 0.76566332578659058 0.95247960090637207
0.61852896213531494 0.76371639966964722 0.95442146062850952
0.81833779811859131 0.80450677871704102 0.96458655595779419
0.94402992725372314 0.84807813167572021 0.9658392071723938
0.65005505084991455 0.94776904582977295 0.96112602949142456
0.68033242225646973 0.95161575078964233 0.9606214165687561
0.7435113787651062 0.95118200778961182 0.95951420068740845
0.8245004415512085 0.95391833782196045 0.95856684446334839
0.92379909753799438 0.97467941045761108 0.96784883737564087
