luts/instant_pro/polaroid_690_warm_--.cube
# Created by: G'MIC (https://gmic.eu)
TITLE "polaroid_690_warm_--"
# LUT size
LUT_3D_SIZE 13
# Data domain
DOMAIN_MIN 0.0 0.0 0.0
DOMAIN_MAX 1.0 1.0 1.0
# LUT data points
0.038615822792053223 0.019441312178969383 0.014511212706565857
0.092571169137954712 0.014957008883357048 0.013919785618782043
0.18069761991500854 0.0064521790482103825 0.014791286550462246
0.29061505198478699 0.0028933656867593527 0.0138943986967206
0.39452087879180908 0.0023564954753965139 0.012225566431879997
0.49424907565116882 0.0021919100545346737 0.010996859520673752
0.58807367086410522 0.00027916103135794401 0.0051272823475301266
0.66995078325271606 0 0.0025378656573593616
0.74446344375610352 0 0.0024919097777456045
0.81565743684768677 0 0.0006759344250895083
0.88599783182144165 0 0
0.95658457279205322 0 0
0.99349623918533325 0 0
0.046215280890464783 0.071378506720066071 0.013034820556640625
0.1078980416059494 0.076558053493499756 0.011365015059709549
0.20283249020576477 0.057833652943372726 0.0093385735526680946
0.31634724140167236 0.027520706877112389 0.0080575235188007355
0.42388269305229187 0.0099005606025457382 0.0068861120380461216
0.52270513772964478 0.005158532876521349 0.0057242149487137794
0.61593484878540039 0.0025441935285925865 0.0047150407917797565
0.69651496410369873 0.00080645689740777016 0.0022940242197364569
0.76659572124481201 0.00016359816072508693 0.0014188280329108238
0.83368611335754395 0.00018561868637334555 0.00029935649945400655
0.90103471279144287 0.0026659646537154913 0.00036800609086640179
0.96375530958175659 8.3429673395585269e-05 0.00015940946468617767
0.99420195817947388 0 0
0.022275079041719437 0.16543695330619812 0.0057538351975381374
0.099279500544071198 0.17126654088497162 0.0042384727858006954
0.21233540773391724 0.16979573667049408 0.0041266498155891895
0.33410200476646423 0.15330693125724792 0.0037011390086263418
0.45130404829978943 0.12005799263715744 0.0013649435713887215
0.55561864376068115 0.071724757552146912 0.00083739339606836438
0.64572471380233765 0.034090828150510788 0.0015776989748701453
0.72399729490280151 0.010004978626966476 0.00061320886015892029
0.79042798280715942 0.0016459296457469463 6.8993664172012359e-05
0.85463136434555054 0.002609312767162919 0
0.91920268535614014 0.0042936587706208229 1.4720243598276284e-05
0.97542303800582886 0.00061270024161785841 6.4625462982803583e-05
0.99716585874557495 0.00030065799364820123 0
0.0084185730665922165 0.26868680119514465 0.0012573242420330644
0.065936863422393799 0.27155467867851257 0.0028543958906084299
0.1967666894197464 0.27912557125091553 0.0053448993712663651
0.32934314012527466 0.28230133652687073 0.0036911759525537491
0.45569977164268494 0.27605932950973511 0.0022191065363585949
0.57158398628234863 0.25291472673416138 0.000713348388671875
0.67304867506027222 0.23014275729656219 0.00055217370390892029
0.75347959995269775 0.18397246301174164 3.9897244278108701e-05
0.81861108541488647 0.12404234707355499 0
0.87886583805084229 0.078922897577285767 0
0.93830591440200806 0.045880831778049469 0
0.98858094215393066 0.0249354038387537 0
0.99959665536880493 0.014066389761865139 0
0.0069631538353860378 0.37332946062088013 0.00015013451047707349
0.036643367260694504 0.37384310364723206 0.0014331742422655225
0.16848123073577881 0.3789726197719574 0.0034533482976257801
0.30604037642478943 0.38300895690917969 0.0027994492556899786
0.43619012832641602 0.38700783252716064 0.0024497837293893099
0.55711096525192261 0.38537269830703735 0.0023227317724376917
0.66617155075073242 0.37929567694664001 0.0022013047710061073
0.76168882846832275 0.36855074763298035 0.00078558828681707382
0.83814895153045654 0.34615698456764221 0.00038001863867975771
0.89797890186309814 0.31098487973213196 0.0007492962758988142
0.9532935619354248 0.27399769425392151 0.00036556768463924527
0.99279826879501343 0.24488446116447449 0.00035418343031778932
1 0.2312462329864502 0
0.0085698142647743225 0.46352449059486389 0.00012135224824305624
0.027619695290923119 0.45982381701469421 0.00026620604330673814
0.14642453193664551 0.4611620306968689 0.0017739838222041726
0.27717757225036621 0.46345293521881104 0.0025003470946103334
0.40446686744689941 0.4681103527545929 0.0031819213181734085
0.53077656030654907 0.47716593742370605 0.0033324297983199358
0.6441996693611145 0.47687923908233643 0.0019501181086525321
0.74177646636962891 0.47492659091949463 0.0021957845892757177
0.82578074932098389 0.46721950173377991 0.0023707370273768902
0.90243059396743774 0.4634128212928772 0.0017529206816107035
0.96313571929931641 0.44810342788696289 0.0019184486009180546
0.99249261617660522 0.42439994215965271 0.0029466517735272646
0.99984228610992432 0.41119876503944397 0.0026639152783900499
0.0070938407443463802 0.53161913156509399 0
0.037746954709291458 0.52960842847824097 0.00056005740771070123
0.15543468296527863 0.52869105339050293 0.0018928078934550285
0.27339130640029907 0.52905404567718506 0.002536713844165206
0.38348299264907837 0.53420984745025635 0.0025025461800396442
0.49745386838912964 0.53962236642837524 0.0031535278540104628
0.61211198568344116 0.54648470878601074 0.0023885241243988276
0.71432608366012573 0.55461215972900391 0.0021049799397587776
0.80177849531173706 0.55212008953094482 0.0032300164457410574
0.88145112991333008 0.54863399267196655 0.0040175644680857658
0.95264607667922974 0.55148708820343018 0.0037985260132700205
0.99132043123245239 0.55416685342788696 0.0044612511992454529
0.99874961376190186 0.54911911487579346 0.0044670705683529377
0.018782492727041245 0.5918005108833313 6.2112245359458029e-05
0.082555584609508514 0.59312140941619873 0.00087425380479544401
0.18822847306728363 0.59106040000915527 0.0014993854565545917
0.28389137983322144 0.5869409441947937 0.0022562812082469463
0.38134205341339111 0.59046226739883423 0.0023284314665943384
0.48457184433937073 0.59651607275009155 0.0023089838214218616
0.58814197778701782 0.60518103837966919 0.0019015592988580465
0.68865901231765747 0.61497968435287476 0.0019427879014983773
0.77899247407913208 0.61912977695465088 0.0035995184443891048
0.8603091835975647 0.62095314264297485 0.0037682028487324715
0.93428152799606323 0.62561178207397461 0.0034940531477332115
0.98801100254058838 0.63520866632461548 0.0035558363888412714
0.99909281730651855 0.64677345752716064 0.0034716587979346514
0.095621727406978607 0.65507227182388306 0.0011674170382320881
0.16065511107444763 0.65659308433532715 0.0016314338427037001
0.23526841402053833 0.65463954210281372 0.0021837421227246523
0.30661684274673462 0.65006303787231445 0.0026434804312884808
0.38522040843963623 0.64894884824752808 0.002347100991755724
0.47366735339164734 0.65357100963592529 0.0019408431835472584
0.56959062814712524 0.66250187158584595 0.001948622171767056
0.66296970844268799 0.67191833257675171 0.0016122855013236403
0.75649100542068481 0.67761772871017456 0.0021997787989675999
0.84156662225723267 0.68444734811782837 0.0023301816545426846
0.92127889394760132 0.69360190629959106 0.0015001633437350392
0.98555952310562134 0.70414161682128906 0.001459712628275156
0.9992372989654541 0.7099345326423645 0.0010555940680205822
0.1926940381526947 0.72008013725280762 0.0017942092381417751
0.2293899804353714 0.72022181749343872 0.0023013993632048368
0.27809759974479675 0.71777689456939697 0.0021405688021332026
0.34121346473693848 0.71421021223068237 0.0018815284129232168
0.41131770610809326 0.7119976282119751 0.002582804299890995
0.48851674795150757 0.71507185697555542 0.0023056778591126204
0.57368731498718262 0.72143667936325073 0.0021071191877126694
0.66101092100143433 0.73023408651351929 0.00036066092434339225
0.75299876928329468 0.73895031213760376 0.00015990313841030002
0.84034758806228638 0.7473219633102417 0.00048612707178108394
0.9188200831413269 0.75540012121200562 0.00040669160080142319
0.97793644666671753 0.76298403739929199 0.0013803668553009629
0.99698615074157715 0.76967084407806396 0.0033844292629510164
0.28070470690727234 0.78522408008575439 0.0011810302967205644
0.30565670132637024 0.78670412302017212 0.0023360159248113632
0.34432044625282288 0.78651899099349976 0.0023089838214218616
0.39333692193031311 0.78117114305496216 0.002037108177319169
0.45049932599067688 0.7788969874382019 0.0021853428333997726
0.52124738693237305 0.78106296062469482 0.0026253494434058666
0.59211832284927368 0.78405696153640747 0.0022656160872429609
0.66959464550018311 0.78970223665237427 0.00096513336757197976
0.75615650415420532 0.79892134666442871 9.2719579697586596e-05
0.84312385320663452 0.8093993067741394 0
0.9155157208442688 0.81647998094558716 8.2576980275916867e-06
0.9715193510055542 0.82438713312149048 0.00080858118599280715
0.99570602178573608 0.83141613006591797 0.003323528915643692
0.38564145565032959 0.86087602376937866 0.0041232537478208542
0.40382775664329529 0.86251896619796753 0.003365744836628437
0.43147587776184082 0.86183154582977295 0.0026397854089736938
0.47364634275436401 0.85796928405761719 0.0028079312760382891
0.52186238765716553 0.85698366165161133 0.0019391227979212999
0.58320063352584839 0.85714238882064819 0.0050613251514732838
0.64248096942901611 0.85668545961380005 0.0053486395627260208
0.70420408248901367 0.85951828956604004 0.0033154806587845087
0.77641177177429199 0.86559194326400757 0.0011350744171068072
0.84955543279647827 0.87370902299880981 4.6673943870700896e-05
0.91488081216812134 0.88018316030502319 0
0.9733700156211853 0.88839280605316162 0
0.99640673398971558 0.89515691995620728 0.000954676594119519
0.50388991832733154 0.9414905309677124 0.064274266362190247
0.51602268218994141 0.94209891557693481 0.060941193252801895
0.53632444143295288 0.94128578901290894 0.051945362240076065
0.56778281927108765 0.94017124176025391 0.041106190532445908
0.60853046178817749 0.93954384326934814 0.028858797624707222
0.65618240833282471 0.93726921081542969 0.01895923912525177
0.70529425144195557 0.93492203950881958 0.0074938605539500713
0.76011639833450317 0.93544185161590576 0.0034646575804799795
0.82038724422454834 0.93943619728088379 0.00034395104739814997
0.87790572643280029 0.94231873750686646 0.0009212269214913249
0.93096154928207397 0.94487321376800537 0.0001003489742288366
0.98183548450469971 0.95184987783432007 0
0.99824064970016479 0.95743089914321899 0
0.043205231428146362 0.020142199471592903 0.061261404305696487
0.096400901675224304 0.015239386819303036 0.06507275253534317
0.18385206162929535 0.0079323267564177513 0.060629796236753464
0.2896607518196106 0.003993314690887928 0.057923860847949982
0.39382463693618774 0.002527827862650156 0.055128194391727448
0.49137160181999207 0.0018906686455011368 0.051095597445964813
0.58316302299499512 0.00027604945353232324 0.041972216218709946
0.6631091833114624 0 0.035550959408283234
0.73729324340820312 0 0.028296452015638351
0.80972236394882202 0 0.01696033775806427
0.87941664457321167 0 0.0061536151915788651
0.94678592681884766 0 0.0023424935061484575
0.99186104536056519 0 0.00060517556266859174
0.05419381707906723 0.071499273180961609 0.062095057219266891
0.11779065430164337 0.075964666903018951 0.062630884349346161
0.20624235272407532 0.058639016002416611 0.059976030141115189
0.31576770544052124 0.027544731274247169 0.056296959519386292
0.41831406950950623 0.0093322005122900009 0.051010534167289734
0.51770806312561035 0.0054722204804420471 0.046213742345571518
0.60945039987564087 0.0012365453876554966 0.040884442627429962
0.68739539384841919 0.0016829547239467502 0.034158237278461456
0.7577168345451355 0.002064005471765995 0.026814568787813187
0.82699823379516602 4.5028387830825523e-05 0.018107065930962563
0.89343357086181641 0.00029899747460149229 0.009836144745349884
0.95648074150085449 0 0.0037787493783980608
0.994151771068573 0 0.00089222029782831669
0.040840193629264832 0.16893684864044189 0.055283024907112122
0.12078618258237839 0.17460055649280548 0.055764321237802505
0.22094713151454926 0.17216235399246216 0.04964759573340416
0.33745706081390381 0.1578533947467804 0.043069444596767426
0.44855126738548279 0.12454723566770554 0.045179478824138641
0.54940050840377808 0.078045621514320374 0.039696201682090759
0.63813984394073486 0.037803277373313904 0.03151765838265419
0.7141803503036499 0.013998577371239662 0.024866919964551926
0.78142040967941284 0.0047141877003014088 0.017873622477054596
0.84740984439849854 0.0020377365872263908 0.012648638337850571
0.91046196222305298 0.0019967472180724144 0.0070384903810918331
0.9689667820930481 0.00023132025671657175 0.0021189670078456402
0.99780821800231934 0 0.00052271824097260833
0.021133886650204659 0.2757171094417572 0.037123512476682663
0.10441187024116516 0.27733495831489563 0.03400072455406189
0.21374219655990601 0.2791517972946167 0.028387749567627907
0.3374997079372406 0.28533819317817688 0.023294426500797272
0.46090272068977356 0.28301486372947693 0.023317210376262665
0.5735744833946228 0.26832088828086853 0.027534708380699158
0.66773825883865356 0.23896972835063934 0.028341285884380341
0.74422460794448853 0.19201906025409698 0.020204206928610802
0.80837100744247437 0.13058657944202423 0.01240749005228281
0.87028777599334717 0.083835139870643616 0.0064395531080663204
0.93038356304168701 0.048771921545267105 0.0027002221904695034
0.98454368114471436 0.024721572175621986 0.00038426715764217079
0.99957519769668579 0.014069381169974804 0.00028382844175212085
0.012816844508051872 0.37718722224235535 0.022751975804567337
0.085845932364463806 0.37959685921669006 0.023412726819515228
0.20354379713535309 0.38096171617507935 0.020573949441313744
0.31855422258377075 0.38605180382728577 0.012731798924505711
0.442169189453125 0.39341229200363159 0.011478559114038944
0.56293106079101562 0.39356395602226257 0.012089239433407784
0.66908305883407593 0.38622313737869263 0.015711557120084763
0.75893259048461914 0.37394559383392334 0.019268529489636421
0.83076822757720947 0.34696069359779358 0.016736691817641258
0.89084881544113159 0.31171503663063049 0.011096969246864319
0.94687122106552124 0.27644306421279907 0.0050528883002698421
0.99068039655685425 0.24244706332683563 0.0024271197617053986
1 0.2248649001121521 0.0011071896879002452
0.012143752537667751 0.46490809321403503 0.013430532068014145
0.080485925078392029 0.464936763048172 0.011953002773225307
0.19271726906299591 0.46307843923568726 0.010893877595663071
0.29948413372039795 0.4636547863483429 0.0087721282616257668
0.41430705785751343 0.47259688377380371 0.010154694318771362
0.53473907709121704 0.48061415553092957 0.0097933150827884674
0.64630329608917236 0.48138746619224548 0.0052657783962786198
0.74345302581787109 0.4793037474155426 0.0093127377331256866
0.82687908411026001 0.47398543357849121 0.012062551453709602
0.9009474515914917 0.46768888831138611 0.017412671819329262
0.95998042821884155 0.44964778423309326 0.016394611448049545
0.99420571327209473 0.42553016543388367 0.0082426182925701141
1 0.41059854626655579 0.0047547584399580956
0.021810300648212433 0.53394657373428345 0.008599613793194294
0.097095251083374023 0.53523248434066772 0.01180114783346653
0.19879001379013062 0.53227448463439941 0.0086372671648859978
0.29670065641403198 0.53091925382614136 0.010415230877697468
0.39499989151954651 0.53594017028808594 0.0073226927779614925
0.5037388801574707 0.5434567928314209 0.0093360748142004013
0.61504429578781128 0.55079424381256104 0.0051104528829455376
0.7163657546043396 0.55578207969665527 0.0064859576523303986
0.80469626188278198 0.5557626485824585 0.0080154715105891228
0.88488340377807617 0.55712354183197021 0.008978615514934063
0.95532310009002686 0.55993729829788208 0.016382882371544838
0.99456578493118286 0.55951273441314697 0.022145887836813927
0.99999308586120605 0.5529751181602478 0.021910080686211586
0.062644913792610168 0.59388643503189087 0.0048691094852983952
0.14001032710075378 0.59772223234176636 0.0073696211911737919
0.22059060633182526 0.59520649909973145 0.005877132061868906
0.30241820216178894 0.59135699272155762 0.0065506133250892162
0.39066356420516968 0.59288144111633301 0.004298909567296505
0.48751422762870789 0.59950119256973267 0.0053328867070376873
0.58805841207504272 0.60836046934127808 0.0049975677393376827
0.68870878219604492 0.61787164211273193 0.0061529423110187054
0.78091752529144287 0.62274163961410522 0.0084786657243967056
0.86296188831329346 0.62683463096618652 0.0064940359443426132
0.93821364641189575 0.63239306211471558 0.0051058749668300152
0.98887079954147339 0.64098787307739258 0.010885440744459629
0.99965476989746094 0.65144956111907959 0.036541253328323364
0.13314259052276611 0.65634572505950928 0.0058837290853261948
0.19083823263645172 0.65894407033920288 0.0083157410845160484
0.25338569283485413 0.65794289112091064 0.0079383999109268188
0.32049170136451721 0.65361118316650391 0.0096333818510174751
0.39471116662025452 0.65009927749633789 0.0061858831904828548
0.47968783974647522 0.65412181615829468 0.0066000097431242466
0.57279294729232788 0.66377747058868408 0.0075440797954797745
0.66803824901580811 0.67371255159378052 0.0044918283820152283
0.76015263795852661 0.68147808313369751 0.0059835547581315041
0.84554034471511841 0.68935900926589966 0.004433605819940567
0.92347723245620728 0.69754207134246826 0.004347184207290411
0.98116528987884521 0.70627099275588989 0.0055522243492305279
0.99797779321670532 0.71616429090499878 0.0079708322882652283
0.21129556000232697 0.7221185564994812 0.0059466641396284103
0.24637359380722046 0.72247135639190674 0.0067689632996916771
0.29233410954475403 0.72081214189529419 0.0055328072048723698
0.35070478916168213 0.71667325496673584 0.0066707087680697441
0.41675043106079102 0.71339917182922363 0.0087304655462503433
0.4904819130897522 0.71490621566772461 0.0052155735902488232
0.57527130842208862 0.72184282541275024 0.0060628405772149563
0.66211748123168945 0.73039215803146362 0.0038324093911796808
0.75302803516387939 0.74021363258361816 0.0030951704829931259
0.83893412351608276 0.74940228462219238 0.0038313772529363632
0.91527163982391357 0.75876456499099731 0.0037857654970139265
0.97510808706283569 0.76594513654708862 0.0041348324157297611
0.99682587385177612 0.77439147233963013 0.0051518906839191914
0.28793662786483765 0.78758984804153442 0.0036925969179719687
0.31269332766532898 0.78827548027038574 0.0053150104358792305
0.34842079877853394 0.78693395853042603 0.0071748918853700161
0.39773109555244446 0.78246712684631348 0.0048163169994950294
0.45500615239143372 0.78128635883331299 0.0088902637362480164
0.52005761861801147 0.78111463785171509 0.0058449986390769482
0.59079396724700928 0.78366255760192871 0.0050325728952884674
0.67014902830123901 0.78998494148254395 0.005152339581400156
0.75419485569000244 0.80012315511703491 0.0035220128484070301
0.83931344747543335 0.80951344966888428 0.002534589497372508
0.9112895131111145 0.81821614503860474 0.0018304862314835191
0.96905964612960815 0.82567113637924194 0.0038972892798483372
0.99671405553817749 0.83516776561737061 0.0041609969921410084
0.38337606191635132 0.86247557401657104 0.010932907462120056
0.40257743000984192 0.86304914951324463 0.011455356143414974
0.43133687973022461 0.86168348789215088 0.0076607796363532543
0.47187459468841553 0.85975712537765503 0.0069963345304131508
0.51992624998092651 0.85841941833496094 0.006557718850672245
0.57962429523468018 0.85812598466873169 0.0050957472994923592
0.63913875818252563 0.85760241746902466 0.004237739834934473
0.70699119567871094 0.86208581924438477 0.0067200902849435806
0.77741515636444092 0.86809664964675903 0.0055585373193025589
0.84791189432144165 0.87439876794815063 0.002718816976994276
0.91292613744735718 0.88114792108535767 0.0028232799377292395
0.97175884246826172 0.8889310359954834 0.0026758082676678896
0.99727171659469604 0.89614325761795044 0.0017638561548665166
0.50048071146011353 0.9419206976890564 0.11697416007518768
0.51307135820388794 0.9413827657699585 0.11310142278671265
0.53317296504974365 0.94055044651031494 0.099421605467796326
0.56502491235733032 0.94065386056900024 0.085947535932064056
0.60533040761947632 0.93974965810775757 0.065827101469039917
0.65227866172790527 0.93772357702255249 0.043483134359121323
0.70469760894775391 0.93748658895492554 0.023576728999614716
0.7596360445022583 0.93775242567062378 0.016756618395447731
0.8185080885887146 0.94090360403060913 0.009072023443877697
0.8761667013168335 0.94147717952728271 0.0060439314693212509
0.9293704628944397 0.94539672136306763 0.001915411907248199
0.98174786567687988 0.95303744077682495 0.00075213861418887973
0.999644935131073 0.95520460605621338 0.00071077531902119517
0.027587426826357841 0.022344581782817841 0.15450587868690491
0.093799084424972534 0.015596098266541958 0.16519713401794434
0.19659550487995148 0.0063963648863136768 0.164632648229599
0.29699262976646423 0.0032167620956897736 0.14899161458015442
0.39653891324996948 0.0023090587928891182 0.13323357701301575
0.49185255169868469 0.0011200399603694677 0.12859055399894714
0.57982140779495239 0.00017511704936623573 0.12520207464694977
0.65338671207427979 0.00018564860511105508 0.11556592583656311
0.72276252508163452 0 0.10175400972366333
0.79165393114089966 0 0.083210229873657227
0.86127340793609619 0 0.063996918499469757
0.93166673183441162 0 0.048229455947875977
0.98635655641555786 0 0.029898310080170631
0.050601121038198471 0.07424461841583252 0.15584181249141693
0.1229497566819191 0.075416624546051025 0.16312278807163239
0.21721178293228149 0.069165095686912537 0.16579064726829529
0.31659397482872009 0.045221876353025436 0.15381664037704468
0.41469353437423706 0.017187753692269325 0.14008104801177979
0.50906175374984741 0.0047827628441154957 0.13434062898159027
0.5970757007598877 0.0021772198379039764 0.1306203156709671
0.67245316505432129 0.0035303451586514711 0.11975185573101044
0.73903650045394897 0.0012026767944917083 0.10624588280916214
0.80574989318847656 0 0.088139250874519348
0.87343293428421021 0 0.065900571644306183
0.94167011976242065 0 0.046800367534160614
0.99103379249572754 0 0.03262786939740181
0.06691596657037735 0.1699250191450119 0.15820522606372833
0.14444719254970551 0.17758630216121674 0.15962605178356171
0.2369726300239563 0.18030428886413574 0.16326834261417389
0.34367984533309937 0.17034624516963959 0.16006356477737427
0.44153189659118652 0.13174600899219513 0.15313518047332764
0.53590619564056396 0.081591598689556122 0.143655925989151
0.62187105417251587 0.042811747640371323 0.13193447887897491
0.69686132669448853 0.017018681392073631 0.11947251856327057
0.76286756992340088 0.0056295804679393768 0.10717921704053879
0.82818925380706787 0.0016571194864809513 0.091917522251605988
0.89413928985595703 0.00061983591876924038 0.069980815052986145
0.95892024040222168 0.00023875516490079463 0.045812405645847321
0.99718809127807617 0.00011324414663249627 0.02999400720000267
0.07856374979019165 0.28257569670677185 0.16119156777858734
0.15524616837501526 0.28555583953857422 0.15953509509563446
0.24572661519050598 0.28898489475250244 0.15281006693840027
0.35447788238525391 0.29276818037033081 0.15116888284683228
0.46482586860656738 0.28895241022109985 0.15360431373119354
0.56809145212173462 0.2720026969909668 0.15879437327384949
0.6537773609161377 0.23885351419448853 0.15115341544151306
0.72665685415267944 0.19332809746265411 0.13372506201267242
0.79167407751083374 0.13792650401592255 0.11524282395839691
0.85508507490158081 0.087109841406345367 0.09638417512178421
0.91761797666549683 0.051622368395328522 0.075268976390361786
0.97696614265441895 0.024337887763977051 0.051470424979925156
0.99913090467453003 0.01297290250658989 0.032118674367666245
0.085302539169788361 0.38845127820968628 0.15798196196556091
0.15882685780525208 0.3889610767364502 0.15583772957324982
0.24468652904033661 0.3880062997341156 0.1424696296453476
0.34359779953956604 0.39212185144424438 0.13079610466957092
0.45361492037773132 0.3982316255569458 0.12205113470554352
0.56580489873886108 0.40004846453666687 0.1260550320148468
0.66652745008468628 0.39272630214691162 0.13945543766021729
0.75090104341506958 0.37438797950744629 0.14639906585216522
0.81837695837020874 0.34131637215614319 0.13805386424064636
