luts/instant_pro/polaroid_669_++.cube
# Created by: G'MIC (https://gmic.eu)
TITLE "polaroid_669_++"
# LUT size
LUT_3D_SIZE 13
# Data domain
DOMAIN_MIN 0.0 0.0 0.0
DOMAIN_MAX 1.0 1.0 1.0
# LUT data points
0.2573581337928772 0.21389339864253998 0.12119811028242111
0.27331233024597168 0.21822062134742737 0.12523654103279114
0.28986468911170959 0.21708393096923828 0.12883560359477997
0.3154265284538269 0.21741843223571777 0.13448043167591095
0.34907183051109314 0.21937108039855957 0.14094564318656921
0.39334556460380554 0.22191330790519714 0.15028223395347595
0.44746282696723938 0.22531232237815857 0.16125090420246124
0.50960958003997803 0.2291499525308609 0.17323629558086395
0.57570403814315796 0.23256289958953857 0.18651688098907471
0.64400142431259155 0.23478850722312927 0.20207934081554413
0.71689140796661377 0.23778845369815826 0.21999125182628632
0.7927207350730896 0.24332435429096222 0.23904560506343842
0.86976653337478638 0.25412678718566895 0.26305392384529114
0.26530683040618896 0.23022738099098206 0.13124381005764008
0.27763214707374573 0.23027193546295166 0.13105104863643646
0.29837185144424438 0.23171503841876984 0.13638181984424591
0.32419100403785706 0.231883704662323 0.14248289167881012
0.35897034406661987 0.23284642398357391 0.14962476491928101
0.40344506502151489 0.23573939502239227 0.15903639793395996
0.45787957310676575 0.23994642496109009 0.16995006799697876
0.52334541082382202 0.2445596307516098 0.1839015930891037
0.58915907144546509 0.24743478000164032 0.19844023883342743
0.65292984247207642 0.24804551899433136 0.20980972051620483
0.72253245115280151 0.25278812646865845 0.22668780386447906
0.79960000514984131 0.26175189018249512 0.24802127480506897
0.87590539455413818 0.27267405390739441 0.27134820818901062
0.27427920699119568 0.25019139051437378 0.14469408988952637
0.28782007098197937 0.25209721922874451 0.14743195474147797
0.30608314275741577 0.2529575526714325 0.14936062693595886
0.33387193083763123 0.25392156839370728 0.15315385162830353
0.3713391125202179 0.2566780149936676 0.16032955050468445
0.41837415099143982 0.25988399982452393 0.17178440093994141
0.4755949079990387 0.2648283839225769 0.18522527813911438
0.53769904375076294 0.26732116937637329 0.19787870347499847
0.60239529609680176 0.27136337757110596 0.21142086386680603
0.6679919958114624 0.27490067481994629 0.22370760142803192
0.73724228143692017 0.28015682101249695 0.23915356397628784
0.8100661039352417 0.28564393520355225 0.2574370801448822
0.88424307107925415 0.29695206880569458 0.28078266978263855
0.2895260751247406 0.28356358408927917 0.16695895791053772
0.30117428302764893 0.28089460730552673 0.16635569930076599
0.31607505679130554 0.2799990177154541 0.16496287286281586
0.34540098905563354 0.28162357211112976 0.16643191874027252
0.38416627049446106 0.28521603345870972 0.17076067626476288
0.43884283304214478 0.29343155026435852 0.18688446283340454
0.50142472982406616 0.30160537362098694 0.20596224069595337
0.5628313422203064 0.30484211444854736 0.22051610052585602
0.61884796619415283 0.3053225576877594 0.23011142015457153
0.68397361040115356 0.30856361985206604 0.24104122817516327
0.75302261114120483 0.31443336606025696 0.25514209270477295
0.82358503341674805 0.32481247186660767 0.27547019720077515
0.8920404314994812 0.33929765224456787 0.29977485537528992
0.30670800805091858 0.32195943593978882 0.19053997099399567
0.3174738883972168 0.32022532820701599 0.18906371295452118
0.33123776316642761 0.31950303912162781 0.18761526048183441
0.35649725794792175 0.3195343017578125 0.1876971423625946
0.39643853902816772 0.32352641224861145 0.19119246304035187
0.44615980982780457 0.32999566197395325 0.19851365685462952
0.50732839107513428 0.33751872181892395 0.21412114799022675
0.57346606254577637 0.34644454717636108 0.23483341932296753
0.63915640115737915 0.35456937551498413 0.25336045026779175
0.70361357927322388 0.36125198006629944 0.26718795299530029
0.76826375722885132 0.3695378303527832 0.28217858076095581
0.83550119400024414 0.37742123007774353 0.30000191926956177
0.90065985918045044 0.39112743735313416 0.32279914617538452
0.32259756326675415 0.36187869310379028 0.21012426912784576
0.33405312895774841 0.36054360866546631 0.20998774468898773
0.34761509299278259 0.35979470610618591 0.20978374779224396
0.36673080921173096 0.35972136259078979 0.20907682180404663
0.40696340799331665 0.36343440413475037 0.21223677694797516
0.45219361782073975 0.36837098002433777 0.21371854841709137
0.50160837173461914 0.37331792712211609 0.21514871716499329
0.56468379497528076 0.38313749432563782 0.23305036127567291
0.63667774200439453 0.39613169431686401 0.25777193903923035
0.71185541152954102 0.4139302670955658 0.28531759977340698
0.78339570760726929 0.43072885274887085 0.31023323535919189
0.84622383117675781 0.44348618388175964 0.33054894208908081
0.90809625387191772 0.45894914865493774 0.35505324602127075
0.33679288625717163 0.40396004915237427 0.22904029488563538
0.34787440299987793 0.40310049057006836 0.22972309589385986
0.35998013615608215 0.4033905565738678 0.22978843748569489
0.37621518969535828 0.40204071998596191 0.22929272055625916
0.41135218739509583 0.40383395552635193 0.23020972311496735
0.45483261346817017 0.40993356704711914 0.230812668800354
0.50155293941497803 0.41620954871177673 0.22997614741325378
0.55566573143005371 0.42199409008026123 0.23356965184211731
0.62090516090393066 0.43395885825157166 0.24977080523967743
0.69720232486724854 0.4549412727355957 0.28001430630683899
0.77874952554702759 0.48454871773719788 0.31852632761001587
0.85306477546691895 0.5134616494178772 0.35991445183753967
0.91120719909667969 0.53898763656616211 0.39854499697685242
0.34734067320823669 0.45762735605239868 0.25032761693000793
0.35735443234443665 0.45396819710731506 0.2512696385383606
0.36896529793739319 0.4516330361366272 0.25169414281845093
0.38521209359169006 0.44750121235847473 0.24958270788192749
0.41187188029289246 0.44614401459693909 0.24917528033256531
0.4559384286403656 0.45471444725990295 0.24949771165847778
0.5006415843963623 0.46383318305015564 0.249381422996521
0.55071455240249634 0.47078850865364075 0.24862076342105865
0.61000192165374756 0.47835856676101685 0.25004738569259644
0.68058246374130249 0.49706128239631653 0.26846787333488464
0.76167023181915283 0.52887195348739624 0.30629116296768188
0.83815336227416992 0.56214886903762817 0.35228806734085083
0.90406668186187744 0.60006767511367798 0.41268005967140198
0.35626232624053955 0.51854699850082397 0.2743251621723175
0.36613520979881287 0.5145108699798584 0.2733767032623291
0.37655803561210632 0.50654429197311401 0.2706560492515564
0.39187824726104736 0.50011497735977173 0.26882043480873108
0.41531741619110107 0.49729877710342407 0.26860415935516357
0.45397341251373291 0.5065721869468689 0.26857346296310425
0.49830088019371033 0.51683014631271362 0.26864904165267944
0.54882752895355225 0.52922117710113525 0.26871731877326965
0.61065542697906494 0.5421755313873291 0.27014666795730591
0.67520296573638916 0.55438852310180664 0.27285090088844299
0.74571859836578369 0.57127964496612549 0.28856062889099121
0.8227953314781189 0.60503357648849487 0.33420491218566895
0.89458876848220825 0.64698159694671631 0.40049517154693604
0.36351090669631958 0.58441722393035889 0.29493197798728943
0.37279295921325684 0.58388227224349976 0.29498976469039917
0.38318026065826416 0.57828265428543091 0.29251182079315186
0.40123474597930908 0.57359951734542847 0.29284775257110596
0.42348548769950867 0.5688319206237793 0.2923944890499115
0.45572385191917419 0.57021468877792358 0.28939434885978699
0.50063121318817139 0.58088165521621704 0.28929078578948975
0.55083823204040527 0.59563791751861572 0.28981578350067139
0.61251819133758545 0.61291903257369995 0.29296594858169556
0.67672640085220337 0.62625187635421753 0.2946072518825531
0.74229180812835693 0.63602316379547119 0.29629117250442505
0.81161367893218994 0.65486836433410645 0.31522735953330994
0.88338303565979004 0.69312024116516113 0.37654802203178406
0.37455651164054871 0.66845047473907471 0.32535189390182495
0.38164600729942322 0.66747438907623291 0.32383841276168823
0.392618328332901 0.66217523813247681 0.32069355249404907
0.41311734914779663 0.6605181097984314 0.32181975245475769
0.43577724695205688 0.65369528532028198 0.31967031955718994
0.46407070755958557 0.6486782431602478 0.31534406542778015
0.50742131471633911 0.65825009346008301 0.31489136815071106
0.55851107835769653 0.67399889230728149 0.31790274381637573
0.61767667531967163 0.68983787298202515 0.32085332274436951
0.68101751804351807 0.7036588191986084 0.32301798462867737
0.74933540821075439 0.71912503242492676 0.33063769340515137
0.81310433149337769 0.72900712490081787 0.33289298415184021
0.87711530923843384 0.74870979785919189 0.35711517930030823
0.3951772153377533 0.76845359802246094 0.37025165557861328
0.40200865268707275 0.76681035757064819 0.36864802241325378
0.41439324617385864 0.76257610321044922 0.36553460359573364
0.43257319927215576 0.75900125503540039 0.36389029026031494
0.45824432373046875 0.75512611865997314 0.36303609609603882
0.48658406734466553 0.75151205062866211 0.35861921310424805
0.52908241748809814 0.75670808553695679 0.35993409156799316
0.58162707090377808 0.76970422267913818 0.36464184522628784
0.63976627588272095 0.78368371725082397 0.37060484290122986
0.70135760307312012 0.79715943336486816 0.37803933024406433
0.76474106311798096 0.8112640380859375 0.38645085692405701
0.8256218433380127 0.82273495197296143 0.39449042081832886
0.88364779949188232 0.83222174644470215 0.40539717674255371
0.46760031580924988 0.87757253646850586 0.46643504500389099
0.47233781218528748 0.87631744146347046 0.46438157558441162
0.48209157586097717 0.87474173307418823 0.46136474609375
0.49915939569473267 0.87225610017776489 0.46022194623947144
0.52316510677337646 0.87180858850479126 0.46025341749191284
0.55186676979064941 0.87001043558120728 0.45972919464111328
0.58912950754165649 0.87142139673233032 0.46061629056930542
0.63953155279159546 0.87852823734283447 0.4714314341545105
0.69354289770126343 0.88890749216079712 0.48166570067405701
0.75022834539413452 0.89733529090881348 0.49667027592658997
0.80621141195297241 0.90782326459884644 0.51211291551589966
0.86328417062759399 0.91728585958480835 0.53384131193161011
0.91715466976165771 0.92648255825042725 0.55573320388793945
0.2574637234210968 0.21722705662250519 0.14246390759944916
0.27195453643798828 0.21947340667247772 0.14739479124546051
0.28852748870849609 0.22014552354812622 0.15085236728191376
0.31569027900695801 0.22185036540031433 0.15720878541469574
0.35169446468353271 0.22390398383140564 0.16486470401287079
0.39765468239784241 0.22681678831577301 0.17514732480049133
0.45254966616630554 0.22980485856533051 0.18574362993240356
0.51701623201370239 0.23248772323131561 0.19877995550632477
0.57984066009521484 0.23419466614723206 0.21056212484836578
0.6451837420463562 0.23765328526496887 0.22503221035003662
0.7158699631690979 0.24142484366893768 0.24314366281032562
0.79123783111572266 0.24527318775653839 0.25997626781463623
0.86872708797454834 0.25342413783073425 0.28042113780975342
0.26614892482757568 0.23212949931621552 0.15270136296749115
0.27871885895729065 0.23374989628791809 0.15798676013946533
0.29843989014625549 0.23527856171131134 0.16174782812595367
0.32641589641571045 0.23743818700313568 0.16765636205673218
0.36380448937416077 0.2382221519947052 0.17779077589511871
0.40744122862815857 0.23940713703632355 0.18461661040782928
0.46059232950210571 0.24253854155540466 0.19376657903194427
0.52557176351547241 0.24680906534194946 0.20731049776077271
0.58911126852035522 0.24857150018215179 0.21835093200206757
0.65652990341186523 0.25259599089622498 0.23307608067989349
0.72696763277053833 0.25737094879150391 0.25055459141731262
0.79912066459655762 0.2611941397190094 0.26703724265098572
0.87465208768844604 0.27125832438468933 0.2884746789932251
0.27668470144271851 0.25365611910820007 0.16695208847522736
0.28957036137580872 0.25530371069908142 0.1730903834104538
0.30895310640335083 0.255837082862854 0.1746034175157547
0.33718591928482056 0.2578425407409668 0.17641593515872955
0.37577313184738159 0.25939851999282837 0.18752318620681763
0.42428633570671082 0.26448836922645569 0.2007649838924408
0.48094815015792847 0.27182084321975708 0.21337386965751648
0.5403672456741333 0.27268525958061218 0.22582870721817017
0.60378974676132202 0.27472588419914246 0.23646797239780426
0.67160683870315552 0.27810850739479065 0.24607656896114349
0.74112308025360107 0.28265541791915894 0.26030075550079346
0.811717689037323 0.28730198740959167 0.27729353308677673
0.88273626565933228 0.29792222380638123 0.29827803373336792
0.29121977090835571 0.28494682908058167 0.18756607174873352
0.30292993783950806 0.2855437695980072 0.19225169718265533
0.3220314085483551 0.2857130765914917 0.1926436722278595
0.34805220365524292 0.28530046343803406 0.18947979807853699
0.38942590355873108 0.29007765650749207 0.19760279357433319
0.44301244616508484 0.29842635989189148 0.21511882543563843
0.50515478849411011 0.30702453851699829 0.23373201489448547
0.56305104494094849 0.3087925910949707 0.247435063123703
0.61966150999069214 0.30878022313117981 0.25815317034721375
0.68651342391967773 0.31179669499397278 0.2656644880771637
0.75483137369155884 0.31706687808036804 0.27566641569137573
0.82454574108123779 0.32495561242103577 0.29386532306671143
0.8922387957572937 0.33874186873435974 0.31501266360282898
0.30773428082466125 0.32506528496742249 0.21117314696311951
0.32010561227798462 0.3260752260684967 0.21315586566925049
0.3353894054889679 0.32536047697067261 0.21346303820610046
0.35971146821975708 0.32453036308288574 0.21207365393638611
0.40054619312286377 0.32821020483970642 0.21453943848609924
0.45085293054580688 0.33442729711532593 0.22156965732574463
0.51300591230392456 0.34275165200233459 0.24067950248718262
0.57858622074127197 0.35214534401893616 0.26381999254226685
0.64054131507873535 0.35883381962776184 0.28220656514167786
0.70546889305114746 0.36505842208862305 0.29338029026985168
0.76956576108932495 0.37299653887748718 0.30516928434371948
0.83644938468933105 0.38118904829025269 0.32067874073982239
0.90131080150604248 0.39449110627174377 0.34034913778305054
0.3250393271446228 0.37080174684524536 0.23498338460922241
0.33708944916725159 0.36969438195228577 0.23569263517856598
0.3504786491394043 0.36663651466369629 0.23460587859153748
0.37037685513496399 0.3646697998046875 0.23381789028644562
0.41050803661346436 0.36856678128242493 0.23530489206314087
0.45545211434364319 0.37321379780769348 0.23516692221164703
0.50708228349685669 0.37948274612426758 0.24080206453800201
0.57146447896957397 0.38972178101539612 0.26046884059906006
0.64372426271438599 0.40368276834487915 0.28835952281951904
0.71642518043518066 0.42045047879219055 0.31459340453147888
0.78360658884048462 0.43458804488182068 0.33490428328514099
0.84782344102859497 0.44843301177024841 0.35255336761474609
0.90982025861740112 0.4622618556022644 0.37237918376922607
0.33913478255271912 0.41491237282752991 0.25484278798103333
0.34999722242355347 0.4134240448474884 0.25515663623809814
0.36216604709625244 0.41105771064758301 0.25379210710525513
0.37977045774459839 0.40850734710693359 0.2523576021194458
0.4146830141544342 0.40990966558456421 0.25271326303482056
0.45851781964302063 0.41477209329605103 0.25261259078979492
0.50755244493484497 0.42054161429405212 0.2525695264339447
0.56060916185379028 0.42733019590377808 0.25415357947349548
0.62855666875839233 0.44161084294319153 0.27568233013153076
0.70468413829803467 0.4630979597568512 0.30745464563369751
0.7828947901725769 0.48945653438568115 0.34344974160194397
0.85804027318954468 0.5177454948425293 0.38098898530006409
0.91407632827758789 0.54154455661773682 0.41574493050575256
0.34984698891639709 0.46517843008041382 0.27344235777854919
0.3597838282585144 0.46248731017112732 0.27334979176521301
0.37126606702804565 0.45849716663360596 0.27074041962623596
0.38852289319038391 0.45429623126983643 0.2693324089050293
0.41621202230453491 0.45256936550140381 0.2687925398349762
0.46016398072242737 0.46041175723075867 0.26968869566917419
0.50710415840148926 0.46954250335693359 0.26975372433662415
0.55719149112701416 0.47755402326583862 0.26809307932853699
0.61536252498626709 0.48589321970939636 0.27052658796310425
0.68632930517196655 0.50474447011947632 0.29143598675727844
0.7668570876121521 0.53361546993255615 0.32817769050598145
0.84254324436187744 0.56697624921798706 0.37342751026153564
0.90867060422897339 0.60586059093475342 0.43340933322906494
0.35821101069450378 0.52245354652404785 0.29079532623291016
0.36786165833473206 0.52192968130111694 0.29170525074005127
0.37862902879714966 0.51737064123153687 0.28916135430335999
0.39581203460693359 0.5110323429107666 0.28823614120483398
0.41912713646888733 0.50790989398956299 0.28833839297294617
0.45688840746879578 0.51396811008453369 0.28769183158874512
0.50200444459915161 0.52525454759597778 0.28782552480697632
0.55302160978317261 0.53526276350021362 0.28741282224655151
0.61333668231964111 0.54628491401672363 0.28748628497123718
0.67792552709579468 0.55896306037902832 0.29082423448562622
0.75018864870071411 0.57591980695724487 0.30700069665908813
0.82579708099365234 0.61037945747375488 0.35378456115722656
0.89705449342727661 0.65200817584991455 0.41907516121864319
0.36519080400466919 0.59428095817565918 0.31240120530128479
0.37355893850326538 0.5922619104385376 0.31062200665473938
0.38374179601669312 0.58630168437957764 0.30716186761856079
0.4032839834690094 0.58298796415328979 0.30956834554672241
0.42636981606483459 0.5790291428565979 0.31056365370750427
0.45792731642723083 0.57717782258987427 0.30660179257392883
0.502227783203125 0.58748745918273926 0.30634215474128723
0.55302029848098755 0.60270237922668457 0.30707582831382751
0.61405050754547119 0.61749303340911865 0.30958265066146851
0.67769724130630493 0.62997126579284668 0.31042218208312988
0.74461150169372559 0.63996356725692749 0.31044107675552368
0.81264024972915649 0.65937429666519165 0.33146139979362488
0.88521295785903931 0.69812464714050293 0.3937440812587738
0.37490054965019226 0.67792999744415283 0.34165039658546448
0.3813193142414093 0.67572569847106934 0.33792358636856079
0.39580053091049194 0.67064058780670166 0.33741742372512817
0.41516014933586121 0.66701215505599976 0.33770176768302917
0.43758758902549744 0.66163402795791626 0.33552905917167664
0.46618467569351196 0.65489965677261353 0.33058968186378479
0.51066964864730835 0.66462910175323486 0.33158707618713379
0.56042653322219849 0.67884176969528198 0.33238902688026428
0.61903756856918335 0.69324535131454468 0.33417254686355591
0.68208348751068115 0.7072632908821106 0.33548620343208313
0.74950641393661499 0.72228866815567017 0.33982875943183899
0.81333941221237183 0.73203414678573608 0.34705755114555359
0.8782881498336792 0.75119692087173462 0.37217819690704346
0.39762392640113831 0.77332192659378052 0.386015385389328
0.40327358245849609 0.772419273853302 0.38293930888175964
0.41651412844657898 0.76943278312683105 0.38148605823516846
0.43499621748924255 0.76544958353042603 0.37868389487266541
0.45826944708824158 0.76054471731185913 0.37547889351844788
0.48828533291816711 0.75607025623321533 0.37283289432525635
0.53141933679580688 0.76137262582778931 0.37530869245529175
0.58414620161056519 0.77256017923355103 0.37865039706230164
0.64192742109298706 0.78588747978210449 0.38371473550796509
0.7020794153213501 0.79906338453292847 0.39103424549102783
0.7654607892036438 0.81416010856628418 0.3984183669090271
0.82627373933792114 0.8256334662437439 0.40798121690750122
0.88344156742095947 0.83434206247329712 0.41857713460922241
0.46996879577636719 0.87863278388977051 0.47950032353401184
0.47642061114311218 0.87883692979812622 0.47896799445152283
0.48548620939254761 0.87851166725158691 0.47568723559379578
0.50126653909683228 0.87585711479187012 0.4721924364566803
0.52636396884918213 0.87390226125717163 0.47264337539672852
0.55416297912597656 0.87299013137817383 0.47099503874778748
0.59013819694519043 0.87391620874404907 0.47162285447120667
0.64037835597991943 0.87960600852966309 0.48142659664154053
0.69322025775909424 0.89017540216445923 0.48988372087478638
0.74957805871963501 0.89930146932601929 0.50598913431167603
0.80493324995040894 0.90909880399703979 0.51875829696655273
0.86234802007675171 0.91821408271789551 0.54081159830093384
0.91719776391983032 0.92716240882873535 0.56091392040252686
0.25599217414855957 0.22046969830989838 0.16971248388290405
0.26962864398956299 0.22207669913768768 0.1758926659822464
0.28746429085731506 0.22310219705104828 0.17956638336181641
0.31612572073936462 0.22615450620651245 0.18819142878055573
0.35521149635314941 0.22956074774265289 0.20073722302913666
0.40370938181877136 0.23294916749000549 0.21239103376865387
0.45822173357009888 0.2344556450843811 0.2197810560464859
0.52225971221923828 0.23534208536148071 0.23282408714294434
0.58527266979217529 0.23662553727626801 0.24571715295314789
0.65101665258407593 0.2397162914276123 0.25801482796669006
0.72051715850830078 0.24357597529888153 0.27341130375862122
0.79499244689941406 0.24654485285282135 0.29058659076690674
0.87047779560089111 0.25416934490203857 0.31157213449478149
0.26654928922653198 0.23610395193099976 0.18236017227172852
0.27772408723831177 0.23575325310230255 0.18695694208145142
0.29815363883972168 0.23796917498111725 0.19234813749790192
0.32916346192359924 0.24224184453487396 0.20141682028770447
0.36672008037567139 0.2422793060541153 0.21113008260726929
0.41276636719703674 0.24441148340702057 0.22146600484848022
0.46861255168914795 0.24749357998371124 0.23254361748695374
0.52998071908950806 0.24915134906768799 0.24197657406330109
0.59486156702041626 0.25118532776832581 0.25445249676704407
0.66423326730728149 0.25546917319297791 0.26959800720214844
0.73423701524734497 0.25925269722938538 0.28436392545700073
0.80343127250671387 0.26097476482391357 0.29637867212295532
0.87618541717529297 0.27090972661972046 0.31654489040374756
0.27779743075370789 0.25865432620048523 0.19924277067184448
0.28936761617660522 0.25900167226791382 0.2045661062002182
0.31068286299705505 0.26013892889022827 0.20746910572052002
0.34089738130569458 0.26301971077919006 0.21510910987854004
0.37955895066261292 0.26378735899925232 0.2246488481760025
0.42837908864021301 0.26799401640892029 0.23573647439479828
0.48560985922813416 0.27460169792175293 0.24937251210212708
0.54326003789901733 0.2758212685585022 0.25941035151481628
0.60699498653411865 0.27770721912384033 0.27049344778060913
0.67696326971054077 0.28085535764694214 0.28305256366729736
0.74727612733840942 0.28433623909950256 0.29640993475914001
0.81520074605941772 0.28926414251327515 0.31111910939216614
0.88478845357894897 0.30139511823654175 0.33044841885566711
0.29151514172554016 0.28981244564056396 0.21845830976963043
0.30324772000312805 0.29065516591072083 0.22535434365272522
0.3259105384349823 0.29177981615066528 0.22885070741176605
0.35455426573753357 0.29445746541023254 0.23605009913444519
0.39534974098205566 0.29908603429794312 0.24409818649291992
0.44774878025054932 0.30571141839027405 0.25448140501976013
0.50843065977096558 0.31177783012390137 0.26969766616821289
0.56360316276550293 0.31180968880653381 0.27953830361366272
0.62123918533325195 0.31215113401412964 0.28900906443595886
0.68849354982376099 0.31670776009559631 0.30118650197982788
0.75761520862579346 0.32166740298271179 0.31292140483856201
0.82535505294799805 0.32732751965522766 0.32692280411720276
0.89442884922027588 0.34263983368873596 0.34667140245437622
0.30878996849060059 0.33524578809738159 0.24355803430080414
0.32150402665138245 0.33550098538398743 0.24901570379734039
0.33887296915054321 0.33341044187545776 0.25085979700088501
0.36612984538078308 0.33450496196746826 0.2564888596534729
0.40674322843551636 0.33859139680862427 0.26014319062232971
0.45755517482757568 0.34332621097564697 0.26328825950622559
0.5198061466217041 0.35114651918411255 0.28014293313026428
0.58339565992355347 0.35908395051956177 0.29970479011535645
0.64402288198471069 0.36449307203292847 0.3145098090171814
