luts/instant_pro/polaroid_669_cold_+.cube
# Created by: G'MIC (https://gmic.eu)
TITLE "polaroid_669_cold_+"
# LUT size
LUT_3D_SIZE 5
# Data domain
DOMAIN_MIN 0.0 0.0 0.0
DOMAIN_MAX 1.0 1.0 1.0
# LUT data points
0.0030339858494699001 0.25004088878631592 0.31042718887329102
0.0048707551322877407 0.24011479318141937 0.30260202288627625
0.25626698136329651 0.23825730383396149 0.31229996681213379
0.56156772375106812 0.23349693417549133 0.33779042959213257
0.83035421371459961 0.23537035286426544 0.38291645050048828
0.0027041565626859665 0.27200773358345032 0.31330019235610962
0.064439244568347931 0.27738216519355774 0.31560531258583069
0.35240167379379272 0.29225888848304749 0.33502465486526489
0.62198591232299805 0.30909878015518188 0.36634576320648193
0.85377234220504761 0.32684153318405151 0.40213784575462341
0.060808546841144562 0.39194110035896301 0.35336160659790039
0.18326203525066376 0.38479438424110413 0.35357162356376648
0.39674463868141174 0.40353932976722717 0.35991472005844116
0.65366154909133911 0.45748534798622131 0.39314621686935425
0.86519324779510498 0.55568492412567139 0.4793238639831543
0.18987874686717987 0.59914231300354004 0.39976531267166138
0.26428636908531189 0.58349442481994629 0.39821341633796692
0.41946873068809509 0.59957945346832275 0.39794129133224487
0.62821805477142334 0.65158677101135254 0.40409198403358459
0.82176989316940308 0.73356205224990845 0.47344294190406799
0.36979022622108459 0.90856492519378662 0.53454041481018066
0.40728530287742615 0.9057803750038147 0.52874356508255005
0.50777369737625122 0.90579420328140259 0.52934437990188599
0.66478687524795532 0.92899316549301147 0.56490510702133179
0.81261759996414185 0.95212972164154053 0.61641967296600342
0.00027192060952074826 0.2423563152551651 0.33111965656280518
0.0060507231391966343 0.24262751638889313 0.34520882368087769
0.29303553700447083 0.24211022257804871 0.37273126840591431
0.59266954660415649 0.22802706062793732 0.40307432413101196
0.83619755506515503 0.22419987618923187 0.43064132332801819
0.00091228110250085592 0.28746157884597778 0.3687833845615387
0.095171131193637848 0.29204627871513367 0.38500431180000305
0.38419374823570251 0.29956433176994324 0.40878373384475708
0.6359979510307312 0.30506232380867004 0.43285834789276123
0.85658395290374756 0.33039397001266479 0.46336495876312256
0.092706240713596344 0.43843498826026917 0.42800125479698181
0.22722846269607544 0.42957606911659241 0.42883992195129395
0.43724998831748962 0.43865147233009338 0.43287059664726257
0.68328112363815308 0.48838308453559875 0.4710044264793396
0.85697221755981445 0.56971567869186401 0.53847843408584595
0.20638616383075714 0.64545601606369019 0.46100574731826782
0.28945934772491455 0.64070147275924683 0.46213692426681519
0.43450081348419189 0.6296008825302124 0.45532950758934021
0.64090478420257568 0.67466956377029419 0.46082624793052673
0.81726688146591187 0.75325053930282593 0.53337830305099487
0.3913998007774353 0.91830229759216309 0.57729613780975342
0.42450159788131714 0.91086971759796143 0.57360261678695679
0.5149388313293457 0.91140294075012207 0.56991630792617798
0.66443854570388794 0.9303056001663208 0.59594643115997314
0.81114119291305542 0.95323914289474487 0.64111566543579102
0 0.25958564877510071 0.47861123085021973
0.0042117401026189327 0.25707358121871948 0.49174931645393372
0.36468243598937988 0.26943737268447876 0.54054182767868042
0.65653473138809204 0.28847894072532654 0.58354169130325317
0.86915653944015503 0.32986554503440857 0.60837912559509277
9.9630917247850448e-05 0.33379000425338745 0.518196702003479
0.05577399954199791 0.32359379529953003 0.54209524393081665
0.45024493336677551 0.35001394152641296 0.58207798004150391
0.68651849031448364 0.37851119041442871 0.60582178831100464
0.86645025014877319 0.39183869957923889 0.60723483562469482
0.048532061278820038 0.5039781928062439 0.58648169040679932
0.26838588714599609 0.5067475438117981 0.59129464626312256
0.50844252109527588 0.52890598773956299 0.61636531352996826
0.7047237753868103 0.54116731882095337 0.62646591663360596
0.85591286420822144 0.57546287775039673 0.6353033185005188
0.23322722315788269 0.74017810821533203 0.6043885350227356
0.33575683832168579 0.73722118139266968 0.6098029613494873
0.48518234491348267 0.71457594633102417 0.60321784019470215
0.66131210327148438 0.73287224769592285 0.60781145095825195
0.81257724761962891 0.80927246809005737 0.66595339775085449
0.44787412881851196 0.93806964159011841 0.67338663339614868
0.47568213939666748 0.93810415267944336 0.67012530565261841
0.54512119293212891 0.92990791797637939 0.66273623704910278
0.66439378261566162 0.93764865398406982 0.66582256555557251
0.81026452779769897 0.95575791597366333 0.69642442464828491
0 0.31871917843818665 0.69385570287704468
0.0018081365851685405 0.30623745918273926 0.7168351411819458
0.42407885193824768 0.32865339517593384 0.7494347095489502
0.7333182692527771 0.42290374636650085 0.76713299751281738
0.85832935571670532 0.57013934850692749 0.77813470363616943
0.00014581119467038661 0.40676620602607727 0.72362774610519409
0.025190854445099831 0.38841935992240906 0.73715603351593018
0.48992052674293518 0.43029743432998657 0.7567017674446106
0.73429781198501587 0.539306640625 0.77090251445770264
0.84497767686843872 0.65622854232788086 0.78299134969711304
0.0078245429322123528 0.58253961801528931 0.72596108913421631
0.25924211740493774 0.58505010604858398 0.73136240243911743
0.52244627475738525 0.61088961362838745 0.75855529308319092
0.7236180305480957 0.71456295251846313 0.77688151597976685
0.82253003120422363 0.77283656597137451 0.78279227018356323
0.34040024876594543 0.81208401918411255 0.75156480073928833
0.41780784726142883 0.81505835056304932 0.75271588563919067
0.5616874098777771 0.81999945640563965 0.7601131796836853
0.69925153255462646 0.8469998836517334 0.76769095659255981
0.81211066246032715 0.85228437185287476 0.77558153867721558
0.55714565515518188 0.95783382654190063 0.77211576700210571
0.57854419946670532 0.96256977319717407 0.77331763505935669
0.6242523193359375 0.96098309755325317 0.7716943621635437
0.6933671236038208 0.95388913154602051 0.76240336894989014
0.81557303667068481 0.96445959806442261 0.77455145120620728
0.11391589790582657 0.48139864206314087 0.86288052797317505
0.24354997277259827 0.47187015414237976 0.86415618658065796
0.56462216377258301 0.55123233795166016 0.8602452278137207
0.75384640693664551 0.70154547691345215 0.85092955827713013
0.84363996982574463 0.8031238317489624 0.84336405992507935
0.31067624688148499 0.59251445531845093 0.85616505146026611
0.40141147375106812 0.58923405408859253 0.85533303022384644
0.59059536457061768 0.63717269897460938 0.85500973463058472
0.75379067659378052 0.76222997903823853 0.8482975959777832
0.83268475532531738 0.84045106172561646 0.84247845411300659
0.41365236043930054 0.75988280773162842 0.83911281824111938
0.48299956321716309 0.75661766529083252 0.8394542932510376
0.60444104671478271 0.76310449838638306 0.84338486194610596
0.73161220550537109 0.8348773717880249 0.84047436714172363
0.82594740390777588 0.89184057712554932 0.84127479791641235
0.44619151949882507 0.89594018459320068 0.82904219627380371
0.48757848143577576 0.88935202360153198 0.82782554626464844
0.58087539672851562 0.88776522874832153 0.82998836040496826
0.72416752576828003 0.91256999969482422 0.83455103635787964
0.82805448770523071 0.94785827398300171 0.84260326623916626
0.66018307209014893 0.98533499240875244 0.83754342794418335
0.67290854454040527 0.98369979858398438 0.83718949556350708
0.71549373865127563 0.98287779092788696 0.83876043558120728
0.77538621425628662 0.97935396432876587 0.83879095315933228
0.85014206171035767 0.98262941837310791 0.84719270467758179
