luts/instant_pro/polaroid_690_--.cube
# Created by: G'MIC (https://gmic.eu)
TITLE "polaroid_690_--"
# LUT size
LUT_3D_SIZE 13
# Data domain
DOMAIN_MIN 0.0 0.0 0.0
DOMAIN_MAX 1.0 1.0 1.0
# LUT data points
0.016272749751806259 0.016745712608098984 0.013736425898969173
0.051176391541957855 0.017462382093071938 0.013176173903048038
0.10875238478183746 0.011441024951636791 0.0132788410410285
0.19400139153003693 0.004645882174372673 0.012111798860132694
0.28981927037239075 0.002545779338106513 0.01278234738856554
0.39578580856323242 0.0024850582703948021 0.015212593600153923
0.49957329034805298 0.0018049053614959121 0.017085416242480278
0.59789031744003296 0.0006212571170181036 0.013877000659704208
0.69041508436203003 0.00031738280085846782 0.0090582752600312233
0.78041386604309082 0.00058755313511937857 0.0035535774659365416
0.86655205488204956 0.00020590389613062143 0
0.94873934984207153 0 5.6008731917245314e-05
0.99372357130050659 0 0
0.01475785207003355 0.05238674208521843 0.013214291073381901
0.047915052622556686 0.055667832493782043 0.013456576503813267
0.11840479075908661 0.048210743814706802 0.012809664011001587
0.21104161441326141 0.028998207300901413 0.011113708838820457
0.31445616483688354 0.011446425691246986 0.010013042017817497
0.42244189977645874 0.0060637528076767921 0.011615903116762638
0.53002583980560303 0.0053618187084794044 0.012617971748113632
0.62908536195755005 0.003981362096965313 0.0085412720218300819
0.72066974639892578 0.0038867427501827478 0.0049485447816550732
0.80611073970794678 0.0039092567749321461 0.0013916015159338713
0.88472855091094971 0.0020925034768879414 0.00017035989731084555
0.95687234401702881 0 0.0002893784549087286
0.99291080236434937 0 0
0.0077322116121649742 0.1227157860994339 0.0091207167133688927
0.03259652853012085 0.12648721039295197 0.0075358371250331402
0.11262814700603485 0.13066519796848297 0.0085267461836338043
0.2203340083360672 0.12285087257623672 0.0050723953172564507
0.33696046471595764 0.093335442245006561 0.0037760566920042038
0.45747527480125427 0.064031131565570831 0.0057660122402012348
0.56674396991729736 0.02747446671128273 0.004295737948268652
0.66482913494110107 0.0076400157995522022 0.0020567651372402906
0.75281870365142822 0.0048787137493491173 0.00094751094002276659
0.83242005109786987 0.0049788979813456535 3.2312730127159739e-06
0.90394806861877441 0.0024478686973452568 0
0.96723043918609619 0.00084235996473580599 0
0.99443376064300537 0.003077084431424737 0
0.0044727548956871033 0.2188442200422287 0.0080868592485785484
0.011629321612417698 0.21914932131767273 0.0043899235315620899
0.076415792107582092 0.22751659154891968 0.0034719877876341343
0.21015694737434387 0.2343112975358963 0.00092327641323208809
0.34925651550292969 0.23637250065803528 0.00096840952755883336
0.48083806037902832 0.22597910463809967 0.0012239792849868536
0.60252779722213745 0.19784985482692719 7.9659854236524552e-05
0.70386761426925659 0.15213215351104736 0
0.78654301166534424 0.10101029276847839 0
0.85948705673217773 0.060187455266714096 0
0.92648237943649292 0.038073297590017319 0
0.98136746883392334 0.023005181923508644 0
0.99879729747772217 0.019382776692509651 0
0.0033918193075805902 0.32086467742919922 0.0084175411611795425
0.0074218153022229671 0.32362928986549377 0.0056161168031394482
0.031172703951597214 0.32607972621917725 0.0013520035427063704
0.17328105866909027 0.33973562717437744 0.00020187976770102978
0.33310434222221375 0.3547954261302948 0.0012889038771390915
0.47424551844596863 0.35692527890205383 0.001349086407572031
0.6009223461151123 0.34769734740257263 0.00048844580305740237
0.72062414884567261 0.34235572814941406 0.00029358209576457739
0.81410449743270874 0.32603886723518372 0.00096802058396860957
0.88290750980377197 0.29463016986846924 0.00014069501776248217
0.94446289539337158 0.26248389482498169 0
0.98881471157073975 0.24016447365283966 0
0.99937236309051514 0.23609821498394012 0
0.00030773386242799461 0.42023703455924988 0.010350874625146389
0.0046081393957138062 0.42338147759437561 0.0063968733884394169
0.012174853123724461 0.42251908779144287 0.0015762478578835726
0.12913475930690765 0.42899218201637268 3.2312731491401792e-05
0.29928162693977356 0.44429507851600647 0.0012280034134164453
0.44806036353111267 0.45667055249214172 0.0015318627702072263
0.58070647716522217 0.46134510636329651 0.0015240837819874287
0.70092839002609253 0.46085062623023987 0.0017942092381417751
0.80571669340133667 0.46464532613754272 0.0020888384897261858
0.88828063011169434 0.46423393487930298 0.00058538396842777729
0.95298409461975098 0.4525248110294342 0.00042580996523611248
0.98904323577880859 0.44229814410209656 0.00023094625794328749
0.99786990880966187 0.43781569600105286 4.7751032980158925e-05
0.00014935662329662591 0.51574259996414185 0.011736701242625713
0.0031796174589544535 0.51517730951309204 0.0076313992030918598
0.0070441002026200294 0.51088154315948486 0.0027372622862458229
0.080943100154399872 0.51104974746704102 3.0697094189235941e-05
0.26382279396057129 0.52218830585479736 0.0012696807971224189
0.41004428267478943 0.53527981042861938 0.0013231913326308131
0.55101847648620605 0.54895162582397461 0.0012000887654721737
0.67572814226150513 0.55878126621246338 0.0027363796252757311
0.78287774324417114 0.5640333890914917 0.0029239729046821594
0.8723829984664917 0.5699349045753479 0.0020221336744725704
0.94463574886322021 0.57730722427368164 0.0028414707630872726
0.98989355564117432 0.58080148696899414 0.0021494997199624777
0.99812060594558716 0.57703065872192383 0.0012409285409376025
0.0037042356561869383 0.59795451164245605 0.0098546948283910751
0.0034568787086755037 0.5972442626953125 0.0067833694629371166
0.0064287222921848297 0.59108525514602661 0.0032681783195585012
0.063979268074035645 0.58959805965423584 0
0.24340209364891052 0.59477514028549194 6.6241096646990627e-05
0.38469663262367249 0.60499173402786255 0.00064739154186099768
0.52646684646606445 0.61780518293380737 0.001317880698479712
0.64634048938751221 0.62585645914077759 0.0040899240411818027
0.75486057996749878 0.63490521907806396 0.0047171800397336483
0.85081225633621216 0.64492017030715942 0.0030407027807086706
0.92474663257598877 0.65326559543609619 0.0031737980898469687
0.98601824045181274 0.66333889961242676 0.0028291440103203058
0.99957466125488281 0.67042535543441772 0.0038228502962738276
0.0076516545377671719 0.66850817203521729 0.0064344964921474457
0.0077422796748578548 0.66997390985488892 0.0045048734173178673
0.0072783227078616619 0.66831225156784058 0.0021985671482980251
0.08627212792634964 0.6661827564239502 0
0.25537431240081787 0.66625493764877319 0.00091103947488591075
0.38990950584411621 0.67287999391555786 0.0018089893274009228
0.51772725582122803 0.68243652582168579 0.0031046699732542038
0.62703776359558105 0.69098031520843506 0.0050393948331475258
0.73508745431900024 0.70082652568817139 0.0051862681284546852
0.83457118272781372 0.71113628149032593 0.0025863947812467813
0.90822970867156982 0.71830779314041138 0.0023463231045752764
0.97434908151626587 0.7246817946434021 0.0031196295749396086
0.99881380796432495 0.73013335466384888 0.0047709597274661064
0.0062888353131711483 0.739082932472229 0.0025668125599622726
0.01402867678552866 0.73987245559692383 0.001478920690715313
0.053213365375995636 0.73972219228744507 9.5606788818258792e-05
0.18306900560855865 0.73688578605651855 0.00026155359228141606
0.31020453572273254 0.73341798782348633 0.0012198803015053272
0.42579367756843567 0.73428398370742798 0.0022121353540569544
0.54267263412475586 0.73946475982666016 0.0036068037152290344
0.64490032196044922 0.75032567977905273 0.0053464700467884541
0.74454832077026367 0.76275616884231567 0.0052738864906132221
0.83189195394515991 0.77252191305160522 0.0034993488807231188
0.90139269828796387 0.77803987264633179 0.0031364739406853914
0.96837359666824341 0.78401142358779907 0.0024890676140785217
0.99741429090499878 0.78712636232376099 0.0021781022660434246
0.11696437746286392 0.80689644813537598 0
0.16682136058807373 0.80590051412582397 0
0.22846637666225433 0.80381196737289429 0.00036103490856476128
0.30928248167037964 0.80232197046279907 0.0033293780870735645
0.39464780688285828 0.79914146661758423 0.0034683228004723787
0.48597386479377747 0.79700595140457153 0.0030602398328483105
0.57924306392669678 0.79946750402450562 0.0030966964550316334
0.67222213745117188 0.81042414903640747 0.0061345268040895462
0.76256239414215088 0.82389628887176514 0.0080432072281837463
0.83942663669586182 0.83252519369125366 0.0061324024572968483
0.90534698963165283 0.83671164512634277 0.0047407262027263641
0.96430033445358276 0.8416321873664856 0.0038784551434218884
0.99390518665313721 0.8438112735748291 0.0021378460805863142
0.32868102192878723 0.87304306030273438 0.0034731547348201275
0.35206672549247742 0.87186276912689209 0.003690442768856883
0.38608777523040771 0.87046134471893311 0.0039944369345903397
0.43294656276702881 0.8695065975189209 0.0047187656164169312
0.4964287281036377 0.86809462308883667 0.0058873794041574001
0.56462067365646362 0.86551177501678467 0.0062273512594401836
0.63141769170761108 0.86588132381439209 0.0066552106291055679
0.70834386348724365 0.87552207708358765 0.0096825696527957916
0.78351068496704102 0.88597565889358521 0.01098079327493906
0.85066145658493042 0.89240181446075439 0.0070951874367892742
0.90903794765472412 0.89589768648147583 0.005720086395740509
0.96246170997619629 0.90002667903900146 0.0041628521867096424
0.99348616600036621 0.90246540307998657 0.0017710666870698333
0.4775661826133728 0.9417417049407959 0.06206309050321579
0.49159306287765503 0.94072133302688599 0.058583099395036697
0.51517295837402344 0.94024699926376343 0.052325170487165451
0.54884380102157593 0.93929606676101685 0.041924688965082169
0.59099501371383667 0.93901807069778442 0.032418403774499893
0.63896328210830688 0.93784338235855103 0.019136212766170502
0.68819725513458252 0.93652635812759399 0.012934965081512928
0.74713367223739624 0.94008791446685791 0.0091121448203921318
0.80315136909484863 0.94389969110488892 0.0083252852782607079
0.86040931940078735 0.94785892963409424 0.0038449305575340986
0.91244655847549438 0.94978052377700806 0.0041895098984241486
0.96355003118515015 0.95659953355789185 0.0027016284875571728
0.99471908807754517 0.95995044708251953 8.1858917837962508e-05
0.016877014189958572 0.017356587573885918 0.046994198113679886
0.050454787909984589 0.01786225289106369 0.045946981757879257
0.10745325684547424 0.014487322419881821 0.045965544879436493
0.19140149652957916 0.005367279052734375 0.047322068363428116
0.28828376531600952 0.0031528847757726908 0.050132032483816147
0.39141908288002014 0.0026881347876042128 0.045373491942882538
0.49237647652626038 0.00076817529043182731 0.033215660601854324
0.58879083395004272 1.9926183085772209e-05 0.026072319597005844
0.68187153339385986 0 0.02011636458337307
0.77363336086273193 1.220703143189894e-05 0.010669049806892872
0.85965806245803833 2.5132123482762836e-05 0.002544403076171875
0.93817555904388428 0 0.0030209410469979048
0.98891311883926392 0 0.0028182982932776213
0.016544535756111145 0.052774824202060699 0.047599252313375473
0.050074797123670578 0.058539699763059616 0.048309251666069031
0.11401449143886566 0.051517516374588013 0.048348177224397659
0.20734752714633942 0.029563888907432556 0.044197440147399902
0.31185457110404968 0.012484636157751083 0.043473217636346817
0.41729164123535156 0.0070762336254119873 0.038925513625144958
0.52080917358398438 0.0044964211992919445 0.033898267894983292
0.61721670627593994 0.0030502020381391048 0.025344114750623703
0.71027648448944092 0.0020755992736667395 0.01609332486987114
0.7979811429977417 0.0032636905089020729 0.0093354023993015289
0.87608879804611206 0.0021258634515106678 0.0050731436349451542
0.94775927066802979 0 0.0034320007544010878
0.99252998828887939 0 0.00028143491363152862
0.0087047051638364792 0.1265585869550705 0.043808583170175552
0.033552821725606918 0.13180512189865112 0.04294191300868988
0.11437325924634933 0.13117098808288574 0.044144157320261002
0.22789300978183746 0.12464107573032379 0.035536881536245346
0.33923375606536865 0.096618607640266418 0.030362432822585106
0.45263683795928955 0.060174815356731415 0.029027661308646202
0.56050920486450195 0.028877900913357735 0.02204550988972187
0.65514516830444336 0.0085724629461765289 0.014339103363454342
0.74317073822021484 0.0045736124739050865 0.0086781969293951988
0.82355797290802002 0.0063588609918951988 0.0050677880644798279
0.89744162559509277 0.0042795967310667038 0.0028843898326158524
0.96107065677642822 0.0024780272506177425 0.0016942042857408524
0.99483537673950195 0.0036514580715447664 0
0.0053780348971486092 0.22195437550544739 0.03619631752371788
0.011616725474596024 0.22131769359111786 0.029531726613640785
0.091364003717899323 0.22728167474269867 0.024586591869592667
0.2237316370010376 0.23549358546733856 0.019410615786910057
0.35653749108314514 0.24063582718372345 0.016229039058089256
0.48573526740074158 0.23007117211818695 0.013812974095344543
0.60271471738815308 0.20201116800308228 0.011017877608537674
0.69647389650344849 0.14989732205867767 0.0084610581398010254
0.77717351913452148 0.098086066544055939 0.0043034572154283524
0.85167390108108521 0.059855952858924866 0.001738813822157681
0.92095303535461426 0.033763136714696884 0.00084764068014919758
0.97793364524841309 0.020478507503867149 0.00038932351162657142
0.99866896867752075 0.01438567228615284 0
0.0024145387578755617 0.32659187912940979 0.018629694357514381
0.0056031318381428719 0.32840797305107117 0.016049133613705635
0.047017399221658707 0.32925224304199219 0.0094441436231136322
0.19423387944698334 0.34054690599441528 0.0079709822311997414
0.34373754262924194 0.35681277513504028 0.007893955335021019
0.48270246386528015 0.36122113466262817 0.0061635635793209076
0.60612648725509644 0.35411274433135986 0.0066879722289741039
0.72118157148361206 0.34727999567985535 0.0058883070014417171
0.80731487274169922 0.32050678133964539 0.0057111852802336216
0.87685632705688477 0.28701964020729065 0.0026094175409525633
0.9396548867225647 0.25666144490242004 0.00039343739626929164
0.9882817268371582 0.23563262820243835 0.00025986315449699759
0.99902087450027466 0.225655198097229 0.00044967053690925241
1.2566061741381418e-05 0.42687475681304932 0.012209784239530563
0.0027124143671244383 0.43051746487617493 0.0096021760255098343
0.015608903020620346 0.42794442176818848 0.0031242070253938437
0.15050677955150604 0.43323317170143127 0.0029553431086242199
0.3125002384185791 0.44675946235656738 0.0061588510870933533
0.45552679896354675 0.45869705080986023 0.0059853796847164631
0.58571386337280273 0.46499544382095337 0.0068084415979683399
0.70574027299880981 0.46776708960533142 0.0068314643576741219
0.80840867757797241 0.47109889984130859 0.0058898176066577435
0.88764810562133789 0.4657437801361084 0.0029943129047751427
0.94994372129440308 0.45425370335578918 0.0023322461638599634
0.9888492226600647 0.44004702568054199 0.0021980137098580599
0.99881154298782349 0.42898038029670715 0.0010834787972271442
1.7502728951512836e-05 0.52017378807067871 0.01183160487562418
0.0013448079116642475 0.52141809463500977 0.0080150384455919266
0.0061132544651627541 0.51730597019195557 0.0032595915254205465
0.098218075931072235 0.51719838380813599 0.0024509055074304342
0.27699047327041626 0.52545082569122314 0.0051127416081726551
0.42104682326316833 0.53825384378433228 0.0049557704478502274
0.55796688795089722 0.55265742540359497 0.0052506839856505394
0.67958289384841919 0.56176632642745972 0.007763328030705452
0.78525817394256592 0.56655633449554443 0.010010663419961929
0.87347114086151123 0.57186746597290039 0.0057923262938857079
0.94430267810821533 0.58018976449966431 0.0058596590533852577
0.9898991584777832 0.58363747596740723 0.0071335136890411377
0.99947375059127808 0.57764095067977905 0.0049401824362576008
0.0027915656100958586 0.60168123245239258 0.008389701135456562
0.0022065704688429832 0.6033090353012085 0.0053844377398490906
0.0044798459857702255 0.59829497337341309 0.0029995488002896309
0.081539928913116455 0.59446197748184204 0.0010871437843888998
0.25806814432144165 0.59688663482666016 0.0031913458369672298
0.3997218906879425 0.60689377784729004 0.0048321741633117199
0.53286349773406982 0.62114965915679932 0.0061161713674664497
0.65143227577209473 0.63092875480651855 0.010016078129410744
0.75851523876190186 0.63946372270584106 0.010900205932557583
0.85208344459533691 0.64772450923919678 0.0076334336772561073
0.92692965269088745 0.65569001436233521 0.0075850393623113632
0.98030519485473633 0.66428035497665405 0.0073138666339218616
0.99884676933288574 0.67078721523284912 0.012157260440289974
0.0053905709646642208 0.67283922433853149 0.005425172857940197
0.004704703576862812 0.67510616779327393 0.0048771877773106098
0.0068279639817774296 0.67426818609237671 0.0018548404332250357
0.10695930570363998 0.67075473070144653 0.0012756347423419356
0.27085652947425842 0.66800236701965332 0.0047857249155640602
0.39993754029273987 0.67224037647247314 0.0079111438244581223
0.52183324098587036 0.68230700492858887 0.010979147627949715
0.63413798809051514 0.6926155686378479 0.011737643741071224
0.73968148231506348 0.70350414514541626 0.010690666735172272
0.83518767356872559 0.71317505836486816 0.0061359032988548279
0.91240119934082031 0.718802809715271 0.0058204201050102711
0.97224050760269165 0.72479814291000366 0.0076151532121002674
0.99601894617080688 0.73091554641723633 0.010348974727094173
0.0094283157959580421 0.7417902946472168 0.0024268804118037224
0.013738025911152363 0.74266600608825684 0.0013957752380520105
0.070360489189624786 0.74247080087661743 0.0003063127223867923
0.20035567879676819 0.74027460813522339 0.0021742428652942181
0.31814637780189514 0.73730647563934326 0.0051493775099515915
0.43417000770568848 0.73610419034957886 0.008207688108086586
0.54375255107879639 0.74124795198440552 0.0086107738316059113
0.64417129755020142 0.75110328197479248 0.0085464930161833763
0.74287408590316772 0.76328581571578979 0.0077128689736127853
0.83042711019515991 0.77139186859130859 0.0060958112590014935
0.90316355228424072 0.77613991498947144 0.0040165921673178673
0.96526640653610229 0.78219228982925415 0.006213753018528223
0.99296975135803223 0.78622013330459595 0.0083015738055109978
0.12291210144758224 0.80791276693344116 0.00035858154296875
0.17404738068580627 0.80737948417663574 0.00081766163930296898
0.2418145090341568 0.80541115999221802 0.0034929013345390558
0.31525269150733948 0.8036046028137207 0.0065460805781185627
0.40010422468185425 0.80010491609573364 0.0069121266715228558
0.48987564444541931 0.79785329103469849 0.0076278387568891048
0.5797157883644104 0.79933679103851318 0.0062611447647213936
0.66999542713165283 0.80928784608840942 0.0074547561816871166
0.75996440649032593 0.82182133197784424 0.0091920588165521622
0.8373643159866333 0.82950609922409058 0.0089379856362938881
0.90533822774887085 0.83463084697723389 0.0065159965306520462
0.96208709478378296 0.83913660049438477 0.0048977872356772423
0.99148213863372803 0.841391921043396 0.0039383983239531517
0.33119124174118042 0.87259775400161743 0.0058982847258448601
0.35362535715103149 0.87138432264328003 0.0087247509509325027
0.39015352725982666 0.87118738889694214 0.0085759777575731277
0.43735933303833008 0.87013536691665649 0.0097785796970129013
0.49685660004615784 0.86790233850479126 0.0085289301350712776
0.56403326988220215 0.86600732803344727 0.00704218540340662
0.63330739736557007 0.86652964353561401 0.0054360334761440754
0.70868325233459473 0.87414336204528809 0.010770296677947044
0.78223156929016113 0.88399219512939453 0.010549328289926052
0.84894013404846191 0.88986361026763916 0.008311297744512558
0.90861678123474121 0.89418900012969971 0.0092987660318613052
0.96113699674606323 0.89751303195953369 0.0063373339362442493
0.99272924661636353 0.89940178394317627 0.0036090477369725704
0.47675362229347229 0.94109916687011719 0.11053778231143951
0.48906543850898743 0.93991369009017944 0.10788330435752869
0.51348692178726196 0.93961095809936523 0.094006508588790894
0.54769927263259888 0.93912243843078613 0.082054182887077332
0.58933895826339722 0.93820416927337646 0.062883548438549042
0.63767027854919434 0.93770188093185425 0.043516691774129868
0.69049811363220215 0.93818217515945435 0.02659372054040432
0.74657618999481201 0.94107288122177124 0.022674066945910454
0.80376768112182617 0.94664967060089111 0.014909063465893269
0.85954576730728149 0.94998884201049805 0.0090851727873086929
0.91140389442443848 0.95162594318389893 0.0077661550603806973
0.96070027351379395 0.9553452730178833 0.0047134100459516048
0.99239456653594971 0.95780277252197266 0.0016215156065300107
0.008253823034465313 0.01998208649456501 0.11942984163761139
0.032097611576318741 0.018854746595025063 0.12601043283939362
0.097767114639282227 0.01508020143955946 0.12833759188652039
0.19024495780467987 0.0057594301179051399 0.11697359383106232
0.2885822057723999 0.0022346945479512215 0.11125447601079941
0.38979831337928772 0.0011717702727764845 0.10728954523801804
0.48881897330284119 2.1541820842685411e-06 0.096991248428821564
0.57839822769165039 0.00024001178098842502 0.086080186069011688
0.66542541980743408 0.00037937538581900299 0.075411386787891388
0.75444012880325317 8.0333033110946417e-05 0.060952041298151016
0.84211510419845581 0 0.044065766036510468
0.92569220066070557 0 0.029221164062619209
0.98731207847595215 0 0.016596894711256027
0.010522430762648582 0.056942358613014221 0.12780794501304626
0.041460506618022919 0.060212034732103348 0.1305423229932785
0.11491286009550095 0.056894894689321518 0.13436685502529144
0.21073412895202637 0.040170885622501373 0.12579062581062317
0.3102002739906311 0.015497365035116673 0.11523988097906113
0.41146591305732727 0.0061502940952777863 0.10963140428066254
0.50947290658950806 0.0045737023465335369 0.098823040723800659
0.60197389125823975 0.0039181280881166458 0.08731599897146225
0.69173192977905273 0.0029049892909824848 0.074819929897785187
0.77847647666931152 0.0030287350527942181 0.06190158799290657
0.86065542697906494 0.0017931620823219419 0.044868603348731995
0.93827182054519653 0.00023745368525851518 0.027813810855150223
0.99118733406066895 0 0.015808643773198128
0.007721366360783577 0.13138188421726227 0.13042804598808289
0.042125925421714783 0.13574045896530151 0.13282874226570129
0.12720634043216705 0.13384094834327698 0.13565348088741302
0.23281468451023102 0.1259191632270813 0.13011498749256134
0.33979007601737976 0.098494298756122589 0.11973737925291061
0.44546297192573547 0.055065006017684937 0.11138675361871719
0.54689759016036987 0.024619128555059433 0.10096091777086258
0.63966923952102661 0.0088895764201879501 0.088886305689811707
0.72657883167266846 0.0054916981607675552 0.07418455183506012
0.80842107534408569 0.0072495406493544579 0.060776446014642715
0.88663220405578613 0.0059366561472415924 0.043922275304794312
0.95407795906066895 0.0048616146668791771 0.030201781541109085
0.99412637948989868 0.0020084904972463846 0.017588671296834946
0.0049770879559218884 0.22869414091110229 0.12774719297885895
0.018048664554953575 0.23168075084686279 0.12892705202102661
0.11958672106266022 0.23540382087230682 0.12532490491867065
0.24038958549499512 0.24087095260620117 0.12134122848510742
0.36680930852890015 0.24377290904521942 0.11722268164157867
0.4858100414276123 0.22851987183094025 0.11712734401226044
0.59065407514572144 0.19231921434402466 0.10884315520524979
0.68084275722503662 0.13957647979259491 0.092267043888568878
0.76237010955810547 0.088573276996612549 0.076731227338314056
0.83961945772171021 0.050777226686477661 0.0579819455742836
0.91148358583450317 0.029973916709423065 0.039769489318132401
0.97321033477783203 0.015739155933260918 0.022284233942627907
0.99767673015594482 0.0082211811095476151 0.013479225337505341
0.0010836732108145952 0.33820056915283203 0.11354450881481171
0.0081467274576425552 0.34127339720726013 0.11521092057228088
0.076838292181491852 0.34334057569503784 0.10805508494377136
0.21956264972686768 0.35069301724433899 0.099759228527545929
