luts/instant_pro/polaroid_665_+.cube
# Created by: G'MIC (https://gmic.eu)
TITLE "polaroid_665_+"
# LUT size
LUT_3D_SIZE 5
# Data domain
DOMAIN_MIN 0.0 0.0 0.0
DOMAIN_MAX 1.0 1.0 1.0
# LUT data points
0.071587793529033661 0.071587793529033661 0.071587793529033661
0.090923741459846497 0.090923741459846497 0.090923741459846497
0.1684478223323822 0.1684478223323822 0.1684478223323822
0.28711465001106262 0.28711465001106262 0.28711465001106262
0.46479940414428711 0.46479940414428711 0.46479940414428711
0.14454343914985657 0.14454343914985657 0.14454343914985657
0.16514922678470612 0.16514922678470612 0.16514922678470612
0.23395909368991852 0.23395909368991852 0.23395909368991852
0.34483739733695984 0.34483739733695984 0.34483739733695984
0.52017670869827271 0.52017670869827271 0.52017670869827271
0.29135939478874207 0.29135939478874207 0.29135939478874207
0.3027946949005127 0.3027946949005127 0.3027946949005127
0.32471919059753418 0.32471919059753418 0.32471919059753418
0.42534610629081726 0.42534610629081726 0.42534610629081726
0.65577638149261475 0.65577638149261475 0.65577638149261475
0.53813958168029785 0.53813958168029785 0.53813958168029785
0.54310303926467896 0.54310303926467896 0.54310303926467896
0.55326628684997559 0.55326628684997559 0.55326628684997559
0.5737575888633728 0.5737575888633728 0.5737575888633728
0.72551184892654419 0.72551184892654419 0.72551184892654419
0.86941611766815186 0.86941611766815186 0.86941611766815186
0.86805123090744019 0.86805123090744019 0.86805123090744019
0.89362609386444092 0.89362609386444092 0.89362609386444092
0.90382862091064453 0.90382862091064453 0.90382862091064453
0.91695290803909302 0.91695290803909302 0.91695290803909302
0.14465390145778656 0.14465390145778656 0.14465390145778656
0.15836472809314728 0.15836472809314728 0.15836472809314728
0.23738186061382294 0.23738186061382294 0.23738186061382294
0.35844907164573669 0.35844907164573669 0.35844907164573669
0.5119633674621582 0.5119633674621582 0.5119633674621582
0.20849093794822693 0.20849093794822693 0.20849093794822693
0.2393442690372467 0.2393442690372467 0.2393442690372467
0.29529485106468201 0.29529485106468201 0.29529485106468201
0.41442251205444336 0.41442251205444336 0.41442251205444336
0.57107448577880859 0.57107448577880859 0.57107448577880859
0.35035249590873718 0.35035249590873718 0.35035249590873718
0.38731786608695984 0.38731786608695984 0.38731786608695984
0.39939668774604797 0.39939668774604797 0.39939668774604797
0.50921940803527832 0.50921940803527832 0.50921940803527832
0.68447637557983398 0.68447637557983398 0.68447637557983398
0.60332703590393066 0.60332703590393066 0.60332703590393066
0.60354995727539062 0.60354995727539062 0.60354995727539062
0.61644798517227173 0.61644798517227173 0.61644798517227173
0.64058935642242432 0.64058935642242432 0.64058935642242432
0.76490241289138794 0.76490241289138794 0.76490241289138794
0.89293259382247925 0.89293259382247925 0.89293259382247925
0.89515239000320435 0.89515239000320435 0.89515239000320435
0.90425956249237061 0.90425956249237061 0.90425956249237061
0.92472952604293823 0.92472952604293823 0.92472952604293823
0.93841677904129028 0.93841677904129028 0.93841677904129028
0.31683036684989929 0.31683036684989929 0.31683036684989929
0.33768931031227112 0.33768931031227112 0.33768931031227112
0.37573522329330444 0.37573522329330444 0.37573522329330444
0.48395895957946777 0.48395895957946777 0.48395895957946777
0.67147684097290039 0.67147684097290039 0.67147684097290039
0.3712436854839325 0.3712436854839325 0.3712436854839325
0.40518337488174438 0.40518337488174438 0.40518337488174438
0.434324711561203 0.434324711561203 0.434324711561203
0.53807348012924194 0.53807348012924194 0.53807348012924194
0.7021491527557373 0.7021491527557373 0.7021491527557373
0.42871284484863281 0.42871284484863281 0.42871284484863281
0.47072789072990417 0.47072789072990417 0.47072789072990417
0.54652851819992065 0.54652851819992065 0.54652851819992065
0.62229061126708984 0.62229061126708984 0.62229061126708984
0.75302469730377197 0.75302469730377197 0.75302469730377197
0.64820915460586548 0.64820915460586548 0.64820915460586548
0.66894423961639404 0.66894423961639404 0.66894423961639404
0.71539735794067383 0.71539735794067383 0.71539735794067383
0.73564249277114868 0.73564249277114868 0.73564249277114868
0.84399402141571045 0.84399402141571045 0.84399402141571045
0.918609619140625 0.918609619140625 0.918609619140625
0.93436348438262939 0.93436348438262939 0.93436348438262939
0.93248671293258667 0.93248671293258667 0.93248671293258667
0.93600261211395264 0.93600261211395264 0.93600261211395264
0.96126037836074829 0.96126037836074829 0.96126037836074829
0.59413522481918335 0.59413522481918335 0.59413522481918335
0.61757290363311768 0.61757290363311768 0.61757290363311768
0.63736385107040405 0.63736385107040405 0.63736385107040405
0.65537023544311523 0.65537023544311523 0.65537023544311523
0.7744368314743042 0.7744368314743042 0.7744368314743042
0.64961636066436768 0.64961636066436768 0.64961636066436768
0.67754822969436646 0.67754822969436646 0.67754822969436646
0.68065148591995239 0.68065148591995239 0.68065148591995239
0.6849895715713501 0.6849895715713501 0.6849895715713501
0.80660098791122437 0.80660098791122437 0.80660098791122437
0.69062632322311401 0.69062632322311401 0.69062632322311401
0.71148300170898438 0.71148300170898438 0.71148300170898438
0.74086302518844604 0.74086302518844604 0.74086302518844604
0.77395200729370117 0.77395200729370117 0.77395200729370117
0.85700887441635132 0.85700887441635132 0.85700887441635132
0.73012715578079224 0.73012715578079224 0.73012715578079224
0.74627065658569336 0.74627065658569336 0.74627065658569336
0.7966005802154541 0.7966005802154541 0.7966005802154541
0.86272096633911133 0.86272096633911133 0.86272096633911133
0.90792590379714966 0.90792590379714966 0.90792590379714966
0.91645848751068115 0.91645848751068115 0.91645848751068115
0.92224401235580444 0.92224401235580444 0.92224401235580444
0.94248849153518677 0.94248849153518677 0.94248849153518677
0.9630005955696106 0.9630005955696106 0.9630005955696106
0.97721785306930542 0.97721785306930542 0.97721785306930542
0.90330398082733154 0.90330398082733154 0.90330398082733154
0.90737342834472656 0.90737342834472656 0.90737342834472656
0.9276127815246582 0.9276127815246582 0.9276127815246582
0.94079142808914185 0.94079142808914185 0.94079142808914185
0.92226612567901611 0.92226612567901611 0.92226612567901611
0.91393357515335083 0.91393357515335083 0.91393357515335083
0.91958272457122803 0.91958272457122803 0.91958272457122803
0.9404868483543396 0.9404868483543396 0.9404868483543396
0.93696802854537964 0.93696802854537964 0.93696802854537964
0.91907626390457153 0.91907626390457153 0.91907626390457153
0.93750655651092529 0.93750655651092529 0.93750655651092529
0.94106239080429077 0.94106239080429077 0.94106239080429077
0.95719558000564575 0.95719558000564575 0.95719558000564575
0.94333899021148682 0.94333899021148682 0.94333899021148682
0.93806010484695435 0.93806010484695435 0.93806010484695435
0.94871491193771362 0.94871491193771362 0.94871491193771362
0.94602876901626587 0.94602876901626587 0.94602876901626587
0.95103710889816284 0.95103710889816284 0.95103710889816284
0.96501010656356812 0.96501010656356812 0.96501010656356812
0.96835243701934814 0.96835243701934814 0.96835243701934814
0.95592057704925537 0.95592057704925537 0.95592057704925537
0.96073752641677856 0.96073752641677856 0.96073752641677856
0.9621349573135376 0.9621349573135376 0.9621349573135376
0.98312509059906006 0.98312509059906006 0.98312509059906006
0.98717725276947021 0.98717725276947021 0.98717725276947021
