luts/instant_pro/polaroid_690_cold_--.cube
# Created by: G'MIC (https://gmic.eu)
TITLE "polaroid_690_cold_--"
# LUT size
LUT_3D_SIZE 5
# Data domain
DOMAIN_MIN 0.0 0.0 0.0
DOMAIN_MAX 1.0 1.0 1.0
# LUT data points
0.0033389371819794178 0.038737770169973373 0.029104912653565407
0.24791237711906433 0.017643319442868233 0.027320951223373413
0.54941970109939575 0.0024166181683540344 0.021044936031103134
0.77122694253921509 0.0001026826721499674 0.01607310026884079
0.97199314832687378 0 0.0071130492724478245
0.00098072132095694542 0.29375672340393066 0.014813576824963093
0.26085600256919861 0.30173513293266296 0.01135705690830946
0.61833000183105469 0.25434720516204834 0.020331483334302902
0.83015668392181396 0.13244499266147614 0.01971912756562233
0.99558138847351074 0.065300822257995605 0.0036226310767233372
0.0023906633723527193 0.51616692543029785 0.045020788908004761
0.16698580980300903 0.51940774917602539 0.016688970848917961
0.54670214653015137 0.55923455953598022 0.011238801293075085
0.83169132471084595 0.58925294876098633 0.017237016931176186
0.99203550815582275 0.60015320777893066 0.12691192328929901
0.018230946734547615 0.73789644241333008 0.1073656901717186
0.23467075824737549 0.73114544153213501 0.062622115015983582
0.51753610372543335 0.74203288555145264 0.013767153024673462
0.78322911262512207 0.76479971408843994 0.0079764872789382935
0.98987621068954468 0.78081905841827393 0.047931283712387085
0.44496878981590271 0.92796963453292847 0.2802136242389679
0.51078134775161743 0.92765712738037109 0.26427716016769409
0.64906740188598633 0.9262729287147522 0.22329080104827881
0.81974267959594727 0.93700337409973145 0.17409512400627136
0.99071097373962402 0.95502662658691406 0.030020575970411301
0.0016787360655143857 0.071264170110225677 0.31878069043159485
0.22840271890163422 0.055112186819314957 0.34599712491035461
0.52695924043655396 0.015683835372328758 0.2791285514831543
0.73561280965805054 0.0031580307986587286 0.24995101988315582
0.95200449228286743 0 0.19730496406555176
0.0077379862777888775 0.30156686902046204 0.33972981572151184
0.27937239408493042 0.31599026918411255 0.36022764444351196
0.56867831945419312 0.26928010582923889 0.33212724328041077
0.77896964550018311 0.15719586610794067 0.28374806046485901
0.98198479413986206 0.045815575867891312 0.23918168246746063
0.006613622885197401 0.55125713348388672 0.36133170127868652
0.2535494863986969 0.54532802104949951 0.34227821230888367
0.55780315399169922 0.56542813777923584 0.33101287484169006
0.82020694017410278 0.59303832054138184 0.35502138733863831
0.9922637939453125 0.58055520057678223 0.34559333324432373
0.054050594568252563 0.75139141082763672 0.33604294061660767
0.26620534062385559 0.74519526958465576 0.32187372446060181
0.52776515483856201 0.74690842628479004 0.29525631666183472
0.77890288829803467 0.76833903789520264 0.29720747470855713
0.98680996894836426 0.78129690885543823 0.33659288287162781
0.41813331842422485 0.92948424816131592 0.39907628297805786
0.48800089955329895 0.92859643697738647 0.39144346117973328
0.63236838579177856 0.92603373527526855 0.35278770327568054
0.80661249160766602 0.93486189842224121 0.33410269021987915
0.98259663581848145 0.95364898443222046 0.28690963983535767
0.0013169681187719107 0.12431402504444122 0.60558336973190308
0.10090984404087067 0.12529478967189789 0.63691329956054688
0.58458995819091797 0.11831627786159515 0.66334229707717896
0.75350618362426758 0.11745575815439224 0.5624692440032959
0.94039952754974365 0.0045281951315701008 0.52530568838119507
0.0052724350243806839 0.30401724576950073 0.59909212589263916
0.26363995671272278 0.32351911067962646 0.63104164600372314
0.58617228269577026 0.34600472450256348 0.66562694311141968
0.7559008002281189 0.29030203819274902 0.57742899656295776
0.94727647304534912 0.073597446084022522 0.5201987624168396
0.061152752488851547 0.55924731492996216 0.61832356452941895
0.30533933639526367 0.57251161336898804 0.63170212507247925
0.56923848390579224 0.5979343056678772 0.65224212408065796
0.78430640697479248 0.52899670600891113 0.59353423118591309
0.97531712055206299 0.43254497647285461 0.51247388124465942
0.13176751136779785 0.77829551696777344 0.62038105726242065
0.31575345993041992 0.77648544311523438 0.61515349149703979
0.52944254875183105 0.7620200514793396 0.58002138137817383
0.77577477693557739 0.77229601144790649 0.5903317928314209
0.98144698143005371 0.78621006011962891 0.63117384910583496
0.36250931024551392 0.93948483467102051 0.62509477138519287
0.4440409243106842 0.93276071548461914 0.61642014980316162
0.59129035472869873 0.9341728687286377 0.58722734451293945
0.78192371129989624 0.93556493520736694 0.55493336915969849
0.97395652532577515 0.95331496000289917 0.55495369434356689
0.004450435284525156 0.18744930624961853 0.84759402275085449
0.22056938707828522 0.19008456170558929 0.86943322420120239
0.59499281644821167 0.21237026154994965 0.89354157447814941
0.83812630176544189 0.24526298046112061 0.89661026000976562
0.97230345010757446 0.22960518300533295 0.82216387987136841
0.016753746196627617 0.33222159743309021 0.84911823272705078
0.2987271249294281 0.34461376070976257 0.85475891828536987
0.60181015729904175 0.38283631205558777 0.88375973701477051
0.82823514938354492 0.40870025753974915 0.89432710409164429
0.96362870931625366 0.36579543352127075 0.82971972227096558
0.0040127024985849857 0.51841825246810913 0.8077886700630188
0.21729667484760284 0.5303041934967041 0.8192678689956665
0.53792726993560791 0.58398085832595825 0.85197168588638306
0.80089640617370605 0.64112198352813721 0.88317155838012695
0.94504684209823608 0.54364335536956787 0.80867260694503784
0.183172807097435 0.77330601215362549 0.84524542093276978
0.34659799933433533 0.77022981643676758 0.8484230637550354
0.57449030876159668 0.77412170171737671 0.85802841186523438
0.79123204946517944 0.79114794731140137 0.87347537279129028
0.96021437644958496 0.72588825225830078 0.81587904691696167
0.49073120951652527 0.9438401460647583 0.87086576223373413
0.53439390659332275 0.94388031959533691 0.86826777458190918
0.6278117299079895 0.93985956907272339 0.85902571678161621
0.76062160730361938 0.93974107503890991 0.82597452402114868
0.95912009477615356 0.95952737331390381 0.8288084864616394
0.39735648036003113 0.32286795973777771 0.99343228340148926
0.49709168076515198 0.33070549368858337 0.99172979593276978
0.66600030660629272 0.34772965312004089 0.99863475561141968
0.84303343296051025 0.41591763496398926 0.99726313352584839
0.99041390419006348 0.48401549458503723 0.99598199129104614
0.40470767021179199 0.42799940705299377 0.99486404657363892
0.49169072508811951 0.43325063586235046 0.99395710229873657
0.6582038402557373 0.46058511734008789 0.99561482667922974
0.83631521463394165 0.53318989276885986 0.9943462610244751
0.98455405235290527 0.57631897926330566 0.99326896667480469
0.29717326164245605 0.59805011749267578 0.98635494709014893
0.41805067658424377 0.60576468706130981 0.98554849624633789
0.6236690878868103 0.63791549205780029 0.98364591598510742
0.8161502480506897 0.68389368057250977 0.98776578903198242
0.97621411085128784 0.70701289176940918 0.99131101369857788
0.24247583746910095 0.7723313570022583 0.98253124952316284
0.35422340035438538 0.76691740751266479 0.98230981826782227
0.53859519958496094 0.76079428195953369 0.9820399284362793
0.79753100872039795 0.79243212938308716 0.9847298264503479
0.97535979747772217 0.82912057638168335 0.98883521556854248
0.57356339693069458 0.94609111547470093 0.98405957221984863
0.6093565821647644 0.94452500343322754 0.98338419198989868
0.70253443717956543 0.94592589139938354 0.98428052663803101
0.82963335514068604 0.94972681999206543 0.97777450084686279
0.97082895040512085 0.96154946088790894 0.98415660858154297
