luts/instant_pro/polaroid_690_cold_--.cube
# Created by: G'MIC (https://gmic.eu)
TITLE "polaroid_690_cold_--"
# LUT size
LUT_3D_SIZE 13
# Data domain
DOMAIN_MIN 0.0 0.0 0.0
DOMAIN_MAX 1.0 1.0 1.0
# LUT data points
0.0033389371819794178 0.038737770169973373 0.029104912653565407
0.041665453463792801 0.044897280633449554 0.030536741018295288
0.13544623553752899 0.040917772799730301 0.032898921519517899
0.24791237711906433 0.017643319442868233 0.027320951223373413
0.35757040977478027 0.0059759700670838356 0.025337293744087219
0.45974132418632507 0.0043237274512648582 0.023566063493490219
0.54941970109939575 0.0024166181683540344 0.021044936031103134
0.62791579961776733 0.0018212412251159549 0.019304970279335976
0.70036262273788452 0.00063021789537742734 0.020014997571706772
0.77122694253921509 0.0001026826721499674 0.01607310026884079
0.83936095237731934 0 0.011037429794669151
0.9068790078163147 0 0.010086508467793465
0.97199314832687378 0 0.0071130492724478245
0.00060439761728048325 0.10938723385334015 0.02876727469265461
0.023762617260217667 0.11597380042076111 0.025947794318199158
0.13248869776725769 0.11547066271305084 0.030394401401281357
0.26148635149002075 0.095138832926750183 0.023934787139296532
0.37967181205749512 0.054850440472364426 0.022272910922765732
0.47952777147293091 0.019010581076145172 0.020523909479379654
0.56886255741119385 0.0065783481113612652 0.019047711044549942
0.64794611930847168 0.0053097591735422611 0.019008785486221313
0.71702295541763306 0.0039095710963010788 0.020537087693810463
0.78650921583175659 0.0026316025760024786 0.020230446010828018
0.85336649417877197 0.0003711625759024173 0.015479248948395252
0.91681808233261108 0 0.01091105118393898
0.97572094202041626 0 0.0077248965390026569
0.00094863295089453459 0.20147418975830078 0.023750754073262215
0.0081166140735149384 0.20457334816455841 0.015829946845769882
0.1171305775642395 0.20964278280735016 0.012205101549625397
0.27386432886123657 0.20463141798973083 0.014211797155439854
0.40250203013420105 0.17982296645641327 0.016911286860704422
0.50439882278442383 0.13700331747531891 0.017723128199577332
0.59208220243453979 0.085756696760654449 0.018816674128174782
0.66930580139160156 0.038374524563550949 0.01681550033390522
0.73772460222244263 0.014152227900922298 0.016341250389814377
0.8062024712562561 0.0056309718638658524 0.01582355797290802
0.87105345726013184 0.0025487863458693027 0.011589185334742069
0.93354451656341553 0.002475484274327755 0.0082960538566112518
0.98461222648620605 7.1955662861000746e-05 0.0062033110298216343
0.00098072132095694542 0.29375672340393066 0.014813576824963093
0.0072292550466954708 0.29573279619216919 0.014283408410847187
0.072598189115524292 0.29577922821044922 0.008877982385456562
0.26085600256919861 0.30173513293266296 0.01135705690830946
0.40528112649917603 0.2930789589881897 0.010421378538012505
0.51830893754959106 0.27672430872917175 0.013284885324537754
0.61833000183105469 0.25434720516204834 0.020331483334302902
0.69543051719665527 0.21937762200832367 0.027495710179209709
0.76427257061004639 0.1770956963300705 0.024669962003827095
0.83015668392181396 0.13244499266147614 0.01971912756562233
0.89314693212509155 0.097599223256111145 0.0096724862232804298
0.95506858825683594 0.072532027959823608 0.0059343227185308933
0.99558138847351074 0.065300822257995605 0.0036226310767233372
0.0020907833240926266 0.37263137102127075 0.020753972232341766
0.0055167702957987785 0.37396371364593506 0.01906147412955761
0.04330914095044136 0.37454205751419067 0.0076873479411005974
0.22429278492927551 0.38303264975547791 0.0055350209586322308
0.3807123601436615 0.38809150457382202 0.0071159959770739079
0.50556284189224243 0.38320112228393555 0.0082588046789169312
0.61021649837493896 0.37829670310020447 0.01359246950596571
0.70647764205932617 0.37333181500434875 0.023596879094839096
0.78709119558334351 0.36030465364456177 0.042110323905944824
0.850017249584198 0.33633431792259216 0.040246117860078812
0.90876156091690063 0.31565511226654053 0.029651252552866936
0.96372270584106445 0.29632040858268738 0.017760124057531357
0.99456572532653809 0.29189389944076538 0.010632234625518322
0.0019124498357996345 0.44380262494087219 0.02996063232421875
0.004538846667855978 0.44394734501838684 0.028559532016515732
0.02838052436709404 0.44646492600440979 0.014965341426432133
0.18664257228374481 0.45339936017990112 0.008935621939599514
0.34006276726722717 0.46287751197814941 0.0048482408747076988
0.47172284126281738 0.47042852640151978 0.0074171479791402817
0.58270704746246338 0.47843778133392334 0.013281025923788548
0.68276810646057129 0.48152598738670349 0.010697802528738976
0.77469593286514282 0.48631998896598816 0.020706325769424438
0.85274350643157959 0.49234312772750854 0.049528609961271286
0.91674274206161499 0.48785388469696045 0.069810785353183746
0.97017359733581543 0.47351294755935669 0.058471139520406723
0.99427682161331177 0.46754729747772217 0.043480381369590759
0.0023906633723527193 0.51616692543029785 0.045020788908004761
0.0049567278474569321 0.51595962047576904 0.041706804186105728
0.019890310242772102 0.51690572500228882 0.027497503906488419
0.16698580980300903 0.51940774917602539 0.016688970848917961
0.3086819052696228 0.52865982055664062 0.010596555657684803
0.43335524201393127 0.54160976409912109 0.0083013800904154778
0.54670214653015137 0.55923455953598022 0.011238801293075085
0.64944219589233398 0.56979167461395264 0.0097927022725343704
0.74669843912124634 0.57962632179260254 0.011521732434630394
0.83169132471084595 0.58925294876098633 0.017237016931176186
0.90560925006866455 0.60137772560119629 0.049933638423681259
0.96549028158187866 0.60623782873153687 0.11198585480451584
0.99203550815582275 0.60015320777893066 0.12691192328929901
0.0021800471004098654 0.59125059843063354 0.05964120477437973
0.0045143426395952702 0.59146726131439209 0.059106864035129547
0.016431830823421478 0.59061121940612793 0.047157123684883118
0.15543270111083984 0.58863246440887451 0.030307650566101074
0.29329466819763184 0.59436213970184326 0.019319018349051476
0.40700271725654602 0.60608303546905518 0.011118929833173752
0.51509112119674683 0.62412232160568237 0.0089282765984535217
0.62101942300796509 0.64220964908599854 0.010400360450148582
0.71936339139938354 0.65136617422103882 0.012414206750690937
0.80695468187332153 0.66059726476669312 0.011764990165829659
0.88744401931762695 0.67124336957931519 0.012358183041214943
0.95533961057662964 0.67785686254501343 0.063100121915340424
0.99098473787307739 0.68448549509048462 0.15194539725780487
0.0028578515630215406 0.66513937711715698 0.083361260592937469
0.0036474191583693027 0.66667526960372925 0.077543415129184723
0.027936538681387901 0.66718083620071411 0.058919269591569901
0.16765178740024567 0.66241014003753662 0.04135463759303093
0.29373356699943542 0.66327226161956787 0.024178149178624153
0.40006834268569946 0.67251211404800415 0.010917334817349911
0.50422942638397217 0.6854240894317627 0.011925521306693554
0.60577666759490967 0.69952362775802612 0.0076803467236459255
0.69997137784957886 0.70846688747406006 0.013308551162481308
0.78787022829055786 0.71716338396072388 0.012152937240898609
0.87128961086273193 0.72457975149154663 0.011410552076995373
0.94843864440917969 0.73046553134918213 0.021714543923735619
0.99250948429107666 0.73480165004730225 0.095329463481903076
0.018230946734547615 0.73789644241333008 0.1073656901717186
0.043686527758836746 0.73822021484375 0.10082234442234039
0.12836836278438568 0.73632556200027466 0.085878871381282806
0.23467075824737549 0.73114544153213501 0.062622115015983582
0.33235770463943481 0.72864556312561035 0.038881070911884308
0.42328974604606628 0.73377072811126709 0.021245693787932396
0.51753610372543335 0.74203288555145264 0.013767153024673462
0.611408531665802 0.75124740600585938 0.011604772880673409
0.69880050420761108 0.75786781311035156 0.011425617150962353
0.78322911262512207 0.76479971408843994 0.0079764872789382935
0.86545801162719727 0.77027559280395508 0.0070162755437195301
0.93979054689407349 0.77501398324966431 0.011899955570697784
0.98987621068954468 0.78081905841827393 0.047931283712387085
0.18567618727684021 0.79863846302032471 0.14859777688980103
0.2200113832950592 0.79858851432800293 0.14472790062427521
0.26996883749961853 0.79618734121322632 0.13305196166038513
0.33638671040534973 0.79162520170211792 0.10911744087934494
0.40494224429130554 0.7903437614440918 0.079736463725566864
0.47248533368110657 0.79097920656204224 0.063491374254226685
0.55389082431793213 0.79567617177963257 0.048783320933580399
0.63494336605072021 0.80212908983230591 0.037993937730789185
0.7133406400680542 0.80683159828186035 0.021532785147428513
0.79072582721710205 0.81135475635528564 0.01036408357322216
0.86585277318954468 0.81734335422515869 0.0074166390113532543
0.93503797054290771 0.82367265224456787 0.0092179244384169579
0.98913460969924927 0.8303946852684021 0.024156771600246429
0.33970358967781067 0.8577427864074707 0.20507003366947174
0.35831627249717712 0.85795712471008301 0.20156221091747284
0.3894551694393158 0.85665476322174072 0.19160546362400055
0.43426740169525146 0.85539329051971436 0.17581619322299957
0.47841030359268188 0.85551571846008301 0.1592717319726944
0.53486502170562744 0.85406702756881714 0.14331522583961487
0.60107821226119995 0.85449850559234619 0.12707306444644928
0.66762959957122803 0.86146175861358643 0.1128876656293869
0.73393428325653076 0.86705696582794189 0.092288807034492493
0.80429118871688843 0.8691057562828064 0.06217670813202858
0.87212014198303223 0.87499254941940308 0.032919339835643768
0.9363476037979126 0.88251644372940063 0.012850668281316757
0.98669278621673584 0.88830673694610596 0.019694548100233078
0.44496878981590271 0.92796963453292847 0.2802136242389679
0.4581788182258606 0.9278409481048584 0.27916169166564941
0.47996661067008972 0.92806380987167358 0.27275565266609192
0.51078134775161743 0.92765712738037109 0.26427716016769409
0.54956018924713135 0.92737340927124023 0.25308555364608765
0.59907782077789307 0.92708706855773926 0.23787239193916321
0.64906740188598633 0.9262729287147522 0.22329080104827881
0.70124882459640503 0.92858612537384033 0.21029745042324066
0.75819700956344604 0.93425941467285156 0.19756166636943817
0.81974267959594727 0.93700337409973145 0.17409512400627136
0.88153517246246338 0.94290447235107422 0.13964322209358215
0.94143569469451904 0.9501156210899353 0.085623994469642639
0.99071097373962402 0.95502662658691406 0.030020575970411301
0.00089669320732355118 0.042846933007240295 0.095709994435310364
0.029540926218032837 0.049403682351112366 0.10148650407791138
0.1241816058754921 0.049198690801858902 0.099893398582935333
0.24123375117778778 0.028187291696667671 0.093329243361949921
0.35538783669471741 0.01040623988956213 0.090984269976615906
0.45430111885070801 0.004817289300262928 0.085260860621929169
0.54083609580993652 0.0028571183793246746 0.083155624568462372
0.61784106492996216 0.0019657360389828682 0.080157354474067688
0.68996673822402954 0.0002599379513412714 0.079576991498470306
0.76060420274734497 0 0.076201401650905609
0.83020812273025513 0 0.067229375243186951
0.90034943819046021 0 0.055413443595170975
0.96969753503799438 0 0.037616327404975891
0.0020361507777124643 0.1161273717880249 0.10408034920692444
0.022587137296795845 0.11982554942369461 0.10687156766653061
0.13347658514976501 0.11650574952363968 0.10519928485155106
0.25955313444137573 0.099838688969612122 0.10293139517307281
0.37152248620986938 0.057978164404630661 0.094680845737457275
0.47015237808227539 0.0245222058147192 0.089881464838981628
0.55828028917312622 0.011040871031582355 0.08929760754108429
0.63523715734481812 0.007477868814021349 0.088480345904827118
0.70569747686386108 0.0041340845637023449 0.088317260146141052
0.77603745460510254 0.0007140813977457583 0.083589859306812286
0.84477841854095459 0.00052149157272651792 0.074229232966899872
0.9106171727180481 0 0.058219101279973984
0.97654539346694946 0 0.037894528359174728
0.0033750047441571951 0.20874965190887451 0.10816644132137299
0.011121458373963833 0.20855005085468292 0.10463806986808777
0.12279824912548065 0.21349236369132996 0.10289482027292252
0.2757202684879303 0.20913960039615631 0.1002129465341568
0.39776945114135742 0.18497173488140106 0.10681650787591934
0.4971194863319397 0.14643622934818268 0.10705674439668655
0.58297604322433472 0.099622227251529694 0.10137390345335007
0.65823644399642944 0.05126749724149704 0.095520943403244019
0.72843867540359497 0.021807262673974037 0.090711124241352081
0.7964169979095459 0.0064433678053319454 0.085108965635299683
0.86338067054748535 0.0034058664459735155 0.076268620789051056
0.9286264181137085 0.00078458600910380483 0.063296958804130554
0.98483741283416748 0.00064459408167749643 0.046515863388776779
0.0046132104471325874 0.29867464303970337 0.10961553454399109
0.0075228824280202389 0.2985960841178894 0.10721135139465332
0.092581354081630707 0.3000648021697998 0.097772754728794098
0.26553452014923096 0.30550459027290344 0.087662383913993835
0.40188241004943848 0.29929670691490173 0.091854900121688843
0.51623731851577759 0.2861272394657135 0.10977017134428024
0.61149710416793823 0.26373213529586792 0.12434406578540802
0.68621432781219482 0.22710457444190979 0.12059114873409271
0.75421124696731567 0.18760126829147339 0.110431969165802
0.81938767433166504 0.13999785482883453 0.10042214393615723
0.88381385803222656 0.10387046635150909 0.087941430509090424
0.94792348146438599 0.076665915548801422 0.072418719530105591
0.9930417537689209 0.066374756395816803 0.055386859923601151
0.0048673441633582115 0.37858185172080994 0.11811996251344681
0.0086163394153118134 0.37934583425521851 0.11723976582288742
0.069339513778686523 0.37891954183578491 0.10471541434526443
0.23731008172035217 0.38613119721412659 0.088038064539432526
0.3787141740322113 0.39213237166404724 0.073422811925411224
0.50257593393325806 0.38957512378692627 0.080178610980510712
0.60893058776855469 0.38556632399559021 0.10387028753757477
0.70135563611984253 0.38125920295715332 0.13160891830921173
0.77684754133224487 0.36379647254943848 0.14266148209571838
0.83925366401672363 0.3355928361415863 0.13732452690601349
0.8992498517036438 0.31252655386924744 0.12424305826425552
0.95672523975372314 0.29210755228996277 0.10429888218641281
0.99303138256072998 0.28801742196083069 0.083158798515796661
0.0040319855324923992 0.45116189122200012 0.12980844080448151
0.0057335947640240192 0.45068240165710449 0.12966443598270416
0.058987174183130264 0.45162281394004822 0.11636171489953995
0.2105194479227066 0.45776000618934631 0.099753484129905701
0.34677878022193909 0.46807208657264709 0.079673692584037781
0.47106000781059265 0.47556096315383911 0.067286379635334015
0.58444505929946899 0.48058885335922241 0.067585855722427368
0.6814417839050293 0.48597365617752075 0.083422072231769562
0.77126616239547729 0.49225762486457825 0.11742688715457916
0.84692943096160889 0.49416568875312805 0.15152899920940399
0.90972673892974854 0.48424789309501648 0.16165719926357269
0.96457153558731079 0.46963852643966675 0.14932672679424286
0.99301975965499878 0.46233311295509338 0.13356082141399384
0.004573822021484375 0.52447539567947388 0.14770513772964478
0.0074899410828948021 0.52256298065185547 0.1434493362903595
0.046083904802799225 0.52170395851135254 0.13109178841114044
0.18975754082202911 0.52412599325180054 0.11411934345960617
0.31844446063041687 0.53372442722320557 0.092963755130767822
0.43641966581344604 0.54565030336380005 0.077323570847511292
0.54809176921844482 0.55953288078308105 0.054860673844814301
0.6522136926651001 0.57110583782196045 0.050327479839324951
0.74637269973754883 0.58288270235061646 0.066429927945137024
0.82908028364181519 0.5916067361831665 0.094829767942428589
0.90476220846176147 0.603729248046875 0.15181773900985718
0.96576178073883057 0.60498356819152832 0.18952277302742004
0.99329239130020142 0.59567117691040039 0.19749611616134644
0.0067260591313242912 0.59881389141082764 0.15406405925750732
0.0075500337406992912 0.59787023067474365 0.1502557098865509
0.036337714642286301 0.59583330154418945 0.14045390486717224
0.18170452117919922 0.5942491888999939 0.12525181472301483
0.30369532108306885 0.59944427013397217 0.105333112180233
0.41306021809577942 0.61021965742111206 0.085881806910037994
0.51930719614028931 0.62617164850234985 0.060349825769662857
0.6222882866859436 0.6417049765586853 0.044281501322984695
0.71994161605834961 0.65325355529785156 0.04213753342628479
0.80815112590789795 0.6640399694442749 0.055685050785541534
0.88684415817260742 0.67150092124938965 0.093703314661979675
0.95555156469345093 0.67720955610275269 0.15954367816448212
0.99414753913879395 0.68376791477203369 0.22062410414218903
0.0058979257009923458 0.67126429080963135 0.16068938374519348
0.0071990964934229851 0.67159205675125122 0.15537793934345245
0.048414777964353561 0.67056089639663696 0.14610925316810608
0.19443818926811218 0.66557413339614868 0.13583850860595703
0.30500480532646179 0.66616243124008179 0.11780180037021637
0.40875658392906189 0.67405587434768677 0.095627576112747192
0.50880634784698486 0.68720310926437378 0.074928626418113708
0.60748296976089478 0.70023387670516968 0.054277651011943817
0.70288175344467163 0.71110379695892334 0.04122944176197052
0.79110205173492432 0.71921008825302124 0.043599162250757217
0.87258630990982056 0.72524380683898926 0.063720181584358215
0.94597691297531128 0.73008227348327637 0.11036147922277451
0.99234074354171753 0.73467755317687988 0.17995952069759369
0.023000620305538177 0.74098771810531616 0.16988289356231689
0.059075701981782913 0.74085444211959839 0.16601940989494324
0.14770711958408356 0.73744750022888184 0.15798439085483551
0.24743646383285522 0.73237627744674683 0.14582780003547668
0.34362199902534485 0.73028707504272461 0.12638284265995026
0.43171727657318115 0.73454827070236206 0.10932908952236176
0.52551484107971191 0.7431415319442749 0.095935121178627014
0.61530011892318726 0.75185489654541016 0.075407646596431732
0.69984561204910278 0.75968426465988159 0.058641098439693451
0.78397458791732788 0.76602399349212646 0.045676887035369873
0.86514818668365479 0.77241510152816772 0.058798518031835556
0.93597507476806641 0.77631616592407227 0.084005706012248993
0.98502606153488159 0.78096252679824829 0.14260169863700867
0.19249020516872406 0.79960185289382935 0.19740027189254761
0.22783313691616058 0.79919511079788208 0.19371175765991211
0.27747562527656555 0.79690372943878174 0.18599951267242432
0.34241709113121033 0.79315805435180664 0.16857536137104034
0.40855845808982849 0.79085171222686768 0.14828306436538696
0.47782257199287415 0.79151159524917603 0.14061166346073151
0.55997174978256226 0.79728066921234131 0.12836016714572906
0.63943636417388916 0.80391567945480347 0.10992871224880219
0.71294087171554565 0.80893230438232422 0.093385957181453705
0.78967422246932983 0.81333768367767334 0.07065930962562561
0.86453253030776978 0.81925678253173828 0.061971642076969147
0.93428665399551392 0.82529705762863159 0.07570406049489975
0.9861375093460083 0.83020669221878052 0.11800095438957214
0.33750361204147339 0.85910755395889282 0.24153107404708862
0.35415816307067871 0.86111700534820557 0.2415584921836853
0.38812854886054993 0.85877251625061035 0.23275631666183472
0.43024799227714539 0.85686004161834717 0.2208208441734314
0.47671353816986084 0.85540664196014404 0.20500782132148743
0.53351157903671265 0.85224241018295288 0.18895874917507172
0.60211658477783203 0.85413908958435059 0.17605116963386536
0.66724133491516113 0.86067336797714233 0.16696411371231079
0.73392957448959351 0.86600899696350098 0.15143275260925293
0.80201852321624756 0.87024712562561035 0.13548927009105682
0.86859488487243652 0.87562179565429688 0.11154388636350632
0.9357183575630188 0.88288861513137817 0.081222951412200928
0.98612779378890991 0.88765823841094971 0.10667440295219421
0.43816396594047546 0.92783552408218384 0.30508992075920105
0.45149451494216919 0.92961776256561279 0.3054041862487793
0.47477278113365173 0.92885410785675049 0.30069172382354736
0.50589168071746826 0.92696237564086914 0.29236042499542236
0.54626572132110596 0.92712384462356567 0.28160646557807922
0.59450870752334595 0.92491823434829712 0.26701217889785767
0.64520150423049927 0.92477142810821533 0.25215440988540649
0.70083105564117432 0.93031787872314453 0.24278892576694489
0.75850057601928711 0.93479591608047485 0.23185701668262482
0.81748777627944946 0.93666553497314453 0.21552744507789612
0.87730866670608521 0.94271445274353027 0.19155250489711761
0.93899041414260864 0.9498133659362793 0.1492699533700943
0.98792415857315063 0.95347273349761963 0.11476072669029236
0.0016463635256513953 0.056835759431123734 0.20694455504417419
0.011249287985265255 0.060029573738574982 0.21518093347549438
0.10520053654909134 0.055075984448194504 0.21959565579891205
0.23697301745414734 0.047666840255260468 0.20495674014091492
0.3487095832824707 0.027202950790524483 0.18777622282505035
0.44702041149139404 0.0094954250380396843 0.18283417820930481
0.53268349170684814 0.0042000864632427692 0.18004173040390015
0.60770165920257568 0.0026092529296875 0.1680939644575119
0.67701709270477295 0.00054639927111566067 0.15811212360858917
0.74528354406356812 0.00028892964473925531 0.15140260756015778
0.81640607118606567 0.00011830049334093928 0.14300970733165741
0.88918083906173706 0 0.13209033012390137
0.9615558385848999 0 0.11704767495393753
0.0029350430704653263 0.12169992923736572 0.21367074549198151
0.012800927273929119 0.12694878876209259 0.22272875905036926
0.1151689887046814 0.1273825466632843 0.22751948237419128
0.25098422169685364 0.11918649077415466 0.22092252969741821
0.36115926504135132 0.092468991875648499 0.20176386833190918
0.45673322677612305 0.04911944642663002 0.19191516935825348
0.54131615161895752 0.019217217341065407 0.18685828149318695
0.61735695600509644 0.0063840528018772602 0.17741470038890839
0.68921160697937012 0.003108050674200058 0.17109283804893494
0.75943797826766968 0.0047639585100114346 0.1650117039680481
0.83051556348800659 0.0028781816363334656 0.1529657393693924
0.90062010288238525 0.00041083540418185294 0.13849405944347382
0.97038048505783081 1.9746668840525672e-05 0.12452006340026855
0.005148270633071661 0.20849481225013733 0.2206256240606308
0.013252527453005314 0.21266549825668335 0.22700978815555573
0.12441167235374451 0.21853795647621155 0.23110046982765198
0.26971891522407532 0.21551251411437988 0.2301863431930542
0.38354653120040894 0.19268566370010376 0.22139091789722443
0.48051688075065613 0.16070152819156647 0.21313281357288361
0.56442081928253174 0.12320176512002945 0.20318195223808289
0.63910174369812012 0.070646189153194427 0.19158555567264557
0.70969349145889282 0.033513717353343964 0.18198436498641968
0.77910596132278442 0.014581837691366673 0.17323099076747894
0.84984958171844482 0.0046307132579386234 0.16182233393192291
0.91846358776092529 0.0032834520097821951 0.15134875476360321
0.97947698831558228 0.00070443248841911554 0.14066164195537567
0.0081565110012888908 0.30225327610969543 0.23186573386192322
0.012505415827035904 0.30383038520812988 0.23567710816860199
0.12730199098587036 0.30765250325202942 0.23610983788967133
0.27307248115539551 0.30920398235321045 0.23314335942268372
0.3979143500328064 0.30545526742935181 0.23724071681499481
0.50665652751922607 0.29274728894233704 0.24136458337306976
0.59333759546279907 0.26706835627555847 0.23317830264568329
0.66631776094436646 0.23443172872066498 0.22126902639865875
0.73452460765838623 0.19741697609424591 0.20847311615943909
0.80360442399978638 0.15683485567569733 0.19518685340881348
0.87050062417984009 0.11326916515827179 0.18190251290798187
0.93673717975616455 0.083046302199363708 0.16867044568061829
0.99025255441665649 0.064843118190765381 0.15565292537212372
0.0063177971169352531 0.38595998287200928 0.24145445227622986
0.015787387266755104 0.38770303130149841 0.24529480934143066
0.12382619827985764 0.38850119709968567 0.24267086386680603
0.25664165616035461 0.389375239610672 0.23410661518573761
0.38062351942062378 0.39519798755645752 0.22438831627368927
