luts/instant_pro/polaroid_669_--.cube
# Created by: G'MIC (https://gmic.eu)
TITLE "polaroid_669_--"
# LUT size
LUT_3D_SIZE 7
# Data domain
DOMAIN_MIN 0.0 0.0 0.0
DOMAIN_MAX 1.0 1.0 1.0
# LUT data points
0.012618809007108212 0.041332617402076721 0.02913932129740715
0.10580118000507355 0.057962782680988312 0.037333216518163681
0.2628573477268219 0.063531018793582916 0.048749946057796478
0.44403082132339478 0.048899229615926743 0.057945102453231812
0.6387256383895874 0.02668558806180954 0.07037663459777832
0.80697363615036011 0.062934532761573792 0.08791765570640564
0.95751798152923584 0.17711102962493896 0.11581721901893616
0.012687339447438717 0.16117492318153381 0.050186172127723694
0.09986337274312973 0.16294495761394501 0.041033398360013962
0.29002279043197632 0.17448937892913818 0.055985618382692337
0.47907072305679321 0.17797774076461792 0.071295283734798431
0.66887813806533813 0.18820025026798248 0.083769641816616058
0.81959611177444458 0.21117754280567169 0.094808600842952728
0.95900994539260864 0.2688286304473877 0.12277334183454514
0.0044325138442218304 0.29863917827606201 0.060049932450056076
0.06045195460319519 0.29332262277603149 0.054946646094322205
0.27670755982398987 0.30343768000602722 0.039445482194423676
0.48669019341468811 0.3224104642868042 0.036537617444992065
0.68211376667022705 0.35030564665794373 0.080619990825653076
0.83561789989471436 0.37411594390869141 0.10995404422283173
0.96575450897216797 0.41424387693405151 0.14454525709152222
0.0040394202806055546 0.43218204379081726 0.063687838613986969
0.051705963909626007 0.42345705628395081 0.061404403299093246
0.25683996081352234 0.42658764123916626 0.040024343878030777
0.4418036937713623 0.43538963794708252 0.017699461430311203
0.63304823637008667 0.46582084894180298 0.010145344771444798
0.82103461027145386 0.51582819223403931 0.060320716351270676
0.967507004737854 0.5722241997718811 0.1781589537858963
0.0067962794564664364 0.56712222099304199 0.035753976553678513
0.081569015979766846 0.55520612001419067 0.038654208183288574
0.25348052382469177 0.54567176103591919 0.030941098928451538
0.41421011090278625 0.55211049318313599 0.0069997599348425865
0.58499175310134888 0.57223939895629883 0.0025439693126827478
0.75801408290863037 0.60785305500030518 0.0046133603900671005
0.93448632955551147 0.67713487148284912 0.048856623470783234
0.079986855387687683 0.72174012660980225 0.0048480313271284103
0.18610288202762604 0.72229421138763428 0.0097601199522614479
0.3006131649017334 0.69891577959060669 0.0040753684006631374
0.43673354387283325 0.69924801588058472 0.0023724124766886234
0.59942126274108887 0.72709226608276367 0.00095446716295555234
0.75427335500717163 0.74827742576599121 0.0029290143866091967
0.90243351459503174 0.77448827028274536 0.0010240592528134584
0.36529636383056641 0.92310690879821777 0.13457360863685608
0.39971292018890381 0.92140907049179077 0.12890727818012238
0.46613296866416931 0.91932964324951172 0.11920752376317978
0.56160444021224976 0.91690397262573242 0.1064101904630661
0.6920655369758606 0.92630904912948608 0.087353125214576721
0.8272254467010498 0.93686199188232422 0.066110812127590179
0.95129084587097168 0.94653362035751343 0.046879876405000687
0.0015548407100141048 0.072439514100551605 0.14136500656604767
0.094663806259632111 0.086252875626087189 0.15113642811775208
0.27180084586143494 0.094392783939838409 0.16171254217624664
0.46287184953689575 0.075730219483375549 0.1681876927614212
0.6426321268081665 0.064090073108673096 0.17792727053165436
0.80422186851501465 0.087729252874851227 0.1876208633184433
0.95193040370941162 0.16530697047710419 0.19528232514858246
0.003041824558749795 0.19130817055702209 0.16676411032676697
0.10576178133487701 0.19072441756725311 0.17015871405601501
0.29724156856536865 0.20360578596591949 0.187276691198349
0.49202451109886169 0.19243058562278748 0.18830488622188568
0.66850095987319946 0.18999333679676056 0.1942727267742157
0.81967973709106445 0.20813712477684021 0.19811511039733887
0.95727455615997314 0.26150840520858765 0.21021252870559692
0.0040114456787705421 0.33188194036483765 0.17659656703472137
0.10786164551973343 0.33483347296714783 0.18500687181949615
0.30618903040885925 0.33240461349487305 0.17727193236351013
0.51074230670928955 0.34503728151321411 0.18549551069736481
0.68906652927398682 0.3615783154964447 0.20554034411907196
0.83764123916625977 0.37466663122177124 0.21282096207141876
0.95985603332519531 0.40901759266853333 0.2318340390920639
0.004751542117446661 0.46850487589836121 0.18225915729999542
0.10062754154205322 0.46282365918159485 0.17631341516971588
0.28967490792274475 0.45239591598510742 0.15870435535907745
0.46764758229255676 0.45509657263755798 0.1277393102645874
0.64608526229858398 0.47559407353401184 0.12333869189023972
0.82844656705856323 0.52723163366317749 0.19076378643512726
0.96353757381439209 0.5729600191116333 0.25973182916641235
0.0075492560863494873 0.59521085023880005 0.15386034548282623
0.11528552323579788 0.58343982696533203 0.15083476901054382
0.26511466503143311 0.55733448266983032 0.13840460777282715
0.43609830737113953 0.57259702682495117 0.096969470381736755
0.59651917219161987 0.58127450942993164 0.043283306062221527
0.76728743314743042 0.61274200677871704 0.030741792172193527
0.9370531439781189 0.68345791101455688 0.16413548588752747
0.081500232219696045 0.73420423269271851 0.094980053603649139
0.1845485121011734 0.72795742750167847 0.083527736365795135
0.30804187059402466 0.713367760181427 0.071184046566486359
0.43667745590209961 0.70761775970458984 0.032109968364238739
0.59521245956420898 0.72949874401092529 0.0095732295885682106
0.75342613458633423 0.74882966279983521 0.0055170995183289051
0.90881562232971191 0.78184360265731812 0.0075485380366444588
0.3525010347366333 0.921764075756073 0.21709692478179932
0.38823184370994568 0.91953283548355103 0.20697160065174103
0.46197196841239929 0.91588670015335083 0.20018702745437622
0.55465739965438843 0.91309279203414917 0.18080483376979828
0.68452435731887817 0.92325806617736816 0.14817394316196442
0.82333171367645264 0.93641072511672974 0.11473988741636276
0.95130187273025513 0.94816762208938599 0.083846375346183777
0.00092549045803025365 0.13141326606273651 0.30711299180984497
0.030412321910262108 0.13174930214881897 0.31703761219978333
0.29269275069236755 0.15884491801261902 0.33959412574768066
0.4956187903881073 0.17743679881095886 0.3557945191860199
0.67821383476257324 0.14782556891441345 0.35814028978347778
0.82787293195724487 0.056490205228328705 0.32410731911659241
0.95720779895782471 0.092650666832923889 0.31507796049118042
0.0023869683500379324 0.2400393933057785 0.31363353133201599
0.061195194721221924 0.23271264135837555 0.33458834886550903
0.32174265384674072 0.25256821513175964 0.36215749382972717
0.52032077312469482 0.25564995408058167 0.36905744671821594
0.68472963571548462 0.22725951671600342 0.35368815064430237
0.82732111215591431 0.19857640564441681 0.33413928747177124
0.960857093334198 0.22824093699455261 0.32924848794937134
0.0072147892788052559 0.38441461324691772 0.34022054076194763
0.1049952507019043 0.38242456316947937 0.36035999655723572
0.35017779469490051 0.3847498893737793 0.37514689564704895
0.53809487819671631 0.38011503219604492 0.37226295471191406
0.69969570636749268 0.3700982928276062 0.36652228236198425
0.83916980028152466 0.36709776520729065 0.3588508665561676
0.96313983201980591 0.39655199646949768 0.35480141639709473
0.0085446378216147423 0.5312575101852417 0.34159258008003235
0.12332873046398163 0.5300452709197998 0.34791791439056396
0.33277785778045654 0.50837063789367676 0.34592843055725098
0.50903654098510742 0.50252228975296021 0.32799020409584045
0.68753719329833984 0.51993370056152344 0.34213393926620483
0.83870011568069458 0.54909485578536987 0.3750157356262207
0.95559340715408325 0.56713372468948364 0.38987469673156738
0.028944367542862892 0.65125447511672974 0.31849545240402222
0.17164342105388641 0.6497957706451416 0.32455682754516602
0.31479445099830627 0.61862647533416748 0.3068481981754303
0.45644250512123108 0.60643607378005981 0.27254465222358704
0.62427222728729248 0.61458438634872437 0.24790880084037781
0.78749817609786987 0.64048153162002563 0.25314062833786011
0.93887859582901001 0.70278942584991455 0.35805162787437439
0.068674691021442413 0.76671695709228516 0.2745329737663269
0.18837383389472961 0.76270836591720581 0.27083864808082581
0.31522539258003235 0.74705809354782104 0.25713843107223511
0.43366280198097229 0.72476834058761597 0.22247149050235748
0.59521210193634033 0.73995906114578247 0.19478233158588409
0.75734323263168335 0.75729894638061523 0.13152040541172028
0.91712623834609985 0.78872966766357422 0.11760950833559036
0.32927402853965759 0.93105912208557129 0.34758943319320679
0.37081030011177063 0.92986273765563965 0.34225291013717651
0.44713020324707031 0.9245229959487915 0.33109477162361145
0.54146230220794678 0.91706967353820801 0.31498780846595764
0.66816163063049316 0.92103004455566406 0.28618150949478149
0.81411957740783691 0.9339679479598999 0.26873031258583069
0.94571971893310547 0.94800323247909546 0.22472347319126129
0.00030347038409672678 0.20229034125804901 0.49657315015792847
0.0067455815151333809 0.19907797873020172 0.51087731122970581
0.28622430562973022 0.21872477233409882 0.54011076688766479
0.54774826765060425 0.2448892742395401 0.56108170747756958
0.71043592691421509 0.26838198304176331 0.56594091653823853
0.85646122694015503 0.3093915581703186 0.56898230314254761
0.97065424919128418 0.29974797368049622 0.54703956842422485
0.0039390712045133114 0.31689679622650146 0.50729918479919434
0.011300330050289631 0.29487678408622742 0.52814787626266479
0.31611290574073792 0.30312740802764893 0.55994331836700439
0.5699954628944397 0.33346936106681824 0.57911878824234009
0.71953397989273071 0.34853893518447876 0.57378733158111572
0.85266458988189697 0.36844885349273682 0.56527042388916016
0.9688076376914978 0.35048037767410278 0.54249680042266846
0.0071540833450853825 0.43977129459381104 0.52019476890563965
0.065131694078445435 0.44247856736183167 0.53257888555526733
0.34583750367164612 0.43995720148086548 0.56169277429580688
0.5767396092414856 0.46054637432098389 0.58330225944519043
0.71964973211288452 0.46758225560188293 0.58101820945739746
0.84428966045379639 0.43818011879920959 0.54585379362106323
0.96447384357452393 0.40941151976585388 0.51584160327911377
0.0085681239143013954 0.58883929252624512 0.53513044118881226
0.096529074013233185 0.58321094512939453 0.54794597625732422
0.3652692437171936 0.58173239231109619 0.55595964193344116
0.55990248918533325 0.58244818449020386 0.57090705633163452
0.71332633495330811 0.57540738582611084 0.56617432832717896
0.83393281698226929 0.55387789011001587 0.53968948125839233
0.95125323534011841 0.5573311448097229 0.5276603102684021
0.0059214122593402863 0.71724015474319458 0.51807308197021484
0.1530735194683075 0.70970457792282104 0.51360857486724854
0.36537477374076843 0.698680579662323 0.51909101009368896
0.50593763589859009 0.67487937211990356 0.50362640619277954
0.65600752830505371 0.66735994815826416 0.4793471097946167
0.81305944919586182 0.69248312711715698 0.4991055428981781
0.94089293479919434 0.72932606935501099 0.56686979532241821
0.031446702778339386 0.82442492246627808 0.47263723611831665
0.15890158712863922 0.81992685794830322 0.47156596183776855
0.34528842568397522 0.80689626932144165 0.47237026691436768
0.46170920133590698 0.77627164125442505 0.42877861857414246
0.59502178430557251 0.76396197080612183 0.39387154579162598
0.76668834686279297 0.77577358484268188 0.37343981862068176
0.92315995693206787 0.80848795175552368 0.39868906140327454
0.32574892044067383 0.95047736167907715 0.51779890060424805
0.36283791065216064 0.9463268518447876 0.50946015119552612
0.43988204002380371 0.94003176689147949 0.49482470750808716
0.53526395559310913 0.93181753158569336 0.47029447555541992
0.64689731597900391 0.92293232679367065 0.43785351514816284
0.80066889524459839 0.93399882316589355 0.42650192975997925
0.94054985046386719 0.94859069585800171 0.4086136519908905
0.00044993980554863811 0.2967427670955658 0.69663703441619873
0.0050747888162732124 0.28794494271278381 0.70878493785858154
0.22054503858089447 0.29081663489341736 0.7276681661605835
0.55780130624771118 0.34137877821922302 0.74572831392288208
0.74234849214553833 0.38048240542411804 0.74914222955703735
0.8556094765663147 0.42036721110343933 0.74605554342269897
0.95910972356796265 0.52793300151824951 0.75789332389831543
0.0039215688593685627 0.39647772908210754 0.69388502836227417
0.0062533658929169178 0.37461307644844055 0.71314036846160889
0.2536015510559082 0.36347183585166931 0.73334866762161255
0.56555891036987305 0.41501161456108093 0.7516477108001709
0.74777519702911377 0.45458409190177917 0.75373870134353638
0.85782569646835327 0.4806058406829834 0.74726665019989014
0.95482712984085083 0.57643455266952515 0.7648051381111145
0.0076895919628441334 0.51549124717712402 0.69379174709320068
0.094418168067932129 0.51230430603027344 0.70676189661026001
0.32205045223236084 0.49176898598670959 0.722911536693573
0.570792555809021 0.53071743249893188 0.7443162202835083
0.74554508924484253 0.57390660047531128 0.75877100229263306
0.84767472743988037 0.59556466341018677 0.75455212593078613
0.94269883632659912 0.63052970170974731 0.7599722146987915
0.0046206307597458363 0.62783819437026978 0.68338203430175781
0.043530229479074478 0.6290358304977417 0.69084614515304565
0.34522747993469238 0.62611842155456543 0.69926959276199341
0.56352013349533081 0.64793235063552856 0.73433172702789307
0.73240423202514648 0.67616075277328491 0.75735658407211304
0.83524686098098755 0.68800169229507446 0.75620335340499878
0.93545788526535034 0.66256314516067505 0.72755908966064453
0.056780092418193817 0.75203996896743774 0.70239794254302979
0.18894682824611664 0.75169801712036133 0.70580816268920898
0.38686501979827881 0.75712484121322632 0.70785903930664062
0.55944329500198364 0.75785166025161743 0.72246825695037842
0.7040097713470459 0.75619548559188843 0.72659856081008911
0.82457065582275391 0.74708759784698486 0.72890585660934448
0.93208461999893188 0.72989511489868164 0.71059715747833252
0.22571137547492981 0.86883318424224854 0.68809431791305542
0.29360207915306091 0.86586636304855347 0.68340015411376953
0.40575963258743286 0.86083018779754639 0.6811259388923645
0.54259860515594482 0.85047644376754761 0.68843787908554077
0.64344543218612671 0.82005679607391357 0.65246593952178955
0.78229498863220215 0.81502044200897217 0.62676304578781128
0.92059046030044556 0.84560447931289673 0.67221665382385254
0.34624052047729492 0.96681463718414307 0.6808515191078186
0.38303154706954956 0.96574407815933228 0.68030649423599243
0.46155676245689392 0.96024560928344727 0.67899638414382935
0.55976736545562744 0.95417958498001099 0.67354816198348999
0.6607174277305603 0.94229638576507568 0.64533746242523193
0.78197616338729858 0.93806880712509155 0.6105009913444519
0.92949044704437256 0.95152348279953003 0.60473436117172241
0.00036109474604018033 0.4134218692779541 0.85604804754257202
0.0074485628865659237 0.40093180537223816 0.85620325803756714
0.20160257816314697 0.39435812830924988 0.86755895614624023
0.54067128896713257 0.4503212571144104 0.86884778738021851
0.74157810211181641 0.52989417314529419 0.87947976589202881
0.86188459396362305 0.56810301542282104 0.87424033880233765
0.94393128156661987 0.60573321580886841 0.87334293127059937
0.0078069199807941914 0.48464402556419373 0.85018718242645264
0.0065237157978117466 0.47082400321960449 0.85869365930557251
0.25921666622161865 0.45670995116233826 0.86853045225143433
0.54732292890548706 0.51380085945129395 0.86859697103500366
0.74676686525344849 0.58455592393875122 0.87855547666549683
0.86186403036117554 0.61701881885528564 0.87260192632675171
0.93822985887527466 0.6474718451499939 0.87554949522018433
0.076069086790084839 0.5976860523223877 0.84552145004272461
0.19243265688419342 0.59054708480834961 0.85047107934951782
0.35904467105865479 0.57121121883392334 0.85581725835800171
0.55962669849395752 0.59872925281524658 0.86824768781661987
0.74267017841339111 0.66828882694244385 0.87875449657440186
0.85271424055099487 0.69577294588088989 0.87817013263702393
0.92716401815414429 0.7159920334815979 0.88148039579391479
0.03421388566493988 0.69477951526641846 0.82619065046310425
0.18829366564750671 0.69256764650344849 0.82769918441772461
0.41456910967826843 0.69457697868347168 0.83611208200454712
0.56550365686416626 0.69776183366775513 0.85347574949264526
0.72511827945709229 0.73817902803421021 0.87220686674118042
0.84545433521270752 0.76906472444534302 0.87944722175598145
0.91707438230514526 0.79349130392074585 0.8867485523223877
0.014527250081300735 0.79336029291152954 0.82563906908035278
0.16832965612411499 0.79029244184494019 0.82577157020568848
0.37046769261360168 0.78930467367172241 0.82683932781219482
0.539642333984375 0.78856199979782104 0.83531039953231812
0.7037091851234436 0.81013935804367065 0.85833048820495605
0.83979469537734985 0.83547049760818481 0.88038688898086548
0.91201746463775635 0.84794193506240845 0.88662981986999512
0.28439298272132874 0.89185702800750732 0.8398163914680481
0.35201868414878845 0.89123964309692383 0.8401300311088562
0.45832005143165588 0.89116364717483521 0.84159731864929199
0.58145785331726074 0.88971108198165894 0.84665095806121826
0.70971894264221191 0.88722413778305054 0.85739743709564209
0.82528960704803467 0.890788733959198 0.86568111181259155
0.91511189937591553 0.88761276006698608 0.86489474773406982
0.50196069478988647 0.97766244411468506 0.85035806894302368
0.52652907371520996 0.97848767042160034 0.84929651021957397
0.57292044162750244 0.97064828872680664 0.84366267919540405
0.64811122417449951 0.9673658013343811 0.84181398153305054
0.72393906116485596 0.96720504760742188 0.84366083145141602
0.80077821016311646 0.95836162567138672 0.82046127319335938
0.91481995582580566 0.95772957801818848 0.80368298292160034
0.15449224412441254 0.57841527462005615 0.96378159523010254
0.23188714683055878 0.57029563188552856 0.96419680118560791
0.40196096897125244 0.57274770736694336 0.96155697107315063
0.59743267297744751 0.61229610443115234 0.9607081413269043
0.74886971712112427 0.67071783542633057 0.95922607183456421
0.86007732152938843 0.72941762208938599 0.95775580406188965
0.93124902248382568 0.75923258066177368 0.95686745643615723
0.27677038311958313 0.63162010908126831 0.96114140748977661
0.33449247479438782 0.62662637233734131 0.96162253618240356
0.43976205587387085 0.62014573812484741 0.95960128307342529
0.6056029200553894 0.65251773595809937 0.96053457260131836
0.75257450342178345 0.70124375820159912 0.95936954021453857
0.86274737119674683 0.75800025463104248 0.96057534217834473
0.92726582288742065 0.77743279933929443 0.9575914740562439
0.38984400033950806 0.71558147668838501 0.95169419050216675
0.42274469137191772 0.70978331565856934 0.95042157173156738
0.49935066699981689 0.69729149341583252 0.95401841402053833
0.622783362865448 0.71350878477096558 0.95680385828018188
0.75121486186981201 0.74781852960586548 0.95495307445526123
0.86250096559524536 0.79604977369308472 0.96038258075714111
0.9235883355140686 0.81719303131103516 0.95965254306793213
0.41871315240859985 0.79448854923248291 0.94285279512405396
0.46522217988967896 0.79251134395599365 0.94195175170898438
0.54405677318572998 0.78682088851928711 0.94360345602035522
0.62795567512512207 0.77941113710403442 0.94937103986740112
0.73900711536407471 0.79792708158493042 0.95366382598876953
0.85397505760192871 0.83353209495544434 0.95827937126159668
0.91484290361404419 0.86007553339004517 0.96023058891296387
0.31598928570747375 0.86055296659469604 0.93441200256347656
0.37144207954406738 0.85694974660873413 0.93368655443191528
0.4792453944683075 0.85157853364944458 0.93275308609008789
0.61209774017333984 0.85310494899749756 0.94224280118942261
0.73753905296325684 0.85853689908981323 0.95022130012512207
0.84991395473480225 0.88154995441436768 0.96045362949371338
0.91173166036605835 0.90370070934295654 0.96521139144897461
0.42606154084205627 0.93470191955566406 0.9450262188911438
0.45037040114402771 0.93197369575500488 0.94055277109146118
0.52726483345031738 0.92915827035903931 0.94354104995727539
0.60830175876617432 0.92373299598693848 0.94470334053039551
0.72077584266662598 0.92071670293807983 0.94879144430160522
0.83605504035949707 0.92760652303695679 0.96013015508651733
0.91075080633163452 0.94654828310012817 0.96891552209854126
0.58011972904205322 0.99336069822311401 0.95526480674743652
0.59652137756347656 0.99125707149505615 0.95546746253967285
0.63450121879577637 0.98864781856536865 0.95624864101409912
0.69939988851547241 0.98581922054290771 0.95713895559310913
0.77114260196685791 0.98199671506881714 0.95819765329360962
0.83755201101303101 0.98161214590072632 0.96127414703369141
0.90762102603912354 0.98388588428497314 0.96807217597961426
