luts/instant_pro/polaroid_665_negative.cube
# Created by: G'MIC (https://gmic.eu)
TITLE "polaroid_665_negative"
# LUT size
LUT_3D_SIZE 5
# Data domain
DOMAIN_MIN 0.0 0.0 0.0
DOMAIN_MAX 1.0 1.0 1.0
# LUT data points
0.035117264837026596 0.035117264837026596 0.035117264837026596
0.078842014074325562 0.078842014074325562 0.078842014074325562
0.21605932712554932 0.21605932712554932 0.21605932712554932
0.3761233389377594 0.3761233389377594 0.3761233389377594
0.55628526210784912 0.55628526210784912 0.55628526210784912
0.17495186626911163 0.17495186626911163 0.17495186626911163
0.19354675710201263 0.19354675710201263 0.19354675710201263
0.27626848220825195 0.27626848220825195 0.27626848220825195
0.41546362638473511 0.41546362638473511 0.41546362638473511
0.58904075622558594 0.58904075622558594 0.58904075622558594
0.39670732617378235 0.39670732617378235 0.39670732617378235
0.3866780698299408 0.3866780698299408 0.3866780698299408
0.40949723124504089 0.40949723124504089 0.40949723124504089
0.50395327806472778 0.50395327806472778 0.50395327806472778
0.66949355602264404 0.66949355602264404 0.66949355602264404
0.62382882833480835 0.62382882833480835 0.62382882833480835
0.60994118452072144 0.60994118452072144 0.60994118452072144
0.60910850763320923 0.60910850763320923 0.60910850763320923
0.64830517768859863 0.64830517768859863 0.64830517768859863
0.76125919818878174 0.76125919818878174 0.76125919818878174
0.84657585620880127 0.84657585620880127 0.84657585620880127
0.83382773399353027 0.83382773399353027 0.83382773399353027
0.83566534519195557 0.83566534519195557 0.83566534519195557
0.84627252817153931 0.84627252817153931 0.84627252817153931
0.88466298580169678 0.88466298580169678 0.88466298580169678
0.171800896525383 0.171800896525383 0.171800896525383
0.20858551561832428 0.20858551561832428 0.20858551561832428
0.28561156988143921 0.28561156988143921 0.28561156988143921
0.43763548135757446 0.43763548135757446 0.43763548135757446
0.59282845258712769 0.59282845258712769 0.59282845258712769
0.26349210739135742 0.26349210739135742 0.26349210739135742
0.28974390029907227 0.28974390029907227 0.28974390029907227
0.34607723355293274 0.34607723355293274 0.34607723355293274
0.46613949537277222 0.46613949537277222 0.46613949537277222
0.62156283855438232 0.62156283855438232 0.62156283855438232
0.48435118794441223 0.48435118794441223 0.48435118794441223
0.46062898635864258 0.46062898635864258 0.46062898635864258
0.46788683533668518 0.46788683533668518 0.46788683533668518
0.54390996694564819 0.54390996694564819 0.54390996694564819
0.68023550510406494 0.68023550510406494 0.68023550510406494
0.67666971683502197 0.67666971683502197 0.67666971683502197
0.65869957208633423 0.65869957208633423 0.65869957208633423
0.64945894479751587 0.64945894479751587 0.64945894479751587
0.67687630653381348 0.67687630653381348 0.67687630653381348
0.7644340991973877 0.7644340991973877 0.7644340991973877
0.86006456613540649 0.86006456613540649 0.86006456613540649
0.85150885581970215 0.85150885581970215 0.85150885581970215
0.84494310617446899 0.84494310617446899 0.84494310617446899
0.84565252065658569 0.84565252065658569 0.84565252065658569
0.8816070556640625 0.8816070556640625 0.8816070556640625
0.40881898999214172 0.40881898999214172 0.40881898999214172
0.44164678454399109 0.44164678454399109 0.44164678454399109
0.48041990399360657 0.48041990399360657 0.48041990399360657
0.52005624771118164 0.52005624771118164 0.52005624771118164
0.66626012325286865 0.66626012325286865 0.66626012325286865
0.43621337413787842 0.43621337413787842 0.43621337413787842
0.47339588403701782 0.47339588403701782 0.47339588403701782
0.51292628049850464 0.51292628049850464 0.51292628049850464
0.56442856788635254 0.56442856788635254 0.56442856788635254
0.69483822584152222 0.69483822584152222 0.69483822584152222
0.54848778247833252 0.54848778247833252 0.54848778247833252
0.55975770950317383 0.55975770950317383 0.55975770950317383
0.58340418338775635 0.58340418338775635 0.58340418338775635
0.63050800561904907 0.63050800561904907 0.63050800561904907
0.73017692565917969 0.73017692565917969 0.73017692565917969
0.74855464696884155 0.74855464696884155 0.74855464696884155
0.72821152210235596 0.72821152210235596 0.72821152210235596
0.72816848754882812 0.72816848754882812 0.72816848754882812
0.73700326681137085 0.73700326681137085 0.73700326681137085
0.7937086820602417 0.7937086820602417 0.7937086820602417
0.89662086963653564 0.89662086963653564 0.89662086963653564
0.88804340362548828 0.88804340362548828 0.88804340362548828
0.87755453586578369 0.87755453586578369 0.87755453586578369
0.8666762113571167 0.8666762113571167 0.8666762113571167
0.8915410041809082 0.8915410041809082 0.8915410041809082
0.65269953012466431 0.65269953012466431 0.65269953012466431
0.6682857871055603 0.6682857871055603 0.6682857871055603
0.70666110515594482 0.70666110515594482 0.70666110515594482
0.70612138509750366 0.70612138509750366 0.70612138509750366
0.75642126798629761 0.75642126798629761 0.75642126798629761
0.68020647764205933 0.68020647764205933 0.68020647764205933
0.68390947580337524 0.68390947580337524 0.68390947580337524
0.70442348718643188 0.70442348718643188 0.70442348718643188
0.72005975246429443 0.72005975246429443 0.72005975246429443
0.76735496520996094 0.76735496520996094 0.76735496520996094
0.69449776411056519 0.69449776411056519 0.69449776411056519
0.70131886005401611 0.70131886005401611 0.70131886005401611
0.72010213136672974 0.72010213136672974 0.72010213136672974
0.7396654486656189 0.7396654486656189 0.7396654486656189
0.79887109994888306 0.79887109994888306 0.79887109994888306
0.780281662940979 0.780281662940979 0.780281662940979
0.78693509101867676 0.78693509101867676 0.78693509101867676
0.803000807762146 0.803000807762146 0.803000807762146
0.80569887161254883 0.80569887161254883 0.80569887161254883
0.84147775173187256 0.84147775173187256 0.84147775173187256
0.9203563928604126 0.9203563928604126 0.9203563928604126
0.91350197792053223 0.91350197792053223 0.91350197792053223
0.90839952230453491 0.90839952230453491 0.90839952230453491
0.89586693048477173 0.89586693048477173 0.89586693048477173
0.91252058744430542 0.91252058744430542 0.91252058744430542
0.86856049299240112 0.86856049299240112 0.86856049299240112
0.87162572145462036 0.87162572145462036 0.87162572145462036
0.88792926073074341 0.88792926073074341 0.88792926073074341
0.90047645568847656 0.90047645568847656 0.90047645568847656
0.89635413885116577 0.89635413885116577 0.89635413885116577
0.88115030527114868 0.88115030527114868 0.88115030527114868
0.87879902124404907 0.87879902124404907 0.87879902124404907
0.88811260461807251 0.88811260461807251 0.88811260461807251
0.90368247032165527 0.90368247032165527 0.90368247032165527
0.89863276481628418 0.89863276481628418 0.89863276481628418
0.87876981496810913 0.87876981496810913 0.87876981496810913
0.87170302867889404 0.87170302867889404 0.87170302867889404
0.87629342079162598 0.87629342079162598 0.87629342079162598
0.88901907205581665 0.88901907205581665 0.88901907205581665
0.91415631771087646 0.91415631771087646 0.91415631771087646
0.88933694362640381 0.88933694362640381 0.88933694362640381
0.88889104127883911 0.88889104127883911 0.88889104127883911
0.89462471008300781 0.89462471008300781 0.89462471008300781
0.8990587592124939 0.8990587592124939 0.8990587592124939
0.9228091835975647 0.9228091835975647 0.9228091835975647
0.94878476858139038 0.94878476858139038 0.94878476858139038
0.95239877700805664 0.95239877700805664 0.95239877700805664
0.95352470874786377 0.95352470874786377 0.95352470874786377
0.94795358180999756 0.94795358180999756 0.94795358180999756
0.96041607856750488 0.96041607856750488 0.96041607856750488
