luts/instant_pro/polaroid_669_cold.cube
# Created by: G'MIC (https://gmic.eu)
TITLE "polaroid_669_cold"
# LUT size
LUT_3D_SIZE 13
# Data domain
DOMAIN_MIN 0.0 0.0 0.0
DOMAIN_MAX 1.0 1.0 1.0
# LUT data points
0.001486550085246563 0.19557704031467438 0.25195115804672241
0.0038861741777509451 0.19877460598945618 0.25804868340492249
0.0038962869439274073 0.20121268928050995 0.2627750039100647
0.0065309260971844196 0.20241107046604156 0.26451006531715393
0.070121601223945618 0.20442536473274231 0.2701650857925415
0.17353731393814087 0.20815487205982208 0.28018146753311157
0.26962769031524658 0.20958833396434784 0.28756916522979736
0.36817699670791626 0.20807395875453949 0.29793420433998108
0.47120583057403564 0.20414687693119049 0.31050613522529602
0.56940829753875732 0.19914287328720093 0.32245033979415894
0.66730964183807373 0.1942756175994873 0.33579078316688538
0.75620436668395996 0.19738198816776276 0.34882631897926331
0.84130215644836426 0.20748472213745117 0.36573797464370728
0.0030038421973586082 0.2152373194694519 0.26706430315971375
0.0039215688593685627 0.21525715291500092 0.26785740256309509
0.0065210228785872459 0.21527685225009918 0.27152147889137268
0.01546065416187048 0.21521943807601929 0.27441287040710449
0.089921794831752777 0.21663650870323181 0.28002449870109558
0.19130203127861023 0.21889227628707886 0.2867431640625
0.28954091668128967 0.21975885331630707 0.29440432786941528
0.39244666695594788 0.21945683658123016 0.30688849091529846
0.49217012524604797 0.21583643555641174 0.31736856698989868
0.58569842576980591 0.21249257028102875 0.32773834466934204
0.67709928750991821 0.21273073554039001 0.3412325382232666
0.76487123966217041 0.21552111208438873 0.35391029715538025
0.84660148620605469 0.22914864122867584 0.37264388799667358
0.0033747055567800999 0.2345588207244873 0.28363499045372009
0.0039215688593685627 0.2345588207244873 0.28132560849189758
0.0058651044964790344 0.2345588207244873 0.27997177839279175
0.033393502235412598 0.23527899384498596 0.2833922803401947
0.12767376005649567 0.23988084495067596 0.29067537188529968
0.22653672099113464 0.24080699682235718 0.29780358076095581
0.3256455659866333 0.24353399872779846 0.3076319694519043
0.42704892158508301 0.24500741064548492 0.32043808698654175
0.52454584836959839 0.24404157698154449 0.33105581998825073
0.61160409450531006 0.24368028342723846 0.34040600061416626
0.69663447141647339 0.24135766923427582 0.35053959488868713
0.77865856885910034 0.24357131123542786 0.3623788058757782
0.85681718587875366 0.26195690035820007 0.38270315527915955
0.0025324353482574224 0.25614446401596069 0.30018016695976257
0.0040948456153273582 0.25794258713722229 0.29697135090827942
0.0063249026425182819 0.25602525472640991 0.29177382588386536
0.059660010039806366 0.25841465592384338 0.29226592183113098
0.17274919152259827 0.26576641201972961 0.30079805850982666
0.26826268434524536 0.26717972755432129 0.30920189619064331
0.36765572428703308 0.2720026969909668 0.32160776853561401
0.46922299265861511 0.27794122695922852 0.33561611175537109
0.55897504091262817 0.27953031659126282 0.34664228558540344
0.63955289125442505 0.28115564584732056 0.35550037026405334
0.71915286779403687 0.28449985384941101 0.36583253741264343
0.79361569881439209 0.29700386524200439 0.38069367408752441
0.86624014377593994 0.31302624940872192 0.39818421006202698
0.0037899091839790344 0.29122671484947205 0.31549060344696045
0.004741414450109005 0.28995212912559509 0.31197893619537354
0.020405668765306473 0.28812676668167114 0.30807417631149292
0.10729590058326721 0.29337027668952942 0.30978196859359741
0.20560531318187714 0.29889515042304993 0.31436583399772644
0.29443839192390442 0.3015383780002594 0.32087361812591553
0.38995888829231262 0.30634191632270813 0.33003875613212585
0.49481651186943054 0.31489324569702148 0.34613454341888428
0.58745265007019043 0.32475060224533081 0.36089238524436951
0.66634911298751831 0.32870429754257202 0.37044072151184082
0.73654079437255859 0.33952349424362183 0.38339674472808838
0.80679064989089966 0.35807454586029053 0.39945194125175476
0.87374764680862427 0.37876239418983459 0.41840916872024536
0.010199587792158127 0.3312893807888031 0.32891842722892761
0.031112641096115112 0.33155134320259094 0.32828524708747864
0.073850415647029877 0.33016908168792725 0.32679077982902527
0.15190689265727997 0.33306819200515747 0.32874345779418945
0.23177514970302582 0.33615309000015259 0.33187279105186462
0.31425091624259949 0.33960282802581787 0.33450165390968323
0.3966459333896637 0.34365546703338623 0.33572447299957275
0.48967355489730835 0.35274419188499451 0.34724733233451843
0.58958816528320312 0.3698481023311615 0.36648231744766235
0.68078488111495972 0.3925507664680481 0.38608488440513611
0.74957883358001709 0.41381633281707764 0.40532034635543823
0.81922942399978638 0.43071848154067993 0.42151930928230286
0.88071560859680176 0.45736721158027649 0.44411304593086243
0.06663927435874939 0.38236263394355774 0.34619474411010742
0.10211861133575439 0.38135218620300293 0.34654054045677185
0.14148348569869995 0.37762266397476196 0.34548699855804443
0.19026580452919006 0.37545034289360046 0.34618487954139709
0.25425761938095093 0.37742906808853149 0.34750404953956604
0.3296872079372406 0.38349562883377075 0.34841534495353699
0.40496110916137695 0.38886091113090515 0.34802314639091492
0.48479762673377991 0.39467677474021912 0.34971803426742554
0.57483261823654175 0.41331535577774048 0.3633938729763031
0.66701614856719971 0.44410005211830139 0.38623437285423279
0.74780106544494629 0.48012760281562805 0.4152352511882782
0.82677626609802246 0.51685154438018799 0.44735479354858398
0.87795418500900269 0.55146318674087524 0.48054009675979614
0.131761834025383 0.44238412380218506 0.36364865303039551
0.15634463727474213 0.43604600429534912 0.3631540834903717
0.18472114205360413 0.4295068085193634 0.36173370480537415
0.22401812672615051 0.42808759212493896 0.36215054988861084
0.27582037448883057 0.4294382631778717 0.36244872212409973
0.34229710698127747 0.43466800451278687 0.36278519034385681
0.41307953000068665 0.44201651215553284 0.3629765510559082
0.48950010538101196 0.45353272557258606 0.36358815431594849
0.56884086132049561 0.4659709632396698 0.36581146717071533
0.65115857124328613 0.48942252993583679 0.37861314415931702
0.73127561807632446 0.53047835826873779 0.40798535943031311
0.80693191289901733 0.57405722141265869 0.44645342230796814
0.86710941791534424 0.62507456541061401 0.49689164757728577
0.18327295780181885 0.50335246324539185 0.37910658121109009
0.20000390708446503 0.50119000673294067 0.37924513220787048
0.22308264672756195 0.49431484937667847 0.37793543934822083
0.25655573606491089 0.48969903588294983 0.37811452150344849
0.2983366847038269 0.48604774475097656 0.37737384438514709
0.35833537578582764 0.49681743979454041 0.37767142057418823
0.42311939597129822 0.51203638315200806 0.37993228435516357
0.49610674381256104 0.52625107765197754 0.38116899132728577
0.5720399022102356 0.5385327935218811 0.38064610958099365
0.64409124851226807 0.55432450771331787 0.3816167414188385
0.7168312668800354 0.5811951756477356 0.39719125628471375
0.78809076547622681 0.62665724754333496 0.43808913230895996
0.84948116540908813 0.68053525686264038 0.49042156338691711
0.21969808638095856 0.59456771612167358 0.39857494831085205
0.23450620472431183 0.59247231483459473 0.39871606230735779
0.25647264719009399 0.58427572250366211 0.39729949831962585
0.28727057576179504 0.57618707418441772 0.39461216330528259
0.3228946328163147 0.56821984052658081 0.39318534731864929
0.37608319520950317 0.57609015703201294 0.39385411143302917
0.43825438618659973 0.59300804138183594 0.39786145091056824
0.5023537278175354 0.61091536283493042 0.40025496482849121
0.57239025831222534 0.62577629089355469 0.39992937445640564
0.64161068201065063 0.64230245351791382 0.40027973055839539
0.70876282453536987 0.65973156690597534 0.40386119484901428
0.7729640007019043 0.68615138530731201 0.42387503385543823
0.83317321538925171 0.73553448915481567 0.47254776954650879
0.2521175742149353 0.69865310192108154 0.41954287886619568
0.26518866419792175 0.6962287425994873 0.42106297612190247
0.28809055685997009 0.69217914342880249 0.42378300428390503
0.31603953242301941 0.68062680959701538 0.41782638430595398
0.35091528296470642 0.671703040599823 0.4155920147895813
0.39420706033706665 0.66997379064559937 0.41514897346496582
0.45220181345939636 0.68603193759918213 0.42009714245796204
0.51376348733901978 0.70314222574234009 0.42420318722724915
0.57509791851043701 0.71928590536117554 0.42573735117912292
0.63868719339370728 0.73790097236633301 0.42645221948623657
0.70302057266235352 0.75707411766052246 0.42860957980155945
0.76315093040466309 0.77128583192825317 0.43660223484039307
0.81884902715682983 0.79861569404602051 0.45963731408119202
0.29078426957130432 0.80916798114776611 0.45974060893058777
0.30260404944419861 0.80744838714599609 0.46103262901306152
0.31938958168029785 0.8038068413734436 0.45948773622512817
0.34762129187583923 0.80057591199874878 0.45863699913024902
0.38064867258071899 0.79551684856414795 0.45795795321464539
0.41763043403625488 0.79047578573226929 0.45300427079200745
0.47083380818367004 0.8004189133644104 0.45999833941459656
0.52802461385726929 0.81168997287750244 0.46737554669380188
0.58494710922241211 0.82623732089996338 0.47052371501922607
0.6425633430480957 0.84147191047668457 0.47607636451721191
0.70144528150558472 0.85890287160873413 0.482728511095047
0.75949865579605103 0.87511235475540161 0.49782797694206238
0.80700701475143433 0.88734579086303711 0.50756359100341797
0.38733527064323425 0.92088812589645386 0.55190205574035645
0.39168360829353333 0.92079746723175049 0.54872840642929077
0.40106883645057678 0.91915661096572876 0.54386508464813232
0.42258056998252869 0.91731798648834229 0.54388642311096191
0.44911366701126099 0.91590648889541626 0.54449635744094849
0.48065778613090515 0.91484272480010986 0.54366368055343628
0.52109968662261963 0.91813695430755615 0.54701578617095947
0.57509952783584595 0.92200905084609985 0.56153374910354614
0.62676495313644409 0.93112939596176147 0.57440483570098877
0.67582833766937256 0.93995261192321777 0.58241158723831177
0.72982370853424072 0.95009273290634155 0.60257822275161743
0.7875933051109314 0.95735937356948853 0.63318264484405518
0.83355212211608887 0.96566343307495117 0.65336161851882935
0.0020301071926951408 0.20005926489830017 0.27156183123588562
0.0039215688593685627 0.20256915688514709 0.2759610116481781
0.0062446743249893188 0.20536080002784729 0.27973949909210205
0.010111176408827305 0.20735575258731842 0.2813047468662262
0.074138730764389038 0.20858903229236603 0.28569570183753967
0.18289339542388916 0.21062621474266052 0.2941896915435791
0.27797076106071472 0.21289554238319397 0.30245959758758545
0.3788096010684967 0.21056987345218658 0.3152366578578949
0.48158726096153259 0.20568497478961945 0.3300936222076416
0.57687151432037354 0.19993652403354645 0.3445746898651123
0.6690717339515686 0.19662021100521088 0.35497179627418518
0.75735056400299072 0.19551852345466614 0.36316677927970886
0.84026634693145752 0.20602013170719147 0.37836101651191711
0.0029507505241781473 0.21755717694759369 0.28340622782707214
0.0039215688593685627 0.2180902361869812 0.28512957692146301
0.0062766578048467636 0.21776142716407776 0.28694641590118408
0.01554718054831028 0.21714724600315094 0.28740102052688599
0.096473708748817444 0.21994079649448395 0.29418516159057617
0.20167072117328644 0.22183951735496521 0.30237579345703125
0.299317866563797 0.22195950150489807 0.31028339266777039
0.40053585171699524 0.22136504948139191 0.32308566570281982
0.49928170442581177 0.21887724101543427 0.33571648597717285
0.59305787086486816 0.21543261408805847 0.3484555184841156
0.68035489320755005 0.21576836705207825 0.35998216271400452
0.76441442966461182 0.21685774624347687 0.37074416875839233
0.84653526544570923 0.22796551883220673 0.38597345352172852
0.0027477189432829618 0.23658581078052521 0.2957158088684082
0.0039215688593685627 0.23731160163879395 0.29606926441192627
0.0053684161975979805 0.23691931366920471 0.29544949531555176
0.034855861216783524 0.23764242231845856 0.29832252860069275
0.1367562860250473 0.24313244223594666 0.30652862787246704
0.23926082253456116 0.24577993154525757 0.31534883379936218
0.33602547645568848 0.24859780073165894 0.32597947120666504
0.43287533521652222 0.24747496843338013 0.3365325927734375
0.52549189329147339 0.24334479868412018 0.34564125537872314
0.61601376533508301 0.24182556569576263 0.35555782914161682
0.69919168949127197 0.24318481981754303 0.36745983362197876
0.77803725004196167 0.24649755656719208 0.3792615532875061
0.85627764463424683 0.26342999935150146 0.3973287045955658
0.0015828150790184736 0.2574712336063385 0.30785399675369263
0.0043242811225354671 0.26103982329368591 0.30940216779708862
0.0069498550146818161 0.26009276509284973 0.3069101870059967
0.066936194896697998 0.26271793246269226 0.30865257978439331
0.18284012377262115 0.27022078633308411 0.31805828213691711
0.27717036008834839 0.27425083518028259 0.33064922690391541
0.3733176589012146 0.27874180674552917 0.34263402223587036
0.47128501534461975 0.2808433473110199 0.35259884595870972
0.55817443132400513 0.2768387496471405 0.3580842912197113
0.63994443416595459 0.27674919366836548 0.36567112803459167
0.71902060508728027 0.28422114253044128 0.37915182113647461
0.79360300302505493 0.29329696297645569 0.39349406957626343
0.86379885673522949 0.31337267160415649 0.41259467601776123
0.0037055520806461573 0.29427215456962585 0.32462164759635925
0.0068484288640320301 0.29488274455070496 0.32549956440925598
0.02778097428381443 0.29342225193977356 0.32398930191993713
0.1184798926115036 0.29808637499809265 0.32640546560287476
0.21658559143543243 0.30470329523086548 0.33190590143203735
0.30350169539451599 0.3093256950378418 0.33904081583023071
0.3981231153011322 0.31318506598472595 0.34977570176124573
0.4995729923248291 0.31866681575775146 0.3651643693447113
0.58941304683685303 0.32609295845031738 0.37593981623649597
0.66812610626220703 0.33233228325843811 0.38537698984146118
0.73981428146362305 0.34078764915466309 0.39617854356765747
0.81000047922134399 0.35555616021156311 0.41130957007408142
0.8712652325630188 0.38138893246650696 0.4327753484249115
0.014257334172725677 0.3389313817024231 0.34155294299125671
0.03726055845618248 0.33920508623123169 0.34248688817024231
0.091231837868690491 0.33602854609489441 0.3422313928604126
0.16361621022224426 0.3370462954044342 0.34434413909912109
0.24502675235271454 0.3438589870929718 0.34932348132133484
0.32554855942726135 0.34770432114601135 0.34983363747596741
0.40749621391296387 0.35047399997711182 0.3512132465839386
0.49979314208030701 0.35940897464752197 0.36556479334831238
0.59724223613739014 0.37466603517532349 0.38389313220977783
0.68633109331130981 0.39544796943664551 0.40237918496131897
0.7550196647644043 0.41274926066398621 0.41708606481552124
0.82179802656173706 0.43511104583740234 0.43643692135810852
0.88102519512176514 0.46296632289886475 0.45917227864265442
0.088194936513900757 0.39209505915641785 0.36030259728431702
0.11114843189716339 0.39072194695472717 0.36042922735214233
0.1509031355381012 0.38702470064163208 0.35997968912124634
0.20161837339401245 0.38474962115287781 0.36199820041656494
0.26907140016555786 0.38823452591896057 0.36560124158859253
0.3439171314239502 0.39408722519874573 0.36459016799926758
0.41705197095870972 0.3995574414730072 0.36345604062080383
0.49667608737945557 0.40243950486183167 0.36643224954605103
0.58378881216049194 0.41942372918128967 0.37921059131622314
0.67295598983764648 0.44969722628593445 0.4014647901058197
0.75346392393112183 0.4854743480682373 0.43073496222496033
0.82582587003707886 0.5213552713394165 0.46218174695968628
0.87791216373443604 0.55557078123092651 0.49308297038078308
0.14639401435852051 0.45006832480430603 0.37733489274978638
0.16702185571193695 0.44613724946975708 0.37707915902137756
0.19526447355747223 0.44067803025245667 0.37620940804481506
0.23454102873802185 0.43848946690559387 0.37684649229049683
0.28772476315498352 0.43992999196052551 0.37814721465110779
0.35557907819747925 0.44660356640815735 0.37943068146705627
0.42605090141296387 0.45565712451934814 0.37949731945991516
0.50034844875335693 0.46296009421348572 0.37892171740531921
0.57573908567428589 0.47565105557441711 0.38060790300369263
0.65693259239196777 0.49795910716056824 0.39239946007728577
0.73297107219696045 0.53655195236206055 0.42324039340019226
0.80893093347549438 0.57930749654769897 0.46022504568099976
0.86732453107833862 0.63061398267745972 0.50914102792739868
0.19159899652004242 0.51865017414093018 0.39477941393852234
0.20902509987354279 0.51567250490188599 0.39421668648719788
0.23116764426231384 0.50797569751739502 0.39188596606254578
0.26408633589744568 0.50150269269943237 0.39046597480773926
0.30595111846923828 0.49648550152778625 0.38915064930915833
0.36694663763046265 0.50670576095581055 0.39117041230201721
0.43290302157402039 0.51996302604675293 0.39311546087265015
0.50478678941726685 0.53440117835998535 0.39451479911804199
0.57700490951538086 0.54863590002059937 0.39434435963630676
0.64682465791702271 0.5621722936630249 0.39464351534843445
0.71672296524047852 0.5900346040725708 0.41318985819816589
0.79042649269104004 0.6314321756362915 0.44842085242271423
0.85027170181274414 0.68421721458435059 0.50050383806228638
0.2248324453830719 0.61203259229660034 0.41485929489135742
0.24077728390693665 0.60513019561767578 0.41233637928962708
0.26156824827194214 0.59318774938583374 0.40792983770370483
0.29232418537139893 0.58533287048339844 0.40616574883460999
0.32875055074691772 0.57787585258483887 0.40523204207420349
0.38063997030258179 0.58354014158248901 0.40554296970367432
0.44444867968559265 0.60021430253982544 0.4100385308265686
0.50868827104568481 0.61788374185562134 0.41128456592559814
0.575469970703125 0.63333523273468018 0.40989246964454651
0.64177638292312622 0.64731693267822266 0.41247767210006714
0.70933562517166138 0.66369616985321045 0.41741657257080078
0.77412647008895874 0.69016313552856445 0.43700885772705078
0.83262032270431519 0.73884767293930054 0.48645395040512085
0.254892498254776 0.7086063027381897 0.4358920156955719
0.27016636729240417 0.70231145620346069 0.43417003750801086
0.29126653075218201 0.69577467441558838 0.43345871567726135
0.31915086507797241 0.68853580951690674 0.4312325119972229
0.35425546765327454 0.68021148443222046 0.42852210998535156
0.39689463376998901 0.67601633071899414 0.42593398690223694
0.45482653379440308 0.69280582666397095 0.43180385231971741
0.5167536735534668 0.71090275049209595 0.43487805128097534
0.57759904861450195 0.72521781921386719 0.43417641520500183
0.63847851753234863 0.73893278837203979 0.43846699595451355
0.70255839824676514 0.7580605149269104 0.44233545660972595
0.7634856104850769 0.77445840835571289 0.44882488250732422
0.8184044361114502 0.80023664236068726 0.47186648845672607
0.29103785753250122 0.8138425350189209 0.47071325778961182
0.30504634976387024 0.81173169612884521 0.47294861078262329
0.32414442300796509 0.80904620885848999 0.47198820114135742
0.34861037135124207 0.80467796325683594 0.46870818734169006
0.3808971643447876 0.79899096488952637 0.46578088402748108
0.41880509257316589 0.79611867666244507 0.46280881762504578
0.46955391764640808 0.80306273698806763 0.46530649065971375
0.52770525217056274 0.81584626436233521 0.47276881337165833
0.58654844760894775 0.82969105243682861 0.48366943001747131
0.6452299952507019 0.84443312883377075 0.49168893694877625
0.70443159341812134 0.86118441820144653 0.49672642350196838
0.76048070192337036 0.87586885690689087 0.5063706636428833
0.80745267868041992 0.88551253080368042 0.52196943759918213
0.38906428217887878 0.92345112562179565 0.56038260459899902
0.39622214436531067 0.92030316591262817 0.558940589427948
0.40834629535675049 0.92161405086517334 0.55723661184310913
0.42763802409172058 0.91926896572113037 0.55526179075241089
0.45024889707565308 0.91725790500640869 0.5523608922958374
0.48188334703445435 0.91302144527435303 0.55193459987640381
0.52262228727340698 0.91756641864776611 0.55642926692962646
0.57332104444503784 0.92165243625640869 0.56713497638702393
0.62633848190307617 0.93296104669570923 0.58082425594329834
0.67904764413833618 0.94296538829803467 0.5942695140838623
0.73086082935333252 0.95044749975204468 0.61040753126144409
0.78489106893539429 0.9593004584312439 0.63399279117584229
0.83204346895217896 0.96602308750152588 0.65668380260467529
0.001707862364128232 0.20321595668792725 0.29110094904899597
0.0039215688593685627 0.20605605840682983 0.29721862077713013
0.0057588615454733372 0.20920164883136749 0.30220878124237061
0.0091170370578765869 0.21142025291919708 0.30406194925308228
0.070377841591835022 0.2128056138753891 0.30827316641807556
0.19241195917129517 0.21453292667865753 0.31933960318565369
0.29307031631469727 0.21505174040794373 0.32923710346221924
0.39380756020545959 0.21043628454208374 0.33635035157203674
0.49251127243041992 0.20516049861907959 0.35135936737060547
0.58542799949645996 0.19803889095783234 0.36688351631164551
0.67396670579910278 0.19389216601848602 0.37688419222831726
0.76044034957885742 0.19367630779743195 0.38607701659202576
0.84225845336914062 0.20407484471797943 0.39997464418411255
0.0024060267023742199 0.22129923105239868 0.30485808849334717
0.0039215688593685627 0.22193808853626251 0.30801975727081299
0.0041040754877030849 0.221843421459198 0.31162261962890625
0.013795097358524799 0.22159038484096527 0.31323018670082092
0.09442514181137085 0.22467544674873352 0.31906396150588989
0.20835112035274506 0.22729131579399109 0.3297329843044281
0.31287238001823425 0.22611917555332184 0.33919095993041992
0.41395244002342224 0.22354084253311157 0.34681198000907898
0.50776040554046631 0.21959893405437469 0.35670211911201477
0.59944361448287964 0.2153933197259903 0.37000605463981628
0.68551474809646606 0.21588297188282013 0.38230413198471069
0.7688177227973938 0.2165868878364563 0.39295396208763123
0.85017931461334229 0.22547091543674469 0.40566745400428772
0.0024770100135356188 0.24140296876430511 0.31890681385993958
0.0039215688593685627 0.24326816201210022 0.32093864679336548
0.0045929555781185627 0.24245509505271912 0.32262200117111206
0.032890722155570984 0.24149514734745026 0.32531684637069702
0.13630768656730652 0.2464585155248642 0.33337226510047913
0.24532285332679749 0.25098118185997009 0.34360510110855103
0.34595596790313721 0.25170490145683289 0.3532242476940155
0.44039642810821533 0.24791911244392395 0.36044368147850037
0.52873498201370239 0.24227474629878998 0.3653874397277832
0.61656051874160767 0.24143683910369873 0.37656307220458984
0.70091181993484497 0.24438755214214325 0.38958296179771423
0.78259992599487305 0.2471684068441391 0.40053409337997437
0.86050963401794434 0.26235088706016541 0.4162013828754425
0.0017028060974553227 0.26773113012313843 0.33427724242210388
0.0045855501666665077 0.27123364806175232 0.33654358983039856
0.0089740082621574402 0.26867353916168213 0.33566439151763916
0.077851332724094391 0.2700963020324707 0.33962804079055786
0.19067484140396118 0.27601268887519836 0.34782636165618896
0.28989604115486145 0.28115525841712952 0.35970908403396606
0.38376295566558838 0.28398886322975159 0.36934134364128113
0.47511348128318787 0.28324151039123535 0.37653553485870361
0.56128573417663574 0.27955839037895203 0.3836139440536499
0.64345192909240723 0.27937135100364685 0.39193961024284363
0.72140365839004517 0.28370887041091919 0.40164089202880859
0.79698234796524048 0.29087147116661072 0.41182515025138855
0.86729151010513306 0.31524476408958435 0.43084082007408142
0.0043710893951356411 0.3067939281463623 0.35276514291763306
0.0076959049329161644 0.30668804049491882 0.35359248518943787
0.050992719829082489 0.30638724565505981 0.35480225086212158
0.13994725048542023 0.30907797813415527 0.35780176520347595
0.23056040704250336 0.31331756711006165 0.36284482479095459
0.32090678811073303 0.3171159029006958 0.3704197108745575
0.41268584132194519 0.31964507699012756 0.37907615303993225
