luts/instant_pro/polaroid_665_-.cube
# Created by: G'MIC (https://gmic.eu)
TITLE "polaroid_665_-"
# LUT size
LUT_3D_SIZE 5
# Data domain
DOMAIN_MIN 0.0 0.0 0.0
DOMAIN_MAX 1.0 1.0 1.0
# LUT data points
0.040451094508171082 0.040451094508171082 0.040451094508171082
0.10604172945022583 0.10604172945022583 0.10604172945022583
0.22618995606899261 0.22618995606899261 0.22618995606899261
0.3420378565788269 0.3420378565788269 0.3420378565788269
0.46946871280670166 0.46946871280670166 0.46946871280670166
0.17093448340892792 0.17093448340892792 0.17093448340892792
0.18518854677677155 0.18518854677677155 0.18518854677677155
0.28082704544067383 0.28082704544067383 0.28082704544067383
0.38318458199501038 0.38318458199501038 0.38318458199501038
0.5033002495765686 0.5033002495765686 0.5033002495765686
0.35316908359527588 0.35316908359527588 0.35316908359527588
0.34387117624282837 0.34387117624282837 0.34387117624282837
0.36676546931266785 0.36676546931266785 0.36676546931266785
0.4353083074092865 0.4353083074092865 0.4353083074092865
0.61006885766983032 0.61006885766983032 0.61006885766983032
0.52207291126251221 0.52207291126251221 0.52207291126251221
0.52683287858963013 0.52683287858963013 0.52683287858963013
0.53732955455780029 0.53732955455780029 0.53732955455780029
0.55248022079467773 0.55248022079467773 0.55248022079467773
0.66738545894622803 0.66738545894622803 0.66738545894622803
0.79717463254928589 0.79717463254928589 0.79717463254928589
0.79288607835769653 0.79288607835769653 0.79288607835769653
0.8077203631401062 0.8077203631401062 0.8077203631401062
0.83170044422149658 0.83170044422149658 0.83170044422149658
0.85767477750778198 0.85767477750778198 0.85767477750778198
0.18841557204723358 0.18841557204723358 0.18841557204723358
0.22340252995491028 0.22340252995491028 0.22340252995491028
0.31321048736572266 0.31321048736572266 0.31321048736572266
0.3961893618106842 0.3961893618106842 0.3961893618106842
0.50404614210128784 0.50404614210128784 0.50404614210128784
0.24074523150920868 0.24074523150920868 0.24074523150920868
0.28936615586280823 0.28936615586280823 0.28936615586280823
0.34112745523452759 0.34112745523452759 0.34112745523452759
0.42253783345222473 0.42253783345222473 0.42253783345222473
0.5337907075881958 0.5337907075881958 0.5337907075881958
0.39739313721656799 0.39739313721656799 0.39739313721656799
0.40727493166923523 0.40727493166923523 0.40727493166923523
0.42075243592262268 0.42075243592262268 0.42075243592262268
0.47847864031791687 0.47847864031791687 0.47847864031791687
0.62881886959075928 0.62881886959075928 0.62881886959075928
0.56110775470733643 0.56110775470733643 0.56110775470733643
0.57461261749267578 0.57461261749267578 0.57461261749267578
0.5829768180847168 0.5829768180847168 0.5829768180847168
0.59783738851547241 0.59783738851547241 0.59783738851547241
0.69805061817169189 0.69805061817169189 0.69805061817169189
0.82134914398193359 0.82134914398193359 0.82134914398193359
0.82069063186645508 0.82069063186645508 0.82069063186645508
0.82301372289657593 0.82301372289657593 0.82301372289657593
0.8354804515838623 0.8354804515838623 0.8354804515838623
0.85733139514923096 0.85733139514923096 0.85733139514923096
0.375486820936203 0.375486820936203 0.375486820936203
0.3704683780670166 0.3704683780670166 0.3704683780670166
0.39220017194747925 0.39220017194747925 0.39220017194747925
0.47504892945289612 0.47504892945289612 0.47504892945289612
0.63280004262924194 0.63280004262924194 0.63280004262924194
0.41626721620559692 0.41626721620559692 0.41626721620559692
0.43907824158668518 0.43907824158668518 0.43907824158668518
0.45201569795608521 0.45201569795608521 0.45201569795608521
0.52491998672485352 0.52491998672485352 0.52491998672485352
0.63824921846389771 0.63824921846389771 0.63824921846389771
0.44114604592323303 0.44114604592323303 0.44114604592323303
0.47304427623748779 0.47304427623748779 0.47304427623748779
0.53741645812988281 0.53741645812988281 0.53741645812988281
0.60040724277496338 0.60040724277496338 0.60040724277496338
0.7138826847076416 0.7138826847076416 0.7138826847076416
0.60190224647521973 0.60190224647521973 0.60190224647521973
0.63205432891845703 0.63205432891845703 0.63205432891845703
0.66780972480773926 0.66780972480773926 0.66780972480773926
0.68718832731246948 0.68718832731246948 0.68718832731246948
0.76948660612106323 0.76948660612106323 0.76948660612106323
0.85380381345748901 0.85380381345748901 0.85380381345748901
0.85421872138977051 0.85421872138977051 0.85421872138977051
0.85731679201126099 0.85731679201126099 0.85731679201126099
0.866127610206604 0.866127610206604 0.866127610206604
0.88943946361541748 0.88943946361541748 0.88943946361541748
0.59555041790008545 0.59555041790008545 0.59555041790008545
0.59356594085693359 0.59356594085693359 0.59356594085693359
0.6096920371055603 0.6096920371055603 0.6096920371055603
0.61837714910507202 0.61837714910507202 0.61837714910507202
0.71346187591552734 0.71346187591552734 0.71346187591552734
0.64083963632583618 0.64083963632583618 0.64083963632583618
0.64547932147979736 0.64547932147979736 0.64547932147979736
0.64176058769226074 0.64176058769226074 0.64176058769226074
0.64715254306793213 0.64715254306793213 0.64715254306793213
0.74367159605026245 0.74367159605026245 0.74367159605026245
0.65231519937515259 0.65231519937515259 0.65231519937515259
0.65787273645401001 0.65787273645401001 0.65787273645401001
0.68947309255599976 0.68947309255599976 0.68947309255599976
0.71209895610809326 0.71209895610809326 0.71209895610809326
0.78352338075637817 0.78352338075637817 0.78352338075637817
0.67662620544433594 0.67662620544433594 0.67662620544433594
0.68110734224319458 0.68110734224319458 0.68110734224319458
0.72494465112686157 0.72494465112686157 0.72494465112686157
0.7802654504776001 0.7802654504776001 0.7802654504776001
0.83306562900543213 0.83306562900543213 0.83306562900543213
0.84312111139297485 0.84312111139297485 0.84312111139297485
0.84282171726226807 0.84282171726226807 0.84282171726226807
0.86451941728591919 0.86451941728591919 0.86451941728591919
0.90428507328033447 0.90428507328033447 0.90428507328033447
0.92654746770858765 0.92654746770858765 0.92654746770858765
0.84859955310821533 0.84859955310821533 0.84859955310821533
0.84864985942840576 0.84864985942840576 0.84864985942840576
0.86779940128326416 0.86779940128326416 0.86779940128326416
0.87472724914550781 0.87472724914550781 0.87472724914550781
0.86532878875732422 0.86532878875732422 0.86532878875732422
0.86287993192672729 0.86287993192672729 0.86287993192672729
0.86578255891799927 0.86578255891799927 0.86578255891799927
0.88368070125579834 0.88368070125579834 0.88368070125579834
0.88371050357818604 0.88371050357818604 0.88371050357818604
0.86616277694702148 0.86616277694702148 0.86616277694702148
0.88447362184524536 0.88447362184524536 0.88447362184524536
0.8844374418258667 0.8844374418258667 0.8844374418258667
0.89987540245056152 0.89987540245056152 0.89987540245056152
0.89435017108917236 0.89435017108917236 0.89435017108917236
0.88527894020080566 0.88527894020080566 0.88527894020080566
0.88561666011810303 0.88561666011810303 0.88561666011810303
0.88179385662078857 0.88179385662078857 0.88179385662078857
0.88867366313934326 0.88867366313934326 0.88867366313934326
0.91647708415985107 0.91647708415985107 0.91647708415985107
0.93182492256164551 0.93182492256164551 0.93182492256164551
0.90923517942428589 0.90923517942428589 0.90923517942428589
0.90874660015106201 0.90874660015106201 0.90874660015106201
0.91754674911499023 0.91754674911499023 0.91754674911499023
0.96302926540374756 0.96302926540374756 0.96302926540374756
0.97412234544754028 0.97412234544754028 0.97412234544754028
