luts/instant_pro/polaroid_665_--.cube
# Created by: G'MIC (https://gmic.eu)
TITLE "polaroid_665_--"
# LUT size
LUT_3D_SIZE 13
# Data domain
DOMAIN_MIN 0.0 0.0 0.0
DOMAIN_MAX 1.0 1.0 1.0
# LUT data points
0.015839235857129097 0.015839235857129097 0.015839235857129097
0.033038150519132614 0.033038150519132614 0.033038150519132614
0.064727097749710083 0.064727097749710083 0.064727097749710083
0.10467793792486191 0.10467793792486191 0.10467793792486191
0.14787028729915619 0.14787028729915619 0.14787028729915619
0.19190151989459991 0.19190151989459991 0.19190151989459991
0.23461543023586273 0.23461543023586273 0.23461543023586273
0.27361699938774109 0.27361699938774109 0.27361699938774109
0.30879956483840942 0.30879956483840942 0.30879956483840942
0.34379220008850098 0.34379220008850098 0.34379220008850098
0.38321337103843689 0.38321337103843689 0.38321337103843689
0.43063771724700928 0.43063771724700928 0.43063771724700928
0.4856221079826355 0.4856221079826355 0.4856221079826355
0.049684874713420868 0.049684874713420868 0.049684874713420868
0.059978365898132324 0.059978365898132324 0.059978365898132324
0.088005632162094116 0.088005632162094116 0.088005632162094116
0.12903434038162231 0.12903434038162231 0.12903434038162231
0.17216776311397552 0.17216776311397552 0.17216776311397552
0.21603445708751678 0.21603445708751678 0.21603445708751678
0.25737306475639343 0.25737306475639343 0.25737306475639343
0.29282587766647339 0.29282587766647339 0.29282587766647339
0.32395705580711365 0.32395705580711365 0.32395705580711365
0.35467109084129333 0.35467109084129333 0.35467109084129333
0.39052620530128479 0.39052620530128479 0.39052620530128479
0.4345850944519043 0.4345850944519043 0.4345850944519043
0.48853668570518494 0.48853668570518494 0.48853668570518494
0.11638320982456207 0.11638320982456207 0.11638320982456207
0.11824454367160797 0.11824454367160797 0.11824454367160797
0.13460390269756317 0.13460390269756317 0.13460390269756317
0.16666239500045776 0.16666239500045776 0.16666239500045776
0.20509517192840576 0.20509517192840576 0.20509517192840576
0.24610668420791626 0.24610668420791626 0.24610668420791626
0.28419783711433411 0.28419783711433411 0.28419783711433411
0.31503021717071533 0.31503021717071533 0.31503021717071533
0.34161180257797241 0.34161180257797241 0.34161180257797241
0.36967414617538452 0.36967414617538452 0.36967414617538452
0.40274691581726074 0.40274691581726074 0.40274691581726074
0.44426584243774414 0.44426584243774414 0.44426584243774414
0.49748378992080688 0.49748378992080688 0.49748378992080688
0.19356410205364227 0.19356410205364227 0.19356410205364227
0.19066165387630463 0.19066165387630463 0.19066165387630463
0.19597379863262177 0.19597379863262177 0.19597379863262177
0.21457384526729584 0.21457384526729584 0.21457384526729584
0.2432873547077179 0.2432873547077179 0.2432873547077179
0.27739539742469788 0.27739539742469788 0.27739539742469788
0.31006884574890137 0.31006884574890137 0.31006884574890137
0.33578738570213318 0.33578738570213318 0.33578738570213318
0.36023125052452087 0.36023125052452087 0.36023125052452087
0.38827240467071533 0.38827240467071533 0.38827240467071533
0.42243346571922302 0.42243346571922302 0.42243346571922302
0.46522027254104614 0.46522027254104614 0.46522027254104614
0.51974779367446899 0.51974779367446899 0.51974779367446899
0.25888547301292419 0.25888547301292419 0.25888547301292419
0.25681248307228088 0.25681248307228088 0.25681248307228088
0.25589737296104431 0.25589737296104431 0.25589737296104431
0.2644689679145813 0.2644689679145813 0.2644689679145813
0.28220191597938538 0.28220191597938538 0.28220191597938538
0.30555516481399536 0.30555516481399536 0.30555516481399536
0.32994014024734497 0.32994014024734497 0.32994014024734497
0.35258316993713379 0.35258316993713379 0.35258316993713379
0.37746015191078186 0.37746015191078186 0.37746015191078186
0.40857526659965515 0.40857526659965515 0.40857526659965515
0.44788250327110291 0.44788250327110291 0.44788250327110291
0.4969228208065033 0.4969228208065033 0.4969228208065033
0.55493819713592529 0.55493819713592529 0.55493819713592529
0.31554555892944336 0.31554555892944336 0.31554555892944336
0.31362789869308472 0.31362789869308472 0.31362789869308472
0.31048792600631714 0.31048792600631714 0.31048792600631714
0.31206265091896057 0.31206265091896057 0.31206265091896057
0.32035791873931885 0.32035791873931885 0.32035791873931885
0.33365601301193237 0.33365601301193237 0.33365601301193237
0.34951961040496826 0.34951961040496826 0.34951961040496826
0.36810800433158875 0.36810800433158875 0.36810800433158875
0.39281299710273743 0.39281299710273743 0.39281299710273743
0.4276948869228363 0.4276948869228363 0.4276948869228363
0.4735768735408783 0.4735768735408783 0.4735768735408783
0.53046393394470215 0.53046393394470215 0.53046393394470215
0.59423768520355225 0.59423768520355225 0.59423768520355225
0.36610063910484314 0.36610063910484314 0.36610063910484314
0.36366254091262817 0.36366254091262817 0.36366254091262817
0.35968652367591858 0.35968652367591858 0.35968652367591858
0.35807508230209351 0.35807508230209351 0.35807508230209351
0.36058273911476135 0.36058273911476135 0.36058273911476135
0.36653456091880798 0.36653456091880798 0.36653456091880798
0.37474435567855835 0.37474435567855835 0.37474435567855835
0.38728690147399902 0.38728690147399902 0.38728690147399902
0.40917879343032837 0.40917879343032837 0.40917879343032837
0.44488045573234558 0.44488045573234558 0.44488045573234558
0.49483069777488708 0.49483069777488708 0.49483069777488708
0.55873227119445801 0.55873227119445801 0.55873227119445801
0.62945771217346191 0.62945771217346191 0.62945771217346191
0.41422596573829651 0.41422596573829651 0.41422596573829651
0.41205015778541565 0.41205015778541565 0.41205015778541565
0.40900290012359619 0.40900290012359619 0.40900290012359619
0.40687182545661926 0.40687182545661926 0.40687182545661926
0.4073043167591095 0.4073043167591095 0.4073043167591095
0.40930220484733582 0.40930220484733582 0.40930220484733582
0.41251066327095032 0.41251066327095032 0.41251066327095032
0.4190250039100647 0.4190250039100647 0.4190250039100647
0.43482157588005066 0.43482157588005066 0.43482157588005066
0.46573320031166077 0.46573320031166077 0.46573320031166077
0.51267546415328979 0.51267546415328979 0.51267546415328979
0.5770677924156189 0.5770677924156189 0.5770677924156189
0.65119785070419312 0.65119785070419312 0.65119785070419312
0.46664917469024658 0.46664917469024658 0.46664917469024658
0.46599456667900085 0.46599456667900085 0.46599456667900085
0.46482816338539124 0.46482816338539124 0.46482816338539124
0.46409249305725098 0.46409249305725098 0.46409249305725098
0.46505779027938843 0.46505779027938843 0.46505779027938843
0.46619674563407898 0.46619674563407898 0.46619674563407898
0.4673774242401123 0.4673774242401123 0.4673774242401123
0.47086462378501892 0.47086462378501892 0.47086462378501892
0.48056814074516296 0.48056814074516296 0.48056814074516296
0.50030618906021118 0.50030618906021118 0.50030618906021118
0.53493481874465942 0.53493481874465942 0.53493481874465942
0.59128093719482422 0.59128093719482422 0.59128093719482422
0.66169583797454834 0.66169583797454834 0.66169583797454834
0.53069019317626953 0.53069019317626953 0.53069019317626953
0.53164142370223999 0.53164142370223999 0.53164142370223999
0.53287684917449951 0.53287684917449951 0.53287684917449951
0.53432244062423706 0.53432244062423706 0.53432244062423706
0.53617399930953979 0.53617399930953979 0.53617399930953979
0.53871530294418335 0.53871530294418335 0.53871530294418335
0.54077255725860596 0.54077255725860596 0.54077255725860596
0.54415935277938843 0.54415935277938843 0.54415935277938843
0.55020523071289062 0.55020523071289062 0.55020523071289062
0.56009161472320557 0.56009161472320557 0.56009161472320557
0.57815414667129517 0.57815414667129517 0.57815414667129517
0.62023741006851196 0.62023741006851196 0.62023741006851196
0.68126928806304932 0.68126928806304932 0.68126928806304932
0.61211520433425903 0.61211520433425903 0.61211520433425903
0.61283320188522339 0.61283320188522339 0.61283320188522339
0.61433655023574829 0.61433655023574829 0.61433655023574829
0.6163519024848938 0.6163519024848938 0.6163519024848938
0.6194043755531311 0.6194043755531311 0.6194043755531311
0.62329578399658203 0.62329578399658203 0.62329578399658203
0.62792766094207764 0.62792766094207764 0.62792766094207764
0.63356900215148926 0.63356900215148926 0.63356900215148926
0.64070194959640503 0.64070194959640503 0.64070194959640503
0.64902567863464355 0.64902567863464355 0.64902567863464355
0.65897148847579956 0.65897148847579956 0.65897148847579956
0.68139111995697021 0.68139111995697021 0.68139111995697021
0.72339165210723877 0.72339165210723877 0.72339165210723877
0.70482313632965088 0.70482313632965088 0.70482313632965088
0.7044256329536438 0.7044256329536438 0.7044256329536438
0.70441460609436035 0.70441460609436035 0.70441460609436035
0.70600205659866333 0.70600205659866333 0.70600205659866333
0.70936733484268188 0.70936733484268188 0.70936733484268188
0.7146143913269043 0.7146143913269043 0.7146143913269043
0.72164011001586914 0.72164011001586914 0.72164011001586914
0.73033571243286133 0.73033571243286133 0.73033571243286133
0.73929065465927124 0.73929065465927124 0.73929065465927124
0.74718999862670898 0.74718999862670898 0.74718999862670898
0.75280481576919556 0.75280481576919556 0.75280481576919556
0.76115459203720093 0.76115459203720093 0.76115459203720093
0.78531473875045776 0.78531473875045776 0.78531473875045776
0.80069911479949951 0.80069911479949951 0.80069911479949951
0.79866445064544678 0.79866445064544678 0.79866445064544678
0.79690313339233398 0.79690313339233398 0.79690313339233398
0.79736924171447754 0.79736924171447754 0.79736924171447754
0.80068832635879517 0.80068832635879517 0.80068832635879517
0.80650454759597778 0.80650454759597778 0.80650454759597778
0.81447404623031616 0.81447404623031616 0.81447404623031616
0.82409298419952393 0.82409298419952393 0.82409298419952393
0.83247083425521851 0.83247083425521851 0.83247083425521851
0.83754545450210571 0.83754545450210571 0.83754545450210571
0.83970183134078979 0.83970183134078979 0.83970183134078979
0.84341186285018921 0.84341186285018921 0.84341186285018921
0.85622572898864746 0.85622572898864746 0.85622572898864746
0.056666817516088486 0.056666817516088486 0.056666817516088486
0.081992052495479584 0.081992052495479584 0.081992052495479584
0.11474223434925079 0.11474223434925079 0.11474223434925079
0.14754423499107361 0.14754423499107361 0.14754423499107361
0.18175363540649414 0.18175363540649414 0.18175363540649414
0.2213103324174881 0.2213103324174881 0.2213103324174881
0.26166760921478271 0.26166760921478271 0.26166760921478271
0.29864645004272461 0.29864645004272461 0.29864645004272461
0.3299964964389801 0.3299964964389801 0.3299964964389801
0.35976022481918335 0.35976022481918335 0.35976022481918335
0.39453721046447754 0.39453721046447754 0.39453721046447754
0.43890261650085449 0.43890261650085449 0.43890261650085449
0.49248877167701721 0.49248877167701721 0.49248877167701721
0.087579898536205292 0.087579898536205292 0.087579898536205292
0.10884048044681549 0.10884048044681549 0.10884048044681549
0.13960288465023041 0.13960288465023041 0.13960288465023041
0.16984844207763672 0.16984844207763672 0.16984844207763672
0.20313885807991028 0.20313885807991028 0.20313885807991028
0.24211332201957703 0.24211332201957703 0.24211332201957703
0.28154245018959045 0.28154245018959045 0.28154245018959045
0.31553062796592712 0.31553062796592712 0.31553062796592712
0.3433283269405365 0.3433283269405365 0.3433283269405365
0.36968216300010681 0.36968216300010681 0.36968216300010681
0.40136179327964783 0.40136179327964783 0.40136179327964783
0.4434952437877655 0.4434952437877655 0.4434952437877655
0.4963567852973938 0.4963567852973938 0.4963567852973938
0.14330741763114929 0.14330741763114929 0.14330741763114929
0.15491616725921631 0.15491616725921631 0.15491616725921631
0.17480286955833435 0.17480286955833435 0.17480286955833435
0.20021381974220276 0.20021381974220276 0.20021381974220276
0.23106572031974792 0.23106572031974792 0.23106572031974792
0.26746317744255066 0.26746317744255066 0.26746317744255066
0.30395445227622986 0.30395445227622986 0.30395445227622986
0.33443692326545715 0.33443692326545715 0.33443692326545715
0.35937333106994629 0.35937333106994629 0.35937333106994629
0.38432839512825012 0.38432839512825012 0.38432839512825012
0.4148261547088623 0.4148261547088623 0.4148261547088623
0.45527118444442749 0.45527118444442749 0.45527118444442749
0.50778877735137939 0.50778877735137939 0.50778877735137939
0.20864984393119812 0.20864984393119812 0.20864984393119812
0.21434131264686584 0.21434131264686584 0.21434131264686584
0.22372019290924072 0.22372019290924072 0.22372019290924072
0.24015559256076813 0.24015559256076813 0.24015559256076813
0.26456975936889648 0.26456975936889648 0.26456975936889648
0.29515942931175232 0.29515942931175232 0.29515942931175232
0.32588949799537659 0.32588949799537659 0.32588949799537659
0.35241389274597168 0.35241389274597168 0.35241389274597168
0.37693512439727783 0.37693512439727783 0.37693512439727783
0.40335345268249512 0.40335345268249512 0.40335345268249512
0.43581613898277283 0.43581613898277283 0.43581613898277283
0.47782465815544128 0.47782465815544128 0.47782465815544128
0.5312570333480835 0.5312570333480835 0.5312570333480835
0.27475646138191223 0.27475646138191223 0.27475646138191223
0.27704325318336487 0.27704325318336487 0.27704325318336487
0.27795761823654175 0.27795761823654175 0.27795761823654175
0.28490051627159119 0.28490051627159119 0.28490051627159119
0.3005422055721283 0.3005422055721283 0.3005422055721283
0.32160189747810364 0.32160189747810364 0.32160189747810364
0.34495285153388977 0.34495285153388977 0.34495285153388977
0.36825203895568848 0.36825203895568848 0.36825203895568848
0.39375448226928711 0.39375448226928711 0.39375448226928711
0.42447879910469055 0.42447879910469055 0.42447879910469055
0.46236160397529602 0.46236160397529602 0.46236160397529602
0.50934618711471558 0.50934618711471558 0.50934618711471558
0.56547510623931885 0.56547510623931885 0.56547510623931885
0.33478289842605591 0.33478289842605591 0.33478289842605591
0.33387750387191772 0.33387750387191772 0.33387750387191772
0.32924988865852356 0.32924988865852356 0.32924988865852356
0.3294861912727356 0.3294861912727356 0.3294861912727356
0.33637267351150513 0.33637267351150513 0.33637267351150513
0.34851893782615662 0.34851893782615662 0.34851893782615662
0.3634275496006012 0.3634275496006012 0.3634275496006012
0.3820987343788147 0.3820987343788147 0.3820987343788147
0.40820834040641785 0.40820834040641785 0.40820834040641785
0.44372248649597168 0.44372248649597168 0.44372248649597168
0.4888407289981842 0.4888407289981842 0.4888407289981842
0.54271143674850464 0.54271143674850464 0.54271143674850464
0.60355210304260254 0.60355210304260254 0.60355210304260254
0.38481515645980835 0.38481515645980835 0.38481515645980835
0.3825659453868866 0.3825659453868866 0.3825659453868866
0.37689056992530823 0.37689056992530823 0.37689056992530823
0.3737354576587677 0.3737354576587677 0.3737354576587677
0.37527793645858765 0.37527793645858765 0.37527793645858765
0.38014370203018188 0.38014370203018188 0.38014370203018188
0.38673257827758789 0.38673257827758789 0.38673257827758789
0.39798223972320557 0.39798223972320557 0.39798223972320557
0.42071992158889771 0.42071992158889771 0.42071992158889771
0.45895028114318848 0.45895028114318848 0.45895028114318848
0.50969630479812622 0.50969630479812622 0.50969630479812622
0.57026296854019165 0.57026296854019165 0.57026296854019165
0.63681244850158691 0.63681244850158691 0.63681244850158691
0.43031388521194458 0.43031388521194458 0.43031388521194458
0.42822673916816711 0.42822673916816711 0.42822673916816711
0.42382177710533142 0.42382177710533142 0.42382177710533142
0.42068228125572205 0.42068228125572205 0.42068228125572205
0.42060667276382446 0.42060667276382446 0.42060667276382446
0.42144936323165894 0.42144936323165894 0.42144936323165894
0.42237409949302673 0.42237409949302673 0.42237409949302673
0.42629441618919373 0.42629441618919373 0.42629441618919373
0.44214686751365662 0.44214686751365662 0.44214686751365662
0.47703373432159424 0.47703373432159424 0.47703373432159424
0.52617144584655762 0.52617144584655762 0.52617144584655762
0.58861815929412842 0.58861815929412842 0.58861815929412842
0.65802478790283203 0.65802478790283203 0.65802478790283203
0.47931954264640808 0.47931954264640808 0.47931954264640808
0.47875270247459412 0.47875270247459412 0.47875270247459412
0.47717896103858948 0.47717896103858948 0.47717896103858948
0.47553178668022156 0.47553178668022156 0.47553178668022156
0.47662115097045898 0.47662115097045898 0.47662115097045898
0.47728988528251648 0.47728988528251648 0.47728988528251648
0.4768485426902771 0.4768485426902771 0.4768485426902771
0.47809305787086487 0.47809305787086487 0.47809305787086487
0.48816710710525513 0.48816710710525513 0.48816710710525513
0.51191836595535278 0.51191836595535278 0.51191836595535278
0.54977768659591675 0.54977768659591675 0.54977768659591675
0.60385274887084961 0.60385274887084961 0.60385274887084961
0.66953712701797485 0.66953712701797485 0.66953712701797485
0.53901880979537964 0.53901880979537964 0.53901880979537964
0.54174977540969849 0.54174977540969849 0.54174977540969849
0.54328024387359619 0.54328024387359619 0.54328024387359619
0.54435032606124878 0.54435032606124878 0.54435032606124878
0.54712569713592529 0.54712569713592529 0.54712569713592529
0.54960334300994873 0.54960334300994873 0.54960334300994873
0.55037152767181396 0.55037152767181396 0.55037152767181396
0.55201643705368042 0.55201643705368042 0.55201643705368042
0.55861181020736694 0.55861181020736694 0.55861181020736694
0.57214045524597168 0.57214045524597168 0.57214045524597168
0.59427595138549805 0.59427595138549805 0.59427595138549805
0.63219434022903442 0.63219434022903442 0.63219434022903442
0.68690431118011475 0.68690431118011475 0.68690431118011475
0.61821550130844116 0.61821550130844116 0.61821550130844116
0.62057191133499146 0.62057191133499146 0.62057191133499146
0.62321829795837402 0.62321829795837402 0.62321829795837402
0.62602072954177856 0.62602072954177856 0.62602072954177856
0.62976580858230591 0.62976580858230591 0.62976580858230591
0.63346993923187256 0.63346993923187256 0.63346993923187256
0.63703244924545288 0.63703244924545288 0.63703244924545288
0.64146292209625244 0.64146292209625244 0.64146292209625244
0.64832216501235962 0.64832216501235962 0.64832216501235962
0.65791970491409302 0.65791970491409302 0.65791970491409302
0.66854327917098999 0.66854327917098999 0.66854327917098999
0.68687868118286133 0.68687868118286133 0.68687868118286133
0.72397267818450928 0.72397267818450928 0.72397267818450928
0.70947009325027466 0.70947009325027466 0.70947009325027466
0.70997875928878784 0.70997875928878784 0.70997875928878784
0.71159964799880981 0.71159964799880981 0.71159964799880981
0.71436434984207153 0.71436434984207153 0.71436434984207153
0.71849334239959717 0.71849334239959717 0.71849334239959717
0.72389990091323853 0.72389990091323853 0.72389990091323853
0.72982430458068848 0.72982430458068848 0.72982430458068848
0.73708826303482056 0.73708826303482056 0.73708826303482056
0.7450903058052063 0.7450903058052063 0.7450903058052063
0.75296801328659058 0.75296801328659058 0.75296801328659058
0.75747787952423096 0.75747787952423096 0.75747787952423096
0.76258653402328491 0.76258653402328491 0.76258653402328491
0.78374123573303223 0.78374123573303223 0.78374123573303223
0.80197632312774658 0.80197632312774658 0.80197632312774658
0.80134230852127075 0.80134230852127075 0.80134230852127075
0.80162608623504639 0.80162608623504639 0.80162608623504639
0.80398654937744141 0.80398654937744141 0.80398654937744141
0.80832046270370483 0.80832046270370483 0.80832046270370483
0.81429684162139893 0.81429684162139893 0.81429684162139893
0.82162350416183472 0.82162350416183472 0.82162350416183472
0.82994204759597778 0.82994204759597778 0.82994204759597778
0.83769130706787109 0.83769130706787109 0.83769130706787109
0.84302854537963867 0.84302854537963867 0.84302854537963867
0.8443530797958374 0.8443530797958374 0.8443530797958374
0.84553992748260498 0.84553992748260498 0.84553992748260498
0.85617804527282715 0.85617804527282715 0.85617804527282715
0.12801194190979004 0.12801194190979004 0.12801194190979004
0.14605405926704407 0.14605405926704407 0.14605405926704407
0.16851173341274261 0.16851173341274261 0.16851173341274261
0.1902211457490921 0.1902211457490921 0.1902211457490921
0.2163684070110321 0.2163684070110321 0.2163684070110321
0.25182890892028809 0.25182890892028809 0.25182890892028809
0.2920377254486084 0.2920377254486084 0.2920377254486084
0.3282642662525177 0.3282642662525177 0.3282642662525177
0.35590448975563049 0.35590448975563049 0.35590448975563049
0.37967059016227722 0.37967059016227722 0.37967059016227722
0.40935397148132324 0.40935397148132324 0.40935397148132324
0.45104292035102844 0.45104292035102844 0.45104292035102844
0.50344359874725342 0.50344359874725342 0.50344359874725342
0.15244950354099274 0.15244950354099274 0.15244950354099274
0.1693873405456543 0.1693873405456543 0.1693873405456543
0.19060860574245453 0.19060860574245453 0.19060860574245453
0.20915913581848145 0.20915913581848145 0.20915913581848145
0.2331978976726532 0.2331978976726532 0.2331978976726532
0.26837173104286194 0.26837173104286194 0.26837173104286194
0.30823743343353271 0.30823743343353271 0.30823743343353271
0.34232732653617859 0.34232732653617859 0.34232732653617859
0.36714825034141541 0.36714825034141541 0.36714825034141541
0.38857278227806091 0.38857278227806091 0.38857278227806091
0.41625964641571045 0.41625964641571045 0.41625964641571045
0.45677539706230164 0.45677539706230164 0.45677539706230164
0.50926125049591064 0.50926125049591064 0.50926125049591064
0.18521085381507874 0.18521085381507874 0.18521085381507874
0.19977027177810669 0.19977027177810669 0.19977027177810669
0.21712994575500488 0.21712994575500488 0.21712994575500488
0.23419807851314545 0.23419807851314545 0.23419807851314545
0.25683623552322388 0.25683623552322388 0.25683623552322388
0.28929483890533447 0.28929483890533447 0.28929483890533447
0.32551115751266479 0.32551115751266479 0.32551115751266479
0.35649126768112183 0.35649126768112183 0.35649126768112183
0.38056707382202148 0.38056707382202148 0.38056707382202148
0.40271121263504028 0.40271121263504028 0.40271121263504028
0.4315265417098999 0.4315265417098999 0.4315265417098999
0.47118732333183289 0.47118732333183289 0.47118732333183289
0.52311128377914429 0.52311128377914429 0.52311128377914429
0.22873972356319427 0.22873972356319427 0.22873972356319427
0.2418673187494278 0.2418673187494278 0.2418673187494278
0.25422689318656921 0.25422689318656921 0.25422689318656921
0.26782765984535217 0.26782765984535217 0.26782765984535217
0.28742766380310059 0.28742766380310059 0.28742766380310059
0.31441688537597656 0.31441688537597656 0.31441688537597656
0.34417125582695007 0.34417125582695007 0.34417125582695007
0.37186127901077271 0.37186127901077271 0.37186127901077271
0.39675697684288025 0.39675697684288025 0.39675697684288025
0.4217434823513031 0.4217434823513031 0.4217434823513031
0.45290488004684448 0.45290488004684448 0.45290488004684448
0.49430739879608154 0.49430739879608154 0.49430739879608154
0.54647088050842285 0.54647088050842285 0.54647088050842285
0.28967490792274475 0.28967490792274475 0.28967490792274475
0.29663145542144775 0.29663145542144775 0.29663145542144775
0.30013695359230042 0.30013695359230042 0.30013695359230042
0.30722373723983765 0.30722373723983765 0.30722373723983765
0.3210233747959137 0.3210233747959137 0.3210233747959137
0.34068918228149414 0.34068918228149414 0.34068918228149414
0.36348739266395569 0.36348739266395569 0.36348739266395569
0.38814064860343933 0.38814064860343933 0.38814064860343933
