luts/instant_pro/polaroid_690_--.cube
# Created by: G'MIC (https://gmic.eu)
TITLE "polaroid_690_--"
# LUT size
LUT_3D_SIZE 5
# Data domain
DOMAIN_MIN 0.0 0.0 0.0
DOMAIN_MAX 1.0 1.0 1.0
# LUT data points
0.016272749751806259 0.016745712608098984 0.013736425898969173
0.19400139153003693 0.004645882174372673 0.012111798860132694
0.49957329034805298 0.0018049053614959121 0.017085416242480278
0.78041386604309082 0.00058755313511937857 0.0035535774659365416
0.99372357130050659 0 0
0.0044727548956871033 0.2188442200422287 0.0080868592485785484
0.21015694737434387 0.2343112975358963 0.00092327641323208809
0.60252779722213745 0.19784985482692719 7.9659854236524552e-05
0.85948705673217773 0.060187455266714096 0
0.99879729747772217 0.019382776692509651 0
0.00014935662329662591 0.51574259996414185 0.011736701242625713
0.080943100154399872 0.51104974746704102 3.0697094189235941e-05
0.55101847648620605 0.54895162582397461 0.0012000887654721737
0.8723829984664917 0.5699349045753479 0.0020221336744725704
0.99812060594558716 0.57703065872192383 0.0012409285409376025
0.0062888353131711483 0.739082932472229 0.0025668125599622726
0.18306900560855865 0.73688578605651855 0.00026155359228141606
0.54267263412475586 0.73946475982666016 0.0036068037152290344
0.83189195394515991 0.77252191305160522 0.0034993488807231188
0.99741429090499878 0.78712636232376099 0.0021781022660434246
0.4775661826133728 0.9417417049407959 0.06206309050321579
0.54884380102157593 0.93929606676101685 0.041924688965082169
0.68819725513458252 0.93652635812759399 0.012934965081512928
0.86040931940078735 0.94785892963409424 0.0038449305575340986
0.99471908807754517 0.95995044708251953 8.1858917837962508e-05
0.0048896488733589649 0.024546021595597267 0.23054200410842896
0.19936174154281616 0.0043756673112511635 0.24354565143585205
0.49341312050819397 0.0003482743923086673 0.19246901571750641
0.74965429306030273 0.0019188077421858907 0.15103967487812042
0.98159730434417725 0 0.095463171601295471
0.003303333418443799 0.23156106472015381 0.23735123872756958
0.25239574909210205 0.24984908103942871 0.25616464018821716
0.56912779808044434 0.17313285171985626 0.22920367121696472
0.81950992345809937 0.03748461976647377 0.17011602222919464
0.99504411220550537 0.0026704377960413694 0.10273560136556625
0.0014951818156987429 0.54630804061889648 0.23378762602806091
0.18602746725082397 0.54436171054840088 0.21297171711921692
0.56919103860855103 0.55860745906829834 0.17203915119171143
0.87429505586624146 0.58305996656417847 0.21924611926078796
0.99883967638015747 0.55475521087646484 0.20454266667366028
0.015594527125358582 0.75479638576507568 0.18679632246494293
0.2473243772983551 0.74784618616104126 0.15427546203136444
0.54741150140762329 0.74676918983459473 0.099739730358123779
0.82916206121444702 0.76894104480743408 0.084382571280002594
0.99787318706512451 0.78994297981262207 0.1804966926574707
0.45831114053726196 0.94010090827941895 0.30118349194526672
0.53125560283660889 0.93733781576156616 0.28360182046890259
0.67693334817886353 0.93624311685562134 0.21975734829902649
0.84973603487014771 0.946208655834198 0.17768906056880951
0.99586337804794312 0.96112996339797974 0.092254593968391418
0.00037931554834358394 0.031831163913011551 0.55749422311782837
0.097403660416603088 0.0071019642055034637 0.59329354763031006
0.59777742624282837 0.0023057227954268456 0.62577229738235474
0.79851841926574707 0.0057564228773117065 0.51361536979675293
0.97530025243759155 0.00021829044271726161 0.45696869492530823
0.0032023710664361715 0.24886910617351532 0.54693341255187988
0.21923923492431641 0.26576691865921021 0.59240841865539551
0.6121516227722168 0.28394803404808044 0.62860012054443359
0.80110031366348267 0.19516897201538086 0.52171570062637329
0.98045611381530762 0.0099555673077702522 0.45408052206039429
0.0058511323295533657 0.56286680698394775 0.58482027053833008
0.28411224484443665 0.56810128688812256 0.59510809183120728
0.60165071487426758 0.5870593786239624 0.61141675710678101
0.83042329549789429 0.51523387432098389 0.55025398731231689
0.99396729469299316 0.39954617619514465 0.45559397339820862
0.19819223880767822 0.78080296516418457 0.57896393537521362
0.3723691999912262 0.77438616752624512 0.56387948989868164
0.58010983467102051 0.76227128505706787 0.53979992866516113
0.82226496934890747 0.77495706081390381 0.54332965612411499
0.9955209493637085 0.79274111986160278 0.58894222974777222
0.4492281973361969 0.94487369060516357 0.59348994493484497
0.51870828866958618 0.9443659782409668 0.58197152614593506
0.65025359392166138 0.9407772421836853 0.54211533069610596
0.82407873868942261 0.94380998611450195 0.51000392436981201
0.98381084203720093 0.96035546064376831 0.51508384943008423
0.0047745797783136368 0.074489474296569824 0.81664657592773438
0.19258405268192291 0.050936635583639145 0.83678144216537476
0.61321985721588135 0.033395953476428986 0.86241239309310913
0.88769781589508057 0.10159403830766678 0.86762857437133789
0.99689686298370361 0.11751541495323181 0.79479408264160156
0.0078251855447888374 0.28051811456680298 0.81002146005630493
0.26466846466064453 0.2976442277431488 0.82006525993347168
0.63327550888061523 0.33209323883056641 0.84698092937469482
0.87620276212692261 0.38642105460166931 0.86336624622344971
0.98912352323532104 0.3367343544960022 0.79095578193664551
0.0044646319001913071 0.50945109128952026 0.77578186988830566
0.21593198180198669 0.52812594175338745 0.78875690698623657
0.59346681833267212 0.57808488607406616 0.81577354669570923
0.85309123992919922 0.63216477632522583 0.8460049033164978
0.98130053281784058 0.53944748640060425 0.77671819925308228
0.31366106867790222 0.77511125802993774 0.81047630310058594
0.4366113543510437 0.77375215291976929 0.81727582216262817
0.64027863740921021 0.77623635530471802 0.82671606540679932
0.8381955623626709 0.80115360021591187 0.84026175737380981
0.98384290933609009 0.7293550968170166 0.7810932993888855
0.58221721649169922 0.94886875152587891 0.83294957876205444
0.61169552803039551 0.94937592744827271 0.8366580605506897
0.69065099954605103 0.95078831911087036 0.82147592306137085
0.80857557058334351 0.94671499729156494 0.79153317213058472
0.97201085090637207 0.96085989475250244 0.79247939586639404
0.39442932605743408 0.27084678411483765 0.98078471422195435
0.51136022806167603 0.27831467986106873 0.98192566633224487
0.69971811771392822 0.31160768866539001 0.98515844345092773
0.8870963454246521 0.40602457523345947 0.98698621988296509
0.99709939956665039 0.48222842812538147 0.98335075378417969
0.42101758718490601 0.41822239756584167 0.97882002592086792
0.52405416965484619 0.42441946268081665 0.97837609052658081
0.70303940773010254 0.45376178622245789 0.98252516984939575
0.88098108768463135 0.53093069791793823 0.98559427261352539
0.98745626211166382 0.58028459548950195 0.9775925874710083
0.36801847815513611 0.59612452983856201 0.96763062477111816
0.48953899741172791 0.60777038335800171 0.96580260992050171
0.68524479866027832 0.63029760122299194 0.96695411205291748
0.86611920595169067 0.67906719446182251 0.97514158487319946
0.9914097785949707 0.71086794137954712 0.97446572780609131
0.38419252634048462 0.7730635404586792 0.95602524280548096
0.46004992723464966 0.76873767375946045 0.95593243837356567
0.61749076843261719 0.76219058036804199 0.95768767595291138
0.84083223342895508 0.80150854587554932 0.96833014488220215
0.98343724012374878 0.84255605936050415 0.96867197751998901
0.64266186952590942 0.95284450054168701 0.96226608753204346
0.67354261875152588 0.95135992765426636 0.96424704790115356
0.75282567739486694 0.95236217975616455 0.96359932422637939
0.8535696268081665 0.95591479539871216 0.96377807855606079
0.9785609245300293 0.97287243604660034 0.96608263254165649
