luts/instant_pro/polaroid_669_+.cube
# Created by: G'MIC (https://gmic.eu)
TITLE "polaroid_669_+"
# LUT size
LUT_3D_SIZE 13
# Data domain
DOMAIN_MIN 0.0 0.0 0.0
DOMAIN_MAX 1.0 1.0 1.0
# LUT data points
0.004339300561696291 0.20439937710762024 0.19538664817810059
0.0049415589310228825 0.20212732255458832 0.19313427805900574
0.028027089312672615 0.2021062821149826 0.19347956776618958
0.1000986322760582 0.20805659890174866 0.20407857000827789
0.17916198074817657 0.21358335018157959 0.21479037404060364
0.25654226541519165 0.21659941971302032 0.22198043763637543
0.32988497614860535 0.21693088114261627 0.22632883489131927
0.41189199686050415 0.21810753643512726 0.23406855762004852
0.5035356879234314 0.21949189901351929 0.24602924287319183
0.59186333417892456 0.22086280584335327 0.25721278786659241
0.67480671405792236 0.23266515135765076 0.27590161561965942
0.75757431983947754 0.25010862946510315 0.29975885152816772
0.83170729875564575 0.26719391345977783 0.3179481029510498
0.0078353434801101685 0.22171309590339661 0.20467875897884369
0.011230917647480965 0.21918945014476776 0.20415112376213074
0.045710019767284393 0.22022515535354614 0.20673619210720062
0.11719346791505814 0.22457844018936157 0.21160992980003357
0.19455026090145111 0.22795522212982178 0.22172975540161133
0.27166783809661865 0.23072712123394012 0.23210492730140686
0.35299640893936157 0.23302878439426422 0.2367946058511734
0.43876039981842041 0.23576860129833221 0.24451000988483429
0.52220529317855835 0.23499314486980438 0.25377106666564941
0.60308867692947388 0.23511676490306854 0.26274126768112183
0.68152457475662231 0.24774642288684845 0.27927038073539734
0.76331299543380737 0.26370188593864441 0.29780256748199463
0.84015351533889771 0.28349986672401428 0.31739386916160583
0.01102606114000082 0.24323990941047668 0.2150348424911499
0.018189582973718643 0.23952177166938782 0.21453504264354706
0.067003495991230011 0.24190014600753784 0.21717134118080139
0.13758927583694458 0.24420812726020813 0.21845124661922455
0.21270465850830078 0.24685810506343842 0.22473455965518951
0.29271268844604492 0.25081276893615723 0.23781247437000275
0.37755694985389709 0.25376507639884949 0.24547472596168518
0.4624602198600769 0.25606319308280945 0.2526543140411377
0.54450583457946777 0.25958752632141113 0.26317277550697327
0.62511700391769409 0.26524507999420166 0.27420097589492798
0.70152270793914795 0.27577963471412659 0.2880687415599823
0.775432288646698 0.28974896669387817 0.30432382225990295
0.84770417213439941 0.31278312206268311 0.32525843381881714
0.012823650613427162 0.2672240138053894 0.22507275640964508
0.032827697694301605 0.26536470651626587 0.22586338222026825
0.094127938151359558 0.26917779445648193 0.22881866991519928
0.16337728500366211 0.27172169089317322 0.23000161349773407
0.23393990099430084 0.27475541830062866 0.23164410889148712
0.31583607196807861 0.28271064162254333 0.24362879991531372
0.40311264991760254 0.28897687792778015 0.25599780678749084
0.49044415354728699 0.29460161924362183 0.26794630289077759
0.56971114873886108 0.3023773729801178 0.28019222617149353
0.64715194702148438 0.3088991641998291 0.29109072685241699
0.71836477518081665 0.32103452086448669 0.30463245511054993
0.78574925661087036 0.34238997101783752 0.32453936338424683
0.85334748029708862 0.36410492658615112 0.34322437644004822
0.04263736680150032 0.30436471104621887 0.24088039994239807
0.076023638248443604 0.30810585618019104 0.24508103728294373
0.12680280208587646 0.31130927801132202 0.24786998331546783
0.1890438050031662 0.31256586313247681 0.2494703084230423
0.25811761617660522 0.31617990136146545 0.25007078051567078
0.33277708292007446 0.32327324151992798 0.25509819388389587
0.41820815205574036 0.33086606860160828 0.2654377818107605
0.51189815998077393 0.34337273240089417 0.28428760170936584
0.59176087379455566 0.35693982243537903 0.30113664269447327
0.668784499168396 0.36840605735778809 0.31375080347061157
0.73688399791717529 0.38280346989631653 0.32838508486747742
0.79779809713363647 0.40158414840698242 0.34597897529602051
0.86275428533554077 0.41865706443786621 0.36209124326705933
0.093921080231666565 0.35366138815879822 0.26156362891197205
0.12118706852197647 0.35378894209861755 0.26319462060928345
0.16353319585323334 0.35608017444610596 0.26609006524085999
0.21435952186584473 0.35578933358192444 0.26739329099655151
0.27692008018493652 0.36052784323692322 0.26817461848258972
0.34910249710083008 0.36785683035850525 0.26925709843635559
0.42331895232200623 0.37147372961044312 0.2693440318107605
0.50361204147338867 0.38599023222923279 0.28325751423835754
0.5907444953918457 0.40474116802215576 0.30514329671859741
0.68175053596496582 0.42511141300201416 0.32828241586685181
0.75184798240661621 0.44829255342483521 0.35234063863754272
0.81104594469070435 0.46730965375900269 0.3704397976398468
0.86977076530456543 0.48794952034950256 0.39313569664955139
0.14665135741233826 0.40638807415962219 0.28111401200294495
0.16951730847358704 0.40480872988700867 0.28197535872459412
0.19831044971942902 0.40163311362266541 0.28224551677703857
0.24141260981559753 0.40375474095344543 0.28407710790634155
0.29677543044090271 0.41216102242469788 0.28551888465881348
0.36272385716438293 0.41900360584259033 0.28587549924850464
0.43128135800361633 0.42426276206970215 0.28517365455627441
0.50183260440826416 0.43339899182319641 0.28744626045227051
0.5820314884185791 0.44663360714912415 0.29999545216560364
0.66566705703735352 0.47244930267333984 0.32622227072715759
0.74246639013290405 0.50638794898986816 0.36162930727005005
0.814006507396698 0.53844624757766724 0.3986784815788269
0.87268561124801636 0.56936144828796387 0.43954604864120483
0.19407963752746582 0.46094700694084167 0.29835212230682373
0.21289458870887756 0.46194779872894287 0.30018877983093262
0.2342221736907959 0.45970681309700012 0.30022642016410828
0.26953285932540894 0.46069240570068359 0.30155530571937561
0.32094463706016541 0.46695384383201599 0.3038889467716217
0.37641948461532593 0.47059351205825806 0.3029530942440033
0.43917611241340637 0.47644975781440735 0.30234226584434509
0.51009750366210938 0.48784840106964111 0.30355462431907654
0.57962989807128906 0.49753373861312866 0.30338266491889954
0.65006089210510254 0.52018672227859497 0.32052093744277954
0.72613930702209473 0.55348438024520874 0.35363501310348511
0.79774940013885498 0.59187567234039307 0.40275591611862183
0.86545383930206299 0.63594180345535278 0.46451956033706665
0.23269365727901459 0.52729535102844238 0.31730645895004272
0.247876837849617 0.52649819850921631 0.31843462586402893
0.26605498790740967 0.52200853824615479 0.31663098931312561
0.30022960901260376 0.52391743659973145 0.31952843070030212
0.3442554771900177 0.52962863445281982 0.32421132922172546
0.39397415518760681 0.53238844871520996 0.32172742486000061
0.44871890544891357 0.53799128532409668 0.32010921835899353
0.51669174432754517 0.55342978239059448 0.32287260890007019
0.58286124467849731 0.56686776876449585 0.32465887069702148
0.64647507667541504 0.57906454801559448 0.32681334018707275
0.71312218904495239 0.59948396682739258 0.3424304723739624
0.78241163492202759 0.63877409696578979 0.39358276128768921
0.85040038824081421 0.68228435516357422 0.45584982633590698
0.26914116740226746 0.60296827554702759 0.3380122184753418
0.28191259503364563 0.6009443998336792 0.33805495500564575
0.29717519879341125 0.59754770994186401 0.33667668700218201
0.3272489607334137 0.59849822521209717 0.33949956297874451
0.36285531520843506 0.59925568103790283 0.34188613295555115
0.40837779641151428 0.60289126634597778 0.34124952554702759
0.46123763918876648 0.61154121160507202 0.34074658155441284
0.52286958694458008 0.6243252158164978 0.34322911500930786
0.58440244197845459 0.63804447650909424 0.34846320748329163
0.64592313766479492 0.65191894769668579 0.35233327746391296
0.70787757635116577 0.66469836235046387 0.35623073577880859
0.77290582656860352 0.68782955408096313 0.37567251920700073
0.84084653854370117 0.72815757989883423 0.44053161144256592
0.30562111735343933 0.6920090913772583 0.37280207872390747
0.31733620166778564 0.69003736972808838 0.37238624691963196
0.33060339093208313 0.68685704469680786 0.36720645427703857
0.35577413439750671 0.68495285511016846 0.36700284481048584
0.38544365763664246 0.67997175455093384 0.36684605479240417
0.42249676585197449 0.6798321008682251 0.36753168702125549
0.47275272011756897 0.69091802835464478 0.36872246861457825
0.52818542718887329 0.70255875587463379 0.37542328238487244
0.58902204036712646 0.71940547227859497 0.38668942451477051
0.64859932661056519 0.73516672849655151 0.38993683457374573
0.71020388603210449 0.7476312518119812 0.3938656747341156
0.77316606044769287 0.75952553749084473 0.40222954750061035
0.83135873079299927 0.77888995409011841 0.42587316036224365
0.3505653440952301 0.79351216554641724 0.43346163630485535
0.35919666290283203 0.79036921262741089 0.43261796236038208
0.36965823173522949 0.78762859106063843 0.42460542917251587
0.39038872718811035 0.78501343727111816 0.4200865626335144
0.41899934411048889 0.78138285875320435 0.42303764820098877
0.45212125778198242 0.78114110231399536 0.42567533254623413
0.49154147505760193 0.78764516115188599 0.42099267244338989
0.54358494281768799 0.79750078916549683 0.43116587400436401
0.60294318199157715 0.81352972984313965 0.44794216752052307
0.65956920385360718 0.82622134685516357 0.45245704054832458
0.72041922807693481 0.83771216869354248 0.46165138483047485
0.7853095531463623 0.84632962942123413 0.48203310370445251
0.84175902605056763 0.85512048006057739 0.50341182947158813
0.43000340461730957 0.89530700445175171 0.54582595825195312
0.43225011229515076 0.89265048503875732 0.53964871168136597
0.4440421462059021 0.89046162366867065 0.53857719898223877
0.45737987756729126 0.89019674062728882 0.53151661157608032
0.48201018571853638 0.89096260070800781 0.53444486856460571
0.50883692502975464 0.88988137245178223 0.53469419479370117
0.54319280385971069 0.89050376415252686 0.53509140014648438
0.59510165452957153 0.89683890342712402 0.55246740579605103
0.64621561765670776 0.90690141916275024 0.56483089923858643
0.70225727558135986 0.91565489768981934 0.58175331354141235
0.76271635293960571 0.92380297183990479 0.60476589202880859
0.82061737775802612 0.93031466007232666 0.62723767757415771
0.87105649709701538 0.93781256675720215 0.65499860048294067
0.0039215688593685627 0.2063489556312561 0.21147601306438446
0.0039814966730773449 0.20450344681739807 0.20884032547473907
0.0193355493247509 0.20337970554828644 0.20746159553527832
0.092579469084739685 0.20986722409725189 0.21725878119468689
0.17810793220996857 0.21718926727771759 0.22912095487117767
0.26000991463661194 0.21993345022201538 0.23785817623138428
0.3379095196723938 0.22016440331935883 0.24509508907794952
0.42570236325263977 0.22271129488945007 0.25575911998748779
0.51184356212615967 0.22422908246517181 0.26470613479614258
0.59598284959793091 0.22720955312252045 0.27674132585525513
0.67979496717453003 0.23293444514274597 0.29058176279067993
0.76139646768569946 0.24318458139896393 0.30588236451148987
0.83510875701904297 0.26266384124755859 0.32298454642295837
0.00634002685546875 0.2220536470413208 0.21919229626655579
0.0068904953077435493 0.21968844532966614 0.21686179935932159
0.035312965512275696 0.21939300000667572 0.21707539260387421
0.11276331543922424 0.22443094849586487 0.22523544728755951
0.19107577204704285 0.22819902002811432 0.23240941762924194
0.26984500885009766 0.23114927113056183 0.24013081192970276
0.35613247752189636 0.23456589877605438 0.25134044885635376
0.44650018215179443 0.23860080540180206 0.26422634720802307
0.53026145696640015 0.23999740183353424 0.27344641089439392
0.60955440998077393 0.24187316000461578 0.28309792280197144
0.68908607959747314 0.24956481158733368 0.29661765694618225
0.76831454038619995 0.26069000363349915 0.31089627742767334
0.84049850702285767 0.28056797385215759 0.32938650250434875
0.0074772704392671585 0.24588845670223236 0.23123952746391296
0.017849162220954895 0.24317985773086548 0.23009747266769409
0.06888001412153244 0.24405950307846069 0.2315223217010498
0.14104481041431427 0.24708159267902374 0.23581455647945404
0.2151101678609848 0.24920031428337097 0.24070645868778229
0.29020476341247559 0.25265571475028992 0.24814291298389435
0.37953832745552063 0.25818285346031189 0.26200199127197266
0.46821686625480652 0.26213505864143372 0.27528613805770874
0.54936778545379639 0.26334598660469055 0.28295102715492249
0.62696582078933716 0.26862213015556335 0.29269534349441528
0.70418328046798706 0.27938675880432129 0.30691155791282654
0.77752363681793213 0.29261204600334167 0.32231581211090088
0.84639579057693481 0.31468039751052856 0.34333938360214233
0.013531508855521679 0.27174761891365051 0.24192188680171967
0.042047478258609772 0.27242720127105713 0.24539293348789215
0.10400363802909851 0.2743421196937561 0.24739269912242889
0.16990913450717926 0.27588555216789246 0.24878087639808655
0.2442164272069931 0.28080186247825623 0.25294426083564758
0.3240392804145813 0.28910589218139648 0.26412025094032288
0.41214323043823242 0.2967497706413269 0.27836394309997559
0.49847412109375 0.30218583345413208 0.28965473175048828
0.57369613647460938 0.30771222710609436 0.29972454905509949
0.64660245180130005 0.31474247574806213 0.30987069010734558
0.71873557567596436 0.323285311460495 0.32243973016738892
0.78854793310165405 0.34022623300552368 0.34010684490203857
0.85524863004684448 0.36344903707504272 0.35984101891517639
0.058763526380062103 0.31286907196044922 0.26095777750015259
0.093242853879928589 0.31658107042312622 0.26572337746620178
0.14120614528656006 0.31825867295265198 0.26873305439949036
0.19968196749687195 0.31909811496734619 0.2693389356136322
0.27107959985733032 0.32134652137756348 0.26955583691596985
0.34489598870277405 0.32753369212150574 0.27437376976013184
0.4292914867401123 0.33593961596488953 0.28554031252861023
0.51875466108322144 0.34762272238731384 0.30207911133766174
0.59638732671737671 0.36064141988754272 0.31843951344490051
0.6692349910736084 0.370187908411026 0.33083903789520264
0.73621499538421631 0.38165172934532166 0.34392556548118591
0.80034726858139038 0.40255075693130493 0.36134138703346252
0.86556363105773926 0.42393451929092407 0.3818163275718689
0.11331447213888168 0.36349821090698242 0.28263711929321289
0.1373925656080246 0.36347368359565735 0.28261101245880127
0.17813949286937714 0.36449494957923889 0.2867792546749115
0.22711557149887085 0.36512887477874756 0.28973275423049927
0.29101809859275818 0.36849406361579895 0.28866985440254211
0.36029478907585144 0.37281990051269531 0.28713563084602356
0.43342524766921997 0.37646731734275818 0.287180095911026
0.51417380571365356 0.3915858268737793 0.30234432220458984
0.60176992416381836 0.41055440902709961 0.32595530152320862
0.68614870309829712 0.43126735091209412 0.34968885779380798
0.7507813572883606 0.45270511507987976 0.37153321504592896
0.81251108646392822 0.47158244252204895 0.38756892085075378
0.8710857629776001 0.49163016676902771 0.41060546040534973
0.16423644125461578 0.41418915987014771 0.29890987277030945
0.17926995456218719 0.41309481859207153 0.29842856526374817
0.21224944293498993 0.41240221261978149 0.30195379257202148
0.25215953588485718 0.41298606991767883 0.3052099347114563
0.30566045641899109 0.417062908411026 0.30414730310440063
0.37248894572257996 0.42291849851608276 0.30260756611824036
0.44132199883460999 0.4312303364276886 0.3027576208114624
0.51242512464523315 0.4419480562210083 0.30596402287483215
0.59343993663787842 0.45683252811431885 0.32113772630691528
0.67536908388137817 0.48259571194648743 0.34809130430221558
0.74893838167190552 0.51598137617111206 0.38339447975158691
0.81871217489242554 0.54681086540222168 0.42041099071502686
0.87099355459213257 0.57201224565505981 0.45538488030433655
0.20534901320934296 0.47388449311256409 0.31853297352790833
0.21868263185024261 0.47338923811912537 0.31635791063308716
0.24397364258766174 0.47128587961196899 0.31869474053382874
0.27735462784767151 0.46688482165336609 0.3183344304561615
0.32161638140678406 0.46716439723968506 0.31738993525505066
0.38255921006202698 0.47519472241401672 0.31818902492523193
0.45033764839172363 0.48851773142814636 0.31970375776290894
0.51978355646133423 0.49840134382247925 0.32004356384277344
0.58772677183151245 0.50659376382827759 0.32029467821121216
0.65914076566696167 0.52953559160232544 0.33966243267059326
0.73245149850845337 0.56331115961074829 0.37458088994026184
0.80088239908218384 0.59833258390426636 0.42026445269584656
0.86569970846176147 0.64126896858215332 0.4828154444694519
0.24084372818470001 0.54233163595199585 0.33823585510253906
0.25477629899978638 0.54097855091094971 0.33760431408882141
0.27496474981307983 0.53727984428405762 0.33636298775672913
0.30447390675544739 0.5306086540222168 0.33361423015594482
0.34074106812477112 0.52633190155029297 0.33119243383407593
0.3954017162322998 0.53469526767730713 0.33299273252487183
0.45693501830101013 0.54639309644699097 0.33522740006446838
0.5246891975402832 0.5607074499130249 0.33753770589828491
0.58886265754699707 0.57419407367706299 0.339313805103302
0.65077930688858032 0.58723777532577515 0.34361690282821655
0.71611589193344116 0.60680097341537476 0.3590773344039917
0.78430861234664917 0.64276587963104248 0.40811216831207275
0.85031014680862427 0.68506336212158203 0.46989625692367554
0.27389273047447205 0.61298143863677979 0.35374343395233154
0.28661316633224487 0.6109546422958374 0.35389775037765503
0.30251789093017578 0.60776382684707642 0.35143834352493286
0.33034923672676086 0.60394322872161865 0.35224813222885132
0.36243155598640442 0.60124856233596802 0.35277056694030762
0.40908733010292053 0.60676175355911255 0.35358935594558716
0.46429610252380371 0.61627674102783203 0.35571521520614624
0.52548277378082275 0.63073283433914185 0.35999941825866699
0.58584082126617432 0.64717888832092285 0.36249521374702454
0.64621120691299438 0.65889221429824829 0.36486545205116272
0.70929169654846191 0.66913241147994995 0.36841556429862976
0.7746962308883667 0.691966712474823 0.39337256550788879
0.83910149335861206 0.7306092381477356 0.45077547430992126
0.30856934189796448 0.69841992855072021 0.3876858651638031
0.32054540514945984 0.69657522439956665 0.39016255736351013
0.33359611034393311 0.69418203830718994 0.38551151752471924
0.3572847843170166 0.69038403034210205 0.38133037090301514
0.38879215717315674 0.68892031908035278 0.38186964392662048
0.42595431208610535 0.68780744075775146 0.38225230574607849
0.47440657019615173 0.6962273120880127 0.38442462682723999
0.52961194515228271 0.70860177278518677 0.39093503355979919
0.58703434467315674 0.72414737939834595 0.39437249302864075
0.64687126874923706 0.73874861001968384 0.39765796065330505
0.71026462316513062 0.75207960605621338 0.40741056203842163
0.77344256639480591 0.76519304513931274 0.41774290800094604
0.83546644449234009 0.78448623418807983 0.44186326861381531
0.34900525212287903 0.79698574542999268 0.44212323427200317
0.35860744118690491 0.79596686363220215 0.44377538561820984
0.3717646598815918 0.79402142763137817 0.43987360596656799
0.3922707736492157 0.78981119394302368 0.43482929468154907
0.41840115189552307 0.78592771291732788 0.43277338147163391
0.4511447548866272 0.78634119033813477 0.43255305290222168
0.49357551336288452 0.79071658849716187 0.43292319774627686
0.54514789581298828 0.80117106437683105 0.44181564450263977
0.60023021697998047 0.814339280128479 0.45214569568634033
0.65837270021438599 0.82717251777648926 0.45964199304580688
0.72123324871063232 0.8402940034866333 0.47510045766830444
0.78387349843978882 0.85201919078826904 0.49064892530441284
0.84329593181610107 0.86128795146942139 0.51138573884963989
0.42674732208251953 0.8959541916847229 0.55020004510879517
0.4299522340297699 0.89063024520874023 0.54522192478179932
0.44244500994682312 0.89317339658737183 0.54681539535522461
0.46071067452430725 0.89103144407272339 0.54614555835723877
0.48418775200843811 0.89006549119949341 0.54680550098419189
0.51066386699676514 0.88956677913665771 0.54507392644882202
0.54465383291244507 0.89345645904541016 0.54674679040908813
0.59328722953796387 0.89820510149002075 0.55806547403335571
0.64334166049957275 0.90619158744812012 0.56921660900115967
0.70041865110397339 0.9155392050743103 0.5865861177444458
0.76105916500091553 0.92342925071716309 0.60969895124435425
0.82104754447937012 0.93248546123504639 0.63526314496994019
0.87199074029922485 0.93964219093322754 0.66168981790542603
0.0028857961297035217 0.20785436034202576 0.23024612665176392
0.0040113260038197041 0.20716896653175354 0.22890526056289673
0.01913941279053688 0.20802035927772522 0.23000435531139374
0.091805495321750641 0.21464894711971283 0.23995374143123627
0.17650584876537323 0.22114831209182739 0.2519281804561615
0.25939503312110901 0.22268277406692505 0.26000174880027771
0.34129860997200012 0.22285781800746918 0.26719716191291809
0.43481111526489258 0.22343192994594574 0.27977976202964783
0.52110898494720459 0.22335419058799744 0.28887000679969788
0.60374176502227783 0.22767534852027893 0.30286148190498352
0.68710148334503174 0.23244608938694 0.3154943585395813
0.76647061109542847 0.23753021657466888 0.32578188180923462
0.83345097303390503 0.25527152419090271 0.34299278259277344
0.0040211994200944901 0.22638756036758423 0.24090684950351715
0.0062411138787865639 0.22403764724731445 0.23999792337417603
0.034716289490461349 0.22382946312427521 0.24263454973697662
0.11315729469060898 0.22958379983901978 0.2518312931060791
0.19315187633037567 0.2336459755897522 0.25972375273704529
0.27603358030319214 0.23596696555614471 0.26771900057792664
0.36464101076126099 0.23838867247104645 0.27920177578926086
0.4532865583896637 0.23905672132968903 0.29075828194618225
0.53695774078369141 0.23997694253921509 0.29828312993049622
0.61707979440689087 0.24333927035331726 0.30809497833251953
0.69709843397140503 0.24997733533382416 0.32123857736587524
0.7742648720741272 0.25760430097579956 0.33158400654792786
0.84305053949356079 0.27736759185791016 0.35101127624511719
0.0040424722246825695 0.24949198961257935 0.25331252813339233
0.015063012950122356 0.24763916432857513 0.25396153330802917
0.067573770880699158 0.24838438630104065 0.25694766640663147
0.14181773364543915 0.25180551409721375 0.2620968222618103
0.21913206577301025 0.2547832727432251 0.27037647366523743
0.3001512885093689 0.25771328806877136 0.27840158343315125
0.3883155882358551 0.26238098740577698 0.29137071967124939
0.47380900382995605 0.26571792364120483 0.30291864275932312
0.553466796875 0.26575052738189697 0.30892175436019897
0.62971609830856323 0.26938977837562561 0.31686067581176758
0.70680457353591919 0.28134429454803467 0.3324756920337677
0.78178232908248901 0.29372942447662354 0.34528160095214844
0.85139006376266479 0.31517904996871948 0.36535137891769409
0.010358474217355251 0.27801010012626648 0.26586571335792542
0.041711051017045975 0.27827891707420349 0.26986873149871826
0.10856626927852631 0.28041514754295349 0.27426320314407349
0.1754496693611145 0.28253307938575745 0.27608859539031982
0.25161480903625488 0.28820210695266724 0.28339043259620667
0.33641839027404785 0.29559168219566345 0.2955443263053894
0.42358806729316711 0.30120748281478882 0.30913001298904419
0.50042295455932617 0.30528321862220764 0.3206443190574646
0.575053870677948 0.31072822213172913 0.32974246144294739
0.64821887016296387 0.31745237112045288 0.33575910329818726
0.72178465127944946 0.32585197687149048 0.34714335203170776
0.79169708490371704 0.33719056844711304 0.35993620753288269
0.85707938671112061 0.35968035459518433 0.38001793622970581
0.069431513547897339 0.32437509298324585 0.28812915086746216
0.10368415713310242 0.3263116180896759 0.29465818405151367
0.15115122497081757 0.32656919956207275 0.29802083969116211
0.20924003422260284 0.32704931497573853 0.29775211215019226
0.28143024444580078 0.32950052618980408 0.29984310269355774
0.35901796817779541 0.33443626761436462 0.30410796403884888
0.44380596280097961 0.34372934699058533 0.31900134682655334
0.52518528699874878 0.35418018698692322 0.33793032169342041
