luts/instant_pro/polaroid_665_negative_-.cube
# Created by: G'MIC (https://gmic.eu)
TITLE "polaroid_665_negative_-"
# LUT size
LUT_3D_SIZE 5
# Data domain
DOMAIN_MIN 0.0 0.0 0.0
DOMAIN_MAX 1.0 1.0 1.0
# LUT data points
0.031756144016981125 0.031756144016981125 0.031756144016981125
0.097602531313896179 0.097602531313896179 0.097602531313896179
0.23218394815921783 0.23218394815921783 0.23218394815921783
0.3801426887512207 0.3801426887512207 0.3801426887512207
0.55301183462142944 0.55301183462142944 0.55301183462142944
0.19123987853527069 0.19123987853527069 0.19123987853527069
0.21008524298667908 0.21008524298667908 0.21008524298667908
0.31282427906990051 0.31282427906990051 0.31282427906990051
0.42920422554016113 0.42920422554016113 0.42920422554016113
0.58923196792602539 0.58923196792602539 0.58923196792602539
0.41269016265869141 0.41269016265869141 0.41269016265869141
0.40400469303131104 0.40400469303131104 0.40400469303131104
0.42635124921798706 0.42635124921798706 0.42635124921798706
0.51242578029632568 0.51242578029632568 0.51242578029632568
0.66544294357299805 0.66544294357299805 0.66544294357299805
0.6199570894241333 0.6199570894241333 0.6199570894241333
0.61544907093048096 0.61544907093048096 0.61544907093048096
0.61152416467666626 0.61152416467666626 0.61152416467666626
0.63706386089324951 0.63706386089324951 0.63706386089324951
0.74581682682037354 0.74581682682037354 0.74581682682037354
0.84728515148162842 0.84728515148162842 0.84728515148162842
0.84148144721984863 0.84148144721984863 0.84148144721984863
0.83930391073226929 0.83930391073226929 0.83930391073226929
0.84642094373703003 0.84642094373703003 0.84642094373703003
0.89676278829574585 0.89676278829574585 0.89676278829574585
0.18946345150470734 0.18946345150470734 0.18946345150470734
0.24240478873252869 0.24240478873252869 0.24240478873252869
0.31575310230255127 0.31575310230255127 0.31575310230255127
0.43419471383094788 0.43419471383094788 0.43419471383094788
0.58997172117233276 0.58997172117233276 0.58997172117233276
0.28696796298027039 0.28696796298027039 0.28696796298027039
0.31197968125343323 0.31197968125343323 0.31197968125343323
0.36698070168495178 0.36698070168495178 0.36698070168495178
0.47561159729957581 0.47561159729957581 0.47561159729957581
0.62693518400192261 0.62693518400192261 0.62693518400192261
0.4861835241317749 0.4861835241317749 0.4861835241317749
0.47227251529693604 0.47227251529693604 0.47227251529693604
0.47427502274513245 0.47427502274513245 0.47427502274513245
0.55484437942504883 0.55484437942504883 0.55484437942504883
0.68784070014953613 0.68784070014953613 0.68784070014953613
0.66436600685119629 0.66436600685119629 0.66436600685119629
0.66206967830657959 0.66206967830657959 0.66206967830657959
0.64759379625320435 0.64759379625320435 0.64759379625320435
0.67282617092132568 0.67282617092132568 0.67282617092132568
0.76787382364273071 0.76787382364273071 0.76787382364273071
0.8639599084854126 0.8639599084854126 0.8639599084854126
0.86243665218353271 0.86243665218353271 0.86243665218353271
0.85139292478561401 0.85139292478561401 0.85139292478561401
0.85258370637893677 0.85258370637893677 0.85258370637893677
0.89938479661941528 0.89938479661941528 0.89938479661941528
0.40669766068458557 0.40669766068458557 0.40669766068458557
0.44899103045463562 0.44899103045463562 0.44899103045463562
0.47641104459762573 0.47641104459762573 0.47641104459762573
0.51787805557250977 0.51787805557250977 0.51787805557250977
0.6624988317489624 0.6624988317489624 0.6624988317489624
0.45472893118858337 0.45472893118858337 0.45472893118858337
0.49129053950309753 0.49129053950309753 0.49129053950309753
0.50250208377838135 0.50250208377838135 0.50250208377838135
0.56664246320724487 0.56664246320724487 0.56664246320724487
0.69740062952041626 0.69740062952041626 0.69740062952041626
0.56877505779266357 0.56877505779266357 0.56877505779266357
0.58095908164978027 0.58095908164978027 0.58095908164978027
0.58388417959213257 0.58388417959213257 0.58388417959213257
0.63516271114349365 0.63516271114349365 0.63516271114349365
0.74087023735046387 0.74087023735046387 0.74087023735046387
0.73770809173583984 0.73770809173583984 0.73770809173583984
0.73099207878112793 0.73099207878112793 0.73099207878112793
0.72269672155380249 0.72269672155380249 0.72269672155380249
0.73273307085037231 0.73273307085037231 0.73273307085037231
0.81070846319198608 0.81070846319198608 0.81070846319198608
0.90042990446090698 0.90042990446090698 0.90042990446090698
0.89464986324310303 0.89464986324310303 0.89464986324310303
0.88664686679840088 0.88664686679840088 0.88664686679840088
0.88245904445648193 0.88245904445648193 0.88245904445648193
0.91630995273590088 0.91630995273590088 0.91630995273590088
0.64522451162338257 0.64522451162338257 0.64522451162338257
0.66423076391220093 0.66423076391220093 0.66423076391220093
0.69645464420318604 0.69645464420318604 0.69645464420318604
0.70269966125488281 0.70269966125488281 0.70269966125488281
0.74798572063446045 0.74798572063446045 0.74798572063446045
0.67216086387634277 0.67216086387634277 0.67216086387634277
0.68172621726989746 0.68172621726989746 0.68172621726989746
0.69500499963760376 0.69500499963760376 0.69500499963760376
0.72074705362319946 0.72074705362319946 0.72074705362319946
0.76972728967666626 0.76972728967666626 0.76972728967666626
0.68175214529037476 0.68175214529037476 0.68175214529037476
0.70151013135910034 0.70151013135910034 0.70151013135910034
0.71695482730865479 0.71695482730865479 0.71695482730865479
0.74457693099975586 0.74457693099975586 0.74457693099975586
0.79415637254714966 0.79415637254714966 0.79415637254714966
0.7914469838142395 0.7914469838142395 0.7914469838142395
0.77314275503158569 0.77314275503158569 0.77314275503158569
0.79654264450073242 0.79654264450073242 0.79654264450073242
0.80468165874481201 0.80468165874481201 0.80468165874481201
0.84438955783843994 0.84438955783843994 0.84438955783843994
0.92429804801940918 0.92429804801940918 0.92429804801940918
0.91400015354156494 0.91400015354156494 0.91400015354156494
0.92356616258621216 0.92356616258621216 0.92356616258621216
0.92179197072982788 0.92179197072982788 0.92179197072982788
0.9331781268119812 0.9331781268119812 0.9331781268119812
0.87100118398666382 0.87100118398666382 0.87100118398666382
0.87237650156021118 0.87237650156021118 0.87237650156021118
0.88079220056533813 0.88079220056533813 0.88079220056533813
0.90026605129241943 0.90026605129241943 0.90026605129241943
0.8965798020362854 0.8965798020362854 0.8965798020362854
0.87928241491317749 0.87928241491317749 0.87928241491317749
0.8772885799407959 0.8772885799407959 0.8772885799407959
0.88440746068954468 0.88440746068954468 0.88440746068954468
0.90255725383758545 0.90255725383758545 0.90255725383758545
0.89357352256774902 0.89357352256774902 0.89357352256774902
0.87863254547119141 0.87863254547119141 0.87863254547119141
0.87100076675415039 0.87100076675415039 0.87100076675415039
0.88140708208084106 0.88140708208084106 0.88140708208084106
0.90561246871948242 0.90561246871948242 0.90561246871948242
0.90569072961807251 0.90569072961807251 0.90569072961807251
0.89432865381240845 0.89432865381240845 0.89432865381240845
0.88711011409759521 0.88711011409759521 0.88711011409759521
0.90186434984207153 0.90186434984207153 0.90186434984207153
0.91290038824081421 0.91290038824081421 0.91290038824081421
0.92125511169433594 0.92125511169433594 0.92125511169433594
0.95829164981842041 0.95829164981842041 0.95829164981842041
0.9614977240562439 0.9614977240562439 0.9614977240562439
0.97557210922241211 0.97557210922241211 0.97557210922241211
0.97487246990203857 0.97487246990203857 0.97487246990203857
0.97265374660491943 0.97265374660491943 0.97265374660491943
