luts/instant_pro/polaroid_690_cold_-.cube
# Created by: G'MIC (https://gmic.eu)
TITLE "polaroid_690_cold_-"
# LUT size
LUT_3D_SIZE 7
# Data domain
DOMAIN_MIN 0.0 0.0 0.0
DOMAIN_MAX 1.0 1.0 1.0
# LUT data points
0.0024474498350173235 0.094425618648529053 0.067566215991973877
0.08972632884979248 0.093083761632442474 0.068577095866203308
0.27460885047912598 0.064148500561714172 0.076996713876724243
0.46615362167358398 0.0053576151840388775 0.078640945255756378
0.64847570657730103 0.0016718845581635833 0.085279904305934906
0.81468266248703003 0.0021226771641522646 0.085721708834171295
0.96653503179550171 0.0024801217950880527 0.079892583191394806
0.0032869975548237562 0.19327940046787262 0.084220483899116516
0.078380793333053589 0.19577988982200623 0.077558122575283051
0.31564414501190186 0.18617680668830872 0.081675603985786438
0.52746868133544922 0.13207387924194336 0.095470130443572998
0.70122057199478149 0.043923966586589813 0.093946926295757294
0.85375207662582397 0.0076770409941673279 0.090923026204109192
0.98129290342330933 0.011260014027357101 0.084497697651386261
0.0090167177841067314 0.33766117691993713 0.10460679233074188
0.043106887489557266 0.33763134479522705 0.094330117106437683
0.32532411813735962 0.35744845867156982 0.077631033957004547
0.56725066900253296 0.36400958895683289 0.077951245009899139
0.75802719593048096 0.35681784152984619 0.11156315356492996
0.89396661520004272 0.32649913430213928 0.11670742928981781
0.99153745174407959 0.30401629209518433 0.10019209980964661
0.011764706112444401 0.49122679233551025 0.11798800528049469
0.02933654747903347 0.48576012253761292 0.11070439964532852
0.28999161720275879 0.5068976879119873 0.086547449231147766
0.52696305513381958 0.53447812795639038 0.0377337746322155
0.73187845945358276 0.56449794769287109 0.028711460530757904
0.89387297630310059 0.58911621570587158 0.10571371018886566
0.99358505010604858 0.59343636035919189 0.17019128799438477
0.0081295240670442581 0.64615082740783691 0.12096265703439713
0.019149720668792725 0.64414352178573608 0.10592640936374664
0.27661833167076111 0.64512312412261963 0.080693155527114868
0.49085500836372375 0.66867852210998535 0.032972060143947601
0.69241052865982056 0.69722181558609009 0.010255147702991962
0.86456382274627686 0.71520465612411499 0.025187009945511818
0.98542231321334839 0.7255713939666748 0.16431526839733124
0.14884965121746063 0.78455990552902222 0.14675953984260559
0.23262584209442139 0.77789455652236938 0.1368558257818222
0.37746840715408325 0.77129346132278442 0.11105629056692123
0.54155737161636353 0.7804185152053833 0.083254344761371613
0.70596086978912354 0.79433119297027588 0.071885637938976288
0.8558577299118042 0.80783361196517944 0.065161749720573425
0.9791102409362793 0.82024526596069336 0.14858523011207581
0.43858069181442261 0.90690153837203979 0.2882213294506073
0.47507655620574951 0.90561860799789429 0.27604767680168152
0.54849594831466675 0.90281194448471069 0.25820690393447876
0.64526206254959106 0.90484946966171265 0.24541456997394562
0.75890630483627319 0.91412532329559326 0.24477589130401611
0.87433940172195435 0.9276958703994751 0.24905174970626831
0.97948563098907471 0.94104236364364624 0.24922053515911102
0.0011082966811954975 0.10272102802991867 0.18717484176158905
0.064917773008346558 0.10955783724784851 0.19750103354454041
0.26901072263717651 0.1007254347205162 0.19113802909851074
0.45805791020393372 0.026185622438788414 0.19192454218864441
0.6340293288230896 0.0035744013730436563 0.18752171099185944
0.79828429222106934 0.0018309649312868714 0.17369291186332703
0.9561457633972168 6.9651883677579463e-05 0.16258040070533752
0.0036028244066983461 0.19981850683689117 0.21907269954681396
0.073211044073104858 0.20460455119609833 0.2208133190870285
0.30758875608444214 0.19325935840606689 0.21563234925270081
0.50830894708633423 0.14581620693206787 0.21154981851577759
0.67853927612304688 0.05056019127368927 0.19843301177024841
0.83722424507141113 0.010258574038743973 0.19000032544136047
0.97061002254486084 0.0044078151695430279 0.17493909597396851
0.0069514256902039051 0.35390001535415649 0.24416592717170715
0.078149668872356415 0.35460951924324036 0.23823414742946625
0.34201130270957947 0.36654293537139893 0.2318909615278244
0.57148021459579468 0.37413081526756287 0.24395348131656647
0.74699777364730835 0.35636270046234131 0.24646621942520142
0.88081163167953491 0.30954432487487793 0.22626444697380066
0.98985177278518677 0.28199383616447449 0.20399659872055054
0.012396927922964096 0.50702416896820068 0.24671760201454163
0.049323048442602158 0.50390005111694336 0.23727810382843018
0.30803292989730835 0.5134773850440979 0.2289218008518219
0.53128999471664429 0.54561102390289307 0.21779559552669525
0.73366290330886841 0.57099443674087524 0.21753162145614624
0.89374738931655884 0.59624177217483521 0.25715041160583496
0.99218869209289551 0.58744674921035767 0.27403151988983154
0.0076361563988029957 0.65885055065155029 0.23929236829280853
0.035653281956911087 0.65699934959411621 0.22561316192150116
0.29140540957450867 0.65356993675231934 0.21045157313346863
0.49955382943153381 0.67607277631759644 0.19158487021923065
0.70129227638244629 0.69881236553192139 0.1759454756975174
0.86300551891326904 0.71623653173446655 0.20612531900405884
0.98382395505905151 0.72848397493362427 0.28150013089179993
0.15920259058475494 0.79001981019973755 0.24866306781768799
0.24497349560260773 0.78682935237884521 0.2429364025592804
0.38567528128623962 0.77877414226531982 0.23002667725086212
0.55160021781921387 0.78415066003799438 0.21998868882656097
0.71115171909332275 0.79747599363327026 0.20361538231372833
0.85617208480834961 0.81089562177658081 0.21846495568752289
0.97918200492858887 0.82302260398864746 0.26416721940040588
0.43633708357810974 0.90886861085891724 0.34698545932769775
0.46876952052116394 0.90836584568023682 0.34032097458839417
0.53847986459732056 0.90296858549118042 0.32171326875686646
0.6380501389503479 0.90348285436630249 0.30586397647857666
0.75291198492050171 0.91365510225296021 0.30852395296096802
0.87134504318237305 0.92808717489242554 0.31745490431785583
0.97858470678329468 0.94203954935073853 0.32988351583480835
0.001279045594856143 0.11808241158723831 0.36580744385719299
0.012521272525191307 0.12116575241088867 0.387247234582901
0.28863263130187988 0.11609918624162674 0.40867200493812561
0.47845819592475891 0.094762824475765228 0.36909878253936768
0.63756990432739258 0.017013909295201302 0.34763559699058533
0.78120356798171997 0.0055496664717793465 0.33313632011413574
0.9245225191116333 9.1911766503471881e-05 0.30888104438781738
0.0015139710158109665 0.20652404427528381 0.38109266757965088
0.043717298656702042 0.21429948508739471 0.40017452836036682
0.32229781150817871 0.22114090621471405 0.42627155780792236
0.50220960378646851 0.1962466686964035 0.38661301136016846
0.6575314998626709 0.11781778931617737 0.36294963955879211
0.8018571138381958 0.01252302248030901 0.33471465110778809
0.94592219591140747 0.00062164606060832739 0.29774895310401917
0.0057211932726204395 0.36711832880973816 0.41638129949569702
0.10846928507089615 0.36746150255203247 0.42457789182662964
0.35873988270759583 0.3782360851764679 0.44216153025627136
0.55221718549728394 0.35900986194610596 0.4216257631778717
0.70362132787704468 0.31043362617492676 0.39247459173202515
0.84956437349319458 0.23835675418376923 0.35530465841293335
0.97786188125610352 0.16600726544857025 0.32337486743927002
0.0056743994355201721 0.54266893863677979 0.43503129482269287
0.10985246300697327 0.54467266798019409 0.43361693620681763
0.33309248089790344 0.53173792362213135 0.41775161027908325
0.54529726505279541 0.55494570732116699 0.42033189535140991
0.73227190971374512 0.57700973749160767 0.42870178818702698
0.88339763879776001 0.57667148113250732 0.43464881181716919
0.98776733875274658 0.55097591876983643 0.40687769651412964
0.0076148686930537224 0.68790715932846069 0.41811347007751465
0.075276166200637817 0.68852460384368896 0.40747609734535217
0.31014230847358704 0.67676466703414917 0.39261478185653687
0.50349384546279907 0.68349802494049072 0.38326752185821533
0.70640683174133301 0.70423257350921631 0.38544899225234985
0.86475217342376709 0.71881282329559326 0.41160097718238831
0.98015457391738892 0.73103469610214233 0.47161716222763062
0.15679089725017548 0.8009752631187439 0.40689527988433838
0.24838052690029144 0.79553341865539551 0.40088984370231628
0.38061007857322693 0.78785103559494019 0.38873448967933655
0.53147512674331665 0.78331512212753296 0.36415362358093262
0.70067739486694336 0.79786020517349243 0.37501043081283569
0.85166472196578979 0.81388664245605469 0.39401301741600037
0.9774097204208374 0.82429319620132446 0.42807438969612122
0.40775448083877563 0.91227144002914429 0.46454501152038574
0.44368201494216919 0.90968960523605347 0.45608782768249512
0.52265024185180664 0.90875649452209473 0.44270330667495728
0.62492173910140991 0.9069783091545105 0.42398524284362793
0.74238044023513794 0.91445571184158325 0.42709207534790039
0.85794651508331299 0.92707449197769165 0.43948090076446533
0.97503185272216797 0.94338750839233398 0.45431867241859436
0.00099910655990242958 0.13981588184833527 0.56382805109024048
0.0082730911672115326 0.14243809878826141 0.58150392770767212
0.27463802695274353 0.13059201836585999 0.62258803844451904
0.55400407314300537 0.092141106724739075 0.63961482048034668
0.68906790018081665 0.066682778298854828 0.5816463828086853
0.80697768926620483 0.022098720073699951 0.53072327375411987
0.9342840313911438 0.0030961129814386368 0.50969833135604858
0.0012486326741054654 0.22045102715492249 0.57618695497512817
0.016076391562819481 0.22647501528263092 0.591877281665802
0.31092214584350586 0.23479850590229034 0.62573552131652832
0.56377965211868286 0.22572973370552063 0.64411091804504395
0.69452297687530518 0.20006230473518372 0.58307397365570068
0.81259846687316895 0.1252167671918869 0.53697919845581055
0.93923038244247437 0.0060978308320045471 0.51253360509872437
0.0018542719772085547 0.34733465313911438 0.57077974081039429
0.058060262352228165 0.35670077800750732 0.58477461338043213
0.33405917882919312 0.38025972247123718 0.61636435985565186
0.57083266973495483 0.39582902193069458 0.64733624458312988
0.70568811893463135 0.36068183183670044 0.58951777219772339
0.82970279455184937 0.27316254377365112 0.53679585456848145
0.9524349570274353 0.089593492448329926 0.48606279492378235
0.0042447256855666637 0.54534882307052612 0.60414445400238037
0.14317935705184937 0.54973888397216797 0.61065232753753662
0.36157199740409851 0.55833643674850464 0.6178661584854126
0.55701953172683716 0.5763850212097168 0.63990980386734009
0.71758157014846802 0.55160367488861084 0.612906813621521
0.84972912073135376 0.48345199227333069 0.56149154901504517
0.97381949424743652 0.41700488328933716 0.50403261184692383
0.056197717785835266 0.71793246269226074 0.62251222133636475
0.19703315198421478 0.71240317821502686 0.61391383409500122
0.37341693043708801 0.7091791033744812 0.60680818557739258
0.52384871244430542 0.70450687408447266 0.59438496828079224
0.70517587661743164 0.71417480707168579 0.60479104518890381
0.86108195781707764 0.72807854413986206 0.63555866479873657
0.97836434841156006 0.72103416919708252 0.6436038613319397
0.20208743214607239 0.81575888395309448 0.60625922679901123
0.27408301830291748 0.81158846616744995 0.59906810522079468
0.39716836810112 0.8062140941619873 0.58280438184738159
0.53608101606369019 0.79848295450210571 0.55892044305801392
0.6878771185874939 0.79989558458328247 0.55534887313842773
0.84324634075164795 0.81600630283355713 0.58390825986862183
0.96956151723861694 0.83176487684249878 0.62171632051467896
0.38947716355323792 0.92099529504776001 0.62975186109542847
0.42648476362228394 0.91715484857559204 0.62072074413299561
0.50375235080718994 0.91712445020675659 0.60883504152297974
0.60559248924255371 0.91166085004806519 0.58705109357833862
0.71905893087387085 0.91586041450500488 0.5646551251411438
0.84348398447036743 0.92901611328125 0.58697056770324707
0.96434283256530762 0.94486069679260254 0.61075043678283691
0.00082125194603577256 0.16108667850494385 0.75704073905944824
0.0047265146858990192 0.15824954211711884 0.77086251974105835
0.29176405072212219 0.15387067198753357 0.79664677381515503
0.57569396495819092 0.13544286787509918 0.8249550461769104
0.76059043407440186 0.12483988702297211 0.82590323686599731
0.86709851026535034 0.1141502857208252 0.7739594578742981
0.95361047983169556 0.10450725257396698 0.71616685390472412
0.0025983473751693964 0.24224871397018433 0.76387983560562134
0.01637471467256546 0.2396397739648819 0.77472919225692749
0.32266342639923096 0.24780541658401489 0.79477834701538086
0.58134698867797852 0.25627288222312927 0.82294154167175293
0.76330989599227905 0.26768368482589722 0.82758843898773193
0.86536335945129395 0.23738764226436615 0.76790398359298706
0.95099282264709473 0.20849651098251343 0.72037655115127563
0.0037722119595855474 0.35535314679145813 0.74008935689926147
0.044303610920906067 0.36471331119537354 0.75888007879257202
0.34076562523841858 0.38714641332626343 0.77439147233963013
0.58574491739273071 0.4268556535243988 0.81324106454849243
0.75290399789810181 0.44494372606277466 0.82295417785644531
0.85356056690216064 0.39842739701271057 0.76701813936233521
0.95117098093032837 0.33296933770179749 0.71664953231811523
0.0039931950159370899 0.51369953155517578 0.73358017206192017
0.039349425584077835 0.51331734657287598 0.73698973655700684
0.3085440993309021 0.52943909168243408 0.75276643037796021
0.53793096542358398 0.57265704870223999 0.78324490785598755
0.72818446159362793 0.6182858943939209 0.8124963641166687
0.83337515592575073 0.55872368812561035 0.75552988052368164
0.95159012079238892 0.4502623975276947 0.68773758411407471
0.068754293024539948 0.71025031805038452 0.76847463846206665
0.20347486436367035 0.70639657974243164 0.76933091878890991
0.38847663998603821 0.71139925718307495 0.7757599949836731
0.55458152294158936 0.71611523628234863 0.78645813465118408
0.72211349010467529 0.73635685443878174 0.8086579442024231
0.83855777978897095 0.70327043533325195 0.77854585647583008
0.95730429887771606 0.63101142644882202 0.71320348978042603
0.3690229058265686 0.82413434982299805 0.79157614707946777
0.40882846713066101 0.82343059778213501 0.78759974241256714
0.48981276154518127 0.82046055793762207 0.77889919281005859
0.58942359685897827 0.82011377811431885 0.78086292743682861
0.69950187206268311 0.81197065114974976 0.76008284091949463
0.84020614624023438 0.82674062252044678 0.77370470762252808
0.95951992273330688 0.83642452955245972 0.79930716753005981
0.46004340052604675 0.92738300561904907 0.79894357919692993
0.48044893145561218 0.92785173654556274 0.79633098840713501
0.52685731649398804 0.9257209300994873 0.78669697046279907
0.61253470182418823 0.92653930187225342 0.77633047103881836
0.70863962173461914 0.92731773853302002 0.75162661075592041
0.82374179363250732 0.92968165874481201 0.74283003807067871
0.94875186681747437 0.95105355978012085 0.77863532304763794
0.0098493089899420738 0.19350726902484894 0.91574817895889282
0.12741516530513763 0.18909731507301331 0.91930830478668213
0.39000600576400757 0.19472607970237732 0.9248206615447998
0.59903186559677124 0.19656173884868622 0.93471419811248779
0.7785874605178833 0.24432623386383057 0.94690608978271484
0.90284383296966553 0.2819972038269043 0.93243837356567383
0.98674386739730835 0.27047628164291382 0.911995530128479
0.029546879231929779 0.26577916741371155 0.9146009087562561
0.17900045216083527 0.26654669642448425 0.91618281602859497
0.40462389588356018 0.27404671907424927 0.92257541418075562
0.59824097156524658 0.29413425922393799 0.93252855539321899
0.77096551656723022 0.34851956367492676 0.94719266891479492
0.89633148908615112 0.38321444392204285 0.93513959646224976
0.97798782587051392 0.36475545167922974 0.91159850358963013
0.026066888123750687 0.37991002202033997 0.90108531713485718
0.18053396046161652 0.38637238740921021 0.90360343456268311
0.39978310465812683 0.40353298187255859 0.90855419635772705
0.59265905618667603 0.44369810819625854 0.92265540361404419
0.7614319920539856 0.50392895936965942 0.93916338682174683
0.88415729999542236 0.52393633127212524 0.9343106746673584
0.96912580728530884 0.49074658751487732 0.9058489203453064
0.0020623600576072931 0.50894534587860107 0.87246787548065186
0.04292602464556694 0.5138319730758667 0.87921857833862305
0.32671403884887695 0.53681433200836182 0.88654196262359619
0.55953824520111084 0.58941423892974854 0.90262764692306519
0.73786729574203491 0.64586865901947021 0.92327761650085449
0.86754345893859863 0.66369259357452393 0.92933613061904907
0.9504198431968689 0.6152653694152832 0.89542382955551147
0.0043162177316844463 0.68303930759429932 0.87596684694290161
0.031798403710126877 0.68349260091781616 0.87409186363220215
0.28194096684455872 0.67872601747512817 0.87419736385345459
0.49410918354988098 0.68777704238891602 0.87962883710861206
0.70399028062820435 0.73050379753112793 0.90831643342971802
0.85841375589370728 0.75285947322845459 0.92153006792068481
0.93849605321884155 0.70417767763137817 0.88207143545150757
0.34545406699180603 0.81721150875091553 0.89251631498336792
0.38653534650802612 0.81663554906845093 0.89505422115325928
0.48851269483566284 0.81586885452270508 0.89772516489028931
0.60800808668136597 0.81555569171905518 0.90091657638549805
0.73546862602233887 0.82741630077362061 0.90901839733123779
0.85608464479446411 0.84058195352554321 0.91528195142745972
0.94872158765792847 0.80548137426376343 0.89450287818908691
0.57690161466598511 0.93059343099594116 0.91378951072692871
0.59889918565750122 0.93247896432876587 0.91578012704849243
0.63201075792312622 0.93168717622756958 0.90894705057144165
0.68989551067352295 0.93497496843338013 0.91242653131484985
0.75348037481307983 0.93720853328704834 0.90313023328781128
0.82913386821746826 0.9361037015914917 0.88882839679718018
0.94329863786697388 0.9561658501625061 0.90071815252304077
0.38318929076194763 0.29859492182731628 0.99356544017791748
0.43517649173736572 0.29711437225341797 0.99215489625930786
0.539448082447052 0.3025323748588562 0.9946826696395874
0.66580682992935181 0.32001039385795593 0.99684137105941772
0.7935415506362915 0.37709003686904907 0.99731945991516113
0.90201026201248169 0.46184560656547546 0.99487459659576416
0.98638021945953369 0.50051641464233398 0.98775398731231689
0.39189818501472473 0.36181172728538513 0.99126344919204712
0.44543072581291199 0.3625243604183197 0.99215400218963623
0.54338544607162476 0.37140628695487976 0.99147921800613403
0.66696351766586304 0.39578792452812195 0.9935259222984314
0.78873449563980103 0.4491371214389801 0.99480915069580078
0.89672821760177612 0.52527326345443726 0.99196046590805054
0.98115968704223633 0.55482262372970581 0.98742592334747314
0.38542461395263672 0.47309735417366028 0.98902791738510132
0.43731784820556641 0.47671967744827271 0.98759502172470093
0.53404742479324341 0.48938652873039246 0.98782801628112793
0.6540532112121582 0.51684123277664185 0.98928320407867432
0.77938270568847656 0.56387519836425781 0.98952317237854004
0.89090156555175781 0.62371659278869629 0.99056059122085571
0.97324395179748535 0.63601577281951904 0.98968011140823364
0.3041476309299469 0.59238570928573608 0.98425328731536865
0.3703998327255249 0.59648382663726807 0.9826892614364624
0.4948476254940033 0.6099858283996582 0.98243981599807739
0.63479119539260864 0.63703703880310059 0.98440146446228027
0.76130223274230957 0.66802167892456055 0.9835362434387207
0.88300156593322754 0.70466780662536621 0.98735445737838745
0.97052216529846191 0.71256756782531738 0.98501360416412354
0.1507728099822998 0.70514869689941406 0.97374069690704346
0.23175409436225891 0.70362895727157593 0.97285240888595581
0.3966306746006012 0.70346599817276001 0.97248053550720215
0.57861697673797607 0.71921110153198242 0.97538119554519653
0.74711227416992188 0.74529772996902466 0.9799189567565918
0.8755805492401123 0.77511513233184814 0.98478507995605469
0.96579277515411377 0.78445959091186523 0.98017591238021851
0.41637620329856873 0.82374447584152222 0.9713132381439209
0.44405114650726318 0.82178926467895508 0.97184628248214722
0.51034510135650635 0.81775879859924316 0.97129732370376587
0.60085201263427734 0.81468319892883301 0.97145253419876099
0.70955777168273926 0.8097800612449646 0.97064089775085449
0.85764163732528687 0.84002315998077393 0.9775928258895874
0.96583777666091919 0.86780524253845215 0.97769629955291748
0.60699933767318726 0.93877261877059937 0.9715922474861145
0.62183648347854614 0.93751943111419678 0.97208547592163086
0.66595900058746338 0.94080859422683716 0.97218519449234009
0.72236710786819458 0.94145971536636353 0.9725337028503418
0.79234760999679565 0.93876934051513672 0.96552014350891113
0.87230390310287476 0.94822961091995239 0.97184491157531738
0.96080893278121948 0.96508598327636719 0.97335416078567505
