luts/instant_pro/polaroid_669_+.cube
# Created by: G'MIC (https://gmic.eu)
TITLE "polaroid_669_+"
# LUT size
LUT_3D_SIZE 7
# Data domain
DOMAIN_MIN 0.0 0.0 0.0
DOMAIN_MAX 1.0 1.0 1.0
# LUT data points
0.004339300561696291 0.20439937710762024 0.19538664817810059
0.028027089312672615 0.2021062821149826 0.19347956776618958
0.17916198074817657 0.21358335018157959 0.21479037404060364
0.32988497614860535 0.21693088114261627 0.22632883489131927
0.5035356879234314 0.21949189901351929 0.24602924287319183
0.67480671405792236 0.23266515135765076 0.27590161561965942
0.83170729875564575 0.26719391345977783 0.3179481029510498
0.01102606114000082 0.24323990941047668 0.2150348424911499
0.067003495991230011 0.24190014600753784 0.21717134118080139
0.21270465850830078 0.24685810506343842 0.22473455965518951
0.37755694985389709 0.25376507639884949 0.24547472596168518
0.54450583457946777 0.25958752632141113 0.26317277550697327
0.70152270793914795 0.27577963471412659 0.2880687415599823
0.84770417213439941 0.31278312206268311 0.32525843381881714
0.04263736680150032 0.30436471104621887 0.24088039994239807
0.12680280208587646 0.31130927801132202 0.24786998331546783
0.25811761617660522 0.31617990136146545 0.25007078051567078
0.41820815205574036 0.33086606860160828 0.2654377818107605
0.59176087379455566 0.35693982243537903 0.30113664269447327
0.73688399791717529 0.38280346989631653 0.32838508486747742
0.86275428533554077 0.41865706443786621 0.36209124326705933
0.14665135741233826 0.40638807415962219 0.28111401200294495
0.19831044971942902 0.40163311362266541 0.28224551677703857
0.29677543044090271 0.41216102242469788 0.28551888465881348
0.43128135800361633 0.42426276206970215 0.28517365455627441
0.5820314884185791 0.44663360714912415 0.29999545216560364
0.74246639013290405 0.50638794898986816 0.36162930727005005
0.87268561124801636 0.56936144828796387 0.43954604864120483
0.23269365727901459 0.52729535102844238 0.31730645895004272
0.26605498790740967 0.52200853824615479 0.31663098931312561
0.3442554771900177 0.52962863445281982 0.32421132922172546
0.44871890544891357 0.53799128532409668 0.32010921835899353
0.58286124467849731 0.56686776876449585 0.32465887069702148
0.71312218904495239 0.59948396682739258 0.3424304723739624
0.85040038824081421 0.68228435516357422 0.45584982633590698
0.30562111735343933 0.6920090913772583 0.37280207872390747
0.33060339093208313 0.68685704469680786 0.36720645427703857
0.38544365763664246 0.67997175455093384 0.36684605479240417
0.47275272011756897 0.69091802835464478 0.36872246861457825
0.58902204036712646 0.71940547227859497 0.38668942451477051
0.71020388603210449 0.7476312518119812 0.3938656747341156
0.83135873079299927 0.77888995409011841 0.42587316036224365
0.43000340461730957 0.89530700445175171 0.54582595825195312
0.4440421462059021 0.89046162366867065 0.53857719898223877
0.48201018571853638 0.89096260070800781 0.53444486856460571
0.54319280385971069 0.89050376415252686 0.53509140014648438
0.64621561765670776 0.90690141916275024 0.56483089923858643
0.76271635293960571 0.92380297183990479 0.60476589202880859
0.87105649709701538 0.93781256675720215 0.65499860048294067
0.0028857961297035217 0.20785436034202576 0.23024612665176392
0.01913941279053688 0.20802035927772522 0.23000435531139374
0.17650584876537323 0.22114831209182739 0.2519281804561615
0.34129860997200012 0.22285781800746918 0.26719716191291809
0.52110898494720459 0.22335419058799744 0.28887000679969788
0.68710148334503174 0.23244608938694 0.3154943585395813
0.83345097303390503 0.25527152419090271 0.34299278259277344
0.0040424722246825695 0.24949198961257935 0.25331252813339233
0.067573770880699158 0.24838438630104065 0.25694766640663147
0.21913206577301025 0.2547832727432251 0.27037647366523743
0.3883155882358551 0.26238098740577698 0.29137071967124939
0.553466796875 0.26575052738189697 0.30892175436019897
0.70680457353591919 0.28134429454803467 0.3324756920337677
0.85139006376266479 0.31517904996871948 0.36535137891769409
0.069431513547897339 0.32437509298324585 0.28812915086746216
0.15115122497081757 0.32656919956207275 0.29802083969116211
0.28143024444580078 0.32950052618980408 0.29984310269355774
0.44380596280097961 0.34372934699058533 0.31900134682655334
0.60048836469650269 0.36513200402259827 0.34967905282974243
0.73990333080291748 0.3805064857006073 0.36469334363937378
0.86145293712615967 0.42435592412948608 0.40741541981697083
0.17979800701141357 0.43202811479568481 0.33035850524902344
0.22694087028503418 0.4258226752281189 0.32957476377487183
0.31655764579772949 0.42412519454956055 0.32900348305702209
0.45727869868278503 0.44273048639297485 0.33371707797050476
0.6068461537361145 0.46783766150474548 0.35393458604812622
0.75641095638275146 0.52521920204162598 0.41492849588394165
0.8681451678276062 0.57437169551849365 0.48256644606590271
0.24812638759613037 0.55600756406784058 0.36288216710090637
0.28412699699401855 0.54979366064071655 0.35881626605987549
0.34684941172599792 0.53660124540328979 0.35531091690063477
0.4635435938835144 0.55410993099212646 0.35857430100440979
0.59294646978378296 0.58081722259521484 0.36302667856216431
0.72146224975585938 0.61570137739181519 0.38629549741744995
0.85206884145736694 0.69268798828125 0.50567770004272461
0.31396663188934326 0.70977896451950073 0.41836169362068176
0.33824560046195984 0.70703786611557007 0.41071039438247681
0.39205992221832275 0.69760757684707642 0.40343713760375977
0.47483912110328674 0.70068484544754028 0.40362933278083801
0.58609044551849365 0.72763514518737793 0.41090697050094604
0.71054744720458984 0.75662767887115479 0.42639586329460144
0.83662742376327515 0.78951859474182129 0.4698604941368103
0.42912769317626953 0.89723831415176392 0.57018387317657471
0.44586730003356934 0.89706456661224365 0.56753134727478027
0.48311594128608704 0.89039826393127441 0.56176197528839111
0.54522234201431274 0.8935583233833313 0.56308078765869141
0.64444243907928467 0.90817683935165405 0.58591389656066895
0.76160567998886108 0.92458325624465942 0.62478429079055786
0.87182927131652832 0.93952608108520508 0.67040109634399414
0.00073587754741311073 0.21988514065742493 0.29612579941749573
0.013179943896830082 0.22416259348392487 0.31033021211624146
0.18491670489311218 0.23443959653377533 0.33038461208343506
0.36509087681770325 0.24170401692390442 0.36526370048522949
0.55083554983139038 0.24436154961585999 0.39653307199478149
0.71232903003692627 0.23624558746814728 0.40633693337440491
0.84650248289108276 0.24417188763618469 0.41937825083732605
0.0023255143314599991 0.26303961873054504 0.32392123341560364
0.048715971410274506 0.26347070932388306 0.33891960978507996
0.22868296504020691 0.27266940474510193 0.36463043093681335
0.41057798266410828 0.28103634715080261 0.39512866735458374
0.57461667060852051 0.28143364191055298 0.40853911638259888
0.72710675001144409 0.27682274580001831 0.41742312908172607
0.85434848070144653 0.30798956751823425 0.44673272967338562
0.032418150454759598 0.34908056259155273 0.38264471292495728
0.1623387485742569 0.35771024227142334 0.39826959371566772
0.31237319111824036 0.3624110221862793 0.41823217272758484
0.4641261100769043 0.36228093504905701 0.42498123645782471
0.61167621612548828 0.37249061465263367 0.44146430492401123
0.74572598934173584 0.39124244451522827 0.45846575498580933
0.86295634508132935 0.42310002446174622 0.48635852336883545
0.16757296025753021 0.47851502895355225 0.42756769061088562
0.24256466329097748 0.47768846154212952 0.43024489283561707
0.35712295770645142 0.47035104036331177 0.44198024272918701
0.48932123184204102 0.47455090284347534 0.44398605823516846
0.63220071792602539 0.50658655166625977 0.47424808144569397
0.75798702239990234 0.54334193468093872 0.51289719343185425
0.85876262187957764 0.57785093784332275 0.55944144725799561
0.2631220817565918 0.60892438888549805 0.46311503648757935
0.31112712621688843 0.60593909025192261 0.46523994207382202
0.38235175609588623 0.59062641859054565 0.45667615532875061
0.48206630349159241 0.58879220485687256 0.45719951391220093
0.60867786407470703 0.60667639970779419 0.45771345496177673
0.73374336957931519 0.64699262380599976 0.49172013998031616
0.85297083854675293 0.72111839056015015 0.60960239171981812
0.32432135939598083 0.7463994026184082 0.50566506385803223
0.35199663043022156 0.74302154779434204 0.50514262914657593
0.40399226546287537 0.73933309316635132 0.49830788373947144
0.48028355836868286 0.72573274374008179 0.48842960596084595
0.58906400203704834 0.74473756551742554 0.49411281943321228
0.71525454521179199 0.77080148458480835 0.51382428407669067
0.83755612373352051 0.80298078060150146 0.55792850255966187
0.43923512101173401 0.90805906057357788 0.63634806871414185
0.45267903804779053 0.90515732765197754 0.63069659471511841
0.49076074361801147 0.90515697002410889 0.62681913375854492
0.54562854766845703 0.9010581374168396 0.62038874626159668
0.63855665922164917 0.90920817852020264 0.63355135917663574
0.75942391157150269 0.92563307285308838 0.66990572214126587
0.86845076084136963 0.94075524806976318 0.70712125301361084
0 0.24836906790733337 0.43990713357925415
0.0049375644885003567 0.24336583912372589 0.4440942108631134
0.17644959688186646 0.25286880135536194 0.47230613231658936
0.41882660984992981 0.27411600947380066 0.52344262599945068
0.58098721504211426 0.28768089413642883 0.54896491765975952
0.74300003051757812 0.33565279841423035 0.59299206733703613
0.86553919315338135 0.36222586035728455 0.61287075281143188
0 0.29750403761863708 0.46536669135093689
0.0062165651470422745 0.29142987728118896 0.48109635710716248
0.22842347621917725 0.29927575588226318 0.51386374235153198
0.45392513275146484 0.32255125045776367 0.55239641666412354
0.61138737201690674 0.34727740287780762 0.58203881978988647
0.75110185146331787 0.37838301062583923 0.60585057735443115
0.86826258897781372 0.39648306369781494 0.61799812316894531
0.0031007654033601284 0.38891920447349548 0.51202821731567383
0.12445469200611115 0.3935074508190155 0.52611732482910156
0.31135654449462891 0.39439550042152405 0.55722475051879883
0.49914512038230896 0.42155337333679199 0.59551149606704712
0.63358092308044434 0.44665160775184631 0.61434066295623779
0.74929988384246826 0.44993418455123901 0.61160933971405029
0.86462587118148804 0.44636848568916321 0.60633784532546997
0.13106840848922729 0.52314561605453491 0.57948553562164307
0.23070245981216431 0.52550697326660156 0.58683550357818604
0.37458124756813049 0.52729040384292603 0.59451413154602051
0.52033334970474243 0.54357808828353882 0.62121975421905518
0.64431256055831909 0.55252879858016968 0.63370078802108765
0.75104928016662598 0.561137855052948 0.63651639223098755
0.85675221681594849 0.5782286524772644 0.65008270740509033
0.2612176239490509 0.67580342292785645 0.61466437578201294
0.31216171383857727 0.67021328210830688 0.61312037706375122
0.41150018572807312 0.6654353141784668 0.62056428194046021
0.51136964559555054 0.65669447183609009 0.62261945009231567
0.62607002258300781 0.66247951984405518 0.61941742897033691
0.74530208110809326 0.70173639059066772 0.66304326057434082
0.85109502077102661 0.74530798196792603 0.72231978178024292
0.33152279257774353 0.79628211259841919 0.64006233215332031
0.36428713798522949 0.79635131359100342 0.643970787525177
0.42572179436683655 0.79223072528839111 0.641571044921875
0.49919533729553223 0.77407097816467285 0.62751209735870361
0.59354966878890991 0.77110826969146729 0.62236839532852173
0.71778589487075806 0.79523533582687378 0.63599807024002075
0.8376888632774353 0.83103799819946289 0.6869623064994812
0.45547232031822205 0.92415237426757812 0.72628456354141235
0.47374749183654785 0.92158383131027222 0.72234582901000977
0.50898247957229614 0.92187696695327759 0.72149980068206787
0.55877500772476196 0.91783666610717773 0.7114865779876709
0.637775719165802 0.91556894779205322 0.70548743009567261
0.75593692064285278 0.93116796016693115 0.72900092601776123
0.86858004331588745 0.94320118427276611 0.76671111583709717
0 0.2851107120513916 0.62094700336456299
0 0.28245341777801514 0.64079642295837402
0.08323371410369873 0.28437122702598572 0.67053335905075073
0.43281087279319763 0.31776502728462219 0.71341341733932495
0.62959349155426025 0.358938068151474 0.73785299062728882
0.75143575668334961 0.41359397768974304 0.75476181507110596
0.85980945825576782 0.53967362642288208 0.79382616281509399
0.00015088249347172678 0.35199463367462158 0.66517060995101929
0.0037724364083260298 0.34269410371780396 0.67196160554885864
0.13840416073799133 0.33136913180351257 0.69593775272369385
0.45844709873199463 0.37047228217124939 0.73137736320495605
0.64483821392059326 0.41871267557144165 0.75399833917617798
0.75648438930511475 0.47211799025535583 0.76881355047225952
0.85889655351638794 0.5788610577583313 0.80345141887664795
0.0035945966374129057 0.45166388154029846 0.68000191450119019
0.081511341035366058 0.44595614075660706 0.6947665810585022
0.2742030918598175 0.43683561682701111 0.71601855754852295
0.48577570915222168 0.47380727529525757 0.74510180950164795
0.65387368202209473 0.53230768442153931 0.77397328615188599
0.75209033489227295 0.56895250082015991 0.78403830528259277
0.85110193490982056 0.63233077526092529 0.80298876762390137
0.022342158481478691 0.56317776441574097 0.70685380697250366
0.16722804307937622 0.56752169132232666 0.71208900213241577
0.34681558609008789 0.57034504413604736 0.72290343046188354
0.51219087839126587 0.59351921081542969 0.75924456119537354
0.65298378467559814 0.64787256717681885 0.78940367698669434
0.75121808052062988 0.67621481418609619 0.80087471008300781
0.85102337598800659 0.68009626865386963 0.79831260442733765
0.25093540549278259 0.71317625045776367 0.7557075023651123
0.30731242895126343 0.71349626779556274 0.75570029020309448
0.40944159030914307 0.71762913465499878 0.76436656713485718
0.53179472684860229 0.72843635082244873 0.77495396137237549
0.64942359924316406 0.74695569276809692 0.79147708415985107
0.75077790021896362 0.75516068935394287 0.80213773250579834
0.84787780046463013 0.75399684906005859 0.80110806226730347
0.3881324827671051 0.84706944227218628 0.78099483251571655
0.41386905312538147 0.84682279825210571 0.77782505750656128
0.46961617469787598 0.84346938133239746 0.78287422657012939
0.54894983768463135 0.8374478816986084 0.78393298387527466
0.62768226861953735 0.82656031847000122 0.77841943502426147
0.73478847742080688 0.83704996109008789 0.78091150522232056
0.84835696220397949 0.86812645196914673 0.81006115674972534
0.50571715831756592 0.94875377416610718 0.81331431865692139
0.51971137523651123 0.94660556316375732 0.8120574951171875
0.54851710796356201 0.9444994330406189 0.81078112125396729
0.60122156143188477 0.93837016820907593 0.80754232406616211
0.66140186786651611 0.93218350410461426 0.79564183950424194
0.75284898281097412 0.93706858158111572 0.80094987154006958
0.87249153852462769 0.9493863582611084 0.82053965330123901
0 0.35664337873458862 0.82664841413497925
7.9435463703703135e-05 0.34695827960968018 0.83295446634292603
0.047828163951635361 0.34750214219093323 0.84565252065658569
0.44529518485069275 0.40556254982948303 0.8515813946723938
0.65719234943389893 0.48920056223869324 0.86765855550765991
0.78122872114181519 0.56933021545410156 0.86596196889877319
0.86328601837158203 0.61887544393539429 0.87317228317260742
0.00041101491660811007 0.41908836364746094 0.83142668008804321
0.002918303245678544 0.40968349575996399 0.83689767122268677
0.10825702548027039 0.3974805474281311 0.8513716459274292
0.47065973281860352 0.44984245300292969 0.86018496751785278
0.66455638408660889 0.54202651977539062 0.86421102285385132
0.78183764219284058 0.60601472854614258 0.87172168493270874
0.86140227317810059 0.65630769729614258 0.8752446174621582
0.019100429490208626 0.52793276309967041 0.83858752250671387
0.0976676344871521 0.51895451545715332 0.84318798780441284
0.28576242923736572 0.51110553741455078 0.84938740730285645
0.49739953875541687 0.54672902822494507 0.8584820032119751
0.67013025283813477 0.63090461492538452 0.87076550722122192
0.77918058633804321 0.67889082431793213 0.86618387699127197
0.85578292608261108 0.72185987234115601 0.8773687481880188
0.047400232404470444 0.63410657644271851 0.83032995462417603
0.20043860375881195 0.63625270128250122 0.8316461443901062
0.3821856677532196 0.64433771371841431 0.84175747632980347
0.5117000937461853 0.65139001607894897 0.852386474609375
0.66434013843536377 0.71232646703720093 0.86846339702606201
0.78023022413253784 0.76697629690170288 0.8744206428527832
0.85218220949172974 0.79587805271148682 0.87847530841827393
0.23003022372722626 0.76390731334686279 0.84219193458557129
0.29082852602005005 0.75971490144729614 0.83962416648864746
0.39021679759025574 0.7558295726776123 0.84227007627487183
0.51580643653869629 0.76363134384155273 0.84873420000076294
0.65820205211639404 0.79587680101394653 0.86315262317657471
0.78189229965209961 0.83648180961608887 0.87608534097671509
0.85925710201263428 0.85982352495193481 0.8807903528213501
0.42726844549179077 0.87516951560974121 0.85707956552505493
0.45612445473670959 0.87842428684234619 0.85648012161254883
0.50364542007446289 0.88031119108200073 0.8595811128616333
0.59783488512039185 0.88068670034408569 0.86287343502044678
0.68964028358459473 0.88700240850448608 0.86867243051528931
0.78910249471664429 0.89554238319396973 0.87231588363647461
0.86803913116455078 0.90575706958770752 0.87813597917556763
0.61670267581939697 0.9614098072052002 0.87134784460067749
0.6288871169090271 0.95806878805160522 0.86846107244491577
0.65352243185043335 0.96191877126693726 0.87101829051971436
0.69579041004180908 0.9585307240486145 0.87188488245010376
0.74402296543121338 0.95407187938690186 0.86894124746322632
0.79202485084533691 0.95128428936004639 0.86464434862136841
0.8872496485710144 0.96605092287063599 0.87537521123886108
0.079130597412586212 0.50360846519470215 0.9248889684677124
0.12710292637348175 0.49405393004417419 0.92718702554702759
0.32992184162139893 0.50187802314758301 0.92740714550018311
0.54137504100799561 0.55903363227844238 0.92401736974716187
0.69895559549331665 0.65028971433639526 0.92115098237991333
0.81148838996887207 0.7352597713470459 0.91418522596359253
0.88429480791091919 0.7805323600769043 0.91305148601531982
0.17338663339614868 0.55919718742370605 0.92398655414581299
0.24163365364074707 0.55284255743026733 0.92433387041091919
0.37866401672363281 0.55549854040145874 0.92266452312469482
0.55895215272903442 0.60500138998031616 0.9209708571434021
0.70298820734024048 0.68198049068450928 0.91867351531982422
0.81461852788925171 0.75818037986755371 0.9150351881980896
0.88694244623184204 0.80079728364944458 0.91310203075408936
0.32758158445358276 0.65940332412719727 0.91675180196762085
0.36449015140533447 0.6535528302192688 0.91599518060684204
0.45290246605873108 0.65081477165222168 0.91697442531585693
0.57495135068893433 0.67777842283248901 0.91770309209823608
0.71176207065582275 0.74446684122085571 0.91460144519805908
0.81809663772583008 0.80076533555984497 0.91335207223892212
0.88173621892929077 0.83815151453018188 0.91305148601531982
0.38059237599372864 0.75680351257324219 0.9050142765045166
0.42001086473464966 0.7524837851524353 0.90357214212417603
0.49451538920402527 0.75412589311599731 0.90620595216751099
0.58362060785293579 0.75601875782012939 0.90916943550109863
0.69829475879669189 0.78907197713851929 0.90883708000183105
0.81386888027191162 0.84125024080276489 0.91064786911010742
0.87814867496490479 0.87751263380050659 0.91262030601501465
0.35727176070213318 0.83954602479934692 0.89815831184387207
0.38957124948501587 0.83883464336395264 0.89846193790435791
0.46630269289016724 0.83559191226959229 0.89872729778289795
0.59060144424438477 0.84167319536209106 0.90322667360305786
0.70437240600585938 0.85460227727890015 0.90717089176177979
0.81824487447738647 0.88637840747833252 0.91032129526138306
0.88712835311889648 0.91712433099746704 0.91438537836074829
0.51062709093093872 0.92322301864624023 0.90122008323669434
0.52447777986526489 0.92408567667007446 0.90111136436462402
0.55978929996490479 0.92111039161682129 0.90173619985580444
0.63175761699676514 0.91495627164840698 0.90177363157272339
0.70606017112731934 0.91604012250900269 0.90370255708694458
0.82001161575317383 0.92732292413711548 0.90908992290496826
0.89482450485229492 0.94590628147125244 0.91370469331741333
0.69176864624023438 0.97848790884017944 0.9087071418762207
0.69671648740768433 0.97776389122009277 0.90703302621841431
0.72017902135848999 0.97628885507583618 0.90805679559707642
0.7555919885635376 0.97684335708618164 0.91064715385437012
0.80169945955276489 0.97263604402542114 0.9118964672088623
0.8512732982635498 0.97320497035980225 0.91154801845550537
0.90746003389358521 0.97988295555114746 0.9175255298614502
