luts/instant_pro/polaroid_690_warm_--.cube
# Created by: G'MIC (https://gmic.eu)
TITLE "polaroid_690_warm_--"
# LUT size
LUT_3D_SIZE 7
# Data domain
DOMAIN_MIN 0.0 0.0 0.0
DOMAIN_MAX 1.0 1.0 1.0
# LUT data points
0.038615822792053223 0.019441312178969383 0.014511212706565857
0.18069761991500854 0.0064521790482103825 0.014791286550462246
0.39452087879180908 0.0023564954753965139 0.012225566431879997
0.58807367086410522 0.00027916103135794401 0.0051272823475301266
0.74446344375610352 0 0.0024919097777456045
0.88599783182144165 0 0
0.99349623918533325 0 0
0.022275079041719437 0.16543695330619812 0.0057538351975381374
0.21233540773391724 0.16979573667049408 0.0041266498155891895
0.45130404829978943 0.12005799263715744 0.0013649435713887215
0.64572471380233765 0.034090828150510788 0.0015776989748701453
0.79042798280715942 0.0016459296457469463 6.8993664172012359e-05
0.91920268535614014 0.0042936587706208229 1.4720243598276284e-05
0.99716585874557495 0.00030065799364820123 0
0.0069631538353860378 0.37332946062088013 0.00015013451047707349
0.16848123073577881 0.3789726197719574 0.0034533482976257801
0.43619012832641602 0.38700783252716064 0.0024497837293893099
0.66617155075073242 0.37929567694664001 0.0022013047710061073
0.83814895153045654 0.34615698456764221 0.00038001863867975771
0.9532935619354248 0.27399769425392151 0.00036556768463924527
1 0.2312462329864502 0
0.0070938407443463802 0.53161913156509399 0
0.15543468296527863 0.52869105339050293 0.0018928078934550285
0.38348299264907837 0.53420984745025635 0.0025025461800396442
0.61211198568344116 0.54648470878601074 0.0023885241243988276
0.80177849531173706 0.55212008953094482 0.0032300164457410574
0.95264607667922974 0.55148708820343018 0.0037985260132700205
0.99874961376190186 0.54911911487579346 0.0044670705683529377
0.095621727406978607 0.65507227182388306 0.0011674170382320881
0.23526841402053833 0.65463954210281372 0.0021837421227246523
0.38522040843963623 0.64894884824752808 0.002347100991755724
0.56959062814712524 0.66250187158584595 0.001948622171767056
0.75649100542068481 0.67761772871017456 0.0021997787989675999
0.92127889394760132 0.69360190629959106 0.0015001633437350392
0.9992372989654541 0.7099345326423645 0.0010555940680205822
0.28070470690727234 0.78522408008575439 0.0011810302967205644
0.34432044625282288 0.78651899099349976 0.0023089838214218616
0.45049932599067688 0.7788969874382019 0.0021853428333997726
0.59211832284927368 0.78405696153640747 0.0022656160872429609
0.75615650415420532 0.79892134666442871 9.2719579697586596e-05
0.9155157208442688 0.81647998094558716 8.2576980275916867e-06
0.99570602178573608 0.83141613006591797 0.003323528915643692
0.50388991832733154 0.9414905309677124 0.064274266362190247
0.53632444143295288 0.94128578901290894 0.051945362240076065
0.60853046178817749 0.93954384326934814 0.028858797624707222
0.70529425144195557 0.93492203950881958 0.0074938605539500713
0.82038724422454834 0.93943619728088379 0.00034395104739814997
0.93096154928207397 0.94487321376800537 0.0001003489742288366
0.99824064970016479 0.95743089914321899 0
0.027587426826357841 0.022344581782817841 0.15450587868690491
0.19659550487995148 0.0063963648863136768 0.164632648229599
0.39653891324996948 0.0023090587928891182 0.13323357701301575
0.57982140779495239 0.00017511704936623573 0.12520207464694977
0.72276252508163452 0 0.10175400972366333
0.86127340793609619 0 0.063996918499469757
0.98635655641555786 0 0.029898310080170631
0.06691596657037735 0.1699250191450119 0.15820522606372833
0.2369726300239563 0.18030428886413574 0.16326834261417389
0.44153189659118652 0.13174600899219513 0.15313518047332764
0.62187105417251587 0.042811747640371323 0.13193447887897491
0.76286756992340088 0.0056295804679393768 0.10717921704053879
0.89413928985595703 0.00061983591876924038 0.069980815052986145
0.99718809127807617 0.00011324414663249627 0.02999400720000267
0.085302539169788361 0.38845127820968628 0.15798196196556091
0.24468652904033661 0.3880062997341156 0.1424696296453476
0.45361492037773132 0.3982316255569458 0.12205113470554352
0.66652745008468628 0.39272630214691162 0.13945543766021729
0.81837695837020874 0.34131637215614319 0.13805386424064636
0.93651169538497925 0.27371737360954285 0.090004473924636841
0.99993896484375 0.22037322819232941 0.040093936026096344
0.11214681714773178 0.54223132133483887 0.12926915287971497
0.24602688848972321 0.53968232870101929 0.11131240427494049
0.4077918529510498 0.53894484043121338 0.080738112330436707
0.61470067501068115 0.55525022745132446 0.057881046086549759
0.805125892162323 0.56081020832061768 0.066853903234004974
0.95499140024185181 0.56528991460800171 0.13624417781829834
0.99958902597427368 0.54927462339401245 0.1352037787437439
0.18799977004528046 0.6621321439743042 0.094359487295150757
0.27266281843185425 0.66200459003448486 0.083004310727119446
0.40330764651298523 0.65231883525848389 0.052645336836576462
0.57358455657958984 0.66618365049362183 0.036024384200572968
0.75957506895065308 0.68584918975830078 0.019909249618649483
0.92420476675033569 0.70276755094528198 0.024936690926551819
0.99972856044769287 0.72000372409820557 0.093259908258914948
0.30220690369606018 0.79307097196578979 0.07999756932258606
0.35597604513168335 0.78996580839157104 0.060271799564361572
0.45663580298423767 0.78355640172958374 0.033583547919988632
0.59057247638702393 0.78307157754898071 0.012940829619765282
0.7510790228843689 0.80063021183013916 0.009052949957549572
0.90619701147079468 0.819358229637146 0.0045132953673601151
0.99780011177062988 0.8395271897315979 0.008981398306787014
0.49569284915924072 0.94087880849838257 0.2022937685251236
0.5298231840133667 0.94126617908477783 0.19105790555477142
0.60043835639953613 0.93932878971099854 0.15697002410888672
0.69869178533554077 0.93660098314285278 0.088483966886997223
0.81686651706695557 0.94279134273529053 0.053650245070457458
0.93167692422866821 0.94991421699523926 0.019566301256418228
0.99970108270645142 0.95552259683609009 0.0039965910837054253
0.0041665318422019482 0.027001548558473587 0.37481138110160828
0.15219931304454803 0.012965796515345573 0.39328205585479736
0.42562094330787659 0.0036010593175888062 0.40792208909988403
0.59519213438034058 0.0054648155346512794 0.34513962268829346
0.72145479917526245 0.0025666628498584032 0.30085420608520508
0.84898442029953003 0.0033684077206999063 0.26188772916793823
0.97222483158111572 1.7233456674148329e-05 0.21535524725914001
0.071517780423164368 0.17711438238620758 0.37423354387283325
0.24293267726898193 0.18926802277565002 0.39465811848640442
0.45943084359169006 0.19252155721187592 0.41662341356277466
0.60848712921142578 0.15432727336883545 0.35730579495429993
0.73158329725265503 0.044957477599382401 0.31200233101844788
0.85835409164428711 0.0053368662483990192 0.26989695429801941
0.97927343845367432 0.00030335070914588869 0.22122010588645935
0.17243923246860504 0.39073628187179565 0.39014771580696106
0.30366119742393494 0.40504717826843262 0.40412148833274841
0.47643411159515381 0.41219913959503174 0.41241517663002014
0.63913148641586304 0.3802124559879303 0.38686650991439819
0.76807576417922974 0.30748838186264038 0.34141892194747925
0.89718997478485107 0.22645439207553864 0.29193472862243652
0.99814647436141968 0.13312336802482605 0.24748361110687256
0.23728568851947784 0.56048500537872314 0.39315801858901978
0.32713779807090759 0.56429034471511841 0.39589077234268188
0.45767730474472046 0.55638211965560913 0.37629443407058716
0.62950307130813599 0.55996870994567871 0.37077313661575317
0.80261880159378052 0.56743067502975464 0.37669026851654053
0.93901658058166504 0.55146032571792603 0.37921550869941711
0.99914431571960449 0.52047240734100342 0.33530431985855103
0.26585868000984192 0.68143028020858765 0.35953009128570557
0.33301416039466858 0.68265151977539062 0.34955257177352905
0.44938820600509644 0.67203527688980103 0.33314496278762817
0.59193509817123413 0.67279207706451416 0.31126308441162109
0.76331198215484619 0.69037789106369019 0.31734445691108704
0.91771095991134644 0.7094237208366394 0.33394888043403625
0.99680089950561523 0.72508329153060913 0.37645083665847778
0.32538703083992004 0.80225938558578491 0.32929712533950806
0.37256684899330139 0.80074506998062134 0.31479793787002563
0.47531959414482117 0.79487460851669312 0.29677292704582214
0.59505605697631836 0.78528815507888794 0.26432272791862488
0.75399959087371826 0.80395114421844482 0.25821962952613831
0.90395885705947876 0.82418078184127808 0.25297558307647705
0.99421870708465576 0.84199607372283936 0.28814360499382019
0.47686409950256348 0.94319695234298706 0.37068113684654236
0.50943654775619507 0.94017261266708374 0.36545777320861816
0.58309876918792725 0.93938088417053223 0.34478503465652466
0.68337517976760864 0.93474805355072021 0.31022936105728149
0.80259901285171509 0.93765103816986084 0.28422713279724121
0.92335754632949829 0.94867110252380371 0.26395127177238464
0.9981837272644043 0.95972275733947754 0.240414097905159
0.0030727761331945658 0.040078960359096527 0.56987476348876953
0.10587076097726822 0.031495608389377594 0.58518534898757935
0.41229045391082764 0.017698101699352264 0.6161729097366333
0.64977651834487915 0.012198115698993206 0.62614613771438599
0.76011544466018677 0.0059808767400681973 0.54305350780487061
0.86058223247528076 0.0033058915287256241 0.47800290584564209
0.97427260875701904 0.0023677153512835503 0.44775250554084778
0.079277783632278442 0.19468735158443451 0.56775027513504028
0.24008288979530334 0.20894931256771088 0.58496558666229248
0.45704448223114014 0.22406658530235291 0.61244010925292969
0.65742510557174683 0.22036173939704895 0.62446653842926025
0.76107460260391235 0.19840794801712036 0.54501688480377197
0.86316794157028198 0.10893440991640091 0.48418214917182922
0.97526264190673828 0.0047022951766848564 0.44880354404449463
0.18535341322422028 0.36335968971252441 0.5491403341293335
0.29574894905090332 0.38196620345115662 0.56384730339050293
0.47356802225112915 0.40867248177528381 0.58922743797302246
0.65561389923095703 0.4222358763217926 0.6141020655632019
0.75734502077102661 0.37331727147102356 0.54650032520294189
0.87052905559539795 0.28340190649032593 0.48454529047012329
0.9841771125793457 0.086279653012752533 0.43163713812828064
0.27167114615440369 0.55608278512954712 0.56934982538223267
0.35918703675270081 0.56276112794876099 0.57925117015838623
0.49394309520721436 0.57326579093933105 0.5860055685043335
0.64773321151733398 0.58236026763916016 0.60308349132537842
0.77815860509872437 0.54552483558654785 0.56741052865982056
0.89797914028167725 0.47589105367660522 0.50610226392745972
0.9925696849822998 0.40236088633537292 0.44776651263237
0.34242182970046997 0.70152729749679565 0.57366907596588135
0.39981994032859802 0.70367717742919922 0.57048588991165161
0.50505298376083374 0.70367151498794556 0.56428182125091553
0.6154366135597229 0.69040369987487793 0.54634237289428711
0.76691633462905884 0.69846820831298828 0.54054081439971924
0.91946792602539062 0.71483510732650757 0.56220477819442749
0.99920189380645752 0.71028655767440796 0.57074105739593506
0.34045708179473877 0.81731325387954712 0.53668797016143799
0.39127799868583679 0.81889796257019043 0.53462809324264526
0.48708474636077881 0.81218236684799194 0.52182745933532715
0.59664463996887207 0.8008759617805481 0.49272421002388
0.74261504411697388 0.80719858407974243 0.47385808825492859
0.90074199438095093 0.8281627893447876 0.48831239342689514
0.99399822950363159 0.84455376863479614 0.52205991744995117
0.45285922288894653 0.94815915822982788 0.55510210990905762
0.48999544978141785 0.947212815284729 0.54867887496948242
0.56369757652282715 0.94271844625473022 0.52664756774902344
0.66078537702560425 0.93759012222290039 0.50175529718399048
0.77998727560043335 0.937175452709198 0.47216174006462097
0.90844452381134033 0.94912463426589966 0.46873524785041809
0.99587208032608032 0.95858567953109741 0.4743463397026062
0.0065521090291440487 0.081738583743572235 0.73967301845550537
0.1728692352771759 0.08962617814540863 0.7474663257598877
0.42090395092964172 0.094574853777885437 0.76754242181777954
0.64632636308670044 0.11513281613588333 0.79215288162231445
0.81876999139785767 0.11992673575878143 0.78251856565475464
0.9150846004486084 0.1087641716003418 0.72076696157455444
0.99102014303207397 0.1034124493598938 0.66025245189666748
0.14766897261142731 0.22662812471389771 0.73781013488769531
0.2720130980014801 0.23335015773773193 0.73890286684036255
0.45459169149398804 0.25003960728645325 0.75794088840484619
0.65799051523208618 0.27356752753257751 0.78530699014663696
0.81948649883270264 0.28352373838424683 0.78184044361114502
0.91207420825958252 0.25000318884849548 0.71973484754562378
0.98700302839279175 0.21595190465450287 0.66445684432983398
0.21878430247306824 0.36906036734580994 0.70866674184799194
0.31690084934234619 0.38194581866264343 0.71267610788345337
0.47263285517692566 0.40280815958976746 0.73864841461181641
0.65798735618591309 0.4364933967590332 0.77290761470794678
0.81012535095214844 0.44870766997337341 0.7695966362953186
0.90073215961456299 0.40124553442001343 0.70980215072631836
0.98203808069229126 0.32914724946022034 0.66081267595291138
0.24876731634140015 0.51685363054275513 0.69106072187423706
0.32463619112968445 0.52613300085067749 0.69598114490509033
0.45601463317871094 0.53772807121276855 0.70778876543045044
0.63499671220779419 0.57020306587219238 0.74107456207275391
0.80057668685913086 0.59462589025497437 0.7646484375
0.88908177614212036 0.53518235683441162 0.69995707273483276
0.98431652784347534 0.43205899000167847 0.63534361124038696
0.35440471768379211 0.68623644113540649 0.7171705961227417
0.41280099749565125 0.68818533420562744 0.72240257263183594
0.52074921131134033 0.6924128532409668 0.73229491710662842
0.64270788431167603 0.70469242334365845 0.739035964012146
0.78193467855453491 0.72256869077682495 0.75193053483963013
0.89742016792297363 0.680320143699646 0.71529179811477661
0.99654024839401245 0.60349005460739136 0.64783710241317749
0.45896318554878235 0.83155769109725952 0.73599737882614136
0.49245089292526245 0.83310037851333618 0.73347377777099609
0.56057500839233398 0.83318400382995605 0.73101598024368286
0.64773917198181152 0.82734787464141846 0.71668261289596558
0.75289678573608398 0.82019424438476562 0.69286829233169556
0.89169597625732422 0.83424925804138184 0.69971424341201782
0.99329626560211182 0.85051214694976807 0.73190921545028687
0.49944347143173218 0.95192170143127441 0.74072158336639404
0.52513313293457031 0.95344150066375732 0.73735499382019043
0.57900393009185791 0.95050948858261108 0.72540295124053955
0.65950024127960205 0.9491649866104126 0.70798170566558838
0.7692101001739502 0.9428592324256897 0.67172747850418091
0.88942587375640869 0.947887122631073 0.65846067667007446
0.99032676219940186 0.96124261617660522 0.67870980501174927
0.22252339124679565 0.16715465486049652 0.88085973262786865
0.32403242588043213 0.1717006117105484 0.87839019298553467
0.48079532384872437 0.18039940297603607 0.88980114459991455
0.65765112638473511 0.20581796765327454 0.89953672885894775
0.82993423938751221 0.26012608408927917 0.91434013843536377
0.95410537719726562 0.27863264083862305 0.90340298414230347
0.99708229303359985 0.2578423023223877 0.86110055446624756
0.27441325783729553 0.2717309296131134 0.87261074781417847
0.36393946409225464 0.27732780575752258 0.87598901987075806
0.50151646137237549 0.29034778475761414 0.88467800617218018
0.66629087924957275 0.31303536891937256 0.89556688070297241
0.82776439189910889 0.35660406947135925 0.90955883264541626
0.94825321435928345 0.36698538064956665 0.90164673328399658
0.99866551160812378 0.33575430512428284 0.86347824335098267
0.31009683012962341 0.39795255661010742 0.8572579026222229
0.3726620078086853 0.40133753418922424 0.86306899785995483
0.508350670337677 0.41816446185112 0.87167179584503174
0.66522735357284546 0.44372084736824036 0.88561534881591797
0.82289725542068481 0.48663374781608582 0.90293842554092407
0.94190645217895508 0.5007551908493042 0.89783436059951782
0.99793547391891479 0.4521048367023468 0.86264818906784058
0.24830034375190735 0.51329737901687622 0.82753723859786987
0.32757359743118286 0.52116549015045166 0.836162269115448
0.46774798631668091 0.5347750186920166 0.84303313493728638
0.63660579919815063 0.56342673301696777 0.86131507158279419
0.80744582414627075 0.61050581932067871 0.89096599817276001
0.93062984943389893 0.62606662511825562 0.89378225803375244
0.99130165576934814 0.56991875171661377 0.85009074211120605
0.27855551242828369 0.6619909405708313 0.82862943410873413
0.34403917193412781 0.66387331485748291 0.83157718181610107
0.4468483030796051 0.66036784648895264 0.83478176593780518
0.58628439903259277 0.66705954074859619 0.83801591396331787
0.77076619863510132 0.71003836393356323 0.86455142498016357
0.91494512557983398 0.74129253625869751 0.88147854804992676
0.98822468519210815 0.68032681941986084 0.83727693557739258
0.43952026963233948 0.82237553596496582 0.85498511791229248
0.48101946711540222 0.82324135303497314 0.853984534740448
0.55668240785598755 0.82184469699859619 0.85828429460525513
0.66236883401870728 0.82397300004959106 0.86563801765441895
0.78140461444854736 0.83309352397918701 0.8701210618019104
0.90077334642410278 0.85316711664199829 0.87828671932220459
0.98866266012191772 0.81252825260162354 0.84919875860214233
0.61317306756973267 0.95058244466781616 0.88272744417190552
0.63136863708496094 0.95265370607376099 0.88267350196838379
0.67286211252212524 0.95416182279586792 0.88326573371887207
0.73161512613296509 0.95446097850799561 0.8789132833480835
0.79938799142837524 0.95524030923843384 0.86625093221664429
0.88146752119064331 0.95385754108428955 0.84410429000854492
0.97981220483779907 0.96339339017868042 0.85363101959228516
0.46323740482330322 0.30170959234237671 0.98097330331802368
0.51264411211013794 0.30912429094314575 0.97945195436477661
0.60198968648910522 0.31252199411392212 0.98348349332809448
0.71778523921966553 0.3250519335269928 0.98538124561309814
0.84520983695983887 0.35697022080421448 0.98812609910964966
0.96049541234970093 0.41695335507392883 0.98521441221237183
0.99965870380401611 0.4393196702003479 0.979339599609375
0.47770270705223083 0.37549975514411926 0.97912216186523438
0.52213078737258911 0.37639430165290833 0.98044478893280029
0.60794252157211304 0.38338553905487061 0.98220580816268921
0.72056490182876587 0.39604619145393372 0.98278343677520752
0.84112823009490967 0.42689335346221924 0.98386406898498535
0.95717012882232666 0.47569119930267334 0.98630768060684204
0.99938607215881348 0.49260780215263367 0.98059988021850586
0.47855105996131897 0.47553595900535583 0.97526055574417114
0.5195193886756897 0.47617596387863159 0.97613561153411865
0.60685825347900391 0.48071390390396118 0.97764796018600464
0.72290211915969849 0.50066637992858887 0.98024195432662964
0.8427775502204895 0.53007382154464722 0.98195719718933105
0.9512249231338501 0.57344955205917358 0.9835580587387085
0.99986767768859863 0.57503664493560791 0.97544854879379272
0.4281885027885437 0.57439637184143066 0.9682157039642334
0.48101338744163513 0.5783572793006897 0.96780967712402344
0.57733738422393799 0.58652216196060181 0.97087651491165161
0.70054799318313599 0.59951549768447876 0.97081905603408813
0.82606863975524902 0.62796539068222046 0.9763607382774353
0.93819296360015869 0.6696770191192627 0.97894817590713501
0.9977526068687439 0.68543654680252075 0.97804379463195801
0.34491124749183655 0.68352627754211426 0.95585799217224121
0.38945308327674866 0.68167281150817871 0.95632994174957275
0.49237608909606934 0.68222570419311523 0.95769727230072021
0.63658493757247925 0.69209975004196167 0.96035104990005493
0.79505711793899536 0.72143650054931641 0.97010284662246704
0.92321288585662842 0.77060794830322266 0.97691720724105835
0.99531823396682739 0.79008364677429199 0.97542303800582886
0.44980627298355103 0.83080482482910156 0.95762139558792114
0.48542791604995728 0.83228713274002075 0.95822227001190186
0.54296058416366577 0.82598263025283813 0.95939749479293823
0.63398855924606323 0.81935453414916992 0.95989471673965454
0.74767684936523438 0.81460696458816528 0.96127212047576904
0.89831316471099854 0.85167491436004639 0.97170877456665039
0.9903024435043335 0.88444072008132935 0.97467625141143799
0.61467438936233521 0.95374703407287598 0.96461904048919678
0.64154082536697388 0.9550819993019104 0.96689260005950928
0.68507355451583862 0.95445859432220459 0.96920949220657349
0.74877989292144775 0.95406472682952881 0.97009402513504028
0.81929677724838257 0.95242011547088623 0.96920549869537354
0.89948379993438721 0.9560973048210144 0.97175580263137817
0.98129713535308838 0.96824747323989868 0.97375249862670898
