luts/instant_pro/polaroid_669_cold_-.cube
# Created by: G'MIC (https://gmic.eu)
TITLE "polaroid_669_cold_-"
# LUT size
LUT_3D_SIZE 5
# Data domain
DOMAIN_MIN 0.0 0.0 0.0
DOMAIN_MAX 1.0 1.0 1.0
# LUT data points
0 0.12701965868473053 0.15117332339286804
0.01738210953772068 0.15001443028450012 0.17554271221160889
0.32888871431350708 0.1717458963394165 0.22793525457382202
0.61791157722473145 0.18315170705318451 0.2923646867275238
0.85777038335800171 0.22622288763523102 0.36538013815879822
0.0023519627284258604 0.24707700312137604 0.22672414779663086
0.061047632247209549 0.2572295069694519 0.23504152894020081
0.41593232750892639 0.27767392992973328 0.28993600606918335
0.67277294397354126 0.28687199950218201 0.3409077525138855
0.87540322542190552 0.34623652696609497 0.41123101115226746
0.021992282941937447 0.41380596160888672 0.32688385248184204
0.18738751113414764 0.41238012909889221 0.33118221163749695
0.44781890511512756 0.43287301063537598 0.33969756960868835
0.68737316131591797 0.47247010469436646 0.39577561616897583
0.87362056970596313 0.57072871923446655 0.50871706008911133
0.24486196041107178 0.61687326431274414 0.41011050343513489
0.31490907073020935 0.61161983013153076 0.41304656863212585
0.46374243497848511 0.61753779649734497 0.41218093037605286
0.65563642978668213 0.65806347131729126 0.42264518141746521
0.83454000949859619 0.73903858661651611 0.50406444072723389
0.45149901509284973 0.91034018993377686 0.59195297956466675
0.48451089859008789 0.90343010425567627 0.59021401405334473
0.56523311138153076 0.90512651205062866 0.59166401624679565
0.70047968626022339 0.93108594417572021 0.61976456642150879
0.84744656085968018 0.95320987701416016 0.67535388469696045
0 0.15372022986412048 0.27504655718803406
0.0056518851779401302 0.17885589599609375 0.30767744779586792
0.34576565027236938 0.20489034056663513 0.35920467972755432
0.63595706224441528 0.19734111428260803 0.38946616649627686
0.85447663068771362 0.2387862354516983 0.44308662414550781
0.0014625400071963668 0.27614352107048035 0.35062897205352783
0.087214648723602295 0.28641411662101746 0.37730675935745239
0.43177393078804016 0.29652595520019531 0.40737593173980713
0.67571485042572021 0.30931204557418823 0.4406314492225647
0.8706778883934021 0.35377106070518494 0.48039525747299194
0.11504083126783371 0.46594041585922241 0.43622437119483948
0.26302856206893921 0.45458793640136719 0.43890106678009033
0.48356336355209351 0.45703303813934326 0.4407576322555542
0.70569705963134766 0.50225460529327393 0.49440288543701172
0.86349356174468994 0.58297950029373169 0.57208347320556641
0.28363630175590515 0.65846556425094604 0.48949992656707764
0.34606519341468811 0.64552408456802368 0.48642635345458984
0.47786411643028259 0.64006543159484863 0.48142126202583313
0.66928380727767944 0.67447948455810547 0.49091577529907227
0.83339947462081909 0.75822120904922485 0.57717227935791016
0.45953038334846497 0.91867905855178833 0.63550019264221191
0.49218374490737915 0.91419297456741333 0.6325722336769104
0.56463623046875 0.91032367944717407 0.6266065239906311
0.70285987854003906 0.92955368757247925 0.66062980890274048
0.84421557188034058 0.95277422666549683 0.70369678735733032
0 0.2137676477432251 0.48417192697525024
0.0042623034678399563 0.22706523537635803 0.51506441831588745
0.41077351570129395 0.26184767484664917 0.57161003351211548
0.67815715074539185 0.29941639304161072 0.60821318626403809
0.8727039098739624 0.36080315709114075 0.64169919490814209
0.001355279702693224 0.33247712254524231 0.53864628076553345
0.063979223370552063 0.33354917168617249 0.57373827695846558
0.48508760333061218 0.36554187536239624 0.61694693565368652
0.69996935129165649 0.40568199753761292 0.63983786106109619
0.87086862325668335 0.42575663328170776 0.64544165134429932
0.11466602981090546 0.52418261766433716 0.61903393268585205
0.31070247292518616 0.53092509508132935 0.62797027826309204
0.53704667091369629 0.54629898071289062 0.65599387884140015
0.71244686841964722 0.55585074424743652 0.66321438550949097
0.85894209146499634 0.58584952354431152 0.67448824644088745
0.32535043358802795 0.74283063411712646 0.65072363615036011
0.40233832597732544 0.73973387479782104 0.65613794326782227
0.52427834272384644 0.71733826398849487 0.65087699890136719
0.67860853672027588 0.72818988561630249 0.65088009834289551
0.82711493968963623 0.8078950047492981 0.71505123376846313
0.48788675665855408 0.93910342454910278 0.73172521591186523
0.51530617475509644 0.93553048372268677 0.72978997230529785
0.57796186208724976 0.9319644570350647 0.72050482034683228
0.69445902109146118 0.93683749437332153 0.72256529331207275
0.8433496356010437 0.95639979839324951 0.76131737232208252
0 0.30579876899719238 0.74281191825866699
0.0039939130656421185 0.30790093541145325 0.76022809743881226
0.44095286726951599 0.34310516715049744 0.7908826470375061
0.72679412364959717 0.44585615396499634 0.80863493680953979
0.85730749368667603 0.57414543628692627 0.82611644268035889
0.0062385560013353825 0.42554643750190735 0.76144087314605713
0.048414822667837143 0.40373894572257996 0.77873671054840088
0.49328559637069702 0.44903600215911865 0.80236262083053589
0.73459762334823608 0.55185461044311523 0.82039052248001099
0.85077923536300659 0.6480107307434082 0.83521807193756104
0.079691670835018158 0.58955222368240356 0.76673990488052368
0.31296390295028687 0.60024571418762207 0.77629154920578003
0.53584772348403931 0.61893248558044434 0.80157041549682617
0.72932416200637817 0.70927804708480835 0.82952147722244263
0.83515828847885132 0.7634093165397644 0.83969950675964355
0.37946119904518127 0.80317878723144531 0.80566549301147461
0.44070994853973389 0.81083738803863525 0.80965262651443481
0.58179914951324463 0.81457865238189697 0.81463402509689331
0.71466207504272461 0.84149426221847534 0.83152472972869873
0.8293159008026123 0.84763532876968384 0.83585649728775024
0.57179790735244751 0.96392643451690674 0.83693093061447144
0.58844327926635742 0.96338903903961182 0.836742103099823
0.64130407571792603 0.96205776929855347 0.83587145805358887
0.71647506952285767 0.956706702709198 0.82870268821716309
0.84583967924118042 0.96597850322723389 0.83713865280151367
0.080213643610477448 0.48583841323852539 0.91801857948303223
0.2144172340631485 0.47537925839424133 0.91965800523757935
0.55659234523773193 0.5442926287651062 0.92003923654556274
0.75858819484710693 0.684093177318573 0.91496175527572632
0.85712343454360962 0.78508573770523071 0.9133305549621582
0.28840988874435425 0.59105789661407471 0.91405850648880005
0.37667733430862427 0.58602803945541382 0.91274231672286987
0.57854902744293213 0.62594246864318848 0.91586494445800781
0.75646710395812988 0.73864513635635376 0.91488730907440186
0.84851014614105225 0.81764876842498779 0.91386324167251587
0.39363619685173035 0.74873870611190796 0.898459792137146
0.46513241529464722 0.74666464328765869 0.90015393495559692
0.59543484449386597 0.74908453226089478 0.90837031602859497
0.74525666236877441 0.82379341125488281 0.91266065835952759
0.84450095891952515 0.88478779792785645 0.91453593969345093
0.43224760890007019 0.88954621553421021 0.89583754539489746
0.47236645221710205 0.88509345054626465 0.89618772268295288
0.57420223951339722 0.88178813457489014 0.89655202627182007
0.73250395059585571 0.90838736295700073 0.90966135263442993
0.84530735015869141 0.93914127349853516 0.91529113054275513
0.65700852870941162 0.98885643482208252 0.91557067632675171
0.67621725797653198 0.98722809553146362 0.91594618558883667
0.71741831302642822 0.98569631576538086 0.91603618860244751
0.79011285305023193 0.98449194431304932 0.92271322011947632
0.87755495309829712 0.98740065097808838 0.92742347717285156
