luts/instant_pro/polaroid_690_warm_+.cube
# Created by: G'MIC (https://gmic.eu)
TITLE "polaroid_690_warm_+"
# LUT size
LUT_3D_SIZE 5
# Data domain
DOMAIN_MIN 0.0 0.0 0.0
DOMAIN_MAX 1.0 1.0 1.0
# LUT data points
0.23137255012989044 0.16036657989025116 0.12409736961126328
0.26957914233207703 0.1481231302022934 0.11477214097976685
0.4738253653049469 0.087883219122886658 0.10740040987730026
0.76798629760742188 0.004483451135456562 0.081998966634273529
0.99053692817687988 0.00085936899995431304 0.04532197117805481
0.23325467109680176 0.22722481191158295 0.10641223937273026
0.30903786420822144 0.22716516256332397 0.096361704170703888
0.58415317535400391 0.25183999538421631 0.050222702324390411
0.84846681356430054 0.18439564108848572 0.02180907316505909
0.9983639121055603 0.11293458938598633 0.0012511309469118714
0.22738862037658691 0.4790375828742981 0.0090624792501330376
0.35429778695106506 0.47007715702056885 0.0056621478870511055
0.5989067554473877 0.5139649510383606 0.002306261332705617
0.8893466591835022 0.55749785900115967 0.0012669881107285619
1 0.56730884313583374 0.0072585609741508961
0.27254149317741394 0.72238940000534058 0.0016287111211568117
0.39250195026397705 0.71402865648269653 0.0015225280076265335
0.59692329168319702 0.73824894428253174 0.0023288202937692404
0.84311932325363159 0.77480322122573853 0.00037352618528530002
0.9976697564125061 0.80321770906448364 0.0039503360167145729
0.51805347204208374 0.94273406267166138 0.15480637550354004
0.57284247875213623 0.93931835889816284 0.12139668315649033
0.70783579349517822 0.93556767702102661 0.099660761654376984
0.88846659660339355 0.94037050008773804 0.1651449054479599
1 0.94102674722671509 0.29420292377471924
0.22453172504901886 0.15065240859985352 0.17568124830722809
0.29011160135269165 0.14046430587768555 0.19667388498783112
0.48780849575996399 0.062744438648223877 0.19669926166534424
0.7407805323600769 4.4968550355406478e-05 0.18854264914989471
0.97491937875747681 0.00036818560329265893 0.14062267541885376
0.22327804565429688 0.23256850242614746 0.20153144001960754
0.33305424451828003 0.23731356859207153 0.21576705574989319
0.57739734649658203 0.1948668509721756 0.2024691253900528
0.82273602485656738 0.060612548142671585 0.17137286067008972
0.99598836898803711 0.012058243155479431 0.13605859875679016
0.2039525955915451 0.51285505294799805 0.20776988565921783
0.35668149590492249 0.49872857332229614 0.19122825562953949
0.61828494071960449 0.53371316194534302 0.16479344666004181
0.89544510841369629 0.57007014751434326 0.21479283273220062
1 0.54166758060455322 0.23765388131141663
0.27612733840942383 0.74858713150024414 0.15712983906269073
0.38503125309944153 0.74093019962310791 0.13316637277603149
0.59288018941879272 0.7462349534034729 0.09147828072309494
0.84905123710632324 0.78514450788497925 0.11213546246290207
0.99803072214126587 0.80647379159927368 0.27738550305366516
0.51688885688781738 0.94095957279205322 0.34573328495025635
0.56971567869186401 0.93902105093002319 0.33170372247695923
0.70204693078994751 0.93468499183654785 0.2902158796787262
0.88185954093933105 0.93645846843719482 0.34765002131462097
0.99803954362869263 0.94186568260192871 0.42932567000389099
0.19281688332557678 0.13979111611843109 0.47012174129486084
0.33100813627243042 0.1102428212761879 0.51714742183685303
0.61328601837158203 0.0062614143826067448 0.56634974479675293
0.80277341604232788 4.1198731196345761e-05 0.47685480117797852
0.98576408624649048 0.00067618873436003923 0.43409383296966553
0.17553834617137909 0.24010391533374786 0.49702540040016174
0.34533494710922241 0.24585768580436707 0.53729748725891113
0.63793879747390747 0.24677674472332001 0.58469891548156738
0.82177495956420898 0.16641511023044586 0.48709759116172791
0.98846685886383057 0.0042198929004371166 0.43274462223052979
0.24221096932888031 0.52639150619506836 0.54474669694900513
0.39991584420204163 0.53665399551391602 0.55286139249801636
0.64497166872024536 0.57175338268280029 0.58704274892807007
0.85900342464447021 0.50309067964553833 0.53560030460357666
0.99901461601257324 0.38344752788543701 0.43788826465606689
0.35563221573829651 0.78239792585372925 0.56102591753005981
0.44452503323554993 0.7811623215675354 0.55242311954498291
0.62391239404678345 0.77209615707397461 0.52222055196762085
0.85235404968261719 0.79324358701705933 0.54938673973083496
0.99611395597457886 0.81499981880187988 0.61338561773300171
0.5403333306312561 0.945811927318573 0.61170786619186401
0.58590972423553467 0.94350957870483398 0.59720975160598755
0.70072746276855469 0.94030225276947021 0.57357335090637207
0.86919748783111572 0.93775838613510132 0.57532185316085815
0.99347573518753052 0.94037079811096191 0.64407920837402344
0.17130486667156219 0.11658844351768494 0.79965627193450928
0.35968315601348877 0.086194716393947601 0.80793964862823486
0.64172124862670898 0.016685530543327332 0.84500241279602051
0.91134536266326904 0.058621514588594437 0.85673052072525024
0.99906051158905029 0.057989321649074554 0.78295594453811646
0.18289673328399658 0.25061121582984924 0.79179376363754272
0.36886405944824219 0.27018085122108459 0.79820293188095093
0.65510576963424683 0.29197442531585693 0.83763366937637329
0.90463036298751831 0.36004406213760376 0.85072070360183716
0.99757826328277588 0.30845141410827637 0.77140593528747559
0.17148825526237488 0.47736117243766785 0.75937080383300781
0.3564332127571106 0.49470710754394531 0.77135258913040161
0.63765543699264526 0.55784577131271362 0.80653643608093262
0.885387122631073 0.63622069358825684 0.84217256307601929
0.99665611982345581 0.53849834203720093 0.76455807685852051
0.42822080850601196 0.77646255493164062 0.79803121089935303
0.51171678304672241 0.78113007545471191 0.79800397157669067
0.68101733922958374 0.79240065813064575 0.81409156322479248
0.86999613046646118 0.82157033681869507 0.83162271976470947
0.99549859762191772 0.75801372528076172 0.78431230783462524
0.67447006702423096 0.94550329446792603 0.83391577005386353
0.70021927356719971 0.93970417976379395 0.82789582014083862
0.76941561698913574 0.9405902624130249 0.82197600603103638
0.8687511682510376 0.93586796522140503 0.79904872179031372
0.99247288703918457 0.93767243623733521 0.82426786422729492
0.44816762208938599 0.22727584838867188 0.97592395544052124
0.53591752052307129 0.23126815259456635 0.97594946622848511
0.71559375524520874 0.27399727702140808 0.97783911228179932
0.91684305667877197 0.39683952927589417 0.97846919298171997
1 0.49591398239135742 0.9696965217590332
0.46393540501594543 0.37393021583557129 0.96801108121871948
0.55327761173248291 0.37968894839286804 0.97065514326095581
0.72522342205047607 0.42455869913101196 0.97161614894866943
0.91597551107406616 0.53171515464782715 0.97236126661300659
0.99982422590255737 0.59026849269866943 0.96317273378372192
0.45160755515098572 0.57366317510604858 0.95460903644561768
0.53584372997283936 0.57697659730911255 0.95554077625274658
0.7226366400718689 0.62478601932525635 0.95760029554367065
0.90322864055633545 0.69772136211395264 0.96080833673477173
0.99817383289337158 0.74296349287033081 0.95671975612640381
0.46695950627326965 0.78027737140655518 0.93813103437423706
0.51834273338317871 0.77558064460754395 0.93991869688034058
0.66000878810882568 0.77643477916717529 0.93821555376052856
0.87914246320724487 0.82914865016937256 0.95019888877868652
0.99505996704101562 0.87165862321853638 0.95159727334976196
0.75143188238143921 0.94550138711929321 0.94657963514328003
0.77446293830871582 0.94568347930908203 0.94775182008743286
0.84109681844711304 0.94061088562011719 0.94960719347000122
0.91954195499420166 0.93816214799880981 0.94840705394744873
0.99100440740585327 0.94582867622375488 0.9554828405380249
