luts/instant_pro/polaroid_669_--.cube
# Created by: G'MIC (https://gmic.eu)
TITLE "polaroid_669_--"
# LUT size
LUT_3D_SIZE 5
# Data domain
DOMAIN_MIN 0.0 0.0 0.0
DOMAIN_MAX 1.0 1.0 1.0
# LUT data points
0.012618809007108212 0.041332617402076721 0.02913932129740715
0.17847853899002075 0.065268650650978088 0.042340356856584549
0.44403082132339478 0.048899229615926743 0.057945102453231812
0.72484052181243896 0.037443723529577255 0.077989168465137482
0.95751798152923584 0.17711102962493896 0.11581721901893616
0.0082505615428090096 0.23082961142063141 0.057262945920228958
0.18682242929935455 0.23180721700191498 0.044113621115684509
0.50025480985641479 0.25943863391876221 0.07048962265253067
0.75687474012374878 0.28299412131309509 0.095095537602901459
0.96202051639556885 0.33859971165657043 0.1340148001909256
0.0040394202806055546 0.43218204379081726 0.063687838613986969
0.15356086194515228 0.4245029091835022 0.052765760570764542
0.4418036937713623 0.43538963794708252 0.017699461430311203
0.73042243719100952 0.48741111159324646 0.022101743146777153
0.967507004737854 0.5722241997718811 0.1781589537858963
0.014298786409199238 0.63846862316131592 0.012040127068758011
0.1922079473733902 0.62085658311843872 0.016738172620534897
0.41873791813850403 0.62090414762496948 0.003732150187715888
0.66215729713439941 0.65456944704055786 2.5850184101727791e-05
0.91221290826797485 0.72112339735031128 0.0057019251398742199
0.36529636383056641 0.92310690879821777 0.13457360863685608
0.42930746078491211 0.92060357332229614 0.12502041459083557
0.56160444021224976 0.91690397262573242 0.1064101904630661
0.7600138783454895 0.93189233541488647 0.075054451823234558
0.95129084587097168 0.94653362035751343 0.046879876405000687
0.0016539929201826453 0.09975598007440567 0.21711182594299316
0.17545251548290253 0.11818735301494598 0.23673419654369354
0.47846972942352295 0.12776732444763184 0.26162570714950562
0.73298758268356323 0.045081719756126404 0.24039305746555328
0.94982033967971802 0.14536188542842865 0.25495526194572449
0.0042766346596181393 0.28542864322662354 0.24655921757221222
0.21838229894638062 0.2836243212223053 0.26956263184547424
0.51987892389297485 0.28391483426094055 0.27669903635978699
0.75711518526077271 0.27377942204475403 0.27202007174491882
0.96145451068878174 0.32452443242073059 0.27548390626907349
0.0059598437510430813 0.49720436334609985 0.25409293174743652
0.22529436647891998 0.49010345339775085 0.25831106305122375
0.48604249954223633 0.47128129005432129 0.21797142922878265
0.75923734903335571 0.51924806833267212 0.25559055805206299
0.96260654926300049 0.57232880592346191 0.31983143091201782
0.024372639134526253 0.67834764719009399 0.20615261793136597
0.2313421368598938 0.66588062047958374 0.20162780582904816
0.43589785695075989 0.64855551719665527 0.15179744362831116
0.67674338817596436 0.66566318273544312 0.086221732199192047
0.92490553855895996 0.73433256149291992 0.14566801488399506
0.34180235862731934 0.92547810077667236 0.27987232804298401
0.41361582279205322 0.92296582460403442 0.26829618215560913
0.54873299598693848 0.91256189346313477 0.24691423773765564
0.74869745969772339 0.92801004648208618 0.19946558773517609
0.94981247186660767 0.94902706146240234 0.13570855557918549
0.00030347038409672678 0.20229034125804901 0.49657315015792847
0.079515866935253143 0.20297469198703766 0.52383053302764893
0.54774826765060425 0.2448892742395401 0.56108170747756958
0.79044079780578613 0.29747176170349121 0.57256942987442017
0.97065424919128418 0.29974797368049622 0.54703956842422485
0.0053863227367401123 0.3764985203742981 0.51541340351104736
0.18303686380386353 0.3645961582660675 0.54899924993515015
0.57672619819641113 0.39744517207145691 0.58289152383804321
0.79046297073364258 0.41838809847831726 0.5789610743522644
0.96715384721755981 0.37523764371871948 0.52743768692016602
0.0085681239143013954 0.58883929252624512 0.53513044118881226
0.25325211882591248 0.57838964462280273 0.54824662208557129
0.55990248918533325 0.58244818449020386 0.57090705633163452
0.77442139387130737 0.56281852722167969 0.55090993642807007
0.95125323534011841 0.5573311448097229 0.5276603102684021
0.0080304462462663651 0.76993495225906372 0.49063777923583984
0.25589856505393982 0.76192420721054077 0.4936947226524353
0.48097345232963562 0.72298908233642578 0.46729034185409546
0.70479553937911987 0.71522063016891479 0.41927766799926758
0.92886877059936523 0.77392172813415527 0.50463974475860596
0.32574892044067383 0.95047736167907715 0.51779890060424805
0.39670959115028381 0.9429173469543457 0.50325584411621094
0.53526395559310913 0.93181753158569336 0.47029447555541992
0.72145825624465942 0.92729634046554565 0.43095472455024719
0.94054985046386719 0.94859069585800171 0.4086136519908905
1.3463637515087612e-05 0.35120820999145508 0.78088343143463135
0.0086723025888204575 0.33083024621009827 0.79713797569274902
0.54646974802017212 0.3946232795715332 0.80923366546630859
0.81027257442474365 0.47795197367668152 0.82285314798355103
0.950569748878479 0.56626516580581665 0.82024985551834106
0.0091572031378746033 0.49653196334838867 0.77627688646316528
0.10118674486875534 0.46459558606147766 0.79703158140182495
0.56145590543746948 0.50687593221664429 0.81482017040252686
0.80962800979614258 0.5823051929473877 0.82215887308120728
0.93914186954498291 0.65055245161056519 0.83005696535110474
0.0086180446669459343 0.65907818078994751 0.75608867406845093
0.23418973386287689 0.65517556667327881 0.76296001672744751
0.56274318695068359 0.67347890138626099 0.79567790031433105
0.79302752017974854 0.72584331035614014 0.82395553588867188
0.92332983016967773 0.75076299905776978 0.8325456976890564
0.13773447275161743 0.82530772686004639 0.77382588386535645
0.33707568049430847 0.82605975866317749 0.77808105945587158
0.55807399749755859 0.82615327835083008 0.78836017847061157
0.76721793413162231 0.82803744077682495 0.80348014831542969
0.92080128192901611 0.81119239330291748 0.791939377784729
0.42874059081077576 0.9720466136932373 0.77361881732940674
0.47986921668052673 0.96841609477996826 0.76741552352905273
0.59551709890365601 0.96163368225097656 0.76326072216033936
0.72822684049606323 0.9493180513381958 0.73340588808059692
0.9213634729385376 0.95409810543060303 0.7065730094909668
0.15449224412441254 0.57841527462005615 0.96378159523010254
0.30537599325180054 0.56329226493835449 0.96302938461303711
0.59743267297744751 0.61229610443115234 0.9607081413269043
0.81170278787612915 0.70202076435089111 0.95838671922683716
0.93124902248382568 0.75923258066177368 0.95686745643615723
0.33818662166595459 0.67196720838546753 0.95735400915145874
0.42373329401016235 0.66057920455932617 0.95671135187149048
0.61623913049697876 0.68189263343811035 0.95828664302825928
0.8121989369392395 0.75127720832824707 0.95743477344512939
0.92616277933120728 0.79208636283874512 0.95680022239685059
0.41871315240859985 0.79448854923248291 0.94285279512405396
0.50073611736297607 0.79042220115661621 0.94371873140335083
0.62795567512512207 0.77941113710403442 0.94937103986740112
0.80418688058853149 0.81753838062286377 0.95584303140640259
0.91484290361404419 0.86007553339004517 0.96023058891296387
0.35699236392974854 0.89753031730651855 0.93834549188613892
0.43547707796096802 0.89107906818389893 0.93525701761245728
0.58907192945480347 0.8857719898223877 0.94065910577774048
0.79099941253662109 0.89400321245193481 0.9549785852432251
0.91295558214187622 0.92685943841934204 0.96729516983032227
0.58011972904205322 0.99336069822311401 0.95526480674743652
0.6142578125 0.9904976487159729 0.95552343130111694
0.69939988851547241 0.98581922054290771 0.95713895559310913
0.80286431312561035 0.97922360897064209 0.9579312801361084
0.90762102603912354 0.98388588428497314 0.96807217597961426
