luts/instant_pro/polaroid_669_-.cube
# Created by: G'MIC (https://gmic.eu)
TITLE "polaroid_669_-"
# LUT size
LUT_3D_SIZE 7
# Data domain
DOMAIN_MIN 0.0 0.0 0.0
DOMAIN_MAX 1.0 1.0 1.0
# LUT data points
0.076111257076263428 0.14074255526065826 0.14292514324188232
0.12763476371765137 0.14838846027851105 0.1463000476360321
0.22678862512111664 0.15372325479984283 0.15108035504817963
0.36133062839508057 0.15760569274425507 0.15780854225158691
0.55670458078384399 0.15987348556518555 0.16502951085567474
0.75487387180328369 0.15569233894348145 0.16642732918262482
0.93032169342041016 0.19149975478649139 0.17108848690986633
0.076062098145484924 0.18686281144618988 0.15203370153903961
0.1272922158241272 0.19090171158313751 0.15183548629283905
0.23656116425991058 0.20265048742294312 0.15848265588283539
0.38250839710235596 0.21154990792274475 0.16094014048576355
0.59730708599090576 0.23293404281139374 0.16658900678157806
0.78132081031799316 0.24387650191783905 0.17003647983074188
0.93971443176269531 0.27644509077072144 0.17247484624385834
0.050792694091796875 0.27957820892333984 0.16124357283115387
0.12160865962505341 0.28429129719734192 0.16343905031681061
0.24173742532730103 0.30418789386749268 0.16139025986194611
0.40201613306999207 0.32378110289573669 0.15443749725818634
0.62830525636672974 0.353840172290802 0.16033057868480682
0.79588747024536133 0.38107043504714966 0.16809706389904022
0.94703680276870728 0.40927532315254211 0.1787104457616806
0.0040038162842392921 0.40246492624282837 0.15643039345741272
0.075239114463329315 0.39818185567855835 0.15914583206176758
0.22860760986804962 0.40691342949867249 0.15348933637142181
0.39060580730438232 0.42531374096870422 0.13470263779163361
0.57945758104324341 0.45517793297767639 0.1092611700296402
0.79736357927322388 0.51661157608032227 0.12804274260997772
0.95246517658233643 0.56809043884277344 0.19354298710823059
0.00041479969513602555 0.54835480451583862 0.12686619162559509
0.01633402518928051 0.54108017683029175 0.12836015224456787
0.20040141046047211 0.53672534227371216 0.12097151577472687
0.37212973833084106 0.55088120698928833 0.095437280833721161
0.55804729461669922 0.57449400424957275 0.036721758544445038
0.73956179618835449 0.60438448190689087 0.014401095919311047
0.92670834064483643 0.67922341823577881 0.091670438647270203
0.0029258579015731812 0.72229623794555664 0.033194314688444138
0.019586255773901939 0.71244180202484131 0.02849985845386982
0.21425105631351471 0.69989782571792603 0.029842555522918701
0.38767552375793457 0.70472389459609985 0.011714426800608635
0.56614404916763306 0.72485065460205078 0.0044188257306814194
0.73983711004257202 0.74936848878860474 0.0037193149328231812
0.89745539426803589 0.78550273180007935 0.0032053180038928986
0.29376024007797241 0.9228978157043457 0.1493285596370697
0.33887025713920593 0.91852307319641113 0.14199048280715942
0.42308062314987183 0.91456228494644165 0.13336633145809174
0.5314527153968811 0.91444402933120728 0.1187107190489769
0.67583614587783813 0.92406678199768066 0.11000514030456543
0.81711345911026001 0.93695175647735596 0.11154526472091675
0.94072020053863525 0.94927901029586792 0.11532661318778992
0.055732652544975281 0.15515714883804321 0.19194579124450684
0.12324016541242599 0.15869221091270447 0.19176647067070007
0.22173644602298737 0.15954191982746124 0.19529837369918823
0.38004529476165771 0.15493586659431458 0.20217391848564148
0.57849997282028198 0.1359538733959198 0.21050140261650085
0.76204401254653931 0.12341254949569702 0.21841384470462799
0.92485725879669189 0.16012704372406006 0.22600828111171722
0.064168371260166168 0.19738598167896271 0.19323211908340454
0.12515689432621002 0.20935265719890594 0.20559127628803253
0.23693636059761047 0.21023540198802948 0.20872335135936737
0.4095287024974823 0.21277731657028198 0.21153657138347626
0.61050212383270264 0.21560513973236084 0.22290046513080597
0.78420233726501465 0.2165171355009079 0.23198586702346802
0.94186073541641235 0.25775954127311707 0.22513334453105927
0.032840054482221603 0.30686789751052856 0.20986971259117126
0.11987778544425964 0.30969852209091187 0.2160048633813858
0.25552794337272644 0.32244664430618286 0.21808363497257233
0.43281558156013489 0.33176150918006897 0.20914120972156525
0.64178383350372314 0.35915675759315491 0.21986021101474762
0.80390971899032593 0.37106844782829285 0.22677502036094666
0.94828861951828003 0.40050327777862549 0.23323038220405579
0.0055562187917530537 0.44747957587242126 0.20805101096630096
0.062718667089939117 0.44035336375236511 0.20691804587841034
0.22898724675178528 0.43082383275032043 0.20336158573627472
0.4094403088092804 0.43988379836082458 0.18482884764671326
0.60500222444534302 0.47203633189201355 0.18237344920635223
0.81261956691741943 0.52945601940155029 0.21016213297843933
0.95035892724990845 0.56478464603424072 0.25977969169616699
0.00074346206383779645 0.58304160833358765 0.17807367444038391
0.011235405690968037 0.57285153865814209 0.17571252584457397
0.20066277682781219 0.55508369207382202 0.16999788582324982
0.3818257749080658 0.5711742639541626 0.15116597712039948
0.57298052310943604 0.58968687057495117 0.10534100979566574
0.75016814470291138 0.61934959888458252 0.073161333799362183
0.92768013477325439 0.6876906156539917 0.18949916958808899
0.0096723521128296852 0.74978935718536377 0.12917725741863251
0.015680065378546715 0.73211264610290527 0.11880335956811905
0.20813125371932983 0.71825385093688965 0.11080730706453323
0.39210966229438782 0.71883410215377808 0.085884585976600647
0.56951040029525757 0.73464584350585938 0.030229605734348297
0.7450096607208252 0.75800257921218872 0.0078703342005610466
0.89712107181549072 0.78648597002029419 0.0091452356427907944
0.29010418057441711 0.92755246162414551 0.22812975943088531
0.33273178339004517 0.92064845561981201 0.22324515879154205
0.41986620426177979 0.91616392135620117 0.20980571210384369
0.52860450744628906 0.91223061084747314 0.19636738300323486
0.67180287837982178 0.92122083902359009 0.1833341121673584
0.81617790460586548 0.93655288219451904 0.17251388728618622
0.94052433967590332 0.9502938985824585 0.16525682806968689
0.012445412576198578 0.17148382961750031 0.26847022771835327
0.084894798696041107 0.17355743050575256 0.28359386324882507
0.22590680420398712 0.18265421688556671 0.30026215314865112
0.40553531050682068 0.18345344066619873 0.32165095210075378
0.61257916688919067 0.15315520763397217 0.3299957811832428
0.79255270957946777 0.054787997156381607 0.3106919527053833
0.94194549322128296 0.055875156074762344 0.30224370956420898
0.01295496616512537 0.23394343256950378 0.28985816240310669
0.099288329482078552 0.23373845219612122 0.30362045764923096
0.25116246938705444 0.24195106327533722 0.32457432150840759
0.44248545169830322 0.24253338575363159 0.33572426438331604
0.63068324327468872 0.21235617995262146 0.32476314902305603
0.80151844024658203 0.17696179449558258 0.31827592849731445
0.94613289833068848 0.20666423439979553 0.32008081674575806
0.0063322028145194054 0.35412925481796265 0.31061282753944397
0.076033890247344971 0.35274305939674377 0.32843729853630066
0.29118138551712036 0.35617741942405701 0.34728124737739563
0.48427355289459229 0.36460721492767334 0.34762141108512878
0.66207361221313477 0.35378065705299377 0.3425106406211853
0.81643837690353394 0.35372230410575867 0.33799463510513306
0.94868075847625732 0.38257080316543579 0.34318292140960693
0.0042926562018692493 0.5050995945930481 0.31568002700805664
0.02667318657040596 0.50919443368911743 0.32388898730278015
0.25753921270370483 0.48796758055686951 0.32623046636581421
0.45755201578140259 0.48778843879699707 0.31123274564743042
0.65565961599349976 0.51771968603134155 0.33226054906845093
0.82036381959915161 0.54725325107574463 0.36428096890449524
0.94995737075805664 0.56807518005371094 0.38004007935523987
0.00088387285359203815 0.64608144760131836 0.30226272344589233
0.012799550779163837 0.63818597793579102 0.30221456289291382
0.22780770063400269 0.61574763059616089 0.2925821840763092
0.40770867466926575 0.60590517520904541 0.28184336423873901
0.60255688428878784 0.62025195360183716 0.24959500133991241
0.78047502040863037 0.65318822860717773 0.26472550630569458
0.93276739120483398 0.71007448434829712 0.36773908138275146
0.0076860915869474411 0.78656363487243652 0.28123578429222107
0.015682550147175789 0.76951318979263306 0.26352071762084961
0.23767596483230591 0.75291562080383301 0.25900453329086304
0.39089307188987732 0.7371707558631897 0.23125076293945312
0.57417911291122437 0.750274658203125 0.20108044147491455
0.75313490629196167 0.7683071494102478 0.17138019204139709
0.91048228740692139 0.7961050271987915 0.16520741581916809
0.28929141163825989 0.93739491701126099 0.35316023230552673
0.33403223752975464 0.93221652507781982 0.34736472368240356
0.41947004199028015 0.92581617832183838 0.33832427859306335
0.52559518814086914 0.92124706506729126 0.31990823149681091
0.65952432155609131 0.92318743467330933 0.31113976240158081
0.80877768993377686 0.93604928255081177 0.31387448310852051
0.93606185913085938 0.94848185777664185 0.30651211738586426
0.0011538037797436118 0.21814215183258057 0.43253138661384583
0.0078739393502473831 0.20721976459026337 0.4522692859172821
0.2325892299413681 0.22147832810878754 0.48618811368942261
0.47372302412986755 0.23158395290374756 0.5117419958114624
0.65995782613754272 0.24044474959373474 0.51985496282577515
0.83511686325073242 0.27990677952766418 0.53458791971206665
0.96256417036056519 0.27759057283401489 0.51709580421447754
0.0031156651675701141 0.29508346319198608 0.45101380348205566
0.0097489450126886368 0.28064641356468201 0.47806063294410706
0.24374489486217499 0.28134220838546753 0.50832676887512207
0.50033050775527954 0.30844268202781677 0.53169399499893188
0.68246901035308838 0.32182613015174866 0.53820931911468506
0.83451181650161743 0.34752932190895081 0.53431475162506104
0.96415901184082031 0.33223432302474976 0.51862460374832153
0.0031942329369485378 0.40931352972984314 0.46751660108566284
0.011834387667477131 0.41564261913299561 0.49406877160072327
0.27313047647476196 0.41908219456672668 0.51851469278335571
0.52607125043869019 0.43770253658294678 0.54394364356994629
0.69216525554656982 0.44912344217300415 0.55004382133483887
0.83190006017684937 0.43282982707023621 0.5244985818862915
0.95696407556533813 0.4065125584602356 0.49668422341346741
0.002956195967271924 0.57486921548843384 0.50161314010620117
0.015130720101296902 0.57229316234588623 0.51360952854156494
0.29351633787155151 0.56516873836517334 0.52368068695068359
0.52264517545700073 0.57312071323394775 0.54565298557281494
0.68779349327087402 0.57473301887512207 0.54268455505371094
0.8254510760307312 0.55527353286743164 0.52457517385482788
0.9396856427192688 0.55694282054901123 0.51941710710525513
0.001839746255427599 0.71559113264083862 0.49575832486152649
0.017359953373670578 0.71272683143615723 0.49642667174339294
0.30012398958206177 0.7000543475151062 0.50154852867126465
0.47482037544250488 0.67898452281951904 0.4928736686706543
0.6374439001083374 0.67464494705200195 0.47456526756286621
0.80428433418273926 0.69653999805450439 0.49870350956916809
0.93208992481231689 0.73788654804229736 0.57142406702041626
0.0105246901512146 0.83067959547042847 0.46917140483856201
0.081438086926937103 0.82541215419769287 0.46701169013977051
0.31028735637664795 0.81243515014648438 0.46715050935745239
0.43196862936019897 0.78680050373077393 0.43180367350578308
0.58878582715988159 0.77909642457962036 0.40232342481613159
0.76858937740325928 0.79309910535812378 0.3867136538028717
0.91390210390090942 0.81831693649291992 0.41883623600006104
0.33555114269256592 0.95062160491943359 0.52622216939926147
0.36880525946617126 0.94670534133911133 0.51806473731994629
0.44058218598365784 0.93963229656219482 0.50288683176040649
0.53581339120864868 0.93396389484405518 0.48317444324493408
0.64661014080047607 0.92982977628707886 0.45517522096633911
0.80111551284790039 0.94000649452209473 0.45763188600540161
0.93132525682449341 0.95177567005157471 0.46377304196357727
0.00048105575842782855 0.29006496071815491 0.65402442216873169
0.0022947124671190977 0.26308220624923706 0.67235749959945679
0.11994393914937973 0.26693081855773926 0.68974745273590088
0.49413996934890747 0.30627608299255371 0.70944666862487793
0.71237045526504517 0.35235881805419922 0.71949106454849243
0.84758365154266357 0.39935874938964844 0.71919888257980347
0.94933754205703735 0.53615492582321167 0.74525183439254761
0.0034147673286497593 0.37036809325218201 0.65983980894088745
0.0072903651744127274 0.35361987352371216 0.68225818872451782
0.13461394608020782 0.33323016762733459 0.69825798273086548
0.50610458850860596 0.38904011249542236 0.71324944496154785
0.72042852640151978 0.43704208731651306 0.73055356740951538
0.8446354866027832 0.46926504373550415 0.72710871696472168
0.94611978530883789 0.58102142810821533 0.74798786640167236
0.0045672846026718616 0.48992660641670227 0.66121739149093628
0.01188501063734293 0.49048081040382385 0.67761749029159546
0.23088975250720978 0.47172346711158752 0.69481188058853149
0.51118546724319458 0.50895106792449951 0.7161707878112793
0.72449672222137451 0.55929797887802124 0.73471307754516602
0.83767807483673096 0.59318655729293823 0.73468035459518433
0.93527907133102417 0.63697117567062378 0.74680495262145996
0.0037571326829493046 0.61373424530029297 0.65854376554489136
0.0084109436720609665 0.62168306112289429 0.67173588275909424
0.26789945363998413 0.62077176570892334 0.67992770671844482
0.52385216951370239 0.63777941465377808 0.70369893312454224
0.71605569124221802 0.6742127537727356 0.732932448387146
0.82836031913757324 0.68931114673614502 0.73930275440216064
0.93131452798843384 0.67301636934280396 0.72178792953491211
0.013978696428239346 0.75084513425827026 0.68104338645935059
0.088680371642112732 0.75333338975906372 0.68952447175979614
0.35057291388511658 0.75376796722412109 0.693869948387146
0.53903919458389282 0.75773268938064575 0.70736575126647949
0.69888210296630859 0.76338189840316772 0.72196775674819946
0.8215489387512207 0.76231259107589722 0.72018969058990479
0.92535138130187988 0.73987895250320435 0.70381224155426025
0.21744948625564575 0.87473630905151367 0.68355292081832886
0.28743544220924377 0.87309545278549194 0.68112969398498535
0.41164174675941467 0.86706548929214478 0.68077576160430908
0.5469173789024353 0.85399109125137329 0.68016648292541504
0.65172916650772095 0.83386027812957764 0.65867239236831665
0.79009449481964111 0.83542817831039429 0.63731086254119873
0.9128301739692688 0.86054819822311401 0.67722934484481812
0.39647406339645386 0.96718341112136841 0.69294756650924683
0.42376542091369629 0.96352404356002808 0.68812626600265503
0.49219807982444763 0.9591107964515686 0.6844068169593811
0.58378171920776367 0.95328831672668457 0.67729133367538452
0.67130428552627563 0.94247353076934814 0.64551573991775513
0.78389877080917358 0.94309002161026001 0.63085079193115234
0.92058736085891724 0.95550984144210815 0.63517677783966064
0.00026529349270276725 0.38636451959609985 0.83122378587722778
0.00090550439199432731 0.36962446570396423 0.83828818798065186
0.072592929005622864 0.36743047833442688 0.84699708223342896
0.49157488346099854 0.42815423011779785 0.85037744045257568
0.72870016098022461 0.52289366722106934 0.85738056898117065
0.85908526182174683 0.57631194591522217 0.85241729021072388
0.93344748020172119 0.63289123773574829 0.85627967119216919
0.0043652551248669624 0.46668890118598938 0.82912582159042358
0.0043572820723056793 0.45556023716926575 0.83538919687271118
0.11462264508008957 0.43218380212783813 0.84887498617172241
0.512370765209198 0.49263209104537964 0.84976100921630859
0.73582005500793457 0.5849689245223999 0.85200709104537964
0.85301119089126587 0.62688589096069336 0.84895557165145874
0.93346512317657471 0.66170668601989746 0.86157280206680298
0.0089907925575971603 0.58884960412979126 0.8235047459602356
0.038999490439891815 0.57869309186935425 0.83069694042205811
0.27874323725700378 0.56411349773406982 0.83788621425628662
0.53254526853561401 0.58992850780487061 0.84343165159225464
0.73019641637802124 0.65994179248809814 0.85140377283096313
0.85224980115890503 0.70266324281692505 0.85714966058731079
0.92234593629837036 0.72764050960540771 0.85964709520339966
0.0079817082732915878 0.69367039203643799 0.80914688110351562
0.073368728160858154 0.69097387790679932 0.81155693531036377
0.36843135952949524 0.69430702924728394 0.81878292560577393
0.54989618062973022 0.69601821899414062 0.83302205801010132
0.72401732206344604 0.74531251192092896 0.84718406200408936
0.84106755256652832 0.77737510204315186 0.85181331634521484
0.91311323642730713 0.80572474002838135 0.86126101016998291
0.0095427865162491798 0.79786115884780884 0.8110460638999939
0.079159542918205261 0.79327648878097534 0.81133049726486206
0.33470278978347778 0.79240435361862183 0.81224918365478516
0.52571052312850952 0.78989630937576294 0.81866496801376343
0.70871710777282715 0.82156801223754883 0.84468156099319458
0.83830380439758301 0.84875690937042236 0.8618621826171875
0.90784949064254761 0.86020737886428833 0.86653691530227661
0.31824406981468201 0.89454811811447144 0.82264482975006104
0.36666426062583923 0.89865505695343018 0.82643872499465942
0.4782848060131073 0.89500051736831665 0.8266063928604126
0.60841894149780273 0.89713996648788452 0.83235925436019897
0.72495430707931519 0.8989570140838623 0.84470009803771973
0.82963728904724121 0.90063846111297607 0.85005909204483032
0.90611940622329712 0.90966540575027466 0.85443699359893799
0.55285537242889404 0.9775623083114624 0.8427194356918335
0.56589376926422119 0.97369253635406494 0.83818191289901733
0.61465704441070557 0.9734070897102356 0.83500248193740845
0.67188304662704468 0.97047644853591919 0.83068490028381348
0.73544752597808838 0.96916157007217407 0.8345102071762085
0.80472069978713989 0.95235103368759155 0.81244146823883057
0.9094664454460144 0.96826720237731934 0.81113708019256592
0.093892939388751984 0.57299435138702393 0.93688255548477173
0.14837032556533813 0.56385999917984009 0.93815898895263672
0.35522910952568054 0.56504744291305542 0.9371187686920166
0.5899537205696106 0.61499428749084473 0.9329720139503479
0.74895530939102173 0.6790124773979187 0.92793542146682739
0.86558002233505249 0.74508821964263916 0.92617630958557129
0.93148082494735718 0.78180044889450073 0.92437642812728882
0.20022097229957581 0.63034993410110474 0.9352605938911438
0.27021542191505432 0.62200617790222168 0.93570458889007568
0.40763026475906372 0.61598795652389526 0.93273341655731201
0.60577684640884399 0.65597188472747803 0.92956501245498657
0.7553476095199585 0.71499764919281006 0.92463570833206177
0.86226457357406616 0.76693117618560791 0.92389923334121704
0.92815780639648438 0.80019962787628174 0.92442959547042847
0.35890600085258484 0.7190515398979187 0.92551857233047485
0.39869502186775208 0.71236401796340942 0.92490094900131226
0.48730194568634033 0.70395588874816895 0.92289614677429199
0.62688851356506348 0.7168123722076416 0.92497855424880981
0.76192355155944824 0.7626643180847168 0.92302262783050537
0.86365574598312378 0.80816614627838135 0.92298519611358643
0.92025697231292725 0.82975274324417114 0.92059081792831421
0.40843525528907776 0.80176270008087158 0.91523569822311401
0.4580293595790863 0.79699957370758057 0.91473937034606934
0.54075276851654053 0.79176616668701172 0.91322809457778931
0.63907879590988159 0.78690654039382935 0.91920620203018188
0.75508689880371094 0.81348669528961182 0.917083740234375
0.8536795973777771 0.84159654378890991 0.91760963201522827
0.91671550273895264 0.87714511156082153 0.91986238956451416
0.32674595713615417 0.86916452646255493 0.90623706579208374
0.38482695817947388 0.86581194400787354 0.90581279993057251
0.49162814021110535 0.8629869818687439 0.90758293867111206
0.63253974914550781 0.86235499382019043 0.91023427248001099
0.75601416826248169 0.87510442733764648 0.91493922472000122
0.85596311092376709 0.89215564727783203 0.9199751615524292
0.91673469543457031 0.91489088535308838 0.92163097858428955
0.47387024760246277 0.94114917516708374 0.9100995659828186
0.49537283182144165 0.93659138679504395 0.90871381759643555
0.55771732330322266 0.93671852350234985 0.90956670045852661
0.64315289258956909 0.9319690465927124 0.90999454259872437
0.74514693021774292 0.92745387554168701 0.91257911920547485
0.84275007247924805 0.93498820066452026 0.91321098804473877
0.90943485498428345 0.94754397869110107 0.91624784469604492
0.62965887784957886 0.98810034990310669 0.91480940580368042
0.64967352151870728 0.99017500877380371 0.91670578718185425
0.68331265449523926 0.98735505342483521 0.91571271419525146
0.73721575736999512 0.98643654584884644 0.91576331853866577
0.79589807987213135 0.98334568738937378 0.91657018661499023
0.85802739858627319 0.97615092992782593 0.91587239503860474
0.92008388042449951 0.98505091667175293 0.91914337873458862
