luts/instant_pro/polaroid_669_--.cube
# Created by: G'MIC (https://gmic.eu)
TITLE "polaroid_669_--"
# LUT size
LUT_3D_SIZE 13
# Data domain
DOMAIN_MIN 0.0 0.0 0.0
DOMAIN_MAX 1.0 1.0 1.0
# LUT data points
0.012618809007108212 0.041332617402076721 0.02913932129740715
0.047370508313179016 0.045780614018440247 0.031228533014655113
0.10580118000507355 0.057962782680988312 0.037333216518163681
0.17847853899002075 0.065268650650978088 0.042340356856584549
0.2628573477268219 0.063531018793582916 0.048749946057796478
0.35141974687576294 0.055339708924293518 0.052167870104312897
0.44403082132339478 0.048899229615926743 0.057945102453231812
0.54052495956420898 0.03963470458984375 0.066072247922420502
0.6387256383895874 0.02668558806180954 0.07037663459777832
0.72484052181243896 0.037443723529577255 0.077989168465137482
0.80697363615036011 0.062934532761573792 0.08791765570640564
0.88306981325149536 0.11731084436178207 0.10165759921073914
0.95751798152923584 0.17711102962493896 0.11581721901893616
0.013084246776998043 0.099359773099422455 0.040903009474277496
0.036205634474754333 0.10064036399126053 0.038808934390544891
0.10357456654310226 0.10835883766412735 0.041388135403394699
0.18572257459163666 0.11309174448251724 0.043717239052057266
0.27309724688529968 0.11148080229759216 0.051871310919523239
0.3625892698764801 0.10761582851409912 0.059057317674160004
0.45584550499916077 0.10185755044221878 0.062569260597229004
0.55286931991577148 0.10008516162633896 0.07059236615896225
0.65085881948471069 0.10026723891496658 0.078866176307201385
0.73218154907226562 0.11114614456892014 0.085108347237110138
0.81120604276657104 0.1341082751750946 0.092785857617855072
0.88539606332778931 0.16659916937351227 0.10217431932687759
0.95705848932266235 0.21260678768157959 0.11563596874475479
0.012687339447438717 0.16117492318153381 0.050186172127723694
0.025572787970304489 0.15973848104476929 0.045140810310840607
0.09986337274312973 0.16294495761394501 0.041033398360013962
0.19379884004592896 0.16773654520511627 0.041339349001646042
0.29002279043197632 0.17448937892913818 0.055985618382692337
0.38493978977203369 0.17906662821769714 0.066774480044841766
0.47907072305679321 0.17797774076461792 0.071295283734798431
0.57540124654769897 0.18278101086616516 0.076946541666984558
0.66887813806533813 0.18820025026798248 0.083769641816616058
0.7458871603012085 0.19863402843475342 0.090332359075546265
0.81959611177444458 0.21117754280567169 0.094808600842952728
0.8921734094619751 0.23336997628211975 0.10294748842716217
0.95900994539260864 0.2688286304473877 0.12277334183454514
0.0082505615428090096 0.23082961142063141 0.057262945920228958
0.015039212070405483 0.22707840800285339 0.053504824638366699
0.076553627848625183 0.22692936658859253 0.048814572393894196
0.18682242929935455 0.23180721700191498 0.044113621115684509
0.29361283779144287 0.24041464924812317 0.04676094651222229
0.39743134379386902 0.25023806095123291 0.057280566543340683
0.50025480985641479 0.25943863391876221 0.07048962265253067
0.59463506937026978 0.26518949866294861 0.078538410365581512
0.68167567253112793 0.27188187837600708 0.086751930415630341
0.75687474012374878 0.28299412131309509 0.095095537602901459
0.82907789945602417 0.29232817888259888 0.099891930818557739
0.89777082204818726 0.30696618556976318 0.11047066748142242
0.96202051639556885 0.33859971165657043 0.1340148001909256
0.0044325138442218304 0.29863917827606201 0.060049932450056076
0.0091299619525671005 0.29506304860115051 0.059122242033481598
0.06045195460319519 0.29332262277603149 0.054946646094322205
0.16764768958091736 0.29774007201194763 0.050085898488759995
0.27670755982398987 0.30343768000602722 0.039445482194423676
0.38223931193351746 0.31047278642654419 0.027167795225977898
0.48669019341468811 0.3224104642868042 0.036537617444992065
0.58912986516952515 0.33586549758911133 0.055499836802482605
0.68211376667022705 0.35030564665794373 0.080619990825653076
0.76419633626937866 0.3635534942150116 0.09927813708782196
0.83561789989471436 0.37411594390869141 0.10995404422283173
0.90148252248764038 0.39069256186485291 0.12590247392654419
0.96575450897216797 0.41424387693405151 0.14454525709152222
0.0033653709106147289 0.36528712511062622 0.061440873891115189
0.0053196027874946594 0.36237487196922302 0.06372891366481781
0.053088556975126266 0.36068198084831238 0.06057434156537056
0.15761126577854156 0.36242383718490601 0.052637796849012375
0.26436087489128113 0.36628690361976624 0.040020573884248734
0.3661576509475708 0.37024024128913879 0.022432304918766022
0.46318992972373962 0.37885969877243042 0.017846919596195221
0.5637819766998291 0.39228701591491699 0.022409969940781593
0.66366440057754517 0.4139094352722168 0.042714901268482208
0.76088547706604004 0.43721550703048706 0.080605253577232361
0.83758622407913208 0.45383164286613464 0.11232917755842209
0.90399479866027832 0.47191277146339417 0.1363583505153656
0.96683806180953979 0.49365934729576111 0.16079223155975342
0.0040394202806055546 0.43218204379081726 0.063687838613986969
0.0051552415825426579 0.42675328254699707 0.064673826098442078
0.051705963909626007 0.42345705628395081 0.061404403299093246
0.15356086194515228 0.4245029091835022 0.052765760570764542
0.25683996081352234 0.42658764123916626 0.040024343878030777
0.35232105851173401 0.42929750680923462 0.025743313133716583
0.4418036937713623 0.43538963794708252 0.017699461430311203
0.533599853515625 0.44674980640411377 0.012208916246891022
0.63304823637008667 0.46582084894180298 0.010145344771444798
0.73042243719100952 0.48741111159324646 0.022101743146777153
0.82103461027145386 0.51582819223403931 0.060320716351270676
0.90260410308837891 0.54832947254180908 0.1257081925868988
0.967507004737854 0.5722241997718811 0.1781589537858963
0.0055604823864996433 0.4979778528213501 0.057794369757175446
0.0074764476157724857 0.4928554892539978 0.057476013898849487
0.056765567511320114 0.48616015911102295 0.055308323353528976
0.15274177491664886 0.48462715744972229 0.04963664710521698
0.25025048851966858 0.48664718866348267 0.038345426321029663
0.33917808532714844 0.48740610480308533 0.024237388744950294
0.42654988169670105 0.49291902780532837 0.013748558238148689
0.51352685689926147 0.50250566005706787 0.0077371932566165924
0.60142779350280762 0.51306593418121338 0.0055431891232728958
0.69255930185317993 0.52866524457931519 0.0055081984028220177
0.79043173789978027 0.56306928396224976 0.013247636146843433
0.88217979669570923 0.5997198224067688 0.050368484109640121
0.95730918645858765 0.63320255279541016 0.14147859811782837
0.0067962794564664364 0.56712222099304199 0.035753976553678513
0.014941451139748096 0.56111174821853638 0.03798554465174675
0.081569015979766846 0.55520612001419067 0.038654208183288574
0.16666229069232941 0.54910928010940552 0.037581559270620346
0.25348052382469177 0.54567176103591919 0.030941098928451538
0.33342915773391724 0.54598522186279297 0.016340652480721474
0.41421011090278625 0.55211049318313599 0.0069997599348425865
0.50051414966583252 0.56320983171463013 0.0044426862150430679
0.58499175310134888 0.57223939895629883 0.0025439693126827478
0.66649132966995239 0.58103269338607788 0.0015689925057813525
0.75801408290863037 0.60785305500030518 0.0046133603900671005
0.85012948513031006 0.64205998182296753 0.011124540120363235
0.93448632955551147 0.67713487148284912 0.048856623470783234
0.014298786409199238 0.63846862316131592 0.012040127068758011
0.041191175580024719 0.63505548238754272 0.01205133181065321
0.11539939790964127 0.62980878353118896 0.01643841341137886
0.1922079473733902 0.62085658311843872 0.016738172620534897
0.26207554340362549 0.60959035158157349 0.013945889659225941
0.33823990821838379 0.61099761724472046 0.0062861125916242599
0.41873791813850403 0.62090414762496948 0.003732150187715888
0.50315773487091064 0.63414990901947021 0.0021670472342520952
0.58679980039596558 0.64618915319442749 0.00019359214638825506
0.66215729713439941 0.65456944704055786 2.5850184101727791e-05
0.73719114065170288 0.66113018989562988 0.0010383606422692537
0.8203427791595459 0.6859164834022522 0.0061324024572968483
0.91221290826797485 0.72112339735031128 0.0057019251398742199
0.079986855387687683 0.72174012660980225 0.0048480313271284103
0.13513350486755371 0.72759789228439331 0.0079807359725236893
0.18610288202762604 0.72229421138763428 0.0097601199522614479
0.24226920306682587 0.7120361328125 0.0066034207120537758
0.3006131649017334 0.69891577959060669 0.0040753684006631374
0.36023595929145813 0.6916850209236145 0.0029924281407147646
0.43673354387283325 0.69924801588058472 0.0023724124766886234
0.51469731330871582 0.71150434017181396 0.0012907140189781785
0.59942126274108887 0.72709226608276367 0.00095446716295555234
0.68149471282958984 0.74163860082626343 0.0020766314119100571
0.75427335500717163 0.74827742576599121 0.0029290143866091967
0.82117760181427002 0.75371813774108887 0.0026521570980548859
0.90243351459503174 0.77448827028274536 0.0010240592528134584
0.21136514842510223 0.82190006971359253 0.0084106000140309334
0.24709558486938477 0.8256993293762207 0.010808533057570457
0.2815186083316803 0.82414096593856812 0.011828508228063583
0.31837218999862671 0.8160933256149292 0.006914983969181776
0.365091472864151 0.80734705924987793 0.0047169853933155537
0.42103031277656555 0.8020063042640686 0.009270806796848774
0.48702460527420044 0.80406796932220459 0.0090365838259458542
0.55884605646133423 0.81214666366577148 0.0082336878404021263
0.63838815689086914 0.8258245587348938 0.0041219824925065041
0.71808689832687378 0.83905190229415894 0.0072336234152317047
0.78751534223556519 0.84484291076660156 0.0050725601613521576
0.85168826580047607 0.84769368171691895 0.0030969656072556973
0.91903340816497803 0.85466176271438599 0.0011616126867011189
0.36529636383056641 0.92310690879821777 0.13457360863685608
0.37851426005363464 0.92283332347869873 0.13540920615196228
0.39971292018890381 0.92140907049179077 0.12890727818012238
0.42930746078491211 0.92060357332229614 0.12502041459083557
0.46613296866416931 0.91932964324951172 0.11920752376317978
0.51083457469940186 0.91752290725708008 0.11618013679981232
0.56160444021224976 0.91690397262573242 0.1064101904630661
0.62386584281921387 0.92055642604827881 0.097346797585487366
0.6920655369758606 0.92630904912948608 0.087353125214576721
0.7600138783454895 0.93189233541488647 0.075054451823234558
0.8272254467010498 0.93686199188232422 0.066110812127590179
0.89207166433334351 0.94197869300842285 0.058610595762729645
0.95129084587097168 0.94653362035751343 0.046879876405000687
0.0064797196537256241 0.05247223749756813 0.075695350766181946
0.038961254060268402 0.057220637798309326 0.079864278435707092
0.10615967214107513 0.070944629609584808 0.088325411081314087
0.17984005808830261 0.080400921404361725 0.096736252307891846
0.26744863390922546 0.077657230198383331 0.10094686597585678
0.3581635057926178 0.06828848272562027 0.10346153378486633
0.45089203119277954 0.060032803565263748 0.10733563452959061
0.54577147960662842 0.056200049817562103 0.11554057151079178
0.63945561647415161 0.047728698700666428 0.11944005638360977
0.72386318445205688 0.052278347313404083 0.12550534307956696
0.80461448431015015 0.077618934214115143 0.13496348261833191
0.88111668825149536 0.12191116064786911 0.14017388224601746
0.95403152704238892 0.17400486767292023 0.15141862630844116
0.0055433833040297031 0.1094694584608078 0.092661239206790924
0.030398484319448471 0.11074835062026978 0.092154666781425476
0.10611545294523239 0.11916691064834595 0.09598318487405777
0.18953630328178406 0.12465814501047134 0.10076119005680084
0.27878543734550476 0.12521204352378845 0.10664898902177811
0.36998087167739868 0.12221241742372513 0.11308767646551132
0.46397301554679871 0.11557180434465408 0.11755593866109848
0.55965328216552734 0.11444102227687836 0.12322890013456345
0.65421593189239502 0.11545154452323914 0.1283920556306839
0.73387223482131958 0.11990898102521896 0.13163115084171295
0.81088662147521973 0.13747282326221466 0.13701412081718445
0.88661164045333862 0.17573364078998566 0.14360395073890686
0.9540092945098877 0.21526280045509338 0.15512111783027649
0.0047618192620575428 0.17096838355064392 0.10347501188516617
0.022663131356239319 0.16961579024791718 0.10050394386053085
0.105917789041996 0.17323373258113861 0.10063371807336807
0.20019696652889252 0.17989057302474976 0.10467121005058289
0.29388260841369629 0.18767437338829041 0.1153947114944458
0.38918524980545044 0.1915174126625061 0.12445627897977829
0.48415350914001465 0.1864205002784729 0.12766174972057343
0.57976061105728149 0.18949854373931885 0.13048024475574493
0.66973376274108887 0.19274349510669708 0.13524952530860901
0.74530678987503052 0.19924470782279968 0.13759633898735046
0.81847643852233887 0.21184724569320679 0.13764168322086334
0.89212334156036377 0.23723429441452026 0.14265657961368561
0.95914918184280396 0.27140036225318909 0.15863043069839478
0.0048096301034092903 0.24242709577083588 0.11040601879358292
0.020418040454387665 0.2401721328496933 0.10975207388401031
0.094234257936477661 0.24176456034183502 0.10834164917469025
0.19660897552967072 0.24394391477108002 0.10417374223470688
0.29636338353157043 0.25018879771232605 0.10697805136442184
0.39961028099060059 0.25976532697677612 0.12149938195943832
0.50171345472335815 0.2670290470123291 0.13183586299419403
0.59784621000289917 0.27299964427947998 0.13400694727897644
0.67986470460891724 0.27686810493469238 0.14024557173252106
0.75396728515625 0.28408277034759521 0.14313891530036926
0.82715022563934326 0.29215756058692932 0.14337252080440521
0.8968583345413208 0.30692616105079651 0.14961470663547516
0.96495109796524048 0.33856192231178284 0.16566267609596252
0.0050634345971047878 0.31278926134109497 0.11510910093784332
0.013211792334914207 0.30858156085014343 0.11205141991376877
0.081590808928012848 0.30903270840644836 0.11021725833415985
0.18640993535518646 0.31097975373268127 0.10434268414974213
0.28752225637435913 0.31389135122299194 0.092724412679672241
0.38881644606590271 0.31927287578582764 0.08674515038728714
0.49456882476806641 0.33225211501121521 0.10177118331193924
0.60023736953735352 0.34724029898643494 0.12115318328142166
0.68496108055114746 0.35832077264785767 0.13912725448608398
0.76266825199127197 0.36458194255828857 0.14864453673362732
0.83483344316482544 0.37363827228546143 0.15353263914585114
0.90008550882339478 0.39057305455207825 0.1650768518447876
0.96301490068435669 0.41402018070220947 0.18201357126235962
0.0047904518432915211 0.38111960887908936 0.11817125976085663
0.011339658871293068 0.37535607814788818 0.11347069591283798
0.075352013111114502 0.37402129173278809 0.10893469303846359
0.17874057590961456 0.37601873278617859 0.10124433785676956
0.27986240386962891 0.37849098443984985 0.086398184299468994
0.37668019533157349 0.37907034158706665 0.068438559770584106
0.46762087941169739 0.38534078001976013 0.061121832579374313
0.56634342670440674 0.39866411685943604 0.074655108153820038
0.66496729850769043 0.41926971077919006 0.10438928008079529
0.76188820600509644 0.43896773457527161 0.13608962297439575
0.83688521385192871 0.4538271427154541 0.1574338972568512
0.90284132957458496 0.47216156125068665 0.177022784948349
0.96438372135162354 0.49271669983863831 0.19609564542770386
0.0070092147216200829 0.44571486115455627 0.11490620672702789
0.010361764580011368 0.44059878587722778 0.11265022307634354
0.073238864541053772 0.43719929456710815 0.10804072022438049
0.17220868170261383 0.43632286787033081 0.098914921283721924
0.27073436975479126 0.43450570106506348 0.083932511508464813
0.36277225613594055 0.43517407774925232 0.066720210015773773
0.44834929704666138 0.43988135457038879 0.047117315232753754
0.53545886278152466 0.44528353214263916 0.02907218225300312
0.63262069225311279 0.4656030535697937 0.044977612793445587
0.73434728384017944 0.490113765001297 0.068154938519001007
0.82027459144592285 0.51638472080230713 0.11300691962242126
0.90021651983261108 0.54842650890350342 0.17148096859455109
0.96469980478286743 0.57128506898880005 0.20811742544174194
0.0078241834416985512 0.5103333592414856 0.10591381043195724
0.012283744290471077 0.50543111562728882 0.1040029302239418
0.074331097304821014 0.49784296751022339 0.10130688548088074
0.16599860787391663 0.49144133925437927 0.095904015004634857
0.25996097922325134 0.48946622014045715 0.083482451736927032
0.34898307919502258 0.49252891540527344 0.063458338379859924
0.43383830785751343 0.49812006950378418 0.043574433773756027
0.51740849018096924 0.50278043746948242 0.023384647443890572
0.60487502813339233 0.51274031400680542 0.012695177458226681
0.70223122835159302 0.53600621223449707 0.013766434974968433
0.79587447643280029 0.5678633451461792 0.041987206786870956
0.88126474618911743 0.60118013620376587 0.097703225910663605
0.95401847362518311 0.63410162925720215 0.18116259574890137
0.0076401056721806526 0.57595592737197876 0.085482865571975708
0.019974563270807266 0.57044410705566406 0.085594043135643005
0.093637846410274506 0.56344771385192871 0.084919869899749756
0.1761966198682785 0.55469095706939697 0.082347437739372253
0.25863438844680786 0.54950517416000366 0.076988205313682556
0.34010025858879089 0.55189508199691772 0.053908493369817734
0.42020592093467712 0.55766957998275757 0.02985464408993721
0.50400161743164062 0.56497025489807129 0.015153623186051846
0.58838009834289551 0.57482779026031494 0.0068925744853913784
0.67378371953964233 0.58901774883270264 0.0068189734593033791
0.7638554573059082 0.61254560947418213 0.0084834974259138107
0.85243505239486694 0.64319467544555664 0.02296079695224762
0.93484997749328613 0.67766785621643066 0.079949624836444855
0.012606048956513405 0.64472579956054688 0.047316309064626694
0.047346360981464386 0.64085400104522705 0.050996430218219757
0.12875740230083466 0.63701832294464111 0.053591590374708176
0.20227818191051483 0.62845873832702637 0.047132782638072968
0.27387940883636475 0.61986643075942993 0.042033400386571884
0.34863033890724182 0.61988615989685059 0.02752239815890789
0.42266494035720825 0.62552469968795776 0.013023436069488525
0.50193256139755249 0.63412463665008545 0.0053353104740381241
0.58421790599822998 0.64657938480377197 0.0022982577793300152
0.66427707672119141 0.65672445297241211 0.0016613679472357035
0.74065995216369629 0.6642073392868042 0.0015583861386403441
0.82363402843475342 0.68783468008041382 0.0063572605140507221
0.91532641649246216 0.72336220741271973 0.011011235415935516
0.08228040486574173 0.72474187612533569 0.016112338751554489
0.12748575210571289 0.72386384010314941 0.017303392291069031
0.18189263343811035 0.71969866752624512 0.019013438373804092
0.2436145693063736 0.71179360151290894 0.017540516331791878
0.30334806442260742 0.7044142484664917 0.011861090548336506
0.36750879883766174 0.69873219728469849 0.0094131622463464737
0.43884265422821045 0.70330590009689331 0.0046807681210339069
0.52006065845489502 0.71616137027740479 0.0039915195666253567
0.60289180278778076 0.73246711492538452 0.0037328384350985289
0.68341630697250366 0.74410676956176758 0.0022392421960830688
0.75564253330230713 0.74922758340835571 0.0024836671072989702
0.82034397125244141 0.75310462713241577 0.0023890326265245676
0.90276211500167847 0.7755933403968811 0.0013711967039853334
0.20453976094722748 0.82011634111404419 0.017887864261865616
0.23250876367092133 0.82066249847412109 0.018393183127045631
0.26660788059234619 0.818511962890625 0.017857195809483528
0.31402319669723511 0.81502866744995117 0.017159061506390572
0.36519423127174377 0.80970042943954468 0.013783189468085766
0.41951441764831543 0.80492293834686279 0.011523527093231678
0.48502019047737122 0.8074231743812561 0.0068472172133624554
0.5602266788482666 0.8171231746673584 0.0073392083868384361
0.63883370161056519 0.82934242486953735 0.0091664334759116173
0.71515071392059326 0.83919918537139893 0.0038223566953092813
0.78624874353408813 0.84474408626556396 0.0043820696882903576
0.84952235221862793 0.84534913301467896 0.0049582086503505707
0.91974610090255737 0.85585993528366089 0.00046092015691101551
0.35930091142654419 0.92053139209747314 0.16666391491889954
0.37426525354385376 0.9208071231842041 0.16666637361049652
0.3956349790096283 0.92042523622512817 0.16237576305866241
0.42639017105102539 0.91932004690170288 0.15534210205078125
0.46560126543045044 0.91669011116027832 0.15215905010700226
0.50903654098510742 0.91594725847244263 0.13992947340011597
0.56005334854125977 0.91580021381378174 0.13199548423290253
0.62170135974884033 0.91934138536453247 0.11847459524869919
0.68986415863037109 0.92611855268478394 0.10860458016395569
0.75734239816665649 0.93139863014221191 0.093750074505805969
0.8264051079750061 0.93689960241317749 0.082143031060695648
0.89147216081619263 0.94151383638381958 0.072634436190128326
0.95231169462203979 0.94723278284072876 0.059046413749456406
0.0015548407100141048 0.072439514100551605 0.14136500656604767
0.020600397139787674 0.074784912168979645 0.1456364244222641
0.094663806259632111 0.086252875626087189 0.15113642811775208
0.17800791561603546 0.09317035973072052 0.15520067512989044
0.27180084586143494 0.094392783939838409 0.16171254217624664
0.36693865060806274 0.086894050240516663 0.16592299938201904
0.46287184953689575 0.075730219483375549 0.1681876927614212
0.55460500717163086 0.066670455038547516 0.1737469881772995
0.6426321268081665 0.064090073108673096 0.17792727053165436
0.72594016790390015 0.064958967268466949 0.18220853805541992
0.80422186851501465 0.087729252874851227 0.1876208633184433
0.88027304410934448 0.12341016530990601 0.18926900625228882
0.95193040370941162 0.16530697047710419 0.19528232514858246
0.001108012511394918 0.12918382883071899 0.1558632105588913
0.019988520070910454 0.1300400048494339 0.15778134763240814
0.099062465131282806 0.13534510135650635 0.16084128618240356
0.19136971235275269 0.14184331893920898 0.16671060025691986
0.28433257341384888 0.14483757317066193 0.17400191724300385
0.37978392839431763 0.14047865569591522 0.17844130098819733
0.47550627589225769 0.1279204934835434 0.17790423333644867
0.5685914158821106 0.12157119810581207 0.18177957832813263
0.65679448843002319 0.12057281285524368 0.18601031601428986
0.73499518632888794 0.12268853187561035 0.18826502561569214
0.81101232767105103 0.1388399600982666 0.191573366522789
0.88580036163330078 0.17210452258586884 0.19457845389842987
0.95325374603271484 0.20832476019859314 0.2038792222738266
0.003041824558749795 0.19130817055702209 0.16676411032676697
0.017849327996373177 0.18958558142185211 0.16664817929267883
0.10576178133487701 0.19072441756725311 0.17015871405601501
0.20239439606666565 0.19710911810398102 0.17812830209732056
0.29724156856536865 0.20360578596591949 0.187276691198349
0.39570215344429016 0.2022705078125 0.18908265233039856
0.49202451109886169 0.19243058562278748 0.18830488622188568
0.58464896678924561 0.19098308682441711 0.18946011364459991
0.66850095987319946 0.18999333679676056 0.1942727267742157
0.74515599012374878 0.19409948587417603 0.19692762196063995
0.81967973709106445 0.20813712477684021 0.19811511039733887
0.89233756065368652 0.23028148710727692 0.20021137595176697
0.95727455615997314 0.26150840520858765 0.21021252870559692
0.0041107176803052425 0.26191231608390808 0.17354403436183929
0.019608709961175919 0.26222485303878784 0.17656251788139343
0.10619229823350906 0.26399824023246765 0.17969700694084167
0.20623326301574707 0.26322722434997559 0.1817920058965683
0.30682453513145447 0.26721072196960449 0.18857690691947937
0.41047188639640808 0.27276754379272461 0.19614024460315704
0.50983989238739014 0.27368390560150146 0.19939512014389038
0.59993058443069458 0.27462559938430786 0.19789987802505493
0.67915713787078857 0.27547767758369446 0.20202426612377167
0.75411689281463623 0.27892085909843445 0.20388397574424744
0.82896500825881958 0.2881532609462738 0.2073134183883667
0.89843934774398804 0.30608797073364258 0.21064445376396179
0.96131151914596558 0.33126381039619446 0.21893115341663361
0.0040114456787705421 0.33188194036483765 0.17659656703472137
0.016081027686595917 0.33377435803413391 0.18082539737224579
