luts/instant_pro/polaroid_690_cold_-.cube
# Created by: G'MIC (https://gmic.eu)
TITLE "polaroid_690_cold_-"
# LUT size
LUT_3D_SIZE 5
# Data domain
DOMAIN_MIN 0.0 0.0 0.0
DOMAIN_MAX 1.0 1.0 1.0
# LUT data points
0.0024474498350173235 0.094425618648529053 0.067566215991973877
0.18141826987266541 0.084465399384498596 0.070993967354297638
0.46615362167358398 0.0053576151840388775 0.078640945255756378
0.73539078235626221 0.0012866300530731678 0.086802296340465546
0.96653503179550171 0.0024801217950880527 0.079892583191394806
0.0045798057690262794 0.25819393992424011 0.093020044267177582
0.19952584803104401 0.27222263813018799 0.078780047595500946
0.56534194946289062 0.25789663195610046 0.10200473666191101
0.80424660444259644 0.17181552946567535 0.10428870469331741
0.98875218629837036 0.10811831802129745 0.08753763884305954
0.011764706112444401 0.49122679233551025 0.11798800528049469
0.1627676784992218 0.49200740456581116 0.1051633208990097
0.52696305513381958 0.53447812795639038 0.0377337746322155
0.81782960891723633 0.57729601860046387 0.052510712295770645
0.99358505010604858 0.59343636035919189 0.17019128799438477
0.012910700403153896 0.7192499041557312 0.12390682846307755
0.20706164836883545 0.71156233549118042 0.10105182230472565
0.50488042831420898 0.72686910629272461 0.046952910721302032
0.77731585502624512 0.75483721494674683 0.020145490765571594
0.98265910148620605 0.77098757028579712 0.13663846254348755
0.43858069181442261 0.90690153837203979 0.2882213294506073
0.50720417499542236 0.90259784460067749 0.26701053977012634
0.64526206254959106 0.90484946966171265 0.24541456997394562
0.81856107711791992 0.92191535234451294 0.249341681599617
0.97948563098907471 0.94104236364364624 0.24922053515911102
0.0011709175305441022 0.11148756742477417 0.27431881427764893
0.16519051790237427 0.11486915498971939 0.29927971959114075
0.45977577567100525 0.066968448460102081 0.27000522613525391
0.71025598049163818 0.0045521906577050686 0.25326132774353027
0.94060695171356201 0 0.21888530254364014
0.0011104957666248083 0.27906358242034912 0.31354612112045288
0.22092971205711365 0.28693675994873047 0.32896268367767334
0.53265500068664551 0.25112035870552063 0.30830943584442139
0.76838582754135132 0.14051726460456848 0.278005450963974
0.97568756341934204 0.04063078761100769 0.24242952466011047
0.0086936503648757935 0.52777433395385742 0.3381868302822113
0.20848070085048676 0.52078688144683838 0.32607662677764893
0.53824865818023682 0.55024218559265137 0.31478649377822876
0.81742399930953979 0.58522528409957886 0.3342348039150238
0.99062055349349976 0.57361823320388794 0.3404642641544342
0.01472346018999815 0.73748540878295898 0.31592908501625061
0.23382735252380371 0.73025166988372803 0.30294647812843323
0.50948244333267212 0.73018878698348999 0.28116551041603088
0.779072105884552 0.75689905881881714 0.28505611419677734
0.97832357883453369 0.77599751949310303 0.35732722282409668
0.42501145601272583 0.91104382276535034 0.39946025609970093
0.49191105365753174 0.90763688087463379 0.3845970630645752
0.63276809453964233 0.90539354085922241 0.36010143160820007
0.80631184577941895 0.91936796903610229 0.36804622411727905
0.9748835563659668 0.94014197587966919 0.39116927981376648
0.00099910655990242958 0.13981588184833527 0.56382805109024048
0.072814330458641052 0.13746854662895203 0.59840631484985352
0.55400407314300537 0.092141106724739075 0.63961482048034668
0.74609535932540894 0.056549176573753357 0.54991835355758667
0.9342840313911438 0.0030961129814386368 0.50969833135604858
0.0011436013737693429 0.28119567036628723 0.57474988698959351
0.18691134452819824 0.29684793949127197 0.60724085569381714
0.56843596696853638 0.30829435586929321 0.64490693807601929
0.75714695453643799 0.24996930360794067 0.55992460250854492
0.94480592012405396 0.026255395263433456 0.5049024224281311
0.0042447256855666637 0.54534882307052612 0.60414445400238037
0.2593025267124176 0.55350100994110107 0.61249798536300659
0.55701953172683716 0.5763850212097168 0.63990980386734009
0.7850576639175415 0.51856505870819092 0.58768743276596069
0.97381949424743652 0.41700488328933716 0.50403261184692383
0.11292682588100433 0.76984143257141113 0.61233532428741455
0.29878351092338562 0.76225662231445312 0.59792178869247437
0.52282512187957764 0.75243973731994629 0.57380706071853638
0.78007489442825317 0.76487773656845093 0.59641313552856445
0.97389835119247437 0.78168380260467529 0.64448899030685425
0.38947716355323792 0.92099529504776001 0.62975186109542847
0.45913565158843994 0.91755217313766479 0.61344927549362183
0.60559248924255371 0.91166085004806519 0.58705109357833862
0.78190886974334717 0.92230111360549927 0.57530134916305542
0.96434283256530762 0.94486069679260254 0.61075043678283691
0.0015529108932241797 0.17535349726676941 0.8473435640335083
0.15622903406620026 0.1680673360824585 0.86042267084121704
0.58026516437530518 0.16081033647060394 0.88604259490966797
0.83992922306060791 0.19483490288257599 0.8893616795539856
0.96892976760864258 0.19208493828773499 0.81767082214355469
0.0064135533757507801 0.30791905522346497 0.8341023325920105
0.23205369710922241 0.3127206563949585 0.85210108757019043
0.58634275197982788 0.34796372056007385 0.87923282384872437
0.83079850673675537 0.39472243189811707 0.88828545808792114
0.96195429563522339 0.35300081968307495 0.82419759035110474
0.0019708671607077122 0.50186967849731445 0.79934859275817871
0.15796872973442078 0.51407456398010254 0.81402111053466797
0.54298365116119385 0.57904040813446045 0.84514510631561279
0.80044692754745483 0.63887912034988403 0.87820982933044434
0.94103437662124634 0.55078905820846558 0.80754512548446655
0.2079511433839798 0.76818042993545532 0.83884221315383911
0.35825169086456299 0.76514285802841187 0.83900696039199829
0.57899123430252075 0.76534068584442139 0.85195094347000122
0.79306697845458984 0.78737807273864746 0.86877316236495972
0.94813543558120728 0.72205924987792969 0.81262814998626709
0.5203133225440979 0.9311288595199585 0.86861681938171387
0.55624699592590332 0.93110376596450806 0.85991913080215454
0.64249640703201294 0.93039464950561523 0.85124653577804565
0.76862484216690063 0.92954176664352417 0.82120984792709351
0.94456112384796143 0.95391577482223511 0.84536004066467285
0.38318929076194763 0.29859492182731628 0.99356544017791748
0.48397171497344971 0.29925715923309326 0.9926220178604126
0.66580682992935181 0.32001039385795593 0.99684137105941772
0.85028398036956787 0.41460075974464417 0.99748712778091431
0.98638021945953369 0.50051641464233398 0.98775398731231689
0.39482781291007996 0.41370955109596252 0.99083566665649414
0.49051225185394287 0.4202721118927002 0.98800963163375854
0.66359370946884155 0.45055201649665833 0.99297440052032471
0.84255623817443848 0.54458910226821899 0.99185621738433838
0.9787934422492981 0.59742248058319092 0.98868310451507568
0.3041476309299469 0.59238570928573608 0.98425328731536865
0.42721611261367798 0.60357260704040527 0.9819902777671814
0.63479119539260864 0.63703703880310059 0.98440146446228027
0.82757627964019775 0.68829208612442017 0.98681533336639404
0.97052216529846191 0.71256756782531738 0.98501360416412354
0.28028786182403564 0.76813960075378418 0.97186028957366943
0.37008187174797058 0.76220965385437012 0.97024130821228027
0.55652302503585815 0.75844258069992065 0.97148066759109497
0.79902642965316772 0.78881055116653442 0.97826147079467773
0.96598964929580688 0.82422029972076416 0.97842109203338623
0.60699933767318726 0.93877261877059937 0.9715922474861145
0.63968384265899658 0.93874996900558472 0.97173333168029785
0.72236710786819458 0.94145971536636353 0.9725337028503418
0.83086866140365601 0.94234418869018555 0.96545922756195068
0.96080893278121948 0.96508598327636719 0.97335416078567505
