luts/instant_pro/polaroid_690.cube
# Created by: G'MIC (https://gmic.eu)
TITLE "polaroid_690"
# LUT size
LUT_3D_SIZE 13
# Data domain
DOMAIN_MIN 0.0 0.0 0.0
DOMAIN_MAX 1.0 1.0 1.0
# LUT data points
0.052494511008262634 0.062631092965602875 0.058821540325880051
0.081748336553573608 0.062847569584846497 0.059324644505977631
0.11343120783567429 0.058787744492292404 0.058555543422698975
0.17367862164974213 0.04483509436249733 0.057134486734867096
0.2537742555141449 0.020606201142072678 0.056118626147508621
0.35478964447975159 0.006521561648696661 0.056095317006111145
0.46429482102394104 0.0047639287076890469 0.057457644492387772
0.57111638784408569 0.0021508759818971157 0.049115993082523346
0.67423856258392334 0.0016287111211568117 0.037478875368833542
0.76995974779129028 0.0013521680375561118 0.026734162122011185
0.85439282655715942 0.00074576580664142966 0.017875341698527336
0.93919551372528076 0.00025904038920998573 0.0086336173117160797
0.98878419399261475 0 0.0030940636061131954
0.051224622875452042 0.087039440870285034 0.059436272829771042
0.083549916744232178 0.087511532008647919 0.059384934604167938
0.12168124318122864 0.085114724934101105 0.057463567703962326
0.19305545091629028 0.071915224194526672 0.056449741125106812
0.28197872638702393 0.049854759126901627 0.054980363696813583
0.38007482886314392 0.021746542304754257 0.052333202213048935
0.49289268255233765 0.011850319802761078 0.047025464475154877
0.60613381862640381 0.0071685044094920158 0.037813030183315277
0.70702469348907471 0.005505924578756094 0.025897366926074028
0.79541963338851929 0.0052147060632705688 0.017062870785593987
0.87697124481201172 0.0044995774514973164 0.011001976206898689
0.95088553428649902 0.0021753348410129547 0.005174973513931036
0.99019736051559448 0.00010910034325206652 0.0019050748087465763
0.04326031357049942 0.12380994856357574 0.058379154652357101
0.078766494989395142 0.12757737934589386 0.057179141789674759
0.1296703964471817 0.13033503293991089 0.053344488143920898
0.212238609790802 0.12882351875305176 0.049631528556346893
0.30844995379447937 0.11378908157348633 0.047535780817270279
0.41639721393585205 0.087283819913864136 0.044460836797952652
0.53388655185699463 0.048593677580356598 0.034619919955730438
0.64426052570343018 0.018912281841039658 0.024545064195990562
0.74310499429702759 0.01095631904900074 0.011579790152609348
0.82556462287902832 0.0085736894980072975 0.0073871389031410217
0.90160799026489258 0.0093885986134409904 0.0050036413595080376
0.965171217918396 0.0049065235070884228 0.002307832008227706
0.99414980411529541 0.0020370783749967813 0.00048582788440398872
0.025057354941964149 0.19749192893505096 0.048468288034200668
0.064150772988796234 0.19429099559783936 0.046616215258836746
0.13513287901878357 0.19922547042369843 0.041941683739423752
0.22391873598098755 0.20911766588687897 0.030297910794615746
0.32992669939994812 0.20851987600326538 0.023127956315875053
0.45722132921218872 0.20630010962486267 0.020967761054635048
0.58463501930236816 0.19769944250583649 0.017150010913610458
0.69243663549423218 0.16285227239131927 0.010129816830158234
0.78155124187469482 0.11743639409542084 0.0021255344618111849
0.85758614540100098 0.079862423241138458 0.00060694076819345355
0.92516106367111206 0.057249091565608978 0.000360990030458197
0.98051530122756958 0.042409304529428482 4.0346032619709149e-05
0.99907928705215454 0.038444697856903076 0
0.006642061285674572 0.2868703305721283 0.028788413852453232
0.028492333367466927 0.28277528285980225 0.023445278406143188
0.11327040195465088 0.28672263026237488 0.020426074042916298
0.21902544796466827 0.29823023080825806 0.01262365560978651
0.34140744805335999 0.31090801954269409 0.0087951663881540298
0.46761617064476013 0.31959271430969238 0.0090450812131166458
0.60203170776367188 0.33127790689468384 0.0057479259558022022
0.72067874670028687 0.33752280473709106 0.0014293147251009941
0.81343257427215576 0.32889208197593689 0.00070387899177148938
0.88415646553039551 0.30647474527359009 6.9472371251322329e-05
0.94445961713790894 0.28383377194404602 0.00012835334928240627
0.98762595653533936 0.26406899094581604 7.6114432886242867e-05
0.99952578544616699 0.2615160346031189 0.00043068680679425597
0.0038181080017238855 0.3806915283203125 0.012458786368370056
0.0089635662734508514 0.37749692797660828 0.0069148195907473564
0.076520465314388275 0.38090971112251282 0.006852258462458849
0.21060986816883087 0.3903898298740387 0.0067717158235609531
0.33696958422660828 0.40370082855224609 0.0078363306820392609
0.46292722225189209 0.41912424564361572 0.0077326754108071327
0.59484165906906128 0.43809476494789124 0.004724839236587286
0.71114182472229004 0.45305219292640686 0.002743889344856143
0.80887293815612793 0.46301013231277466 0.0028194950427860022
0.88935208320617676 0.47266414761543274 0.0013142005773261189
0.95207744836807251 0.46802106499671936 0.00029611025820486248
0.98712223768234253 0.44611844420433044 0.0010930529097095132
0.99824720621109009 0.43681609630584717 0.0042375004850327969
0.0015918656717985868 0.47235521674156189 0.0036937340628355742
0.0051946751773357391 0.47368091344833374 0.0022620256058871746
0.046319760382175446 0.47515624761581421 0.0012478099670261145
0.19612510502338409 0.47945013642311096 0.0031657051295042038
0.32606121897697449 0.49241268634796143 0.0066496455110609531
0.45244273543357849 0.50686311721801758 0.0079924939200282097
0.57982265949249268 0.52278667688369751 0.0043614106252789497
0.6895332932472229 0.53807592391967773 0.0048887217417359352
0.78449255228042603 0.55220842361450195 0.0057138330303132534
0.86794841289520264 0.56931787729263306 0.0050283842720091343
0.94055634737014771 0.58485656976699829 0.0026379006449133158
0.98809677362442017 0.591025710105896 0.0026867736596614122
0.99822032451629639 0.58176743984222412 0.0075521133840084076
0.00075094186468049884 0.55896502733230591 0.001211757306009531
0.0027661491185426712 0.56089633703231812 0.00094264908693730831
0.026578761637210846 0.56355780363082886 0.00037038465961813927
0.17490695416927338 0.56742829084396362 0.0027446672320365906
0.31758663058280945 0.57548660039901733 0.0050607118755578995
0.43652498722076416 0.5861470103263855 0.0054621077142655849
0.55821055173873901 0.60046333074569702 0.0039918785914778709
0.66363018751144409 0.61640220880508423 0.0046180873177945614
0.76143062114715576 0.63175970315933228 0.0064676320180296898
0.84878349304199219 0.64318066835403442 0.0068089202977716923
0.9195711612701416 0.65529239177703857 0.005584716796875
0.97577738761901855 0.66500335931777954 0.0040090372785925865
0.99705773591995239 0.67455935478210449 0.0046527935191988945
0.0047043892554938793 0.64630746841430664 0.00021326402202248573
0.0028718088287860155 0.64925605058670044 1.4361213516167481e-06
0.031761243939399719 0.65187406539916992 0
0.18214601278305054 0.65010368824005127 0.0011218201834708452
0.31667879223823547 0.65311801433563232 0.0019841513130813837
0.42890068888664246 0.66217648983001709 0.0019629234448075294
0.53870773315429688 0.67294156551361084 0.0025835821870714426
0.64170068502426147 0.68574702739715576 0.0038752835243940353
0.74235796928405762 0.69765526056289673 0.0047567477449774742
0.83003103733062744 0.70708245038986206 0.0071811000816524029
0.90060842037200928 0.71485543251037598 0.0052549922838807106
0.96418607234954834 0.72299939393997192 0.0034167570993304253
0.99728119373321533 0.72995120286941528 0.0020478041842579842
0.023046920076012611 0.72996640205383301 0
0.052618931978940964 0.73188972473144531 0
0.14024785161018372 0.72867614030838013 0
0.25092747807502747 0.72469371557235718 2.1003274014219642e-05
0.35001859068870544 0.7208324670791626 0
0.45441582798957825 0.72625315189361572 0.00050029379781335592
0.54965084791183472 0.73476094007492065 0.0021823807619512081
0.64393728971481323 0.7445605993270874 0.0038970648311078548
0.7391667366027832 0.7540971040725708 0.0043898788280785084
0.82261842489242554 0.76274210214614868 0.0064682457596063614
0.89263486862182617 0.77005904912948608 0.0059284134767949581
0.95474046468734741 0.77768325805664062 0.0049931695684790611
0.99039047956466675 0.78223711252212524 0.0036512936931103468
0.20628543198108673 0.79750019311904907 3.8894952012924477e-05
0.23776455223560333 0.79515624046325684 0.00051658478332683444
0.28142246603965759 0.79134839773178101 0.0011388740967959166
0.34355667233467102 0.7884482741355896 0.0017732507549226284
0.42077314853668213 0.78489834070205688 0.0014453663025051355
0.50076550245285034 0.78420096635818481 0.0018638012697920203
0.58734935522079468 0.79388105869293213 0.0034593020100146532
0.67367273569107056 0.80391448736190796 0.0039565740153193474
0.75392287969589233 0.81102520227432251 0.0067358729429543018
0.82577598094940186 0.81775456666946411 0.0083665736019611359
0.88936299085617065 0.82572370767593384 0.0088515188544988632
0.94502609968185425 0.83260500431060791 0.0079458793625235558
0.98370170593261719 0.83717554807662964 0.0042990292422473431
0.36530831456184387 0.85635870695114136 0.0034902086481451988
0.37959349155426025 0.85489749908447266 0.0046121785417199135
0.40502828359603882 0.85243678092956543 0.0050154593773186207
0.45027214288711548 0.85191982984542847 0.006868310272693634
0.50672310590744019 0.85014408826828003 0.0057090162299573421
0.56931531429290771 0.85011088848114014 0.0045192944817245007
0.63791155815124512 0.85600471496582031 0.0053757759742438793
0.70691090822219849 0.86268824338912964 0.0043540955521166325
0.77177244424819946 0.86912041902542114 0.0064376830123364925
0.83172380924224854 0.87474596500396729 0.0089102499186992645
0.88719165325164795 0.88159692287445068 0.008891131728887558
0.93705600500106812 0.8883967399597168 0.0077369092032313347
0.9775015115737915 0.8939971923828125 0.004627870861440897
0.49300578236579895 0.92191684246063232 0.12694498896598816
0.50226801633834839 0.9216688871383667 0.11817406862974167
0.52215170860290527 0.92045676708221436 0.10646736621856689
0.55340254306793213 0.91927725076675415 0.09583689272403717
0.59261626005172729 0.91863566637039185 0.082038551568984985
0.63784825801849365 0.91869908571243286 0.067852705717086792
0.68725699186325073 0.91981816291809082 0.058017522096633911
0.73854619264602661 0.92382299900054932 0.058543097227811813
0.78931975364685059 0.92986786365509033 0.062562249600887299
0.83890092372894287 0.93505382537841797 0.068491511046886444
0.8857417106628418 0.94095295667648315 0.070546664297580719
0.93062275648117065 0.94778150320053101 0.073164664208889008
0.97041356563568115 0.95431041717529297 0.080003596842288971
0.052135929465293884 0.063770905137062073 0.083852760493755341
0.082137644290924072 0.065290890634059906 0.084815546870231628
0.11482325196266174 0.063119165599346161 0.082548819482326508
0.17310783267021179 0.048607110977172852 0.080737650394439697
0.25842878222465515 0.018894150853157043 0.081202127039432526
0.35432529449462891 0.0034092622809112072 0.079439856112003326
0.45920643210411072 0.002652142196893692 0.07498437911272049
0.56639724969863892 0.0015939001459628344 0.070065096020698547
0.67080223560333252 0.0013556686462834477 0.064442455768585205
0.76434820890426636 0.00093006808310747147 0.054387651383876801
0.8491973876953125 2.5132123482762836e-05 0.041958078742027283
0.93299639225006104 0 0.027574801817536354
0.98969149589538574 7.7012009569443762e-05 0.018333090469241142
0.051267571747303009 0.08537273108959198 0.084941565990447998
0.085371546447277069 0.090398125350475311 0.087297491729259491
0.12555037438869476 0.090280227363109589 0.086850233376026154
0.19404450058937073 0.075124599039554596 0.086168639361858368
0.27693498134613037 0.045622251927852631 0.0832490473985672
0.37813267111778259 0.016868876293301582 0.079998403787612915
0.49289190769195557 0.010325487703084946 0.075136043131351471
0.60100489854812622 0.007683862466365099 0.068737208843231201
0.70278185606002808 0.0042773825116455555 0.057953283190727234
0.79210877418518066 0.0043303696438670158 0.044308889657258987
0.87335842847824097 0.0019404691411182284 0.031958427280187607
0.94804674386978149 3.9987004129216075e-05 0.020774228498339653
0.98887139558792114 0.0010205437429249287 0.017393223941326141
0.039781637489795685 0.1322670578956604 0.086157701909542084
0.07835649698972702 0.13498625159263611 0.088507063686847687
0.13394929468631744 0.13439962267875671 0.08641478419303894
0.2149711400270462 0.13009965419769287 0.084915295243263245
0.30989277362823486 0.11677422374486923 0.086580656468868256
0.42085990309715271 0.091468676924705505 0.083299033343791962
0.53278940916061401 0.046350561082363129 0.072528764605522156
0.63861930370330811 0.015655681490898132 0.064117476344108582
0.73851436376571655 0.0079696951434016228 0.047991406172513962
0.82206827402114868 0.0073395222425460815 0.034300547093153
0.89899832010269165 0.0034634310286492109 0.021169235929846764
0.9638245701789856 0.0014236749848350883 0.013195366598665714
0.99347770214080811 0.0028269002214074135 0.013167407363653183
0.015862932428717613 0.20224484801292419 0.084380388259887695
0.05890987440943718 0.20487901568412781 0.084896072745323181
0.13634224236011505 0.21076099574565887 0.081193767488002777
0.23318138718605042 0.21712864935398102 0.070653833448886871
0.33961391448974609 0.21616707742214203 0.06804695725440979
0.46303686499595642 0.21275302767753601 0.064557440578937531
0.58457136154174805 0.19111242890357971 0.058535002171993256
0.6875845193862915 0.14792826771736145 0.048721060156822205
0.77662783861160278 0.10226769745349884 0.035740811377763748
0.85426050424575806 0.066251389682292938 0.023806627839803696
0.92455357313156128 0.045234382152557373 0.012221063487231731
0.98016357421875 0.03179481253027916 0.005149452481418848
0.99882739782333374 0.029743464663624763 0.0040939180180430412
0.0034110124688595533 0.29286140203475952 0.068761549890041351
0.032299641519784927 0.2924811840057373 0.066245526075363159
0.11645899713039398 0.29749986529350281 0.06117679551243782
0.23130440711975098 0.30421930551528931 0.05226154625415802
0.34750157594680786 0.31333419680595398 0.039343245327472687
0.47168412804603577 0.32416722178459167 0.024575013667345047
0.60671889781951904 0.33407580852508545 0.023826854303479195
0.72320127487182617 0.33557078242301941 0.025283768773078918
0.81132221221923828 0.31901291012763977 0.021319041028618813
0.88396871089935303 0.2965012788772583 0.012647666037082672
0.94403445720672607 0.27217429876327515 0.0084454407915472984
0.98857283592224121 0.25086802244186401 0.0041448557749390602
0.99974185228347778 0.24316264688968658 0.0027141794562339783
0.0028832678217440844 0.39691916108131409 0.038434464484453201
0.010108873248100281 0.39091438055038452 0.035754095762968063
0.084703125059604645 0.38906919956207275 0.032708499580621719
0.21360069513320923 0.39388614892959595 0.024431325495243073
0.33847057819366455 0.40548413991928101 0.01701304130256176
0.46646034717559814 0.42438656091690063 0.010094750672578812
0.59642881155014038 0.44003665447235107 0.0087162991985678673
0.71274816989898682 0.45395568013191223 0.0084651419892907143
0.81166452169418335 0.464702308177948 0.010188158601522446
0.8908190131187439 0.47065103054046631 0.0080777937546372414
0.95113891363143921 0.4623371958732605 0.0073331049643456936
0.98967212438583374 0.44275492429733276 0.005758622195571661
0.99966198205947876 0.42974081635475159 0.0080713909119367599
0.00060451729223132133 0.49258780479431152 0.013894489035010338
0.0046118046157062054 0.48733788728713989 0.014685432426631451
0.048634100705385208 0.48377379775047302 0.011457929387688637
0.1958899199962616 0.48619627952575684 0.010376919060945511
0.32675716280937195 0.49405482411384583 0.011023636907339096
0.45370578765869141 0.51059114933013916 0.011512218043208122
0.58019840717315674 0.52974534034729004 0.0070870490744709969
0.69123512506484985 0.54460012912750244 0.0093284454196691513
0.79011166095733643 0.55984324216842651 0.0087057976052165031
0.87384968996047974 0.57337462902069092 0.0080691920593380928
0.94198143482208252 0.58731603622436523 0.008687666617333889
0.9890713095664978 0.59018278121948242 0.015151842497289181
0.99964058399200439 0.58115106821060181 0.02243022620677948
8.3549348346423358e-05 0.57731842994689941 0.0078606698662042618
0.0024251001887023449 0.57672786712646484 0.0054528927430510521
0.032159678637981415 0.57563996315002441 0.003839769633486867
0.18395461142063141 0.57568001747131348 0.0068220100365579128
0.31792297959327698 0.57885557413101196 0.0086842700839042664
0.4393622875213623 0.59054327011108398 0.0083037428557872772
0.55855131149291992 0.60833525657653809 0.0075092092156410217
0.66639745235443115 0.62443321943283081 0.0075763179920613766
0.76904720067977905 0.63889724016189575 0.0080910772085189819
0.85407531261444092 0.64851689338684082 0.011283709667623043
0.9216809868812561 0.65941751003265381 0.010529132559895515
0.97727406024932861 0.66896277666091919 0.011831216514110565
0.99918895959854126 0.67582601308822632 0.050719242542982101
0.0046366672031581402 0.65983754396438599 0.0040349774062633514
0.005433310754597187 0.65997862815856934 0.0024043663870543242
0.04133211076259613 0.66038310527801514 0.0013416963629424572
0.19440962374210358 0.65819436311721802 0.0047798603773117065
0.32373431324958801 0.65820366144180298 0.0047917533665895462
0.43506738543510437 0.66688811779022217 0.0040636099874973297
0.54437756538391113 0.67826008796691895 0.0062383166514337063
0.64986896514892578 0.68948519229888916 0.0072630038484930992
0.74959093332290649 0.70129108428955078 0.0062711825594305992
0.83482819795608521 0.71065515279769897 0.0096288044005632401
0.90483134984970093 0.71776163578033447 0.0077230716124176979
0.96483445167541504 0.72471356391906738 0.0056882370263338089
0.99568372964859009 0.73066979646682739 0.024163983762264252
0.029932552948594093 0.73517048358917236 0.0010770461522042751
0.060700494796037674 0.73688364028930664 0.0014569300692528486
0.14807306230068207 0.73207837343215942 0.0016746370820328593
0.25752609968185425 0.7271314263343811 0.0034710452891886234
0.35953888297080994 0.72523808479309082 0.0027712653391063213
0.45768669247627258 0.73007839918136597 0.0042324289679527283
0.55412644147872925 0.73690474033355713 0.0054066977463662624
0.65057235956192017 0.7450445294380188 0.0047516017220914364
0.74468719959259033 0.75470632314682007 0.0052242204546928406
0.82637184858322144 0.76297825574874878 0.0075611937791109085
0.89523625373840332 0.77061229944229126 0.0077526317909359932
0.95358490943908691 0.77710825204849243 0.0073903701268136501
0.98994916677474976 0.78253614902496338 0.0092494888231158257
0.20943820476531982 0.79820460081100464 0.0018960990710183978
0.23779299855232239 0.79629194736480713 0.0034031588584184647
0.28027832508087158 0.79143327474594116 0.0036406721919775009
0.35074982047080994 0.78872454166412354 0.0037489947862923145
0.42577934265136719 0.78618192672729492 0.004242332186549902
0.50590986013412476 0.78684264421463013 0.0052446252666413784
0.58863860368728638 0.79289591312408447 0.0060452478937804699
0.6732211709022522 0.80162101984024048 0.0069785322993993759
0.75322943925857544 0.80730253458023071 0.0077181649394333363
0.82547271251678467 0.81365275382995605 0.0066852793097496033
0.88938719034194946 0.82316029071807861 0.0098342150449752808
0.94398730993270874 0.83105641603469849 0.011263648979365826
0.98539608716964722 0.83607953786849976 0.0078961988911032677
0.36720049381256104 0.85679781436920166 0.021753603592514992
0.38113045692443848 0.85508149862289429 0.01640554703772068
0.40974846482276917 0.8525460958480835 0.01262365560978651
0.45568332076072693 0.85175353288650513 0.0093660391867160797
0.51009869575500488 0.84929126501083374 0.009396631270647049
0.57124501466751099 0.84886652231216431 0.007601375225931406
0.63560140132904053 0.85268676280975342 0.0082077775150537491
0.70477771759033203 0.86002177000045776 0.0076066860929131508
0.76950740814208984 0.8652651309967041 0.0087983822450041771
0.83049172163009644 0.8715444803237915 0.0093790842220187187
0.88602477312088013 0.87881392240524292 0.012280452996492386
0.93647420406341553 0.88634437322616577 0.011720245704054832
0.98081237077713013 0.89244180917739868 0.015191844664514065
0.4885459840297699 0.92291736602783203 0.18089292943477631
0.49866262078285217 0.92195612192153931 0.16890934109687805
0.5198594331741333 0.92086648941040039 0.15663677453994751
0.55079537630081177 0.92062699794769287 0.14216393232345581
0.59021657705307007 0.91813373565673828 0.1244770884513855
0.63555657863616943 0.91758596897125244 0.10668171942234039
0.68500322103500366 0.91912257671356201 0.091689154505729675
0.73679560422897339 0.92351311445236206 0.092615313827991486
0.78791767358779907 0.92835688591003418 0.099296554923057556
0.83779424428939819 0.93410366773605347 0.10516897588968277
0.88465410470962524 0.94015175104141235 0.11058373749256134
0.92986607551574707 0.94758492708206177 0.11534892022609711
0.97135943174362183 0.95399069786071777 0.13242644071578979
0.044674292206764221 0.065579086542129517 0.12317898124456406
0.073546327650547028 0.067053206264972687 0.13341601192951202
0.11335045099258423 0.063531927764415741 0.13612288236618042
0.17991727590560913 0.050388500094413757 0.13315172493457794
0.2603658139705658 0.024227097630500793 0.13064906001091003
0.35407111048698425 0.0049861534498631954 0.13010284304618835
0.45948353409767151 0.00095645681722089648 0.13420386612415314
0.56178796291351318 0.00023884492111392319 0.12788914144039154
0.66145217418670654 0.00025634764460846782 0.11545734852552414
0.75322079658508301 6.3907398725859821e-05 0.10157729685306549
0.83752000331878662 0 0.090097822248935699
0.91964077949523926 0 0.078781753778457642
0.98290199041366577 0.00031038172892294824 0.068494521081447601
0.042666148394346237 0.087913140654563904 0.13174469769001007
0.078896798193454742 0.093794770538806915 0.13831321895122528
0.12497636675834656 0.092698954045772552 0.1403677761554718
0.19836564362049103 0.082336470484733582 0.13933062553405762
0.27842643857002258 0.053028706461191177 0.13404355943202972
0.37460076808929443 0.012689239345490932 0.13044293224811554
0.48574763536453247 0.0065463348291814327 0.13217329978942871
0.5896841287612915 0.0046994974836707115 0.12633106112480164
0.68782562017440796 0.0026437647175043821 0.11456352472305298
0.77951502799987793 0.0017140407580882311 0.10081878304481506
0.86224907636642456 0.00036033181822858751 0.086133264005184174
0.93797081708908081 0.0019638510420918465 0.072606988251209259
0.98577761650085449 0.0036411210894584656 0.06328418105840683
0.035767722874879837 0.13553903996944427 0.1397615522146225
0.078749939799308777 0.13802644610404968 0.14438121020793915
0.13519275188446045 0.13755121827125549 0.1448935866355896
0.21646769344806671 0.13312326371669769 0.14382852613925934
0.30897349119186401 0.11400038748979568 0.14090123772621155
0.41375574469566345 0.073585778474807739 0.13623909652233124
0.52293866872787476 0.034016299992799759 0.13233602046966553
0.62697792053222656 0.012619482353329659 0.12674900889396667
0.72216248512268066 0.0065426696091890335 0.1142590120434761
0.81040120124816895 0.0052826972678303719 0.10099638253450394
0.88996005058288574 0.0035095962230116129 0.08494904637336731
0.95604115724563599 0.0040819356217980385 0.067362934350967407
0.99026572704315186 0.004289709497243166 0.056926801800727844
0.014215027913451195 0.20801787078380585 0.14889253675937653
0.064286082983016968 0.20866632461547852 0.14932955801486969
0.14254756271839142 0.21703435480594635 0.15244796872138977
0.23819816112518311 0.2198198139667511 0.15402503311634064
0.35055267810821533 0.21808233857154846 0.15553607046604156
0.46667411923408508 0.20974496006965637 0.14968524873256683
0.57781589031219482 0.1738569438457489 0.14139363169670105
0.67570596933364868 0.12271358817815781 0.13065773248672485
0.76469922065734863 0.08051580935716629 0.11868800967931747
0.84482365846633911 0.047245010733604431 0.10460738837718964
0.91625231504440308 0.02807312086224556 0.088305376470088959
0.97508645057678223 0.01740296371281147 0.068786546587944031
