luts/instant_pro/polaroid_690_cold_++.cube
# Created by: G'MIC (https://gmic.eu)
TITLE "polaroid_690_cold_++"
# LUT size
LUT_3D_SIZE 7
# Data domain
DOMAIN_MIN 0.0 0.0 0.0
DOMAIN_MAX 1.0 1.0 1.0
# LUT data points
0.21922044456005096 0.32156863808631897 0.36731842160224915
0.23595063388347626 0.31695204973220825 0.36345171928405762
0.31257066130638123 0.31149902939796448 0.36625096201896667
0.42419236898422241 0.30399051308631897 0.36139065027236938
0.59043461084365845 0.28620252013206482 0.36113280057907104
0.74502283334732056 0.25690543651580811 0.35647261142730713
0.92042422294616699 0.22693093121051788 0.35296839475631714
0.21405136585235596 0.3362824022769928 0.36606311798095703
0.24067817628383636 0.33318746089935303 0.36298003792762756
0.32248666882514954 0.33285695314407349 0.3629118800163269
0.46656158566474915 0.33282393217086792 0.3631020188331604
0.62827354669570923 0.32204791903495789 0.35964420437812805
0.78746694326400757 0.30457839369773865 0.35422644019126892
0.94833999872207642 0.28986737132072449 0.35034748911857605
0.21043784916400909 0.38792252540588379 0.36545050144195557
0.2573140561580658 0.3942863941192627 0.36437952518463135
0.34627845883369446 0.40337997674942017 0.36343127489089966
0.51774108409881592 0.41871005296707153 0.36191293597221375
0.70801717042922974 0.44412446022033691 0.35598623752593994
0.85402202606201172 0.43682283163070679 0.35098451375961304
0.97060257196426392 0.44079530239105225 0.3470783531665802
0.19977886974811554 0.49118661880493164 0.361960768699646
0.25078111886978149 0.48916164040565491 0.36110642552375793
0.34980282187461853 0.49889716506004333 0.3577982485294342
0.50423425436019897 0.53155350685119629 0.34982970356941223
0.6977686882019043 0.58034849166870117 0.3383202850818634
0.8727414608001709 0.61672145128250122 0.34050646424293518
0.98253244161605835 0.62267398834228516 0.35217729210853577
0.16051019728183746 0.63930606842041016 0.34735202789306641
0.23164026439189911 0.63802444934844971 0.3460327684879303
0.34773653745651245 0.63670283555984497 0.34193894267082214
0.49747928977012634 0.66185802221298218 0.33358877897262573
0.67455458641052246 0.69198781251907349 0.32459163665771484
0.85106539726257324 0.71956092119216919 0.32594558596611023
0.97776377201080322 0.7351067066192627 0.34760007262229919
0.26031756401062012 0.775565505027771 0.34440746903419495
0.31026175618171692 0.77474701404571533 0.33750718832015991
0.41217076778411865 0.77025455236434937 0.3313697874546051
0.55328428745269775 0.78057295083999634 0.33022585511207581
0.70255398750305176 0.79768204689025879 0.32837399840354919
0.84506404399871826 0.80900925397872925 0.32563877105712891
0.96897387504577637 0.82641083002090454 0.34420660138130188
0.45257425308227539 0.90564912557601929 0.38833260536193848
0.48465049266815186 0.90265017747879028 0.38446146249771118
0.55093163251876831 0.90014892816543579 0.37692266702651978
0.64782369136810303 0.90238481760025024 0.37484270334243774
0.7575223445892334 0.91073024272918701 0.37831020355224609
0.86540347337722778 0.92078816890716553 0.38921433687210083
0.95450866222381592 0.93133187294006348 0.40344661474227905
0.20719245076179504 0.31746971607208252 0.39031329751014709
0.23503051698207855 0.31458374857902527 0.38612169027328491
0.29897961020469666 0.30840623378753662 0.38200286030769348
0.42149043083190918 0.29615554213523865 0.38476118445396423
0.57594984769821167 0.26947525143623352 0.38437339663505554
0.73089927434921265 0.2319236546754837 0.37767788767814636
0.91241955757141113 0.17432621121406555 0.36787474155426025
0.20371295511722565 0.33862656354904175 0.39086860418319702
0.24026581645011902 0.33602425456047058 0.39283910393714905
0.32554072141647339 0.32904002070426941 0.387685626745224
0.4639931321144104 0.32314279675483704 0.3874773383140564
0.61670428514480591 0.30703157186508179 0.38651195168495178
0.77569103240966797 0.27493885159492493 0.37774547934532166
0.93731039762496948 0.24834513664245605 0.37019157409667969
0.19754020869731903 0.39827063679695129 0.39300313591957092
0.24802568554878235 0.40461963415145874 0.39500197768211365
0.35908493399620056 0.4067540168762207 0.39562159776687622
0.52756023406982422 0.41901671886444092 0.3987976610660553
0.69399642944335938 0.42591369152069092 0.39068824052810669
0.84224289655685425 0.41190683841705322 0.38329809904098511
0.96810203790664673 0.40404695272445679 0.37149485945701599
0.16332598030567169 0.51507019996643066 0.39381963014602661
0.23237964510917664 0.51500964164733887 0.40118333697319031
0.35095000267028809 0.5097273588180542 0.38851350545883179
0.51695436239242554 0.54557603597640991 0.3809584379196167
0.70535922050476074 0.58164846897125244 0.37698832154273987
0.87570416927337646 0.61306333541870117 0.38728857040405273
0.98538112640380859 0.6115189790725708 0.38997548818588257
0.11496391892433167 0.65824729204177856 0.3790442943572998
0.21627154946327209 0.65575027465820312 0.3789273202419281
0.3482462465763092 0.65395933389663696 0.37313100695610046
0.50429737567901611 0.67188513278961182 0.36622360348701477
0.68763762712478638 0.69996994733810425 0.36494550108909607
0.85780709981918335 0.72186815738677979 0.37399238348007202
0.97752445936203003 0.73512089252471924 0.39463576674461365
0.2328745573759079 0.78827142715454102 0.38212770223617554
0.29769983887672424 0.78148853778839111 0.37614771723747253
0.40897271037101746 0.78109180927276611 0.36369791626930237
0.54597723484039307 0.78470826148986816 0.35766193270683289
0.70316487550735474 0.7994990348815918 0.3674561083316803
0.85117465257644653 0.81386828422546387 0.36148640513420105
0.96111714839935303 0.82785260677337646 0.39154320955276489
0.43961077928543091 0.90740823745727539 0.42704162001609802
0.47289746999740601 0.90529727935791016 0.42279279232025146
0.54191547632217407 0.90380877256393433 0.41462641954421997
0.64025473594665527 0.90313470363616943 0.40564203262329102
0.75264495611190796 0.90968799591064453 0.41236361861228943
0.86134546995162964 0.92010176181793213 0.42876136302947998
0.95305126905441284 0.93202370405197144 0.44200971722602844
0.1914164274930954 0.31286019086837769 0.44482743740081787
0.23130935430526733 0.31148281693458557 0.45494559407234192
0.32056978344917297 0.30814766883850098 0.4671691358089447
0.43918895721435547 0.30176174640655518 0.45406374335289001
0.57985997200012207 0.27925625443458557 0.45138615369796753
0.72685402631759644 0.23189166188240051 0.44696584343910217
0.88494992256164551 0.11691591143608093 0.4278634786605835
0.18978783488273621 0.33524036407470703 0.44891822338104248
0.23322080075740814 0.33373537659645081 0.45914039015769958
0.33991333842277527 0.33373969793319702 0.46744647622108459
0.46116983890533447 0.32659521698951721 0.4586922824382782
0.60284632444381714 0.2999623715877533 0.45180362462997437
0.74825984239578247 0.24819770455360413 0.43888095021247864
0.91203445196151733 0.14085839688777924 0.41594240069389343
0.18348446488380432 0.41054901480674744 0.46391668915748596
0.23639556765556335 0.41319310665130615 0.47454223036766052
0.35743826627731323 0.41356495022773743 0.47869601845741272
0.51018691062927246 0.40177619457244873 0.46978971362113953
0.66187292337417603 0.37776446342468262 0.45327991247177124
0.81278431415557861 0.34505262970924377 0.43737629055976868
0.95587015151977539 0.30955570936203003 0.41919112205505371
0.11936029046773911 0.54013925790786743 0.47920531034469604
0.20903383195400238 0.53932160139083862 0.47790735960006714
0.34520250558853149 0.5353626012802124 0.47141072154045105
0.52441489696502686 0.55669254064559937 0.47681596875190735
0.71442306041717529 0.58433729410171509 0.47817471623420715
0.87093079090118408 0.59085935354232788 0.48230254650115967
0.97833961248397827 0.56522518396377563 0.46099883317947388
0.0076448628678917885 0.68670207262039185 0.46762454509735107
0.13552144169807434 0.68607997894287109 0.46307402849197388
0.32662150263786316 0.67737030982971191 0.4578242301940918
0.4966665506362915 0.68222934007644653 0.44660192728042603
0.68530476093292236 0.70963072776794434 0.45173248648643494
0.86299282312393188 0.72643780708312988 0.46830028295516968
0.97710329294204712 0.73445314168930054 0.51387465000152588
0.16547940671443939 0.80291152000427246 0.4607965350151062
0.25474220514297485 0.79687714576721191 0.45952889323234558
0.38556060194969177 0.79289817810058594 0.44774669408798218
0.52967429161071777 0.78879827260971069 0.43222635984420776
0.69830483198165894 0.80518132448196411 0.4459013044834137
0.84845316410064697 0.81810426712036133 0.45329558849334717
0.96127277612686157 0.82951134443283081 0.48966783285140991
0.40714138746261597 0.91159152984619141 0.51248109340667725
0.44876417517662048 0.91061264276504517 0.50645226240158081
0.52043026685714722 0.9071384072303772 0.49983778595924377
0.62227374315261841 0.90675842761993408 0.47931188344955444
0.74048811197280884 0.91121780872344971 0.48467689752578735
0.85439074039459229 0.9199528694152832 0.49664503335952759
0.94783347845077515 0.9324653148651123 0.52870804071426392
0.15983419120311737 0.31123760342597961 0.56824636459350586
0.22521977126598358 0.30994120240211487 0.58196562528610229
0.36086612939834595 0.30319991707801819 0.61271405220031738
0.52240139245986938 0.29098838567733765 0.62825250625610352
0.6335260272026062 0.27874338626861572 0.5913587212562561
0.7601127028465271 0.25143563747406006 0.5622258186340332
0.90652978420257568 0.15570999681949615 0.55711251497268677
0.14736264944076538 0.33669295907020569 0.58076250553131104
0.21459949016571045 0.33928582072257996 0.59327703714370728
0.3652438223361969 0.33779379725456238 0.62108880281448364
0.53473508358001709 0.33076074719429016 0.63682639598846436
0.6490967869758606 0.31863465905189514 0.59831935167312622
0.77520489692687988 0.28191551566123962 0.57047134637832642
0.9200894832611084 0.18725398182868958 0.55518043041229248
0.13443410396575928 0.40223914384841919 0.57158619165420532
0.20870096981525421 0.40652075409889221 0.58358418941497803
0.35697692632675171 0.41897013783454895 0.61384254693984985
0.54041510820388794 0.4280829131603241 0.6430935263633728
0.6644483208656311 0.40124461054801941 0.59719216823577881
0.79866945743560791 0.34520980715751648 0.56401830911636353
0.93796813488006592 0.24503341317176819 0.52553302049636841
0.092907503247261047 0.54483878612518311 0.6050536036491394
0.2004702240228653 0.55361300706863403 0.61044609546661377
0.35765111446380615 0.56341898441314697 0.62329232692718506
0.53565263748168945 0.58022594451904297 0.63761276006698608
0.70160943269729614 0.55829054117202759 0.61804604530334473
0.8410414457321167 0.49284151196479797 0.57176303863525391
0.97003030776977539 0.43895155191421509 0.52803462743759155
0.028231587260961533 0.71658754348754883 0.63016033172607422
0.16552908718585968 0.7131766676902771 0.62042748928070068
0.34155532717704773 0.7126801609992981 0.61823326349258423
0.5156247615814209 0.70399469137191772 0.60208487510681152
0.6955869197845459 0.71799659729003906 0.61514437198638916
0.86252743005752563 0.73060208559036255 0.63747060298919678
0.96884292364120483 0.723713219165802 0.65314668416976929
0.15527947247028351 0.82060414552688599 0.6172899603843689
0.23723240196704865 0.81643432378768921 0.60702145099639893
0.37742263078689575 0.81152844429016113 0.59865486621856689
0.52980494499206543 0.80368536710739136 0.57809978723526001
0.68342286348342896 0.80610853433609009 0.57567065954208374
0.84517449140548706 0.81878435611724854 0.59807980060577393
0.9541471004486084 0.83115065097808838 0.64277458190917969
0.40346676111221313 0.91925632953643799 0.64939230680465698
0.43576011061668396 0.91656756401062012 0.64137804508209229
0.50930297374725342 0.91250073909759521 0.62925851345062256
0.60373175144195557 0.91149783134460449 0.61580425500869751
0.71889984607696533 0.91007310152053833 0.59846526384353638
0.84145176410675049 0.92175352573394775 0.62007743120193481
0.93510901927947998 0.93348795175552368 0.65338563919067383
0.11264856159687042 0.30888345837593079 0.74210000038146973
0.22258634865283966 0.30782535672187805 0.75348687171936035
0.3845660388469696 0.30076092481613159 0.7738223671913147
0.58246803283691406 0.28339928388595581 0.81662946939468384
0.73853880167007446 0.27153003215789795 0.81455636024475098
0.84219127893447876 0.25867030024528503 0.76755601167678833
0.94404542446136475 0.23291143774986267 0.72817116975784302
0.055361922830343246 0.33728522062301636 0.74991697072982788
0.19721350073814392 0.33971571922302246 0.76028293371200562
0.37513920664787292 0.33910617232322693 0.78056365251541138
0.57852023839950562 0.33379653096199036 0.81722754240036011
0.74198764562606812 0.33209025859832764 0.82020294666290283
0.84811502695083618 0.31328538060188293 0.77405107021331787
0.94719088077545166 0.27588757872581482 0.72920960187911987
0.011533609591424465 0.40548303723335266 0.73834002017974854
0.14236582815647125 0.40655159950256348 0.74847948551177979
0.34578132629394531 0.41907647252082825 0.76759982109069824
0.55966663360595703 0.43894222378730774 0.804282546043396
0.73604559898376465 0.45883458852767944 0.81561464071273804
0.8417084813117981 0.42163676023483276 0.76782023906707764
0.94647318124771118 0.35707882046699524 0.71930807828903198
0.0054882722906768322 0.53299993276596069 0.72958779335021973
0.079444125294685364 0.52644544839859009 0.73092716932296753
0.29891699552536011 0.53501182794570923 0.74391353130340576
0.51507949829101562 0.57829523086547852 0.78222107887268066
0.71961629390716553 0.61817240715026855 0.81250482797622681
0.82937222719192505 0.55972105264663696 0.75360852479934692
0.95176416635513306 0.45517000555992126 0.69780623912811279
0.034839659929275513 0.71114116907119751 0.76746976375579834
0.16185228526592255 0.71080440282821655 0.76818138360977173
0.35874143242835999 0.71219819784164429 0.77319455146789551
0.54632765054702759 0.72167360782623291 0.79067838191986084
0.72069233655929565 0.73876774311065674 0.80490016937255859
0.84195548295974731 0.70876187086105347 0.78018927574157715
0.95726382732391357 0.6408686637878418 0.71564686298370361
0.36192849278450012 0.83006232976913452 0.79770082235336304
0.395682692527771 0.82730627059936523 0.78960388898849487
0.48457205295562744 0.82720881700515747 0.78510481119155884
0.59502494335174561 0.82563680410385132 0.78954976797103882
0.70115965604782104 0.81859159469604492 0.76285022497177124
0.83779698610305786 0.82747793197631836 0.77923381328582764
0.93795746564865112 0.84097558259963989 0.81317955255508423
0.48407036066055298 0.91968303918838501 0.80570513010025024
0.51012378931045532 0.92093908786773682 0.80181920528411865
0.55448240041732788 0.92038947343826294 0.79405379295349121
0.63063985109329224 0.92044395208358765 0.78907567262649536
0.7184070348739624 0.91794240474700928 0.76654767990112305
0.82559484243392944 0.92378640174865723 0.76709038019180298
0.92144495248794556 0.93748390674591064 0.79854071140289307
0.18503192067146301 0.31138893961906433 0.89910602569580078
0.28357803821563721 0.31222742795944214 0.90053433179855347
0.42472276091575623 0.30392006039619446 0.90946763753890991
0.59672564268112183 0.30406931042671204 0.92135834693908691
0.76892286539077759 0.31134498119354248 0.93830353021621704
0.8992428183555603 0.31908637285232544 0.93617051839828491
0.98355674743652344 0.30883967876434326 0.90862101316452026
0.1582329273223877 0.34550729393959045 0.90191280841827393
0.26222097873687744 0.34597977995872498 0.90170782804489136
0.42321881651878357 0.3481903076171875 0.90862709283828735
0.59512627124786377 0.35122647881507874 0.92378312349319458
0.76410520076751709 0.37312069535255432 0.94028216600418091
0.89417487382888794 0.39740237593650818 0.93494558334350586
0.97864115238189697 0.37682706117630005 0.90755146741867065
0.03661886602640152 0.41301587224006653 0.89634233713150024
0.19433507323265076 0.41862890124320984 0.8964417576789856
0.38506096601486206 0.43055382370948792 0.90398621559143066
0.57414251565933228 0.44721382856369019 0.91950893402099609
0.74739617109298706 0.50422435998916626 0.93248587846755981
0.87832319736480713 0.52945220470428467 0.92656451463699341
0.96366578340530396 0.49223986268043518 0.90331673622131348
0.0034596011973917484 0.52686613798141479 0.86740660667419434
0.018966645002365112 0.52348309755325317 0.87468355894088745
0.29197105765342712 0.54099613428115845 0.88143336772918701
0.53398722410202026 0.57936137914657593 0.89715313911437988
0.73306047916412354 0.63981872797012329 0.91989701986312866
0.86498880386352539 0.66593784093856812 0.9209674596786499
0.94525933265686035 0.61708289384841919 0.89089572429656982
0.0040968353860080242 0.68654227256774902 0.87212109565734863
0.0085158701986074448 0.68574416637420654 0.87188702821731567
0.23616503179073334 0.67920827865600586 0.87359392642974854
0.47467342019081116 0.68651360273361206 0.87784492969512939
0.70427042245864868 0.73436135053634644 0.90295904874801636
0.85506135225296021 0.76107889413833618 0.91544514894485474
0.92746764421463013 0.71553689241409302 0.88295000791549683
0.3331635594367981 0.82163321971893311 0.89332908391952515
0.38672757148742676 0.81918066740036011 0.89339995384216309
0.48765397071838379 0.81846195459365845 0.8965153694152832
0.61088699102401733 0.81870186328887939 0.90170061588287354
0.74074757099151611 0.82932263612747192 0.90713822841644287
0.84913742542266846 0.84621810913085938 0.91152793169021606
0.93034583330154419 0.82248246669769287 0.89833706617355347
0.61562538146972656 0.92497408390045166 0.91266340017318726
0.63080954551696777 0.92381340265274048 0.91357558965682983
0.66368687152862549 0.923065185546875 0.9109731912612915
0.71496617794036865 0.92624682188034058 0.91106951236724854
0.76810693740844727 0.92746496200561523 0.90611749887466431
0.83138746023178101 0.92634707689285278 0.89217275381088257
0.91317117214202881 0.94245916604995728 0.90606129169464111
0.38566374778747559 0.34999570250511169 0.98816359043121338
0.43846100568771362 0.3532218337059021 0.98763692378997803
0.5288664698600769 0.35279959440231323 0.98853963613510132
0.64998084306716919 0.36019143462181091 0.99134624004364014
0.7788625955581665 0.39801785349845886 0.99179726839065552
0.89311599731445312 0.47241628170013428 0.99212980270385742
0.97714734077453613 0.51765596866607666 0.98555183410644531
0.37880900502204895 0.39705875515937805 0.98516499996185303
0.42987510561943054 0.3933318555355072 0.98792922496795654
0.52714908123016357 0.40266174077987671 0.98754996061325073
0.65028715133666992 0.41197443008422852 0.99155044555664062
0.77949035167694092 0.45551016926765442 0.99201619625091553
0.88772678375244141 0.53587710857391357 0.9901118278503418
0.97144055366516113 0.56582492589950562 0.98477715253829956
0.35583940148353577 0.47838887572288513 0.98340332508087158
0.40761065483093262 0.4855714738368988 0.98225396871566772
0.51231592893600464 0.49043285846710205 0.98395419120788574
0.6415104866027832 0.51340311765670776 0.98722130060195923
0.76950514316558838 0.56629747152328491 0.98423975706100464
0.87838912010192871 0.62428361177444458 0.98209959268569946
0.96195089817047119 0.641154944896698 0.9796258807182312
0.25678902864456177 0.58731484413146973 0.97712147235870361
0.3281380832195282 0.59348022937774658 0.97527575492858887
0.4661918580532074 0.60094738006591797 0.97656154632568359
0.61823952198028564 0.6292230486869812 0.977985680103302
0.75501704216003418 0.66809171438217163 0.97615575790405273
0.87528902292251587 0.71326005458831787 0.97845011949539185
0.95229178667068481 0.72317904233932495 0.97312796115875244
0.11261878162622452 0.70260888338088989 0.9657285213470459
0.17981605231761932 0.69974911212921143 0.96532535552978516
0.36901035904884338 0.69943451881408691 0.96498626470565796
0.56466686725616455 0.71530890464782715 0.96611219644546509
0.74133288860321045 0.74748539924621582 0.96832913160324097
0.86533176898956299 0.78471773862838745 0.97161972522735596
0.9408378005027771 0.79483604431152344 0.97107291221618652
0.41736704111099243 0.82255101203918457 0.96265482902526855
0.44650739431381226 0.82022303342819214 0.96226799488067627
0.51245123147964478 0.81767517328262329 0.96181148290634155
0.60922741889953613 0.81354635953903198 0.96156573295593262
0.7183760404586792 0.81455516815185547 0.95705080032348633
0.85442030429840088 0.84812796115875244 0.96689647436141968
0.93047243356704712 0.87151676416397095 0.96435678005218506
0.64218473434448242 0.92752194404602051 0.96148836612701416
0.65598154067993164 0.92701464891433716 0.96146047115325928
0.6966286301612854 0.92765426635742188 0.96298384666442871
0.74636596441268921 0.92900353670120239 0.96248477697372437
0.80301886796951294 0.92694032192230225 0.95584112405776978
0.86119836568832397 0.935047447681427 0.96127986907958984
0.9180033802986145 0.9515947699546814 0.9611818790435791
