luts/instant_pro/polaroid_665_+.cube
# Created by: G'MIC (https://gmic.eu)
TITLE "polaroid_665_+"
# LUT size
LUT_3D_SIZE 13
# Data domain
DOMAIN_MIN 0.0 0.0 0.0
DOMAIN_MAX 1.0 1.0 1.0
# LUT data points
0.071587793529033661 0.071587793529033661 0.071587793529033661
0.072230301797389984 0.072230301797389984 0.072230301797389984
0.0783873051404953 0.0783873051404953 0.0783873051404953
0.090923741459846497 0.090923741459846497 0.090923741459846497
0.11036005616188049 0.11036005616188049 0.11036005616188049
0.13656526803970337 0.13656526803970337 0.13656526803970337
0.1684478223323822 0.1684478223323822 0.1684478223323822
0.20461545884609222 0.20461545884609222 0.20461545884609222
0.24397003650665283 0.24397003650665283 0.24397003650665283
0.28711465001106262 0.28711465001106262 0.28711465001106262
0.33675515651702881 0.33675515651702881 0.33675515651702881
0.39607489109039307 0.39607489109039307 0.39607489109039307
0.46479940414428711 0.46479940414428711 0.46479940414428711
0.088396094739437103 0.088396094739437103 0.088396094739437103
0.089763998985290527 0.089763998985290527 0.089763998985290527
0.096582211554050446 0.096582211554050446 0.096582211554050446
0.1088518351316452 0.1088518351316452 0.1088518351316452
0.12798495590686798 0.12798495590686798 0.12798495590686798
0.15363183617591858 0.15363183617591858 0.15363183617591858
0.18515227735042572 0.18515227735042572 0.18515227735042572
0.22050899267196655 0.22050899267196655 0.22050899267196655
0.25815257430076599 0.25815257430076599 0.25815257430076599
0.29843947291374207 0.29843947291374207 0.29843947291374207
0.34508988261222839 0.34508988261222839 0.34508988261222839
0.40273323655128479 0.40273323655128479 0.40273323655128479
0.47218623757362366 0.47218623757362366 0.47218623757362366
0.11235261708498001 0.11235261708498001 0.11235261708498001
0.11453595757484436 0.11453595757484436 0.11453595757484436
0.12147557735443115 0.12147557735443115 0.12147557735443115
0.13382130861282349 0.13382130861282349 0.13382130861282349
0.15219643712043762 0.15219643712043762 0.15219643712043762
0.17682485282421112 0.17682485282421112 0.17682485282421112
0.20784054696559906 0.20784054696559906 0.20784054696559906
0.24297249317169189 0.24297249317169189 0.24297249317169189
0.27959686517715454 0.27959686517715454 0.27959686517715454
0.31748926639556885 0.31748926639556885 0.31748926639556885
0.3613591194152832 0.3613591194152832 0.3613591194152832
0.41771674156188965 0.41771674156188965 0.41771674156188965
0.48901224136352539 0.48901224136352539 0.48901224136352539
0.14454343914985657 0.14454343914985657 0.14454343914985657
0.14695568382740021 0.14695568382740021 0.14695568382740021
0.15407934784889221 0.15407934784889221 0.15407934784889221
0.16514922678470612 0.16514922678470612 0.16514922678470612
0.18125610053539276 0.18125610053539276 0.18125610053539276
0.20385465025901794 0.20385465025901794 0.20385465025901794
0.23395909368991852 0.23395909368991852 0.23395909368991852
0.27004048228263855 0.27004048228263855 0.27004048228263855
0.30707591772079468 0.30707591772079468 0.30707591772079468
0.34483739733695984 0.34483739733695984 0.34483739733695984
0.38913634419441223 0.38913634419441223 0.38913634419441223
0.44725528359413147 0.44725528359413147 0.44725528359413147
0.52017670869827271 0.52017670869827271 0.52017670869827271
0.184584841132164 0.184584841132164 0.184584841132164
0.18736521899700165 0.18736521899700165 0.18736521899700165
0.19377307593822479 0.19377307593822479 0.19377307593822479
0.20300827920436859 0.20300827920436859 0.20300827920436859
0.21552136540412903 0.21552136540412903 0.21552136540412903
0.23371490836143494 0.23371490836143494 0.23371490836143494
0.26062184572219849 0.26062184572219849 0.26062184572219849
0.29612427949905396 0.29612427949905396 0.29612427949905396
0.33466252684593201 0.33466252684593201 0.33466252684593201
0.37508100271224976 0.37508100271224976 0.37508100271224976
0.42528596520423889 0.42528596520423889 0.42528596520423889
0.48874083161354065 0.48874083161354065 0.48874083161354065
0.5634651780128479 0.5634651780128479 0.5634651780128479
0.23338282108306885 0.23338282108306885 0.23338282108306885
0.23589618504047394 0.23589618504047394 0.23589618504047394
0.24148492515087128 0.24148492515087128 0.24148492515087128
0.24829261004924774 0.24829261004924774 0.24829261004924774
0.25625878572463989 0.25625878572463989 0.25625878572463989
0.26802903413772583 0.26802903413772583 0.26802903413772583
0.28793096542358398 0.28793096542358398 0.28793096542358398
0.31798356771469116 0.31798356771469116 0.31798356771469116
0.35615241527557373 0.35615241527557373 0.35615241527557373
0.40193003416061401 0.40193003416061401 0.40193003416061401
0.46009215712547302 0.46009215712547302 0.46009215712547302
0.53200662136077881 0.53200662136077881 0.53200662136077881
0.61146515607833862 0.61146515607833862 0.61146515607833862
0.29135939478874207 0.29135939478874207 0.29135939478874207
0.29342412948608398 0.29342412948608398 0.29342412948608398
0.29811254143714905 0.29811254143714905 0.29811254143714905
0.3027946949005127 0.3027946949005127 0.3027946949005127
0.30711543560028076 0.30711543560028076 0.30711543560028076
0.31293615698814392 0.31293615698814392 0.31293615698814392
0.32471919059753418 0.32471919059753418 0.32471919059753418
0.34596988558769226 0.34596988558769226 0.34596988558769226
0.3789973258972168 0.3789973258972168 0.3789973258972168
0.42534610629081726 0.42534610629081726 0.42534610629081726
0.48887467384338379 0.48887467384338379 0.48887467384338379
0.56891465187072754 0.56891465187072754 0.56891465187072754
0.65577638149261475 0.65577638149261475 0.65577638149261475
0.35987028479576111 0.35987028479576111 0.35987028479576111
0.36127182841300964 0.36127182841300964 0.36127182841300964
0.36528575420379639 0.36528575420379639 0.36528575420379639
0.3691483736038208 0.3691483736038208 0.3691483736038208
0.37173357605934143 0.37173357605934143 0.37173357605934143
0.37407663464546204 0.37407663464546204 0.37407663464546204
0.37950500845909119 0.37950500845909119 0.37950500845909119
0.39184284210205078 0.39184284210205078 0.39184284210205078
0.41394209861755371 0.41394209861755371 0.41394209861755371
0.45197939872741699 0.45197939872741699 0.45197939872741699
0.51406866312026978 0.51406866312026978 0.51406866312026978
0.59635061025619507 0.59635061025619507 0.59635061025619507
0.68549978733062744 0.68549978733062744 0.68549978733062744
0.44112968444824219 0.44112968444824219 0.44112968444824219
0.44189393520355225 0.44189393520355225 0.44189393520355225
0.44523322582244873 0.44523322582244873 0.44523322582244873
0.44909310340881348 0.44909310340881348 0.44909310340881348
0.45204341411590576 0.45204341411590576 0.45204341411590576
0.45385345816612244 0.45385345816612244 0.45385345816612244
0.45631417632102966 0.45631417632102966 0.45631417632102966
0.46127989888191223 0.46127989888191223 0.46127989888191223
0.47166356444358826 0.47166356444358826 0.47166356444358826
0.49588510394096375 0.49588510394096375 0.49588510394096375
0.54809218645095825 0.54809218645095825 0.54809218645095825
0.62132865190505981 0.62132865190505981 0.62132865190505981
0.70229178667068481 0.70229178667068481 0.70229178667068481
0.53813958168029785 0.53813958168029785 0.53813958168029785
0.53717976808547974 0.53717976808547974 0.53717976808547974
0.53925430774688721 0.53925430774688721 0.53925430774688721
0.54310303926467896 0.54310303926467896 0.54310303926467896
0.54710108041763306 0.54710108041763306 0.54710108041763306
0.55051136016845703 0.55051136016845703 0.55051136016845703
0.55326628684997559 0.55326628684997559 0.55326628684997559
0.55573493242263794 0.55573493242263794 0.55573493242263794
0.56003755331039429 0.56003755331039429 0.56003755331039429
0.5737575888633728 0.5737575888633728 0.5737575888633728
0.60722470283508301 0.60722470283508301 0.60722470283508301
0.65989357233047485 0.65989357233047485 0.65989357233047485
0.72551184892654419 0.72551184892654419 0.72551184892654419
0.64633911848068237 0.64633911848068237 0.64633911848068237
0.64431524276733398 0.64431524276733398 0.64431524276733398
0.64491230249404907 0.64491230249404907 0.64491230249404907
0.64826285839080811 0.64826285839080811 0.64826285839080811
0.65333116054534912 0.65333116054534912 0.65333116054534912
0.65907955169677734 0.65907955169677734 0.65907955169677734
0.66509455442428589 0.66509455442428589 0.66509455442428589
0.6695791482925415 0.6695791482925415 0.6695791482925415
0.67228591442108154 0.67228591442108154 0.67228591442108154
0.67761754989624023 0.67761754989624023 0.67761754989624023
0.69299167394638062 0.69299167394638062 0.69299167394638062
0.72199070453643799 0.72199070453643799 0.72199070453643799
0.76873981952667236 0.76873981952667236 0.76873981952667236
0.75905483961105347 0.75905483961105347 0.75905483961105347
0.75692135095596313 0.75692135095596313 0.75692135095596313
0.75630605220794678 0.75630605220794678 0.75630605220794678
0.75888389348983765 0.75888389348983765 0.75888389348983765
0.76439964771270752 0.76439964771270752 0.76439964771270752
0.77250409126281738 0.77250409126281738 0.77250409126281738
0.78214216232299805 0.78214216232299805 0.78214216232299805
0.79099279642105103 0.79099279642105103 0.79099279642105103
0.79388600587844849 0.79388600587844849 0.79388600587844849
0.79301339387893677 0.79301339387893677 0.79301339387893677
0.79712659120559692 0.79712659120559692 0.79712659120559692
0.80949050188064575 0.80949050188064575 0.80949050188064575
0.83649629354476929 0.83649629354476929 0.83649629354476929
0.86941611766815186 0.86941611766815186 0.86941611766815186
0.86739552021026611 0.86739552021026611 0.86739552021026611
0.86609178781509399 0.86609178781509399 0.86609178781509399
0.86805123090744019 0.86805123090744019 0.86805123090744019
0.8735925555229187 0.8735925555229187 0.8735925555229187
0.8823046088218689 0.8823046088218689 0.8823046088218689
0.89362609386444092 0.89362609386444092 0.89362609386444092
0.90411311388015747 0.90411311388015747 0.90411311388015747
0.90699547529220581 0.90699547529220581 0.90699547529220581
0.90382862091064453 0.90382862091064453 0.90382862091064453
0.90253013372421265 0.90253013372421265 0.90253013372421265
0.90538817644119263 0.90538817644119263 0.90538817644119263
0.91695290803909302 0.91695290803909302 0.91695290803909302
0.087103419005870819 0.087103419005870819 0.087103419005870819
0.087254948914051056 0.087254948914051056 0.087254948914051056
0.092645101249217987 0.092645101249217987 0.092645101249217987
0.1043526902794838 0.1043526902794838 0.1043526902794838
0.12342144548892975 0.12342144548892975 0.12342144548892975
0.1501307487487793 0.1501307487487793 0.1501307487487793
0.18276412785053253 0.18276412785053253 0.18276412785053253
0.21979580819606781 0.21979580819606781 0.21979580819606781
0.25904637575149536 0.25904637575149536 0.25904637575149536
0.30077430605888367 0.30077430605888367 0.30077430605888367
0.34804525971412659 0.34804525971412659 0.34804525971412659
0.40476679801940918 0.40476679801940918 0.40476679801940918
0.47185239195823669 0.47185239195823669 0.47185239195823669
0.10324098169803619 0.10324098169803619 0.10324098169803619
0.10445966571569443 0.10445966571569443 0.10445966571569443
0.11059160530567169 0.11059160530567169 0.11059160530567169
0.12255240231752396 0.12255240231752396 0.12255240231752396
0.14121189713478088 0.14121189713478088 0.14121189713478088
0.16693513095378876 0.16693513095378876 0.16693513095378876
0.19874908030033112 0.19874908030033112 0.19874908030033112
0.23408763110637665 0.23408763110637665 0.23408763110637665
0.27249124646186829 0.27249124646186829 0.27249124646186829
0.3120725154876709 0.3120725154876709 0.3120725154876709
0.35709622502326965 0.35709622502326965 0.35709622502326965
0.41233041882514954 0.41233041882514954 0.41233041882514954
0.47979050874710083 0.47979050874710083 0.47979050874710083
0.12707848846912384 0.12707848846912384 0.12707848846912384
0.12931919097900391 0.12931919097900391 0.12931919097900391
0.13648129999637604 0.13648129999637604 0.13648129999637604
0.14832957088947296 0.14832957088947296 0.14832957088947296
0.1655813604593277 0.1655813604593277 0.1655813604593277
0.18958500027656555 0.18958500027656555 0.18958500027656555
0.21998149156570435 0.21998149156570435 0.21998149156570435
0.25512674450874329 0.25512674450874329 0.25512674450874329
0.29271510243415833 0.29271510243415833 0.29271510243415833
0.33153951168060303 0.33153951168060303 0.33153951168060303
0.37555050849914551 0.37555050849914551 0.37555050849914551
0.43028521537780762 0.43028521537780762 0.43028521537780762
0.49866828322410583 0.49866828322410583 0.49866828322410583
0.1586364209651947 0.1586364209651947 0.1586364209651947
0.16242937743663788 0.16242937743663788 0.16242937743663788
0.16988980770111084 0.16988980770111084 0.16988980770111084
0.18087586760520935 0.18087586760520935 0.18087586760520935
0.19545818865299225 0.19545818865299225 0.19545818865299225
0.21608331799507141 0.21608331799507141 0.21608331799507141
0.24426873028278351 0.24426873028278351 0.24426873028278351
0.27955105900764465 0.27955105900764465 0.27955105900764465
0.31825211644172668 0.31825211644172668 0.31825211644172668
0.35889145731925964 0.35889145731925964 0.35889145731925964
0.40461361408233643 0.40461361408233643 0.40461361408233643
0.46131837368011475 0.46131837368011475 0.46131837368011475
0.53062671422958374 0.53062671422958374 0.53062671422958374
0.19880107045173645 0.19880107045173645 0.19880107045173645
0.20355957746505737 0.20355957746505737 0.20355957746505737
0.21140269935131073 0.21140269935131073 0.21140269935131073
0.2201254665851593 0.2201254665851593 0.2201254665851593
0.23033592104911804 0.23033592104911804 0.23033592104911804
0.2452530562877655 0.2452530562877655 0.2452530562877655
0.26901653409004211 0.26901653409004211 0.26901653409004211
0.30334538221359253 0.30334538221359253 0.30334538221359253
0.34458115696907043 0.34458115696907043 0.34458115696907043
0.38955444097518921 0.38955444097518921 0.38955444097518921
0.4403788149356842 0.4403788149356842 0.4403788149356842
0.50205385684967041 0.50205385684967041 0.50205385684967041
0.57308846712112427 0.57308846712112427 0.57308846712112427
0.24825240671634674 0.24825240671634674 0.24825240671634674
0.25352221727371216 0.25352221727371216 0.25352221727371216
0.26059013605117798 0.26059013605117798 0.26059013605117798
0.2666720449924469 0.2666720449924469 0.2666720449924469
0.27179595828056335 0.27179595828056335 0.27179595828056335
0.27928653359413147 0.27928653359413147 0.27928653359413147
0.29477196931838989 0.29477196931838989 0.29477196931838989
0.32504361867904663 0.32504361867904663 0.32504361867904663
0.36781728267669678 0.36781728267669678 0.36781728267669678
0.41792160272598267 0.41792160272598267 0.41792160272598267
0.4755513072013855 0.4755513072013855 0.4755513072013855
0.54364997148513794 0.54364997148513794 0.54364997148513794
0.61854356527328491 0.61854356527328491 0.61854356527328491
0.30737149715423584 0.30737149715423584 0.30737149715423584
0.31172436475753784 0.31172436475753784 0.31172436475753784
0.31765297055244446 0.31765297055244446 0.31765297055244446
0.32155221700668335 0.32155221700668335 0.32155221700668335
0.32325994968414307 0.32325994968414307 0.32325994968414307
0.32436218857765198 0.32436218857765198 0.32436218857765198
0.33160048723220825 0.33160048723220825 0.33160048723220825
0.35448130965232849 0.35448130965232849 0.35448130965232849
0.39343902468681335 0.39343902468681335 0.39343902468681335
0.44297784566879272 0.44297784566879272 0.44297784566879272
0.5048937201499939 0.5048937201499939 0.5048937201499939
0.57909679412841797 0.57909679412841797 0.57909679412841797
0.65905344486236572 0.65905344486236572 0.65905344486236572
0.37695372104644775 0.37695372104644775 0.37695372104644775
0.3793061375617981 0.3793061375617981 0.3793061375617981
0.38358184695243835 0.38358184695243835 0.38358184695243835
0.38689479231834412 0.38689479231834412 0.38689479231834412
0.38758033514022827 0.38758033514022827 0.38758033514022827
0.3873240053653717 0.3873240053653717 0.3873240053653717
0.39012521505355835 0.39012521505355835 0.39012521505355835
0.4037320613861084 0.4037320613861084 0.4037320613861084
0.43095451593399048 0.43095451593399048 0.43095451593399048
0.47218441963195801 0.47218441963195801 0.47218441963195801
0.53121459484100342 0.53121459484100342 0.53121459484100342
0.6063162088394165 0.6063162088394165 0.6063162088394165
0.68784719705581665 0.68784719705581665 0.68784719705581665
0.45867428183555603 0.45867428183555603 0.45867428183555603
0.45803430676460266 0.45803430676460266 0.45803430676460266
0.46070992946624756 0.46070992946624756 0.46070992946624756
0.46453157067298889 0.46453157067298889 0.46453157067298889
0.46671497821807861 0.46671497821807861 0.46671497821807861
0.46735131740570068 0.46735131740570068 0.46735131740570068
0.46905505657196045 0.46905505657196045 0.46905505657196045
0.47569277882575989 0.47569277882575989 0.47569277882575989
0.4901924729347229 0.4901924729347229 0.4901924729347229
0.518055260181427 0.518055260181427 0.518055260181427
0.56593102216720581 0.56593102216720581 0.56593102216720581
0.63220769166946411 0.63220769166946411 0.63220769166946411
0.70760905742645264 0.70760905742645264 0.70760905742645264
0.55330604314804077 0.55330604314804077 0.55330604314804077
0.55045479536056519 0.55045479536056519 0.55045479536056519
0.55146950483322144 0.55146950483322144 0.55146950483322144
0.55577230453491211 0.55577230453491211 0.55577230453491211
0.5600096583366394 0.5600096583366394 0.5600096583366394
0.56309396028518677 0.56309396028518677 0.56309396028518677
0.5655750036239624 0.5655750036239624 0.5655750036239624
0.56910568475723267 0.56910568475723267 0.56910568475723267
0.57598638534545898 0.57598638534545898 0.57598638534545898
0.5919564962387085 0.5919564962387085 0.5919564962387085
0.62278050184249878 0.62278050184249878 0.62278050184249878
0.67074680328369141 0.67074680328369141 0.67074680328369141
0.73288959264755249 0.73288959264755249 0.73288959264755249
0.65870720148086548 0.65870720148086548 0.65870720148086548
0.65522325038909912 0.65522325038909912 0.65522325038909912
0.65525573492050171 0.65525573492050171 0.65525573492050171
0.65886455774307251 0.65886455774307251 0.65886455774307251
0.66412109136581421 0.66412109136581421 0.66412109136581421
0.66952037811279297 0.66952037811279297 0.66952037811279297
0.6749112606048584 0.6749112606048584 0.6749112606048584
0.67959153652191162 0.67959153652191162 0.67959153652191162
0.68391966819763184 0.68391966819763184 0.68391966819763184
0.69132488965988159 0.69132488965988159 0.69132488965988159
0.70681893825531006 0.70681893825531006 0.70681893825531006
0.73426204919815063 0.73426204919815063 0.73426204919815063
0.77744954824447632 0.77744954824447632 0.77744954824447632
0.7683560848236084 0.7683560848236084 0.7683560848236084
0.76588112115859985 0.76588112115859985 0.76588112115859985
0.76506763696670532 0.76506763696670532 0.76506763696670532
0.7676537036895752 0.7676537036895752 0.7676537036895752
0.77290964126586914 0.77290964126586914 0.77290964126586914
0.7800944447517395 0.7800944447517395 0.7800944447517395
0.78865325450897217 0.78865325450897217 0.78865325450897217
0.79655033349990845 0.79655033349990845 0.79655033349990845
0.80124014616012573 0.80124014616012573 0.80124014616012573
0.80431663990020752 0.80431663990020752 0.80431663990020752
0.81165289878845215 0.81165289878845215 0.81165289878845215
0.82433760166168213 0.82433760166168213 0.82433760166168213
0.84669291973114014 0.84669291973114014 0.84669291973114014
0.87513571977615356 0.87513571977615356 0.87513571977615356
0.87416350841522217 0.87416350841522217 0.87416350841522217
0.87355953454971313 0.87355953454971313 0.87355953454971313
0.87500452995300293 0.87500452995300293 0.87500452995300293
0.87975144386291504 0.87975144386291504 0.87975144386291504
0.88757228851318359 0.88757228851318359 0.88757228851318359
0.89758789539337158 0.89758789539337158 0.89758789539337158
0.90694880485534668 0.90694880485534668 0.90694880485534668
0.91219323873519897 0.91219323873519897 0.91219323873519897
0.91379886865615845 0.91379886865615845 0.91379886865615845
0.91644984483718872 0.91644984483718872 0.91644984483718872
0.92031741142272949 0.92031741142272949 0.92031741142272949
0.9279170036315918 0.9279170036315918 0.9279170036315918
0.11077367514371872 0.11077367514371872 0.11077367514371872
0.1106293797492981 0.1106293797492981 0.1106293797492981
0.11523386836051941 0.11523386836051941 0.11523386836051941
0.12593077123165131 0.12593077123165131 0.12593077123165131
0.14458182454109192 0.14458182454109192 0.14458182454109192
0.1717962771654129 0.1717962771654129 0.1717962771654129
0.20563617348670959 0.20563617348670959 0.20563617348670959
0.24390149116516113 0.24390149116516113 0.24390149116516113
0.28354233503341675 0.28354233503341675 0.28354233503341675
0.32398077845573425 0.32398077845573425 0.32398077845573425
0.36777141690254211 0.36777141690254211 0.36777141690254211
0.42082571983337402 0.42082571983337402 0.42082571983337402
0.48616421222686768 0.48616421222686768 0.48616421222686768
0.12623563408851624 0.12623563408851624 0.12623563408851624
0.1274418979883194 0.1274418979883194 0.1274418979883194
0.13353531062602997 0.13353531062602997 0.13353531062602997
0.14480319619178772 0.14480319619178772 0.14480319619178772
0.16288375854492188 0.16288375854492188 0.16288375854492188
0.1882927417755127 0.1882927417755127 0.1882927417755127
0.22059345245361328 0.22059345245361328 0.22059345245361328
0.25719276070594788 0.25719276070594788 0.25719276070594788
0.29598471522331238 0.29598471522331238 0.29598471522331238
0.33536824584007263 0.33536824584007263 0.33536824584007263
0.37789604067802429 0.37789604067802429 0.37789604067802429
0.4293217658996582 0.4293217658996582 0.4293217658996582
0.49433857202529907 0.49433857202529907 0.49433857202529907
0.14895971119403839 0.14895971119403839 0.14895971119403839
0.15239344537258148 0.15239344537258148 0.15239344537258148
0.15994872152805328 0.15994872152805328 0.15994872152805328
0.17167679965496063 0.17167679965496063 0.17167679965496063
0.18814109265804291 0.18814109265804291 0.18814109265804291
0.2110106348991394 0.2110106348991394 0.2110106348991394
0.24088740348815918 0.24088740348815918 0.24088740348815918
0.27636635303497314 0.27636635303497314 0.27636635303497314
0.31479203701019287 0.31479203701019287 0.31479203701019287
0.35492712259292603 0.35492712259292603 0.35492712259292603
0.39818230271339417 0.39818230271339417 0.39818230271339417
0.4497171938419342 0.4497171938419342 0.4497171938419342
0.51445508003234863 0.51445508003234863 0.51445508003234863
0.17972405254840851 0.17972405254840851 0.17972405254840851
0.18543355166912079 0.18543355166912079 0.18543355166912079
0.19459937512874603 0.19459937512874603 0.19459937512874603
0.20552259683609009 0.20552259683609009 0.20552259683609009
0.21914923191070557 0.21914923191070557 0.21914923191070557
0.23794130980968475 0.23794130980968475 0.23794130980968475
0.26447239518165588 0.26447239518165588 0.26447239518165588
0.29903134703636169 0.29903134703636169 0.29903134703636169
0.33925911784172058 0.33925911784172058 0.33925911784172058
0.38233837485313416 0.38233837485313416 0.38233837485313416
0.42850744724273682 0.42850744724273682 0.42850744724273682
0.48213869333267212 0.48213869333267212 0.48213869333267212
0.54701453447341919 0.54701453447341919 0.54701453447341919
0.21924234926700592 0.21924234926700592 0.21924234926700592
0.22744362056255341 0.22744362056255341 0.22744362056255341
0.23767223954200745 0.23767223954200745 0.23767223954200745
0.24675136804580688 0.24675136804580688 0.24675136804580688
0.25570601224899292 0.25570601224899292 0.25570601224899292
0.26821038126945496 0.26821038126945496 0.26821038126945496
0.28954702615737915 0.28954702615737915 0.28954702615737915
0.32290792465209961 0.32290792465209961 0.32290792465209961
0.366484135389328 0.366484135389328 0.366484135389328
