luts/instant_pro/polaroid_669_++.cube
# Created by: G'MIC (https://gmic.eu)
TITLE "polaroid_669_++"
# LUT size
LUT_3D_SIZE 7
# Data domain
DOMAIN_MIN 0.0 0.0 0.0
DOMAIN_MAX 1.0 1.0 1.0
# LUT data points
0.2573581337928772 0.21389339864253998 0.12119811028242111
0.28986468911170959 0.21708393096923828 0.12883560359477997
0.34907183051109314 0.21937108039855957 0.14094564318656921
0.44746282696723938 0.22531232237815857 0.16125090420246124
0.57570403814315796 0.23256289958953857 0.18651688098907471
0.71689140796661377 0.23778845369815826 0.21999125182628632
0.86976653337478638 0.25412678718566895 0.26305392384529114
0.27427920699119568 0.25019139051437378 0.14469408988952637
0.30608314275741577 0.2529575526714325 0.14936062693595886
0.3713391125202179 0.2566780149936676 0.16032955050468445
0.4755949079990387 0.2648283839225769 0.18522527813911438
0.60239529609680176 0.27136337757110596 0.21142086386680603
0.73724228143692017 0.28015682101249695 0.23915356397628784
0.88424307107925415 0.29695206880569458 0.28078266978263855
0.30670800805091858 0.32195943593978882 0.19053997099399567
0.33123776316642761 0.31950303912162781 0.18761526048183441
0.39643853902816772 0.32352641224861145 0.19119246304035187
0.50732839107513428 0.33751872181892395 0.21412114799022675
0.63915640115737915 0.35456937551498413 0.25336045026779175
0.76826375722885132 0.3695378303527832 0.28217858076095581
0.90065985918045044 0.39112743735313416 0.32279914617538452
0.33679288625717163 0.40396004915237427 0.22904029488563538
0.35998013615608215 0.4033905565738678 0.22978843748569489
0.41135218739509583 0.40383395552635193 0.23020972311496735
0.50155293941497803 0.41620954871177673 0.22997614741325378
0.62090516090393066 0.43395885825157166 0.24977080523967743
0.77874952554702759 0.48454871773719788 0.31852632761001587
0.91120719909667969 0.53898763656616211 0.39854499697685242
0.35626232624053955 0.51854699850082397 0.2743251621723175
0.37655803561210632 0.50654429197311401 0.2706560492515564
0.41531741619110107 0.49729877710342407 0.26860415935516357
0.49830088019371033 0.51683014631271362 0.26864904165267944
0.61065542697906494 0.5421755313873291 0.27014666795730591
0.74571859836578369 0.57127964496612549 0.28856062889099121
0.89458876848220825 0.64698159694671631 0.40049517154693604
0.37455651164054871 0.66845047473907471 0.32535189390182495
0.392618328332901 0.66217523813247681 0.32069355249404907
0.43577724695205688 0.65369528532028198 0.31967031955718994
0.50742131471633911 0.65825009346008301 0.31489136815071106
0.61767667531967163 0.68983787298202515 0.32085332274436951
0.74933540821075439 0.71912503242492676 0.33063769340515137
0.87711530923843384 0.74870979785919189 0.35711517930030823
0.46760031580924988 0.87757253646850586 0.46643504500389099
0.48209157586097717 0.87474173307418823 0.46136474609375
0.52316510677337646 0.87180858850479126 0.46025341749191284
0.58912950754165649 0.87142139673233032 0.46061629056930542
0.69354289770126343 0.88890749216079712 0.48166570067405701
0.80621141195297241 0.90782326459884644 0.51211291551589966
0.91715466976165771 0.92648255825042725 0.55573320388793945
0.25599217414855957 0.22046969830989838 0.16971248388290405
0.28746429085731506 0.22310219705104828 0.17956638336181641
0.35521149635314941 0.22956074774265289 0.20073722302913666
0.45822173357009888 0.2344556450843811 0.2197810560464859
0.58527266979217529 0.23662553727626801 0.24571715295314789
0.72051715850830078 0.24357597529888153 0.27341130375862122
0.87047779560089111 0.25416934490203857 0.31157213449478149
0.27779743075370789 0.25865432620048523 0.19924277067184448
0.31068286299705505 0.26013892889022827 0.20746910572052002
0.37955895066261292 0.26378735899925232 0.2246488481760025
0.48560985922813416 0.27460169792175293 0.24937251210212708
0.60699498653411865 0.27770721912384033 0.27049344778060913
0.74727612733840942 0.28433623909950256 0.29640993475914001
0.88478845357894897 0.30139511823654175 0.33044841885566711
0.30878996849060059 0.33524578809738159 0.24355803430080414
0.33887296915054321 0.33341044187545776 0.25085979700088501
0.40674322843551636 0.33859139680862427 0.26014319062232971
0.5198061466217041 0.35114651918411255 0.28014293313026428
0.64402288198471069 0.36449307203292847 0.3145098090171814
0.7712133526802063 0.37477892637252808 0.33759036660194397
0.89761757850646973 0.39544683694839478 0.36747825145721436
0.34275826811790466 0.4318096935749054 0.29160475730895996
0.36668452620506287 0.42482215166091919 0.29142048954963684
0.41846162080764771 0.42230743169784546 0.28965160250663757
0.51213151216506958 0.43007254600524902 0.28823703527450562
0.63907480239868164 0.45309290289878845 0.31402155756950378
0.78814423084259033 0.49790140986442566 0.38011845946311951
0.91632378101348877 0.54458492994308472 0.44153138995170593
0.36078959703445435 0.53773146867752075 0.32369410991668701
0.38254305720329285 0.53387355804443359 0.32298702001571655
0.42206713557243347 0.51975589990615845 0.31654438376426697
0.50669580698013306 0.53695464134216309 0.31869187951087952
0.61887353658676147 0.55485075712203979 0.31715413928031921
0.75464212894439697 0.58271360397338867 0.33838912844657898
0.89848345518112183 0.65817147493362427 0.44915714859962463
0.37465062737464905 0.68792724609375 0.36634328961372375
0.39611458778381348 0.68114709854125977 0.36395728588104248
0.43802323937416077 0.66934877634048462 0.35710886120796204
0.51058751344680786 0.66966784000396729 0.35398474335670471
0.62306052446365356 0.69670456647872925 0.35972714424133301
0.75139707326889038 0.72282606363296509 0.36689123511314392
0.87942206859588623 0.75636786222457886 0.39827996492385864
0.4738166332244873 0.88189095258712769 0.49981316924095154
0.48653572797775269 0.8801378607749939 0.4941975474357605
0.52737343311309814 0.87755757570266724 0.49037948250770569
0.59065085649490356 0.87722897529602051 0.48963859677314758
0.69128954410552979 0.89046585559844971 0.50639134645462036
0.80501174926757812 0.90920478105545044 0.53526169061660767
0.9164888858795166 0.92795217037200928 0.57596629858016968
0.25080198049545288 0.23459015786647797 0.26725822687149048
0.28279441595077515 0.23638702929019928 0.28440174460411072
0.35906454920768738 0.24736969172954559 0.31739985942840576
0.47120797634124756 0.25601065158843994 0.34469699859619141
0.60421836376190186 0.25970679521560669 0.37173372507095337
0.74195188283920288 0.25105386972427368 0.3806384801864624
0.88114750385284424 0.24876582622528076 0.39834624528884888
0.27548250555992126 0.27821320295333862 0.30412065982818604
0.30648118257522583 0.27757340669631958 0.31881842017173767
0.38685598969459534 0.29178208112716675 0.35179430246353149
0.4974941611289978 0.29721754789352417 0.37351816892623901
0.6204950213432312 0.29592680931091309 0.38743704557418823
0.75532543659210205 0.285695880651474 0.39261516928672791
0.88879019021987915 0.29863998293876648 0.41577610373497009
0.30227053165435791 0.36608684062957764 0.36493608355522156
0.34341299533843994 0.36838504672050476 0.37906584143638611
0.42359727621078491 0.36940181255340576 0.40082696080207825
0.53212922811508179 0.37460130453109741 0.41256508231163025
0.64613175392150879 0.37286633253097534 0.41900390386581421
0.77486538887023926 0.38024398684501648 0.43477281928062439
0.8991197943687439 0.39893889427185059 0.45313337445259094
0.33432349562644958 0.47747322916984558 0.40592119097709656
0.37082850933074951 0.47665542364120483 0.41955921053886414
0.43732035160064697 0.46937206387519836 0.42075291275978088
0.53266048431396484 0.46967414021492004 0.41408827900886536
0.66386198997497559 0.4890953004360199 0.44203203916549683
0.7977103590965271 0.52219074964523315 0.49017748236656189
0.91050225496292114 0.55001628398895264 0.51897591352462769
0.36383324861526489 0.59505766630172729 0.43631121516227722
0.38842427730560303 0.58665424585342407 0.4329477846622467
0.44055098295211792 0.57130348682403564 0.42538493871688843
0.51661878824234009 0.56717973947525024 0.4200102686882019
0.63469868898391724 0.5846397876739502 0.42218104004859924
0.76795405149459839 0.61386895179748535 0.44956958293914795
0.89906054735183716 0.68707233667373657 0.55224800109863281
0.37907582521438599 0.72416114807128906 0.46012008190155029
0.40215945243835449 0.71729195117950439 0.45625561475753784
0.44579911231994629 0.70581835508346558 0.44628715515136719
0.51240420341491699 0.69232344627380371 0.43457677960395813
0.62297409772872925 0.71288764476776123 0.44117400050163269
0.75456732511520386 0.73749107122421265 0.44481804966926575
0.88288241624832153 0.77050989866256714 0.48338675498962402
0.48003482818603516 0.89301192760467529 0.56508028507232666
0.49294087290763855 0.89172136783599854 0.55944329500198364
0.53147166967391968 0.88759481906890869 0.55377620458602905
0.59256505966186523 0.88332325220108032 0.5484355092048645
0.68633663654327393 0.89182150363922119 0.55689191818237305
0.80285394191741943 0.91047990322113037 0.58378219604492188
0.91545277833938599 0.92849469184875488 0.61824655532836914
0.21340876817703247 0.25930199027061462 0.42942050099372864
0.24756243824958801 0.25700640678405762 0.44632372260093689
0.35598820447921753 0.27190756797790527 0.47890585660934448
0.494394451379776 0.29144373536109924 0.51850301027297974
0.6290547251701355 0.30535167455673218 0.54582422971725464
0.77707523107528687 0.33916422724723816 0.57691764831542969
0.9041982889175415 0.34734544157981873 0.58732980489730835
0.25329458713531494 0.31032204627990723 0.46640509366989136
0.27949133515357971 0.30753991007804871 0.48228225111961365
0.37991741299629211 0.31975075602531433 0.51787805557250977
0.51997631788253784 0.33636775612831116 0.54723572731018066
0.6466178297996521 0.35459595918655396 0.56756603717803955
0.78729927539825439 0.37700104713439941 0.58816730976104736
0.90948808193206787 0.37532976269721985 0.58967810869216919
0.28412392735481262 0.39475110173225403 0.50500249862670898
0.3290984034538269 0.40140551328659058 0.52098125219345093
0.41358095407485962 0.40041887760162354 0.55062419176101685
0.54920274019241333 0.4250301718711853 0.5810733437538147
0.6684533953666687 0.43936198949813843 0.59416639804840088
0.79140859842300415 0.43730184435844421 0.58921748399734497
0.90715759992599487 0.42196974158287048 0.57966339588165283
0.31256720423698425 0.5195581316947937 0.56489795446395874
0.35694131255149841 0.51956331729888916 0.56767725944519043
0.44878804683685303 0.52231407165527344 0.57665884494781494
0.56353330612182617 0.53231441974639893 0.59950029850006104
0.68196219205856323 0.53508037328720093 0.60800707340240479
0.79553645849227905 0.53601682186126709 0.60709333419799805
0.90458518266677856 0.54748404026031494 0.61166417598724365
0.34933170676231384 0.65603774785995483 0.58221316337585449
0.38613727688789368 0.65231418609619141 0.5828016996383667
0.46024397015571594 0.64547061920166016 0.58557140827178955
0.55006676912307739 0.63124817609786987 0.58419978618621826
0.66621112823486328 0.6344788670539856 0.58206713199615479
0.79273945093154907 0.67009693384170532 0.61694085597991943
0.89988106489181519 0.71498292684555054 0.67401582002639771
0.3817150890827179 0.77764588594436646 0.59429103136062622
0.40918168425559998 0.77404457330703735 0.59226292371749878
0.46716329455375671 0.76341098546981812 0.58818918466567993
0.54075324535369873 0.74444103240966797 0.57532036304473877
0.63553589582443237 0.74181312322616577 0.56700557470321655
0.76530188322067261 0.76037764549255371 0.57033783197402954
0.88682699203491211 0.7969127893447876 0.61414366960525513
0.49883106350898743 0.91145700216293335 0.66186171770095825
0.51358664035797119 0.91103732585906982 0.65981274843215942
0.54963713884353638 0.9063035249710083 0.65301382541656494
0.60478037595748901 0.9019966721534729 0.6431695818901062
0.6790727972984314 0.89657473564147949 0.63144773244857788
0.79649966955184937 0.91511005163192749 0.65224623680114746
0.91471892595291138 0.93323123455047607 0.68214720487594604
0.065641723573207855 0.30008366703987122 0.63065284490585327
0.13055679202079773 0.29368549585342407 0.64179342985153198
0.31247547268867493 0.3070223331451416 0.6668858528137207
0.5099109411239624 0.3365081250667572 0.70135533809661865
0.6772112250328064 0.36731114983558655 0.72428882122039795
0.79853707551956177 0.40372791886329651 0.73208093643188477
0.90970373153686523 0.51301270723342896 0.76320701837539673
0.16352483630180359 0.35694527626037598 0.6543462872505188
0.21284037828445435 0.35202747583389282 0.66435849666595459
0.34253618121147156 0.35602530837059021 0.68530017137527466
0.52750569581985474 0.38795047998428345 0.71386480331420898
0.68906682729721069 0.42301678657531738 0.73329311609268188
0.80240774154663086 0.45882794260978699 0.74261641502380371
0.90817427635192871 0.55061942338943481 0.76862740516662598
0.26536044478416443 0.45061081647872925 0.66774445772171021
0.30978739261627197 0.45011875033378601 0.67507737874984741
0.38788187503814697 0.44035771489143372 0.69598734378814697
0.54558956623077393 0.47377181053161621 0.72299802303314209
0.70004415512084961 0.51744812726974487 0.74523508548736572
0.80506259202957153 0.55017960071563721 0.75485497713088989
0.90495210886001587 0.60720217227935791 0.77363985776901245
0.27208256721496582 0.55901837348937988 0.68355828523635864
0.32461753487586975 0.56196850538253784 0.68603736162185669
0.42408615350723267 0.56071418523788452 0.69654780626296997
0.56008619070053101 0.57379871606826782 0.72771447896957397
0.70572942495346069 0.62579309940338135 0.75570732355117798
0.80607229471206665 0.64873301982879639 0.76695770025253296
0.90203756093978882 0.64721399545669556 0.76051849126815796
0.34663853049278259 0.69301962852478027 0.71989333629608154
0.38652506470680237 0.69534116983413696 0.72260797023773193
0.46885141730308533 0.69901257753372192 0.72827184200286865
0.58291196823120117 0.70432615280151367 0.73774319887161255
0.70443075895309448 0.7184293270111084 0.75616925954818726
0.8062700629234314 0.72629654407501221 0.76354134082794189
0.89944106340408325 0.72157490253448486 0.75832992792129517
0.44624271988868713 0.82931435108184814 0.73721951246261597
0.46808502078056335 0.82700097560882568 0.73581433296203613
0.52152091264724731 0.82206672430038452 0.73692446947097778
0.60525792837142944 0.81592154502868652 0.74008309841156006
0.67754215002059937 0.79925727844238281 0.7293892502784729
0.78491401672363281 0.8054429292678833 0.72618269920349121
0.89493882656097412 0.84052693843841553 0.75898844003677368
0.53802895545959473 0.93689244985580444 0.76201772689819336
0.55248463153839111 0.93526166677474976 0.75898849964141846
0.58542907238006592 0.93184870481491089 0.75882601737976074
0.64028424024581909 0.92729073762893677 0.75617861747741699
0.70015674829483032 0.91849267482757568 0.74350851774215698
0.79277068376541138 0.92292624711990356 0.74033951759338379
0.91419976949691772 0.93683189153671265 0.75890237092971802
0.0026707369834184647 0.36932328343391418 0.8079526424407959
0.012727041728794575 0.35779795050621033 0.81288295984268188
0.28634980320930481 0.36642485857009888 0.81782287359237671
0.51498067378997803 0.40187123417854309 0.83128261566162109
0.71354895830154419 0.47752737998962402 0.84456920623779297
0.8377869725227356 0.54396551847457886 0.84544581174850464
0.91510266065597534 0.59084832668304443 0.84725987911224365
0.085183702409267426 0.42141547799110413 0.8152812123298645
0.1787935197353363 0.41612702608108521 0.81792467832565308
0.32717028260231018 0.41152369976043701 0.82652407884597778
0.5371854305267334 0.45423406362533569 0.83450287580490112
0.71926748752593994 0.52791005373001099 0.84296590089797974
0.83695352077484131 0.58539658784866333 0.84429264068603516
0.91156584024429321 0.625438392162323 0.84819084405899048
0.267412930727005 0.52556580305099487 0.81104052066802979
0.31262028217315674 0.51878815889358521 0.81248694658279419
0.40184932947158813 0.50837361812591553 0.82128030061721802
0.55320948362350464 0.53732120990753174 0.83098840713500977
0.72818243503570557 0.61222434043884277 0.84209936857223511
0.83670371770858765 0.65850722789764404 0.84430843591690063
0.90530741214752197 0.69086092710494995 0.84696108102798462
0.27390593290328979 0.62128609418869019 0.79766237735748291
0.33975547552108765 0.62372010946273804 0.80005252361297607
0.45611974596977234 0.63120430707931519 0.81136733293533325
0.57536917924880981 0.63389354944229126 0.82691991329193115
0.72773963212966919 0.6967625617980957 0.8414924144744873
0.83367747068405151 0.73962152004241943 0.84638750553131104
0.90202587842941284 0.76301568746566772 0.85122036933898926
0.3335520327091217 0.74082791805267334 0.80929374694824219
0.37769412994384766 0.74277961254119873 0.81145960092544556
0.45895519852638245 0.73877876996994019 0.8120417594909668
0.57794010639190674 0.74201923608779907 0.81908690929412842
0.7173658013343811 0.76804822683334351 0.8367689847946167
0.83737415075302124 0.81591618061065674 0.84955602884292603
0.90604937076568604 0.83513444662094116 0.85141175985336304
0.48116850852966309 0.85562407970428467 0.82466518878936768
0.50728714466094971 0.85599339008331299 0.82357102632522583
0.55886292457580566 0.85841304063796997 0.82668709754943848
0.64472925662994385 0.85968053340911865 0.83134233951568604
0.73950815200805664 0.86626315116882324 0.83816790580749512
0.83400100469589233 0.87693727016448975 0.84435135126113892
0.91126793622970581 0.87837696075439453 0.84560549259185791
0.6455499529838562 0.95114511251449585 0.83902335166931152
0.65205883979797363 0.95092082023620605 0.83847737312316895
0.68376606702804565 0.95205128192901611 0.84014248847961426
0.72187811136245728 0.95099973678588867 0.84030383825302124
0.7671017050743103 0.94896501302719116 0.83871519565582275
0.82531821727752686 0.94261330366134644 0.83134108781814575
0.92477548122406006 0.94988042116165161 0.83414149284362793
0.26746875047683716 0.50954604148864746 0.90234220027923584
0.31591665744781494 0.50258845090866089 0.90255457162857056
0.43298986554145813 0.50596719980239868 0.90173733234405518
0.60534793138504028 0.55420440435409546 0.89957994222640991
0.75867116451263428 0.62953710556030273 0.89726895093917847
0.87013787031173706 0.71110224723815918 0.89376115798950195
0.9367058277130127 0.75624895095825195 0.88952732086181641
0.34265249967575073 0.56132477521896362 0.89804744720458984
0.38062527775764465 0.55425584316253662 0.89806735515594482
0.46743097901344299 0.55068075656890869 0.90111458301544189
0.62117010354995728 0.59341156482696533 0.89788269996643066
0.76298737525939941 0.66039884090423584 0.89660549163818359
0.86928749084472656 0.73635649681091309 0.89197742938995361
0.93462842702865601 0.77433288097381592 0.88740271329879761
0.43276804685592651 0.64955997467041016 0.89040368795394897
0.45716080069541931 0.64322167634963989 0.89271277189254761
0.52541530132293701 0.63722449541091919 0.89281469583511353
0.64004606008529663 0.65991503000259399 0.89332932233810425
0.76672220230102539 0.71432572603225708 0.89026635885238647
0.86886894702911377 0.77632814645767212 0.88935965299606323
0.93075466156005859 0.80970019102096558 0.88613492250442505
0.47313538193702698 0.74456846714019775 0.87935501337051392
0.50193780660629272 0.74007821083068848 0.87972211837768555
0.56949716806411743 0.7369573712348938 0.88222497701644897
0.64994621276855469 0.73306554555892944 0.88638579845428467
0.76716941595077515 0.77353119850158691 0.88752263784408569
0.86822330951690674 0.82163083553314209 0.8861767053604126
0.93032097816467285 0.85212785005569458 0.88345623016357422
0.43966531753540039 0.82423996925354004 0.87496495246887207
0.46816891431808472 0.82206147909164429 0.87482380867004395
0.53995442390441895 0.81898647546768188 0.87568634748458862
0.65123867988586426 0.82120144367218018 0.87860971689224243
0.75823432207107544 0.82952004671096802 0.8851134181022644
0.86678224802017212 0.87026464939117432 0.88421565294265747
0.93654614686965942 0.89759904146194458 0.88403844833374023
0.5617678165435791 0.91235125064849854 0.87413662672042847
0.57840973138809204 0.90922516584396362 0.87389349937438965
0.61269068717956543 0.90644997358322144 0.87462222576141357
0.67395001649856567 0.90421462059020996 0.87626791000366211
0.75114655494689941 0.90121209621429443 0.87609755992889404
0.86079239845275879 0.91607987880706787 0.88090652227401733
0.94419234991073608 0.93364137411117554 0.88242316246032715
0.71336919069290161 0.97585475444793701 0.87726396322250366
0.72267186641693115 0.97296583652496338 0.87697750329971313
0.74320346117019653 0.97210085391998291 0.87747150659561157
0.78286415338516235 0.97051107883453369 0.87844443321228027
0.83328700065612793 0.9693114161491394 0.87996852397918701
0.89323198795318604 0.96889179944992065 0.88036930561065674
0.96347391605377197 0.96996158361434937 0.88219135999679565
