luts/instant_pro/polaroid_669_-.cube
# Created by: G'MIC (https://gmic.eu)
TITLE "polaroid_669_-"
# LUT size
LUT_3D_SIZE 5
# Data domain
DOMAIN_MIN 0.0 0.0 0.0
DOMAIN_MAX 1.0 1.0 1.0
# LUT data points
0.076111257076263428 0.14074255526065826 0.14292514324188232
0.1665353924036026 0.14993126690387726 0.14657795429229736
0.36133062839508057 0.15760569274425507 0.15780854225158691
0.65845233201980591 0.15793149173259735 0.16746757924556732
0.93032169342041016 0.19149975478649139 0.17108848690986633
0.069649972021579742 0.22728732228279114 0.15663358569145203
0.1815459281206131 0.241525799036026 0.1571948379278183
0.39526349306106567 0.26846033334732056 0.15969456732273102
0.70480823516845703 0.29073378443717957 0.1685512363910675
0.94457632303237915 0.336771160364151 0.17474517226219177
0.0040038162842392921 0.40246492624282837 0.15643039345741272
0.15028837323188782 0.39612874388694763 0.1590120792388916
0.39060580730438232 0.42531374096870422 0.13470263779163361
0.68839991092681885 0.48668411374092102 0.10984033346176147
0.95246517658233643 0.56809043884277344 0.19354298710823059
0.0013716155663132668 0.62874984741210938 0.08918839693069458
0.090727604925632477 0.61509263515472412 0.08948497474193573
0.37622356414794922 0.62696266174316406 0.049694091081619263
0.64538973569869995 0.65494030714035034 0.0072494507767260075
0.90916764736175537 0.72849541902542114 0.01481450442224741
0.29376024007797241 0.9228978157043457 0.1493285596370697
0.37910866737365723 0.91613566875457764 0.14299580454826355
0.5314527153968811 0.91444402933120728 0.1187107190489769
0.74854135513305664 0.93027687072753906 0.11245616525411606
0.94072020053863525 0.94927901029586792 0.11532661318778992
0.036236856132745743 0.16023258864879608 0.21999055147171021
0.15820764005184174 0.1670573353767395 0.23403877019882202
0.38971173763275146 0.164497971534729 0.25178119540214539
0.68303984403610229 0.093915052711963654 0.24597562849521637
0.93031615018844604 0.13065731525421143 0.25765174627304077
0.022550320252776146 0.25621518492698669 0.24221096932888031
0.19543415307998657 0.27150112390518188 0.26883527636528015
0.44106873869895935 0.27464020252227783 0.26152607798576355
0.71928679943084717 0.27100285887718201 0.27186137437820435
0.94488215446472168 0.3118472695350647 0.27645546197891235
0.0057475818321108818 0.4760679304599762 0.25868260860443115
0.15355294942855835 0.46072861552238464 0.2529807984828949
0.42945587635040283 0.4604308009147644 0.23858068883419037
0.72746074199676514 0.51844692230224609 0.26326104998588562
0.94985026121139526 0.56814223527908325 0.31535652279853821
0.0038788290694355965 0.681488037109375 0.21311172842979431
0.085743382573127747 0.6635364294052124 0.19963733851909637
0.37976288795471191 0.64918965101242065 0.17628687620162964
0.66780060529708862 0.68138664960861206 0.11339389532804489
0.91617131233215332 0.74129605293273926 0.17319329082965851
0.28777089715003967 0.93153291940689087 0.28476974368095398
0.37064102292060852 0.92163300514221191 0.27613288164138794
0.5223308801651001 0.91643244028091431 0.24970929324626923
0.74119484424591064 0.92664843797683716 0.24084845185279846
0.9389757513999939 0.94902253150939941 0.23131349682807922
0.0011538037797436118 0.21814215183258057 0.43253138661384583
0.077186062932014465 0.20708836615085602 0.46275824308395386
0.47372302412986755 0.23158395290374756 0.5117419958114624
0.75567501783370972 0.26643982529640198 0.53073573112487793
0.96256417036056519 0.27759057283401489 0.51709580421447754
0.0028383443132042885 0.34403184056282043 0.45983356237411499
0.10179828107357025 0.33608913421630859 0.50203472375869751
0.51616740226745605 0.36561912298202515 0.53866350650787354
0.76627534627914429 0.39459604024887085 0.54309523105621338
0.96115446090698242 0.36615303158760071 0.50579977035522461
0.002956195967271924 0.57486921548843384 0.50161314010620117
0.11588758230209351 0.56647509336471558 0.51790493726730347
0.52264517545700073 0.57312071323394775 0.54565298557281494
0.76038318872451782 0.56361287832260132 0.53322345018386841
0.9396856427192688 0.55694282054901123 0.51941710710525513
0.0062462151981890202 0.77376264333724976 0.47797325253486633
0.15723742544651031 0.76566427946090698 0.47850745916366577
0.45141953229904175 0.73072284460067749 0.46393474936485291
0.70065599679946899 0.72472834587097168 0.4232323169708252
0.92211216688156128 0.78717511892318726 0.51649779081344604
0.33555114269256592 0.95062160491943359 0.52622216939926147
0.39946532249450684 0.9432750940322876 0.5114673376083374
0.53581339120864868 0.93396389484405518 0.48317444324493408
0.72565841674804688 0.9344867467880249 0.46209916472434998
0.93132525682449341 0.95177567005157471 0.46377304196357727
0 0.32781827449798584 0.75446325540542603
0.0073361564427614212 0.30536916851997375 0.76825863122940063
0.48860761523246765 0.35725486278533936 0.78680062294006348
0.79780799150466919 0.46042689681053162 0.79992145299911499
0.9404139518737793 0.58263611793518066 0.80523043870925903
0.0055902819149196148 0.47392594814300537 0.75252336263656616
0.010936377570033073 0.44590261578559875 0.77224528789520264
0.5088316798210144 0.48888266086578369 0.78977161645889282
0.79686182737350464 0.57626056671142578 0.80138516426086426
0.93204635381698608 0.65650480985641479 0.81250089406967163
0.0048133698292076588 0.64886069297790527 0.73438054323196411
0.094999916851520538 0.64891380071640015 0.74318736791610718
0.53352493047714233 0.66738104820251465 0.77100324630737305
0.78619611263275146 0.7288936972618103 0.80527222156524658
0.91607058048248291 0.76330459117889404 0.81658935546875
0.10894549638032913 0.83124929666519165 0.76259279251098633
0.31363335251808167 0.83057141304016113 0.76634865999221802
0.56045991182327271 0.82713693380355835 0.77279138565063477
0.77003461122512817 0.83782345056533813 0.79506474733352661
0.91379767656326294 0.82735741138458252 0.78648173809051514
0.47837099432945251 0.97101074457168579 0.77513867616653442
0.5208204984664917 0.97132480144500732 0.77359062433242798
0.62173348665237427 0.96260076761245728 0.76208221912384033
0.73844665288925171 0.95098072290420532 0.73568207025527954
0.9138113260269165 0.95824843645095825 0.72407704591751099
0.093892939388751984 0.57299435138702393 0.93688255548477173
0.2214365154504776 0.55738252401351929 0.93928927183151245
0.5899537205696106 0.61499428749084473 0.9329720139503479
0.81145519018173218 0.70897990465164185 0.92540854215621948
0.93148082494735718 0.78180044889450073 0.92437642812728882
0.28833138942718506 0.6723296046257019 0.9304739236831665
0.38491752743721008 0.65997433662414551 0.92993903160095215
0.61559510231018066 0.68418997526168823 0.92743217945098877
0.81609863042831421 0.76445662975311279 0.92391657829284668
0.92342746257781982 0.81418710947036743 0.92174333333969116
0.40843525528907776 0.80176270008087158 0.91523569822311401
0.49759617447853088 0.79611492156982422 0.9133373498916626
0.63907879590988159 0.78690654039382935 0.91920620203018188
0.81025403738021851 0.82866185903549194 0.91720324754714966
0.91671550273895264 0.87714511156082153 0.91986238956451416
0.38648861646652222 0.90595781803131104 0.90642684698104858
0.45886024832725525 0.90188968181610107 0.90535801649093628
0.60907137393951416 0.89473557472229004 0.90929585695266724
0.80208122730255127 0.90674448013305664 0.91617614030838013
0.91311991214752197 0.93336647748947144 0.91962641477584839
0.62965887784957886 0.98810034990310669 0.91480940580368042
0.66338479518890381 0.98950743675231934 0.91661286354064941
0.73721575736999512 0.98643654584884644 0.91576331853866577
0.82888054847717285 0.97858083248138428 0.91602712869644165
0.92008388042449951 0.98505091667175293 0.91914337873458862
