luts/instant_pro/polaroid_665_negative_+.cube
# Created by: G'MIC (https://gmic.eu)
TITLE "polaroid_665_negative_+"
# LUT size
LUT_3D_SIZE 13
# Data domain
DOMAIN_MIN 0.0 0.0 0.0
DOMAIN_MAX 1.0 1.0 1.0
# LUT data points
0.20937652885913849 0.20937652885913849 0.20937652885913849
0.21273741126060486 0.21273741126060486 0.21273741126060486
0.22038325667381287 0.22038325667381287 0.22038325667381287
0.23223738372325897 0.23223738372325897 0.23223738372325897
0.24850164353847504 0.24850164353847504 0.24850164353847504
0.26932826638221741 0.26932826638221741 0.26932826638221741
0.29533219337463379 0.29533219337463379 0.29533219337463379
0.32664221525192261 0.32664221525192261 0.32664221525192261
0.36338663101196289 0.36338663101196289 0.36338663101196289
0.40498411655426025 0.40498411655426025 0.40498411655426025
0.45077508687973022 0.45077508687973022 0.45077508687973022
0.4990505576133728 0.4990505576133728 0.4990505576133728
0.54795002937316895 0.54795002937316895 0.54795002937316895
0.22374595701694489 0.22374595701694489 0.22374595701694489
0.22573345899581909 0.22573345899581909 0.22573345899581909
0.23204140365123749 0.23204140365123749 0.23204140365123749
0.24234025180339813 0.24234025180339813 0.24234025180339813
0.25709497928619385 0.25709497928619385 0.25709497928619385
0.27671712636947632 0.27671712636947632 0.27671712636947632
0.30195671319961548 0.30195671319961548 0.30195671319961548
0.33295384049415588 0.33295384049415588 0.33295384049415588
0.36982887983322144 0.36982887983322144 0.36982887983322144
0.41179049015045166 0.41179049015045166 0.41179049015045166
0.45786440372467041 0.45786440372467041 0.45786440372467041
0.50655269622802734 0.50655269622802734 0.50655269622802734
0.55569905042648315 0.55569905042648315 0.55569905042648315
0.24603074789047241 0.24603074789047241 0.24603074789047241
0.24681960046291351 0.24681960046291351 0.24681960046291351
0.25128927826881409 0.25128927826881409 0.25128927826881409
0.25940653681755066 0.25940653681755066 0.25940653681755066
0.27196776866912842 0.27196776866912842 0.27196776866912842
0.28968578577041626 0.28968578577041626 0.28968578577041626
0.31349697709083557 0.31349697709083557 0.31349697709083557
0.34377795457839966 0.34377795457839966 0.34377795457839966
0.38011172413825989 0.38011172413825989 0.38011172413825989
0.42187938094139099 0.42187938094139099 0.42187938094139099
0.46799576282501221 0.46799576282501221 0.46799576282501221
0.5165286660194397 0.5165286660194397 0.5165286660194397
0.56555122137069702 0.56555122137069702 0.56555122137069702
0.27785056829452515 0.27785056829452515 0.27785056829452515
0.2770942747592926 0.2770942747592926 0.2770942747592926
0.27952080965042114 0.27952080965042114 0.27952080965042114
0.2848142683506012 0.2848142683506012 0.2848142683506012
0.29421663284301758 0.29421663284301758 0.29421663284301758
0.3093532919883728 0.3093532919883728 0.3093532919883728
0.33094596862792969 0.33094596862792969 0.33094596862792969
0.35945719480514526 0.35945719480514526 0.35945719480514526
0.39466893672943115 0.39466893672943115 0.39466893672943115
0.43571162223815918 0.43571162223815918 0.43571162223815918
0.48154106736183167 0.48154106736183167 0.48154106736183167
0.52984857559204102 0.52984857559204102 0.52984857559204102
0.57839047908782959 0.57839047908782959 0.57839047908782959
0.31867170333862305 0.31867170333862305 0.31867170333862305
0.31688424944877625 0.31688424944877625 0.31688424944877625
0.31693840026855469 0.31693840026855469 0.31693840026855469
0.31921222805976868 0.31921222805976868 0.31921222805976868
0.32505014538764954 0.32505014538764954 0.32505014538764954
0.33669593930244446 0.33669593930244446 0.33669593930244446
0.3552086353302002 0.3552086353302002 0.3552086353302002
0.38102942705154419 0.38102942705154419 0.38102942705154419
0.41410517692565918 0.41410517692565918 0.41410517692565918
0.45388877391815186 0.45388877391815186 0.45388877391815186
0.49883142113685608 0.49883142113685608 0.49883142113685608
0.54674381017684937 0.54674381017684937 0.54674381017684937
0.59481853246688843 0.59481853246688843 0.59481853246688843
0.36734557151794434 0.36734557151794434 0.36734557151794434
0.36466807126998901 0.36466807126998901 0.36466807126998901
0.36272484064102173 0.36272484064102173 0.36272484064102173
0.36232861876487732 0.36232861876487732 0.36232861876487732
0.36516267061233521 0.36516267061233521 0.36516267061233521
0.37288171052932739 0.37288171052932739 0.37288171052932739
0.38716551661491394 0.38716551661491394 0.38716551661491394
0.4087490439414978 0.4087490439414978 0.4087490439414978
0.43844753503799438 0.43844753503799438 0.43844753503799438
0.47633799910545349 0.47633799910545349 0.47633799910545349
0.52029478549957275 0.52029478549957275 0.52029478549957275
0.56745970249176025 0.56745970249176025 0.56745970249176025
0.61464136838912964 0.61464136838912964 0.61464136838912964
0.42175784707069397 0.42175784707069397 0.42175784707069397
0.418690025806427 0.418690025806427 0.418690025806427
0.41561201214790344 0.41561201214790344 0.41561201214790344
0.41343718767166138 0.41343718767166138 0.41343718767166138
0.41345769166946411 0.41345769166946411 0.41345769166946411
0.41750964522361755 0.41750964522361755 0.41750964522361755
0.42687487602233887 0.42687487602233887 0.42687487602233887
0.44308286905288696 0.44308286905288696 0.44308286905288696
0.46862512826919556 0.46862512826919556 0.46862512826919556
0.50347983837127686 0.50347983837127686 0.50347983837127686
0.545493483543396 0.545493483543396 0.545493483543396
0.59115749597549438 0.59115749597549438 0.59115749597549438
0.6369594931602478 0.6369594931602478 0.6369594931602478
0.47982639074325562 0.47982639074325562 0.47982639074325562
0.4767877459526062 0.4767877459526062 0.4767877459526062
0.47317039966583252 0.47317039966583252 0.47317039966583252
0.46981236338615417 0.46981236338615417 0.46981236338615417
0.467794269323349 0.467794269323349 0.467794269323349
0.46906211972236633 0.46906211972236633 0.46906211972236633
0.47441950440406799 0.47441950440406799 0.47441950440406799
0.48579731583595276 0.48579731583595276 0.48579731583595276
0.50607538223266602 0.50607538223266602 0.50607538223266602
0.5367550253868103 0.5367550253868103 0.5367550253868103
0.57477742433547974 0.57477742433547974 0.57477742433547974
0.61679792404174805 0.61679792404174805 0.61679792404174805
0.65958917140960693 0.65958917140960693 0.65958917140960693
0.54013121128082275 0.54013121128082275 0.54013121128082275
0.53739625215530396 0.53739625215530396 0.53739625215530396
0.53370428085327148 0.53370428085327148 0.53370428085327148
0.52975493669509888 0.52975493669509888 0.52975493669509888
0.52688455581665039 0.52688455581665039 0.52688455581665039
0.52619343996047974 0.52619343996047974 0.52619343996047974
0.52898454666137695 0.52898454666137695 0.52898454666137695
0.53692340850830078 0.53692340850830078 0.53692340850830078
0.55249631404876709 0.55249631404876709 0.55249631404876709
0.57686924934387207 0.57686924934387207 0.57686924934387207
0.60835874080657959 0.60835874080657959 0.60835874080657959
0.6444164514541626 0.6444164514541626 0.6444164514541626
0.68227744102478027 0.68227744102478027 0.68227744102478027
0.60122895240783691 0.60122895240783691 0.60122895240783691
0.59877842664718628 0.59877842664718628 0.59877842664718628
0.59525436162948608 0.59525436162948608 0.59525436162948608
0.59148561954498291 0.59148561954498291 0.59148561954498291
0.58830773830413818 0.58830773830413818 0.58830773830413818
0.58700007200241089 0.58700007200241089 0.58700007200241089
0.58824384212493896 0.58824384212493896 0.58824384212493896
0.59374666213989258 0.59374666213989258 0.59374666213989258
0.60468089580535889 0.60468089580535889 0.60468089580535889
0.62252271175384521 0.62252271175384521 0.62252271175384521
0.64624989032745361 0.64624989032745361 0.64624989032745361
0.67515933513641357 0.67515933513641357 0.67515933513641357
0.70681953430175781 0.70681953430175781 0.70681953430175781
0.66186100244522095 0.66186100244522095 0.66186100244522095
0.6599770188331604 0.6599770188331604 0.6599770188331604
0.65668767690658569 0.65668767690658569 0.65668767690658569
0.65312117338180542 0.65312117338180542 0.65312117338180542
0.65023171901702881 0.65023171901702881 0.65023171901702881
0.64879310131072998 0.64879310131072998 0.64879310131072998
0.64948487281799316 0.64948487281799316 0.64948487281799316
0.65300357341766357 0.65300357341766357 0.65300357341766357
0.6599155068397522 0.6599155068397522 0.6599155068397522
0.67125290632247925 0.67125290632247925 0.67125290632247925
0.68799734115600586 0.68799734115600586 0.68799734115600586
0.70954602956771851 0.70954602956771851 0.70954602956771851
0.73516660928726196 0.73516660928726196 0.73516660928726196
0.72137409448623657 0.72137409448623657 0.72137409448623657
0.71927976608276367 0.71927976608276367 0.71927976608276367
0.71632128953933716 0.71632128953933716 0.71632128953933716
0.713084876537323 0.713084876537323 0.713084876537323
0.71042817831039429 0.71042817831039429 0.71042817831039429
0.70948690176010132 0.70948690176010132 0.70948690176010132
0.71044677495956421 0.71044677495956421 0.71044677495956421
0.71207410097122192 0.71207410097122192 0.71207410097122192
0.71595084667205811 0.71595084667205811 0.71595084667205811
0.72179394960403442 0.72179394960403442 0.72179394960403442
0.73201680183410645 0.73201680183410645 0.73201680183410645
0.74711912870407104 0.74711912870407104 0.74711912870407104
0.76654332876205444 0.76654332876205444 0.76654332876205444
0.77715873718261719 0.77715873718261719 0.77715873718261719
0.7752947211265564 0.7752947211265564 0.7752947211265564
0.77246546745300293 0.77246546745300293 0.77246546745300293
0.76958358287811279 0.76958358287811279 0.76958358287811279
0.76742613315582275 0.76742613315582275 0.76742613315582275
0.7668684720993042 0.7668684720993042 0.7668684720993042
0.76798981428146362 0.76798981428146362 0.76798981428146362
0.76907444000244141 0.76907444000244141 0.76907444000244141
0.77011984586715698 0.77011984586715698 0.77011984586715698
0.77158218622207642 0.77158218622207642 0.77158218622207642
0.77675896883010864 0.77675896883010864 0.77675896883010864
0.78652912378311157 0.78652912378311157 0.78652912378311157
0.80092185735702515 0.80092185735702515 0.80092185735702515
0.22515392303466797 0.22515392303466797 0.22515392303466797
0.22890238463878632 0.22890238463878632 0.22890238463878632
0.23698794841766357 0.23698794841766357 0.23698794841766357
0.24915517866611481 0.24915517866611481 0.24915517866611481
0.26520922780036926 0.26520922780036926 0.26520922780036926
0.28513136506080627 0.28513136506080627 0.28513136506080627
0.30962830781936646 0.30962830781936646 0.30962830781936646
0.33925825357437134 0.33925825357437134 0.33925825357437134
0.37446248531341553 0.37446248531341553 0.37446248531341553
0.41519555449485779 0.41519555449485779 0.41519555449485779
0.46052840352058411 0.46052840352058411 0.46052840352058411
0.50870394706726074 0.50870394706726074 0.50870394706726074
0.55752706527709961 0.55752706527709961 0.55752706527709961
0.23705163598060608 0.23705163598060608 0.23705163598060608
0.23989424109458923 0.23989424109458923 0.23989424109458923
0.24692584574222565 0.24692584574222565 0.24692584574222565
0.25775513052940369 0.25775513052940369 0.25775513052940369
0.2723134458065033 0.2723134458065033 0.2723134458065033
0.29140117764472961 0.29140117764472961 0.29140117764472961
0.31538277864456177 0.31538277864456177 0.31538277864456177
0.34500062465667725 0.34500062465667725 0.34500062465667725
0.38040968775749207 0.38040968775749207 0.38040968775749207
0.42140132188796997 0.42140132188796997 0.42140132188796997
0.46713802218437195 0.46713802218437195 0.46713802218437195
0.51553994417190552 0.51553994417190552 0.51553994417190552
0.56444311141967773 0.56444311141967773 0.56444311141967773
0.25781959295272827 0.25781959295272827 0.25781959295272827
0.25965863466262817 0.25965863466262817 0.25965863466262817
0.26504224538803101 0.26504224538803101 0.26504224538803101
0.27360585331916809 0.27360585331916809 0.27360585331916809
0.28570401668548584 0.28570401668548584 0.28570401668548584
0.30290347337722778 0.30290347337722778 0.30290347337722778
0.32590761780738831 0.32590761780738831 0.32590761780738831
0.35508275032043457 0.35508275032043457 0.35508275032043457
0.39027848839759827 0.39027848839759827 0.39027848839759827
0.43109527230262756 0.43109527230262756 0.43109527230262756
0.47675067186355591 0.47675067186355591 0.47675067186355591
0.52505958080291748 0.52505958080291748 0.52505958080291748
0.57348191738128662 0.57348191738128662 0.57348191738128662
0.28925126791000366 0.28925126791000366 0.28925126791000366
0.28964972496032715 0.28964972496032715 0.28964972496032715
0.29272964596748352 0.29272964596748352 0.29272964596748352
0.29790017008781433 0.29790017008781433 0.29790017008781433
0.30662834644317627 0.30662834644317627 0.30662834644317627
0.32101497054100037 0.32101497054100037 0.32101497054100037
0.34235626459121704 0.34235626459121704 0.34235626459121704
0.37026447057723999 0.37026447057723999 0.37026447057723999
0.40448182821273804 0.40448182821273804 0.40448182821273804
0.4447304904460907 0.4447304904460907 0.4447304904460907
0.48990300297737122 0.48990300297737122 0.48990300297737122
0.53769588470458984 0.53769588470458984 0.53769588470458984
0.58600670099258423 0.58600670099258423 0.58600670099258423
0.33092388510704041 0.33092388510704041 0.33092388510704041
0.33006590604782104 0.33006590604782104 0.33006590604782104
0.33066919445991516 0.33066919445991516 0.33066919445991516
0.33204182982444763 0.33204182982444763 0.33204182982444763
0.33668428659439087 0.33668428659439087 0.33668428659439087
0.34749868512153625 0.34749868512153625 0.34749868512153625
0.36591365933418274 0.36591365933418274 0.36591365933418274
0.39147588610649109 0.39147588610649109 0.39147588610649109
0.42360168695449829 0.42360168695449829 0.42360168695449829
0.46256458759307861 0.46256458759307861 0.46256458759307861
0.50681406259536743 0.50681406259536743 0.50681406259536743
0.55404520034790039 0.55404520034790039 0.55404520034790039
0.6016966700553894 0.6016966700553894 0.6016966700553894
0.38101896643638611 0.38101896643638611 0.38101896643638611
0.37919473648071289 0.37919473648071289 0.37919473648071289
0.37732741236686707 0.37732741236686707 0.37732741236686707
0.37586969137191772 0.37586969137191772 0.37586969137191772
0.37703755497932434 0.37703755497932434 0.37703755497932434
0.38382118940353394 0.38382118940353394 0.38382118940353394
0.39796021580696106 0.39796021580696106 0.39796021580696106
0.41925191879272461 0.41925191879272461 0.41925191879272461
0.44818717241287231 0.44818717241287231 0.44818717241287231
0.48469582200050354 0.48469582200050354 0.48469582200050354
0.52750891447067261 0.52750891447067261 0.52750891447067261
0.5739554762840271 0.5739554762840271 0.5739554762840271
0.62082040309906006 0.62082040309906006 0.62082040309906006
0.43674880266189575 0.43674880266189575 0.43674880266189575
0.4335801899433136 0.4335801899433136 0.4335801899433136
0.43082308769226074 0.43082308769226074 0.43082308769226074
0.42746257781982422 0.42746257781982422 0.42746257781982422
0.42617139220237732 0.42617139220237732 0.42617139220237732
0.42907217144966125 0.42907217144966125 0.42907217144966125
0.43810412287712097 0.43810412287712097 0.43810412287712097
0.45396178960800171 0.45396178960800171 0.45396178960800171
0.47837871313095093 0.47837871313095093 0.47837871313095093
0.51169270277023315 0.51169270277023315 0.51169270277023315
0.55183172225952148 0.55183172225952148 0.55183172225952148
0.59657126665115356 0.59657126665115356 0.59657126665115356
0.64236718416213989 0.64236718416213989 0.64236718416213989
0.49470219016075134 0.49470219016075134 0.49470219016075134
0.49165835976600647 0.49165835976600647 0.49165835976600647
0.48813578486442566 0.48813578486442566 0.48813578486442566
0.48372474312782288 0.48372474312782288 0.48372474312782288
0.48065334558486938 0.48065334558486938 0.48065334558486938
0.48080629110336304 0.48080629110336304 0.48080629110336304
0.4853384792804718 0.4853384792804718 0.4853384792804718
0.49614182114601135 0.49614182114601135 0.49614182114601135
0.5152466893196106 0.5152466893196106 0.5152466893196106
0.54338490962982178 0.54338490962982178 0.54338490962982178
0.57922267913818359 0.57922267913818359 0.57922267913818359
0.62051248550415039 0.62051248550415039 0.62051248550415039
0.66368627548217773 0.66368627548217773 0.66368627548217773
0.55370515584945679 0.55370515584945679 0.55370515584945679
0.55122828483581543 0.55122828483581543 0.55122828483581543
0.54739665985107422 0.54739665985107422 0.54739665985107422
0.5428774356842041 0.5428774356842041 0.5428774356842041
0.53887712955474854 0.53887712955474854 0.53887712955474854
0.53731793165206909 0.53731793165206909 0.53731793165206909
0.53860783576965332 0.53860783576965332 0.53860783576965332
0.54530870914459229 0.54530870914459229 0.54530870914459229
0.55886375904083252 0.55886375904083252 0.55886375904083252
0.58093094825744629 0.58093094825744629 0.58093094825744629
0.61046850681304932 0.61046850681304932 0.61046850681304932
0.64575362205505371 0.64575362205505371 0.64575362205505371
0.68395859003067017 0.68395859003067017 0.68395859003067017
0.61307960748672485 0.61307960748672485 0.61307960748672485
0.61110377311706543 0.61110377311706543 0.61110377311706543
0.60733664035797119 0.60733664035797119 0.60733664035797119
0.60285621881484985 0.60285621881484985 0.60285621881484985
0.59868103265762329 0.59868103265762329 0.59868103265762329
0.59600597620010376 0.59600597620010376 0.59600597620010376
0.59587585926055908 0.59587585926055908 0.59587585926055908
0.59948122501373291 0.59948122501373291 0.59948122501373291
0.60829108953475952 0.60829108953475952 0.60829108953475952
0.62373471260070801 0.62373471260070801 0.62373471260070801
0.6459764838218689 0.6459764838218689 0.6459764838218689
0.67410540580749512 0.67410540580749512 0.67410540580749512
0.70593178272247314 0.70593178272247314 0.70593178272247314
0.67192494869232178 0.67192494869232178 0.67192494869232178
0.67030626535415649 0.67030626535415649 0.67030626535415649
0.6667284369468689 0.6667284369468689 0.6667284369468689
0.6625252366065979 0.6625252366065979 0.6625252366065979
0.65864396095275879 0.65864396095275879 0.65864396095275879
0.6558074951171875 0.6558074951171875 0.6558074951171875
0.65464067459106445 0.65464067459106445 0.65464067459106445
0.65611493587493896 0.65611493587493896 0.65611493587493896
0.66081434488296509 0.66081434488296509 0.66081434488296509
0.67035400867462158 0.67035400867462158 0.67035400867462158
0.68555253744125366 0.68555253744125366 0.68555253744125366
0.70697426795959473 0.70697426795959473 0.70697426795959473
0.73259049654006958 0.73259049654006958 0.73259049654006958
0.72915667295455933 0.72915667295455933 0.72915667295455933
0.72742801904678345 0.72742801904678345 0.72742801904678345
0.72414642572402954 0.72414642572402954 0.72414642572402954
0.72026693820953369 0.72026693820953369 0.72026693820953369
0.71681535243988037 0.71681535243988037 0.71681535243988037
0.71408814191818237 0.71408814191818237 0.71408814191818237
0.7126501202583313 0.7126501202583313 0.7126501202583313
0.712654709815979 0.712654709815979 0.712654709815979
0.71468961238861084 0.71468961238861084 0.71468961238861084
0.71939069032669067 0.71939069032669067 0.71939069032669067
0.72874730825424194 0.72874730825424194 0.72874730825424194
0.74340224266052246 0.74340224266052246 0.74340224266052246
0.76318091154098511 0.76318091154098511 0.76318091154098511
0.78298670053482056 0.78298670053482056 0.78298670053482056
0.78134119510650635 0.78134119510650635 0.78134119510650635
0.77825796604156494 0.77825796604156494 0.77825796604156494
0.77474617958068848 0.77474617958068848 0.77474617958068848
0.77171701192855835 0.77171701192855835 0.77171701192855835
0.769428551197052 0.769428551197052 0.769428551197052
0.76807147264480591 0.76807147264480591 0.76807147264480591
0.76744353771209717 0.76744353771209717 0.76744353771209717
0.76682895421981812 0.76682895421981812 0.76682895421981812
0.76788139343261719 0.76788139343261719 0.76788139343261719
0.77265846729278564 0.77265846729278564 0.77265846729278564
0.7823224663734436 0.7823224663734436 0.7823224663734436
0.79701608419418335 0.79701608419418335 0.79701608419418335
0.24784465134143829 0.24784465134143829 0.24784465134143829
0.25265777111053467 0.25265777111053467 0.25265777111053467
0.2617943286895752 0.2617943286895752 0.2617943286895752
0.27431881427764893 0.27431881427764893 0.27431881427764893
0.2897847592830658 0.2897847592830658 0.2897847592830658
0.30829587578773499 0.30829587578773499 0.30829587578773499
0.33046731352806091 0.33046731352806091 0.33046731352806091
0.35730323195457458 0.35730323195457458 0.35730323195457458
0.38982346653938293 0.38982346653938293 0.38982346653938293
0.42834019660949707 0.42834019660949707 0.42834019660949707
0.47245919704437256 0.47245919704437256 0.47245919704437256
0.52013319730758667 0.52013319730758667 0.52013319730758667
0.56882262229919434 0.56882262229919434 0.56882262229919434
0.25689268112182617 0.25689268112182617 0.25689268112182617
0.26123693585395813 0.26123693585395813 0.26123693585395813
0.26992249488830566 0.26992249488830566 0.26992249488830566
0.28154480457305908 0.28154480457305908 0.28154480457305908
0.29607239365577698 0.29607239365577698 0.29607239365577698
0.31401374936103821 0.31401374936103821 0.31401374936103821
0.33587467670440674 0.33587467670440674 0.33587467670440674
0.36281141638755798 0.36281141638755798 0.36281141638755798
0.39544430375099182 0.39544430375099182 0.39544430375099182
0.43432974815368652 0.43432974815368652 0.43432974815368652
0.47854581475257874 0.47854581475257874 0.47854581475257874
0.52617937326431274 0.52617937326431274 0.52617937326431274
0.57499021291732788 0.57499021291732788 0.57499021291732788
0.2751096785068512 0.2751096785068512 0.2751096785068512
0.27923408150672913 0.27923408150672913 0.27923408150672913
0.28647390007972717 0.28647390007972717 0.28647390007972717
0.29620859026908875 0.29620859026908875 0.29620859026908875
0.30847504734992981 0.30847504734992981 0.30847504734992981
0.32481202483177185 0.32481202483177185 0.32481202483177185
0.34598889946937561 0.34598889946937561 0.34598889946937561
0.3727782666683197 0.3727782666683197 0.3727782666683197
0.40545886754989624 0.40545886754989624 0.40545886754989624
0.44410571455955505 0.44410571455955505 0.44410571455955505
0.48788151144981384 0.48788151144981384 0.48788151144981384
0.53503131866455078 0.53503131866455078 0.53503131866455078
0.58294898271560669 0.58294898271560669 0.58294898271560669
0.30700469017028809 0.30700469017028809 0.30700469017028809
0.3086012601852417 0.3086012601852417 0.3086012601852417
0.31380468606948853 0.31380468606948853 0.31380468606948853
0.31976747512817383 0.31976747512817383 0.31976747512817383
0.32837286591529846 0.32837286591529846 0.32837286591529846
0.3419376015663147 0.3419376015663147 0.3419376015663147
0.3620741069316864 0.3620741069316864 0.3620741069316864
0.38818582892417908 0.38818582892417908 0.38818582892417908
0.42013457417488098 0.42013457417488098 0.42013457417488098
0.45800584554672241 0.45800584554672241 0.45800584554672241
0.50089383125305176 0.50089383125305176 0.50089383125305176
0.5473557710647583 0.5473557710647583 0.5473557710647583
0.59448599815368652 0.59448599815368652 0.59448599815368652
0.34870606660842896 0.34870606660842896 0.34870606660842896
0.35005199909210205 0.35005199909210205 0.35005199909210205
0.35187593102455139 0.35187593102455139 0.35187593102455139
0.35366815328598022 0.35366815328598022 0.35366815328598022
0.35729673504829407 0.35729673504829407 0.35729673504829407
0.36725497245788574 0.36725497245788574 0.36725497245788574
0.38513180613517761 0.38513180613517761 0.38513180613517761
0.40931376814842224 0.40931376814842224 0.40931376814842224
0.43939533829689026 0.43939533829689026 0.43939533829689026
