luts/instant_pro/polaroid_665_negative_hc.cube
# Created by: G'MIC (https://gmic.eu)
TITLE "polaroid_665_negative_hc"
# LUT size
LUT_3D_SIZE 13
# Data domain
DOMAIN_MIN 0.0 0.0 0.0
DOMAIN_MAX 1.0 1.0 1.0
# LUT data points
0.021278141066431999 0.021278141066431999 0.021278141066431999
0.019581319764256477 0.019581319764256477 0.019581319764256477
0.028232753276824951 0.028232753276824951 0.028232753276824951
0.051465906202793121 0.051465906202793121 0.051465906202793121
0.093252666294574738 0.093252666294574738 0.093252666294574738
0.1498439759016037 0.1498439759016037 0.1498439759016037
0.21111704409122467 0.21111704409122467 0.21111704409122467
0.27180525660514832 0.27180525660514832 0.27180525660514832
0.3307177722454071 0.3307177722454071 0.3307177722454071
0.38920119404792786 0.38920119404792786 0.38920119404792786
0.45169097185134888 0.45169097185134888 0.45169097185134888
0.52366197109222412 0.52366197109222412 0.52366197109222412
0.60182386636734009 0.60182386636734009 0.60182386636734009
0.047530572861433029 0.047530572861433029 0.047530572861433029
0.043942935764789581 0.043942935764789581 0.043942935764789581
0.049904350191354752 0.049904350191354752 0.049904350191354752
0.070882759988307953 0.070882759988307953 0.070882759988307953
0.11176998913288116 0.11176998913288116 0.11176998913288116
0.16793148219585419 0.16793148219585419 0.16793148219585419
0.22946520149707794 0.22946520149707794 0.22946520149707794
0.29011201858520508 0.29011201858520508 0.29011201858520508
0.34765774011611938 0.34765774011611938 0.34765774011611938
0.40417054295539856 0.40417054295539856 0.40417054295539856
0.46444016695022583 0.46444016695022583 0.46444016695022583
0.53383415937423706 0.53383415937423706 0.53383415937423706
0.60942578315734863 0.60942578315734863 0.60942578315734863
0.096790313720703125 0.096790313720703125 0.096790313720703125
0.090447999536991119 0.090447999536991119 0.090447999536991119
0.0903053879737854 0.0903053879737854 0.0903053879737854
0.10613410919904709 0.10613410919904709 0.10613410919904709
0.14437894523143768 0.14437894523143768 0.14437894523143768
0.19791659712791443 0.19791659712791443 0.19791659712791443
0.25840672850608826 0.25840672850608826 0.25840672850608826
0.31720978021621704 0.31720978021621704 0.31720978021621704
0.37228891253471375 0.37228891253471375 0.37228891253471375
0.42751550674438477 0.42751550674438477 0.42751550674438477
0.48700395226478577 0.48700395226478577 0.48700395226478577
0.55342221260070801 0.55342221260070801 0.55342221260070801
0.62428098917007446 0.62428098917007446 0.62428098917007446
0.16573943197727203 0.16573943197727203 0.16573943197727203
0.15630599856376648 0.15630599856376648 0.15630599856376648
0.15106111764907837 0.15106111764907837 0.15106111764907837
0.16095112264156342 0.16095112264156342 0.16095112264156342
0.19340518116950989 0.19340518116950989 0.19340518116950989
0.24150897562503815 0.24150897562503815 0.24150897562503815
0.29696327447891235 0.29696327447891235 0.29696327447891235
0.35114902257919312 0.35114902257919312 0.35114902257919312
0.40247055888175964 0.40247055888175964 0.40247055888175964
0.4558131992816925 0.4558131992816925 0.4558131992816925
0.51435655355453491 0.51435655355453491 0.51435655355453491
0.57839798927307129 0.57839798927307129 0.57839798927307129
0.64538204669952393 0.64538204669952393 0.64538204669952393
0.24369688332080841 0.24369688332080841 0.24369688332080841
0.23398719727993011 0.23398719727993011 0.23398719727993011
0.22776538133621216 0.22776538133621216 0.22776538133621216
0.23401108384132385 0.23401108384132385 0.23401108384132385
0.25694859027862549 0.25694859027862549 0.25694859027862549
0.29464972019195557 0.29464972019195557 0.29464972019195557
0.33978942036628723 0.33978942036628723 0.33978942036628723
0.3869360089302063 0.3869360089302063 0.3869360089302063
0.43407735228538513 0.43407735228538513 0.43407735228538513
0.4859158992767334 0.4859158992767334 0.4859158992767334
0.54402381181716919 0.54402381181716919 0.54402381181716919
0.60686075687408447 0.60686075687408447 0.60686075687408447
0.67109483480453491 0.67109483480453491 0.67109483480453491
0.32573360204696655 0.32573360204696655 0.32573360204696655
0.31735432147979736 0.31735432147979736 0.31735432147979736
0.31156677007675171 0.31156677007675171 0.31156677007675171
0.31418344378471375 0.31418344378471375 0.31418344378471375
0.32901149988174438 0.32901149988174438 0.32901149988174438
0.35391426086425781 0.35391426086425781 0.35391426086425781
0.38659235835075378 0.38659235835075378 0.38659235835075378
0.42404910922050476 0.42404910922050476 0.42404910922050476
0.46701759099960327 0.46701759099960327 0.46701759099960327
0.51778268814086914 0.51778268814086914 0.51778268814086914
0.57588177919387817 0.57588177919387817 0.57588177919387817
0.63805007934570312 0.63805007934570312 0.63805007934570312
0.70042389631271362 0.70042389631271362 0.70042389631271362
0.41105911135673523 0.41105911135673523 0.41105911135673523
0.40384340286254883 0.40384340286254883 0.40384340286254883
0.39840492606163025 0.39840492606163025 0.39840492606163025
0.39805305004119873 0.39805305004119873 0.39805305004119873
0.40521454811096191 0.40521454811096191 0.40521454811096191
0.42000892758369446 0.42000892758369446 0.42000892758369446
0.440940260887146 0.440940260887146 0.440940260887146
0.4680323600769043 0.4680323600769043 0.4680323600769043
0.50482594966888428 0.50482594966888428 0.50482594966888428
0.55348032712936401 0.55348032712936401 0.55348032712936401
0.61048001050949097 0.61048001050949097 0.61048001050949097
0.67184090614318848 0.67184090614318848 0.67184090614318848
0.73202472925186157 0.73202472925186157 0.73202472925186157
0.49796038866043091 0.49796038866043091 0.49796038866043091
0.49192744493484497 0.49192744493484497 0.49192744493484497
0.48658597469329834 0.48658597469329834 0.48658597469329834
0.48419660329818726 0.48419660329818726 0.48419660329818726
0.48602691292762756 0.48602691292762756 0.48602691292762756
0.49333423376083374 0.49333423376083374 0.49333423376083374
0.50541448593139648 0.50541448593139648 0.50541448593139648
0.52375847101211548 0.52375847101211548 0.52375847101211548
0.55350321531295776 0.55350321531295776 0.55350321531295776
0.59775394201278687 0.59775394201278687 0.59775394201278687
0.65039545297622681 0.65039545297622681 0.65039545297622681
0.70667904615402222 0.70667904615402222 0.70667904615402222
0.76287162303924561 0.76287162303924561 0.76287162303924561
0.58436727523803711 0.58436727523803711 0.58436727523803711
0.57958424091339111 0.57958424091339111 0.57958424091339111
0.57450908422470093 0.57450908422470093 0.57450908422470093
0.57081729173660278 0.57081729173660278 0.57081729173660278
0.570148766040802 0.570148766040802 0.570148766040802
0.57289785146713257 0.57289785146713257 0.57289785146713257
0.58010947704315186 0.58010947704315186 0.58010947704315186
0.59314495325088501 0.59314495325088501 0.59314495325088501
0.61672842502593994 0.61672842502593994 0.61672842502593994
0.6525346040725708 0.6525346040725708 0.6525346040725708
0.69632160663604736 0.69632160663604736 0.69632160663604736
0.74376338720321655 0.74376338720321655 0.74376338720321655
0.79156684875488281 0.79156684875488281 0.79156684875488281
0.66862857341766357 0.66862857341766357 0.66862857341766357
0.66502010822296143 0.66502010822296143 0.66502010822296143
0.66054719686508179 0.66054719686508179 0.66054719686508179
0.65664809942245483 0.65664809942245483 0.65664809942245483
0.65479987859725952 0.65479987859725952 0.65479987859725952
0.65619754791259766 0.65619754791259766 0.65619754791259766
0.66124248504638672 0.66124248504638672 0.66124248504638672
0.67097330093383789 0.67097330093383789 0.67097330093383789
0.68829846382141113 0.68829846382141113 0.68829846382141113
0.71346569061279297 0.71346569061279297 0.71346569061279297
0.74560320377349854 0.74560320377349854 0.74560320377349854
0.78280848264694214 0.78280848264694214 0.78280848264694214
0.82099592685699463 0.82099592685699463 0.82099592685699463
0.74858951568603516 0.74858951568603516 0.74858951568603516
0.74633330106735229 0.74633330106735229 0.74633330106735229
0.74242579936981201 0.74242579936981201 0.74242579936981201
0.7389603853225708 0.7389603853225708 0.7389603853225708
0.73732525110244751 0.73732525110244751 0.73732525110244751
0.73843079805374146 0.73843079805374146 0.73843079805374146
0.74290996789932251 0.74290996789932251 0.74290996789932251
0.75004708766937256 0.75004708766937256 0.75004708766937256
0.76029485464096069 0.76029485464096069 0.76029485464096069
0.77590459585189819 0.77590459585189819 0.77590459585189819
0.79692000150680542 0.79692000150680542 0.79692000150680542
0.8226965069770813 0.8226965069770813 0.8226965069770813
0.85210150480270386 0.85210150480270386 0.85210150480270386
0.82376903295516968 0.82376903295516968 0.82376903295516968
0.8219183087348938 0.8219183087348938 0.8219183087348938
0.81848156452178955 0.81848156452178955 0.81848156452178955
0.81559097766876221 0.81559097766876221 0.81559097766876221
0.81440246105194092 0.81440246105194092 0.81440246105194092
0.81593352556228638 0.81593352556228638 0.81593352556228638
0.82004785537719727 0.82004785537719727 0.82004785537719727
0.82500243186950684 0.82500243186950684 0.82500243186950684
0.82940644025802612 0.82940644025802612 0.82940644025802612
0.83600419759750366 0.83600419759750366 0.83600419759750366
0.84730237722396851 0.84730237722396851 0.84730237722396851
0.863880455493927 0.863880455493927 0.863880455493927
0.88476657867431641 0.88476657867431641 0.88476657867431641
0.89194327592849731 0.89194327592849731 0.89194327592849731
0.89009368419647217 0.89009368419647217 0.89009368419647217
0.88704591989517212 0.88704591989517212 0.88704591989517212
0.88439816236495972 0.88439816236495972 0.88439816236495972
0.88355916738510132 0.88355916738510132 0.88355916738510132
0.88481104373931885 0.88481104373931885 0.88481104373931885
0.88815873861312866 0.88815873861312866 0.88815873861312866
0.89045530557632446 0.89045530557632446 0.89045530557632446
0.89049369096755981 0.89049369096755981 0.89049369096755981
0.89142018556594849 0.89142018556594849 0.89142018556594849
0.89591854810714722 0.89591854810714722 0.89591854810714722
0.90503263473510742 0.90503263473510742 0.90503263473510742
0.91906195878982544 0.91906195878982544 0.91906195878982544
0.04240914061665535 0.04240914061665535 0.04240914061665535
0.045341148972511292 0.045341148972511292 0.045341148972511292
0.055734328925609589 0.055734328925609589 0.055734328925609589
0.076519936323165894 0.076519936323165894 0.076519936323165894
0.11694932729005814 0.11694932729005814 0.11694932729005814
0.17575480043888092 0.17575480043888092 0.17575480043888092
0.23791642487049103 0.23791642487049103 0.23791642487049103
0.29741036891937256 0.29741036891937256 0.29741036891937256
0.35370895266532898 0.35370895266532898 0.35370895266532898
0.4091382622718811 0.4091382622718811 0.4091382622718811
0.46757429838180542 0.46757429838180542 0.46757429838180542
0.5359235405921936 0.5359235405921936 0.5359235405921936
0.61145591735839844 0.61145591735839844 0.61145591735839844
0.06579183042049408 0.06579183042049408 0.06579183042049408
0.068861342966556549 0.068861342966556549 0.068861342966556549
0.078615762293338776 0.078615762293338776 0.078615762293338776
0.09904809296131134 0.09904809296131134 0.09904809296131134
0.1376844197511673 0.1376844197511673 0.1376844197511673
0.19320204854011536 0.19320204854011536 0.19320204854011536
0.25471633672714233 0.25471633672714233 0.25471633672714233
0.31361675262451172 0.31361675262451172 0.31361675262451172
0.36869010329246521 0.36869010329246521 0.36869010329246521
0.42185759544372559 0.42185759544372559 0.42185759544372559
0.47839468717575073 0.47839468717575073 0.47839468717575073
0.54482275247573853 0.54482275247573853 0.54482275247573853
0.61845982074737549 0.61845982074737549 0.61845982074737549
0.11929681897163391 0.11929681897163391 0.11929681897163391
0.11840308457612991 0.11840308457612991 0.11840308457612991
0.12217546254396439 0.12217546254396439 0.12217546254396439
0.13842642307281494 0.13842642307281494 0.13842642307281494
0.17327205836772919 0.17327205836772919 0.17327205836772919
0.2239488959312439 0.2239488959312439 0.2239488959312439
0.28166109323501587 0.28166109323501587 0.28166109323501587
0.33805599808692932 0.33805599808692932 0.33805599808692932
0.39080828428268433 0.39080828428268433 0.39080828428268433
0.44302782416343689 0.44302782416343689 0.44302782416343689
0.4995705783367157 0.4995705783367157 0.4995705783367157
0.5633963942527771 0.5633963942527771 0.5633963942527771
0.6325032114982605 0.6325032114982605 0.6325032114982605
0.19574707746505737 0.19574707746505737 0.19574707746505737
0.18873430788516998 0.18873430788516998 0.18873430788516998
0.18503908812999725 0.18503908812999725 0.18503908812999725
0.19457718729972839 0.19457718729972839 0.19457718729972839
0.22270376980304718 0.22270376980304718 0.22270376980304718
0.26581761240959167 0.26581761240959167 0.26581761240959167
0.31728020310401917 0.31728020310401917 0.31728020310401917
0.36873155832290649 0.36873155832290649 0.36873155832290649
0.41811200976371765 0.41811200976371765 0.41811200976371765
0.4688296914100647 0.4688296914100647 0.4688296914100647
0.52489966154098511 0.52489966154098511 0.52489966154098511
0.5867956280708313 0.5867956280708313 0.5867956280708313
0.6519889235496521 0.6519889235496521 0.6519889235496521
0.27533504366874695 0.27533504366874695 0.27533504366874695
0.26672938466072083 0.26672938466072083 0.26672938466072083
0.26059982180595398 0.26059982180595398 0.26059982180595398
0.26427394151687622 0.26427394151687622 0.26427394151687622
0.28367248177528381 0.28367248177528381 0.28367248177528381
0.31647929549217224 0.31647929549217224 0.31647929549217224
0.35777875781059265 0.35777875781059265 0.35777875781059265
0.40187647938728333 0.40187647938728333 0.40187647938728333
0.44689780473709106 0.44689780473709106 0.44689780473709106
0.49658477306365967 0.49658477306365967 0.49658477306365967
0.55233234167098999 0.55233234167098999 0.55233234167098999
0.61324423551559448 0.61324423551559448 0.61324423551559448
0.675750732421875 0.675750732421875 0.675750732421875
0.35572037100791931 0.35572037100791931 0.35572037100791931
0.34772926568984985 0.34772926568984985 0.34772926568984985
0.34093832969665527 0.34093832969665527 0.34093832969665527
0.34131601452827454 0.34131601452827454 0.34131601452827454
0.35239210724830627 0.35239210724830627 0.35239210724830627
0.37364950776100159 0.37364950776100159 0.37364950776100159
0.40285062789916992 0.40285062789916992 0.40285062789916992
0.43707036972045898 0.43707036972045898 0.43707036972045898
0.47735121846199036 0.47735121846199036 0.47735121846199036
0.52609443664550781 0.52609443664550781 0.52609443664550781
0.58194136619567871 0.58194136619567871 0.58194136619567871
0.64215749502182007 0.64215749502182007 0.64215749502182007
0.70268279314041138 0.70268279314041138 0.70268279314041138
0.43934756517410278 0.43934756517410278 0.43934756517410278
0.43191441893577576 0.43191441893577576 0.43191441893577576
0.42502310872077942 0.42502310872077942 0.42502310872077942
0.42236632108688354 0.42236632108688354 0.42236632108688354
0.42629122734069824 0.42629122734069824 0.42629122734069824
0.43761959671974182 0.43761959671974182 0.43761959671974182
0.45496079325675964 0.45496079325675964 0.45496079325675964
0.47867041826248169 0.47867041826248169 0.47867041826248169
0.51304507255554199 0.51304507255554199 0.51304507255554199
0.55976492166519165 0.55976492166519165 0.55976492166519165
0.61499899625778198 0.61499899625778198 0.61499899625778198
0.6736222505569458 0.6736222505569458 0.6736222505569458
0.73168045282363892 0.73168045282363892 0.73168045282363892
0.52431893348693848 0.52431893348693848 0.52431893348693848
0.51791083812713623 0.51791083812713623 0.51791083812713623
0.51081281900405884 0.51081281900405884 0.51081281900405884
0.50578314065933228 0.50578314065933228 0.50578314065933228
0.5047033429145813 0.5047033429145813 0.5047033429145813
0.50883334875106812 0.50883334875106812 0.50883334875106812
0.51754069328308105 0.51754069328308105 0.51754069328308105
0.53254944086074829 0.53254944086074829 0.53254944086074829
0.55900239944458008 0.55900239944458008 0.55900239944458008
0.6021658182144165 0.6021658182144165 0.6021658182144165
0.65328091382980347 0.65328091382980347 0.65328091382980347
0.70727193355560303 0.70727193355560303 0.70727193355560303
0.76077508926391602 0.76077508926391602 0.76077508926391602
0.60850381851196289 0.60850381851196289 0.60850381851196289
0.6029123067855835 0.6029123067855835 0.6029123067855835
0.59608691930770874 0.59608691930770874 0.59608691930770874
0.58996248245239258 0.58996248245239258 0.58996248245239258
0.58651846647262573 0.58651846647262573 0.58651846647262573
0.58618813753128052 0.58618813753128052 0.58618813753128052
0.59030437469482422 0.59030437469482422 0.59030437469482422
0.60057753324508667 0.60057753324508667 0.60057753324508667
0.62157738208770752 0.62157738208770752 0.62157738208770752
0.65531641244888306 0.65531641244888306 0.65531641244888306
0.69763851165771484 0.69763851165771484 0.69763851165771484
0.7435908317565918 0.7435908317565918 0.7435908317565918
0.78962117433547974 0.78962117433547974 0.78962117433547974
0.68936902284622192 0.68936902284622192 0.68936902284622192
0.68480336666107178 0.68480336666107178 0.68480336666107178
0.67884540557861328 0.67884540557861328 0.67884540557861328
0.67281419038772583 0.67281419038772583 0.67281419038772583
0.66840827465057373 0.66840827465057373 0.66840827465057373
0.66706293821334839 0.66706293821334839 0.66706293821334839
0.66921705007553101 0.66921705007553101 0.66921705007553101
0.67668509483337402 0.67668509483337402 0.67668509483337402
0.69151812791824341 0.69151812791824341 0.69151812791824341
0.71532362699508667 0.71532362699508667 0.71532362699508667
0.7464146614074707 0.7464146614074707 0.7464146614074707
0.78215920925140381 0.78215920925140381 0.78215920925140381
0.81925982236862183 0.81925982236862183 0.81925982236862183
0.7653430700302124 0.7653430700302124 0.7653430700302124
0.76185518503189087 0.76185518503189087 0.76185518503189087
0.75681686401367188 0.75681686401367188 0.75681686401367188
0.75162148475646973 0.75162148475646973 0.75162148475646973
0.74782401323318481 0.74782401323318481 0.74782401323318481
0.74674957990646362 0.74674957990646362 0.74674957990646362
0.74817019701004028 0.74817019701004028 0.74817019701004028
0.75309294462203979 0.75309294462203979 0.75309294462203979
0.76197898387908936 0.76197898387908936 0.76197898387908936
0.77643036842346191 0.77643036842346191 0.77643036842346191
0.79691624641418457 0.79691624641418457 0.79691624641418457
0.82183384895324707 0.82183384895324707 0.82183384895324707
0.85053622722625732 0.85053622722625732 0.85053622722625732
0.83511579036712646 0.83511579036712646 0.83511579036712646
0.83280092477798462 0.83280092477798462 0.83280092477798462
0.82865959405899048 0.82865959405899048 0.82865959405899048
0.82446008920669556 0.82446008920669556 0.82446008920669556
0.82162606716156006 0.82162606716156006 0.82162606716156006
0.82098984718322754 0.82098984718322754 0.82098984718322754
0.8223453164100647 0.8223453164100647 0.8223453164100647
0.82493776082992554 0.82493776082992554 0.82493776082992554
0.82856398820877075 0.82856398820877075 0.82856398820877075
0.83543515205383301 0.83543515205383301 0.83543515205383301
0.84638363122940063 0.84638363122940063 0.84638363122940063
0.86275011301040649 0.86275011301040649 0.86275011301040649
0.88333797454833984 0.88333797454833984 0.88333797454833984
0.89801907539367676 0.89801907539367676 0.89801907539367676
0.8965485692024231 0.8965485692024231 0.8965485692024231
0.89317107200622559 0.89317107200622559 0.89317107200622559
0.88998788595199585 0.88998788595199585 0.88998788595199585
0.88784432411193848 0.88784432411193848 0.88784432411193848
0.88678503036499023 0.88678503036499023 0.88678503036499023
0.88757610321044922 0.88757610321044922 0.88757610321044922
0.8883320689201355 0.8883320689201355 0.8883320689201355
0.88828986883163452 0.88828986883163452 0.88828986883163452
0.88955581188201904 0.88955581188201904 0.88955581188201904
0.89402836561203003 0.89402836561203003 0.89402836561203003
0.90317308902740479 0.90317308902740479 0.90317308902740479
0.91760009527206421 0.91760009527206421 0.91760009527206421
0.083473727107048035 0.083473727107048035 0.083473727107048035
0.094132363796234131 0.094132363796234131 0.094132363796234131
0.10793325304985046 0.10793325304985046 0.10793325304985046
0.12155721336603165 0.12155721336603165 0.12155721336603165
0.15346907079219818 0.15346907079219818 0.15346907079219818
0.20924070477485657 0.20924070477485657 0.20924070477485657
0.27150654792785645 0.27150654792785645 0.27150654792785645
0.33032757043838501 0.33032757043838501 0.33032757043838501
0.38493451476097107 0.38493451476097107 0.38493451476097107
0.4385867714881897 0.4385867714881897 0.4385867714881897
0.49546906352043152 0.49546906352043152 0.49546906352043152
0.55937892198562622 0.55937892198562622 0.55937892198562622
0.6286436915397644 0.6286436915397644 0.6286436915397644
0.099920891225337982 0.099920891225337982 0.099920891225337982
0.11321360617876053 0.11321360617876053 0.11321360617876053
0.12927348911762238 0.12927348911762238 0.12927348911762238
0.14726494252681732 0.14726494252681732 0.14726494252681732
0.17818689346313477 0.17818689346313477 0.17818689346313477
0.22839294373989105 0.22839294373989105 0.22839294373989105
0.28786739706993103 0.28786739706993103 0.28786739706993103
0.3452281653881073 0.3452281653881073 0.3452281653881073
0.39751315116882324 0.39751315116882324 0.39751315116882324
0.44876694679260254 0.44876694679260254 0.44876694679260254
0.50377726554870605 0.50377726554870605 0.50377726554870605
0.56621861457824707 0.56621861457824707 0.56621861457824707
0.63429361581802368 0.63429361581802368 0.63429361581802368
0.15249162912368774 0.15249162912368774 0.15249162912368774
0.16047172248363495 0.16047172248363495 0.16047172248363495
0.17074637115001678 0.17074637115001678 0.17074637115001678
0.18663226068019867 0.18663226068019867 0.18663226068019867
0.21518102288246155 0.21518102288246155 0.21518102288246155
0.25919684767723083 0.25919684767723083 0.25919684767723083
0.31263256072998047 0.31263256072998047 0.31263256072998047
0.36588746309280396 0.36588746309280396 0.36588746309280396
0.41612491011619568 0.41612491011619568 0.41612491011619568
0.46591463685035706 0.46591463685035706 0.46591463685035706
0.52007496356964111 0.52007496356964111 0.52007496356964111
0.58098459243774414 0.58098459243774414 0.58098459243774414
0.64602535963058472 0.64602535963058472 0.64602535963058472
0.23042859137058258 0.23042859137058258 0.23042859137058258
0.22933274507522583 0.22933274507522583 0.22933274507522583
0.23027132451534271 0.23027132451534271 0.23027132451534271
0.2399284690618515 0.2399284690618515 0.2399284690618515
0.26284497976303101 0.26284497976303101 0.26284497976303101
0.29938247799873352 0.29938247799873352 0.29938247799873352
0.34473726153373718 0.34473726153373718 0.34473726153373718
0.39235866069793701 0.39235866069793701 0.39235866069793701
0.43932414054870605 0.43932414054870605 0.43932414054870605
0.4882112443447113 0.4882112443447113 0.4882112443447113
0.54195725917816162 0.54195725917816162 0.54195725917816162
0.60062015056610107 0.60062015056610107 0.60062015056610107
0.66303366422653198 0.66303366422653198 0.66303366422653198
0.30986058712005615 0.30986058712005615 0.30986058712005615
0.30481162667274475 0.30481162667274475 0.30481162667274475
0.30057629942893982 0.30057629942893982 0.30057629942893982
0.30439993739128113 0.30439993739128113 0.30439993739128113
0.31998527050018311 0.31998527050018311 0.31998527050018311
0.34744402766227722 0.34744402766227722 0.34744402766227722
0.38323894143104553 0.38323894143104553 0.38323894143104553
0.42309924960136414 0.42309924960136414 0.42309924960136414
