luts/colorslide/agfa_precisa_100.cube
# Created by: G'MIC (https://gmic.eu)
TITLE "agfa_precisa_100"
# LUT size
LUT_3D_SIZE 7
# Data domain
DOMAIN_MIN 0.0 0.0 0.0
DOMAIN_MAX 1.0 1.0 1.0
# LUT data points
0.030907485634088516 0.02765178307890892 0.026616040617227554
0.12979936599731445 0.032239548861980438 0.023881096392869949
0.25822332501411438 0.040076401084661484 0.035300940275192261
0.41888847947120667 0.052052725106477737 0.066229484975337982
0.60589981079101562 0.069186113774776459 0.11640756577253342
0.78855037689208984 0.096445254981517792 0.16535350680351257
0.95233100652694702 0.12254782021045685 0.20680758357048035
0.092674523591995239 0.14429700374603271 0.0641341432929039
0.15881957113742828 0.15027345716953278 0.066379889845848083
0.28622454404830933 0.16015274822711945 0.070154093205928802
0.44385823607444763 0.1702500581741333 0.069264493882656097
0.63109606504440308 0.17300970852375031 0.10086801648139954
0.80152803659439087 0.14504590630531311 0.15484420955181122
0.9564131498336792 0.12795290350914001 0.20699919760227203
0.11562663316726685 0.29264518618583679 0.12498892843723297
0.1889072060585022 0.29614761471748352 0.12000454217195511
0.31989243626594543 0.31323960423469543 0.12016088515520096
0.47561651468276978 0.32315310835838318 0.11025825887918472
0.66124480962753296 0.32352414727210999 0.092448949813842773
0.8317943811416626 0.29855054616928101 0.11815708875656128
0.97230172157287598 0.23191563785076141 0.18206652998924255
0.1447564959526062 0.47989040613174438 0.18564262986183167
0.22591079771518707 0.48827299475669861 0.18494150042533875
0.35601148009300232 0.49679666757583618 0.18026003241539001
0.51377445459365845 0.51580888032913208 0.15894031524658203
0.68694806098937988 0.52324706315994263 0.12536036968231201
0.86032116413116455 0.51965731382369995 0.080111920833587646
0.99035751819610596 0.46656489372253418 0.11244522035121918
0.22985617816448212 0.66805732250213623 0.28362831473350525
0.29358521103858948 0.68075495958328247 0.28113552927970886
0.4149664044380188 0.68815380334854126 0.27750164270401001
0.56135088205337524 0.7039107084274292 0.25742581486701965
0.71742570400238037 0.72417056560516357 0.20027469098567963
0.87646579742431641 0.73936909437179565 0.092859990894794464
0.99638420343399048 0.74268472194671631 0.03065439872443676
0.37272423505783081 0.83557665348052979 0.42067292332649231
0.4200805127620697 0.84654408693313599 0.42117035388946533
0.50770705938339233 0.8503296971321106 0.41618701815605164
0.62934577465057373 0.86713337898254395 0.4020572304725647
0.75223284959793091 0.88669872283935547 0.35770049691200256
0.8894914984703064 0.9154934287071228 0.2485509067773819
0.99727678298950195 0.9537845253944397 0.013564165681600571
0.55482518672943115 0.96699589490890503 0.60779780149459839
0.57827270030975342 0.9706835150718689 0.60499018430709839
0.63384902477264404 0.97410714626312256 0.60231441259384155
0.71357333660125732 0.98499268293380737 0.59636563062667847
0.81225645542144775 0.9950067400932312 0.57432436943054199
0.92504453659057617 0.99663060903549194 0.52028036117553711
0.9980655312538147 1 0.32976493239402771
0.024158492684364319 0.025237243622541428 0.10199263691902161
0.11914650350809097 0.030390078201889992 0.10277072340250015
0.25215572118759155 0.039423249661922455 0.10102713853120804
0.41425380110740662 0.052735168486833572 0.096979327499866486
0.61046522855758667 0.070841819047927856 0.12045703828334808
0.7887997031211853 0.097528629004955292 0.16449983417987823
0.95575511455535889 0.1239289790391922 0.20936240255832672
0.084761373698711395 0.138753741979599 0.14367896318435669
0.14605040848255157 0.14223437011241913 0.14422497153282166
0.27812570333480835 0.1555124819278717 0.14472037553787231
0.43794342875480652 0.16745492815971375 0.14680387079715729
0.62878656387329102 0.17345699667930603 0.12672020494937897
0.80511033535003662 0.15549200773239136 0.15339821577072144
0.96276760101318359 0.12810227274894714 0.21038183569908142
0.11058434844017029 0.28606322407722473 0.18854370713233948
0.1787339448928833 0.29216444492340088 0.19082199037075043
0.30939477682113647 0.3044445812702179 0.19017679989337921
0.47309285402297974 0.31861570477485657 0.1797078549861908
0.65426337718963623 0.31821560859680176 0.15483865141868591
0.83631014823913574 0.30633711814880371 0.12586319446563721
0.97959673404693604 0.24401777982711792 0.18127240240573883
0.12670835852622986 0.47528451681137085 0.24925732612609863
0.21641039848327637 0.4788094162940979 0.25126957893371582
0.34580686688423157 0.4882904589176178 0.24922613799571991
0.50753110647201538 0.50690537691116333 0.23615220189094543
0.68014693260192871 0.51438480615615845 0.19377219676971436
0.85868585109710693 0.5229761004447937 0.12949983775615692
0.9905620813369751 0.48417723178863525 0.1099233403801918
0.21445788443088531 0.66653847694396973 0.34214535355567932
0.28206619620323181 0.66859418153762817 0.33988368511199951
0.4083864688873291 0.67958641052246094 0.3373013436794281
0.55231362581253052 0.69484877586364746 0.3221619725227356
0.70758473873138428 0.70925188064575195 0.28659459948539734
0.87343114614486694 0.7334715723991394 0.17832757532596588
0.99514210224151611 0.74893808364868164 0.041879825294017792
0.37604784965515137 0.82912743091583252 0.47583630681037903
0.41206851601600647 0.83612996339797974 0.46758776903152466
0.49996036291122437 0.84289014339447021 0.46124562621116638
0.62283813953399658 0.85850507020950317 0.4559321403503418
0.74718385934829712 0.88061797618865967 0.42061129212379456
0.88518244028091431 0.90526974201202393 0.32672089338302612
0.99707412719726562 0.94436919689178467 0.06857714056968689
0.55312126874923706 0.96203875541687012 0.63404649496078491
0.57793205976486206 0.96291446685791016 0.63548004627227783
0.63311523199081421 0.97229480743408203 0.63415634632110596
0.71277046203613281 0.9781334400177002 0.62932878732681274
0.80873674154281616 0.9905390739440918 0.61281871795654297
0.91974592208862305 0.99721646308898926 0.57064026594161987
0.99886441230773926 1 0.40983918309211731
0.01877155713737011 0.018558338284492493 0.19361287355422974
0.10147164762020111 0.024468515068292618 0.19281670451164246
0.23866546154022217 0.033025193959474564 0.19582183659076691
0.40496250987052917 0.039854835718870163 0.18754346668720245
0.60649460554122925 0.062211308628320694 0.16986097395420074
0.79287314414978027 0.094349279999732971 0.17080147564411163
0.95872843265533447 0.12280283868312836 0.21118825674057007
0.068330623209476471 0.13297475874423981 0.24261090159416199
0.1313062459230423 0.13433033227920532 0.24135373532772064
0.26754650473594666 0.15096761286258698 0.24334517121315002
0.42594265937805176 0.15774768590927124 0.24091348052024841
0.62285202741622925 0.16592295467853546 0.21949124336242676
0.80935323238372803 0.16333454847335815 0.17740634083747864
0.96564054489135742 0.13282506167888641 0.20952311158180237
0.099808245897293091 0.27831622958183289 0.28721559047698975
0.16070011258125305 0.28239345550537109 0.28841254115104675
0.29894152283668518 0.29677218198776245 0.2940138578414917
0.46172180771827698 0.30807161331176758 0.28729990124702454
0.64763861894607544 0.31364136934280396 0.25954774022102356
0.82781791687011719 0.30675312876701355 0.2044348269701004
0.97918415069580078 0.26420196890830994 0.17889685928821564
0.10911886394023895 0.46582862734794617 0.34616738557815552
0.19172649085521698 0.46895557641983032 0.34883010387420654
0.33452132344245911 0.47748228907585144 0.35368436574935913
0.50287950038909912 0.49023431539535522 0.34663128852844238
0.67214798927307129 0.49711602926254272 0.31566369533538818
0.84467935562133789 0.51030892133712769 0.24710974097251892
0.99314355850219727 0.49490562081336975 0.13365115225315094
0.1925329864025116 0.65404200553894043 0.42980429530143738
0.26418676972389221 0.65485787391662598 0.43015438318252563
0.39294296503067017 0.66474473476409912 0.43513542413711548
0.54735112190246582 0.68068081140518188 0.43011200428009033
0.69751310348510742 0.69183564186096191 0.40720102190971375
0.86160969734191895 0.71484410762786865 0.32885155081748962
0.99324452877044678 0.73465168476104736 0.14354157447814941
0.35875323414802551 0.81947928667068481 0.54128396511077881
0.40326806902885437 0.82299476861953735 0.54116606712341309
0.48791101574897766 0.82912600040435791 0.54300945997238159
0.60822427272796631 0.8442574143409729 0.5375596284866333
0.73972916603088379 0.85968542098999023 0.51692098379135132
0.87711924314498901 0.88674074411392212 0.45967316627502441
0.99567228555679321 0.92141121625900269 0.27955818176269531
0.54789698123931885 0.95180916786193848 0.6845899224281311
0.57556545734405518 0.95403873920440674 0.68760722875595093
0.63104742765426636 0.96139270067214966 0.68908065557479858
0.70876657962799072 0.97027570009231567 0.68725639581680298
0.80420011281967163 0.98212987184524536 0.67479485273361206
0.90993255376815796 0.99476158618927002 0.6445806622505188
0.9970390796661377 0.99943488836288452 0.52828902006149292
0.011655395850539207 0.011330218985676765 0.30721500515937805
0.079372674226760864 0.016221124678850174 0.30842775106430054
0.21658669412136078 0.025691552087664604 0.31233260035514832
0.38710230588912964 0.026696538552641869 0.30965003371238708
0.59399092197418213 0.040037926286458969 0.29156836867332458
0.78867942094802856 0.079910188913345337 0.23102504014968872
0.96043741703033447 0.1209915429353714 0.21533876657485962
0.047365721315145493 0.11749532073736191 0.35344424843788147
0.11000500619411469 0.12342988699674606 0.35692554712295532
0.24336786568164825 0.13633568584918976 0.36434841156005859
0.41423794627189636 0.14168393611907959 0.36686116456985474
0.610973060131073 0.14979560673236847 0.35412779450416565
0.79756587743759155 0.15095479786396027 0.29885086417198181
0.9690660834312439 0.13911937177181244 0.2221224308013916
0.085058949887752533 0.27413785457611084 0.40418881177902222
0.13473443686962128 0.27331104874610901 0.40765443444252014
0.27331057190895081 0.28649795055389404 0.41824796795845032
0.4474998414516449 0.28952294588088989 0.41746225953102112
0.6331368088722229 0.29528599977493286 0.40474015474319458
0.8111758828163147 0.296304851770401 0.36003571748733521
0.97749292850494385 0.26657158136367798 0.24838776886463165
0.070931285619735718 0.45618963241577148 0.46225431561470032
0.15264013409614563 0.4621218740940094 0.46873688697814941
0.31004273891448975 0.47096940875053406 0.47678253054618835
0.48823407292366028 0.47541677951812744 0.47256603837013245
0.66112214326858521 0.4823860228061676 0.4607548713684082
0.83072412014007568 0.49456867575645447 0.42104417085647583
0.9840582013130188 0.48136302828788757 0.29743757843971252
0.1465785801410675 0.64126467704772949 0.53405630588531494
0.23539096117019653 0.64486038684844971 0.54036444425582886
0.3731502890586853 0.65414643287658691 0.5460624098777771
0.52995765209197998 0.66762620210647583 0.5448184609413147
0.69159114360809326 0.67895650863647461 0.53409421443939209
0.84854292869567871 0.69414478540420532 0.49758619070053101
0.99017465114593506 0.70653724670410156 0.37117457389831543
0.33223006129264832 0.81035023927688599 0.62226831912994385
0.38009694218635559 0.80929219722747803 0.62709063291549683
0.48452496528625488 0.81984603404998779 0.6386299729347229
0.5997612476348877 0.8335728645324707 0.63427877426147461
0.73270827531814575 0.84346854686737061 0.62370365858078003
0.86521929502487183 0.86483222246170044 0.59564888477325439
0.98881286382675171 0.89029741287231445 0.48396778106689453
0.54239660501480103 0.94193631410598755 0.74584543704986572
0.56546145677566528 0.94353556632995605 0.74663060903549194
0.62447428703308105 0.95191097259521484 0.75039851665496826
0.70118308067321777 0.96046537160873413 0.74989968538284302
0.79869228601455688 0.97485208511352539 0.75211787223815918
0.90315240621566772 0.98768991231918335 0.7335280179977417
0.99146836996078491 0.99627161026000977 0.65409225225448608
0.0022739635314792395 0.0081468764692544937 0.43885201215744019
0.050340570509433746 0.010230300016701221 0.4455018937587738
0.18215715885162354 0.01210422907024622 0.45817792415618896
0.36071610450744629 0.016469588503241539 0.4660375714302063
0.57046270370483398 0.022568361833691597 0.46327915787696838
0.76498329639434814 0.036941796541213989 0.41582545638084412
0.95789456367492676 0.10575666278600693 0.28256234526634216
0.024296630173921585 0.10963147878646851 0.48574742674827576
0.077351361513137817 0.11427118629217148 0.49252438545227051
0.21160998940467834 0.12248162925243378 0.50411474704742432
0.38616529107093811 0.12442362308502197 0.51685774326324463
0.58783215284347534 0.13032576441764832 0.5156891942024231
0.77172601222991943 0.12350647896528244 0.48442038893699646
0.9529842734336853 0.11185523867607117 0.38054731488227844
0.063090488314628601 0.25987955927848816 0.52906268835067749
0.10925205051898956 0.26730790734291077 0.53920763731002808
0.23703309893608093 0.27338492870330811 0.5523180365562439
0.41734656691551208 0.2815282940864563 0.5660862922668457
0.60729449987411499 0.28188374638557434 0.56426709890365601
0.78851711750030518 0.2745533287525177 0.53946048021316528
0.96400487422943115 0.24139986932277679 0.45236241817474365
0.032937727868556976 0.44714230298995972 0.57756572961807251
0.10126902163028717 0.45232099294662476 0.58601522445678711
0.26959702372550964 0.46208646893501282 0.5979839563369751
0.45107001066207886 0.46955141425132751 0.60723400115966797
0.63485866785049438 0.4737190306186676 0.61251866817474365
0.81047368049621582 0.47243806719779968 0.59713000059127808
0.97283995151519775 0.45704638957977295 0.52213853597640991
0.083900749683380127 0.63269186019897461 0.6345665454864502
0.17540055513381958 0.63580673933029175 0.64238131046295166
0.33450910449028015 0.64636462926864624 0.65253293514251709
0.5039483904838562 0.65427690744400024 0.66226404905319214
0.67141282558441162 0.66185736656188965 0.66703808307647705
0.83348137140274048 0.67504429817199707 0.65398949384689331
0.97913384437561035 0.67912167310714722 0.58772373199462891
0.29905268549919128 0.8003113865852356 0.70667546987533569
0.35054561495780945 0.79935193061828613 0.71210521459579468
0.45709756016731262 0.80866819620132446 0.72530323266983032
0.58483892679214478 0.8171200156211853 0.73058056831359863
0.71929854154586792 0.83596444129943848 0.73130983114242554
0.85463076829910278 0.84742271900177002 0.71878838539123535
0.98071199655532837 0.86110645532608032 0.66264903545379639
0.53343331813812256 0.93285650014877319 0.80776810646057129
0.55521410703659058 0.93252211809158325 0.80757755041122437
0.6140863299369812 0.94170224666595459 0.81364434957504272
0.69687002897262573 0.95199871063232422 0.82150644063949585
0.794097900390625 0.96106183528900146 0.82618838548660278
0.89642399549484253 0.97471439838409424 0.82416331768035889
0.9861413836479187 0.99058389663696289 0.76999962329864502
0.0018734801560640335 0.0069051557220518589 0.5717780590057373
0.02154216356575489 0.0074353986419737339 0.58768647909164429
0.14422549307346344 0.010274759493768215 0.60481661558151245
0.32906714081764221 0.0088517135009169579 0.63104653358459473
0.53842240571975708 0.013822234235703945 0.63823264837265015
0.73809432983398438 0.01013469323515892 0.6277347207069397
0.93293541669845581 0.040424808859825134 0.52122843265533447
0.0076068802736699581 0.10904708504676819 0.60840308666229248
0.047280106693506241 0.11543045192956924 0.62113314867019653
0.16396862268447876 0.11867229640483856 0.63799846172332764
0.35174685716629028 0.12452179938554764 0.6642950177192688
0.55693888664245605 0.11826943606138229 0.67970007658004761
0.74587547779083252 0.10339356958866119 0.68075758218765259
0.92321813106536865 0.068927884101867676 0.62043076753616333
0.032311953604221344 0.26211860775947571 0.64271062612533569
0.076008230447769165 0.26599472761154175 0.65297108888626099
0.18658231198787689 0.27229422330856323 0.66999202966690063
0.37498602271080017 0.28190094232559204 0.6971818208694458
0.57777589559555054 0.2769731879234314 0.71794086694717407
0.76184618473052979 0.26424413919448853 0.72047942876815796
0.93804895877838135 0.22024841606616974 0.68550920486450195
0.0058963103219866753 0.44136625528335571 0.67888981103897095
0.041578464210033417 0.44834265112876892 0.68971091508865356
0.20787152647972107 0.45506185293197632 0.70499521493911743
0.41120195388793945 0.46896049380302429 0.72622549533843994
0.61094218492507935 0.47570669651031494 0.74700212478637695
0.79056555032730103 0.46901485323905945 0.74970102310180664
0.95505434274673462 0.44062656164169312 0.72989827394485474
0.016072021797299385 0.62701857089996338 0.72691303491592407
0.091614097356796265 0.62945938110351562 0.73365026712417603
0.28628244996070862 0.63503932952880859 0.74687892198562622
0.46951746940612793 0.64815938472747803 0.76477998495101929
0.64877331256866455 0.66006910800933838 0.78393030166625977
0.80897361040115356 0.66285961866378784 0.79345297813415527
0.96299451589584351 0.65695053339004517 0.76928853988647461
0.23335415124893188 0.79102033376693726 0.78467768430709839
0.30223414301872253 0.79117482900619507 0.78971415758132935
0.42015600204467773 0.79988259077072144 0.80052536725997925
0.55490291118621826 0.80849999189376831 0.81558048725128174
0.70201992988586426 0.82314848899841309 0.82912278175354004
0.83648604154586792 0.83104497194290161 0.83753925561904907
0.97037231922149658 0.84203505516052246 0.81446200609207153
0.51182752847671509 0.9243539571762085 0.86010104417800903
0.53888273239135742 0.92430645227432251 0.86168438196182251
0.60186123847961426 0.93297421932220459 0.86982160806655884
0.68417918682098389 0.94304585456848145 0.87906002998352051
0.77844464778900146 0.95086324214935303 0.89092797040939331
0.88533788919448853 0.96504467725753784 0.90118861198425293
0.97814017534255981 0.97848284244537354 0.88085925579071045
0 0.011483465321362019 0.69145959615707397
0.003878230694681406 0.0090307202190160751 0.70723468065261841
0.10051114112138748 0.0146700544282794 0.73159432411193848
0.28835338354110718 0.013296733610332012 0.76482373476028442
0.50470519065856934 0.011806083843111992 0.79771506786346436
0.70861011743545532 0.011281152255833149 0.81602489948272705
0.89377331733703613 0.0025942784268409014 0.78190970420837402
0.0023328594397753477 0.11827751249074936 0.71469259262084961
0.017067179083824158 0.12066212296485901 0.7268146276473999
0.12331979721784592 0.12911522388458252 0.75335121154785156
0.30918779969215393 0.13373208045959473 0.78676283359527588
0.5220869779586792 0.13095737993717194 0.82180583477020264
0.71954429149627686 0.10440289229154587 0.85089749097824097
0.89741486310958862 0.053411372005939484 0.84347093105316162
0.010472466237843037 0.27330958843231201 0.74155354499816895
0.030358931049704552 0.27372047305107117 0.75299513339996338
0.12032180279493332 0.28281602263450623 0.7761499285697937
0.3267173171043396 0.29072284698486328 0.80782055854797363
0.54299706220626831 0.29359003901481628 0.84483897686004639
0.73886692523956299 0.27753046154975891 0.87012869119644165
0.91249293088912964 0.22529356181621552 0.880329430103302
0.0038165522273629904 0.45158901810646057 0.76717597246170044
0.0027082704473286867 0.45490974187850952 0.77873325347900391
0.11499811708927155 0.46157801151275635 0.79999536275863647
0.36070767045021057 0.47255799174308777 0.82605892419815063
0.57838648557662964 0.48398888111114502 0.86224424839019775
0.76323497295379639 0.47842752933502197 0.88693690299987793
0.93196165561676025 0.44712823629379272 0.90130794048309326
0.0020419701468199492 0.62602633237838745 0.80191868543624878
0.0090708862990140915 0.63135260343551636 0.80989634990692139
0.1899406909942627 0.63861995935440063 0.82629853487014771
0.42529010772705078 0.65065526962280273 0.84855741262435913
0.61244821548461914 0.65955483913421631 0.87960147857666016
0.78817629814147949 0.66003674268722534 0.90304535627365112
0.94541549682617188 0.65331852436065674 0.91933530569076538
0.099447943270206451 0.78851509094238281 0.84273314476013184
0.19595429301261902 0.79249387979507446 0.85048747062683105
0.34870174527168274 0.7969430685043335 0.86306083202362061
0.5148996114730835 0.81059414148330688 0.88307046890258789
0.66594380140304565 0.81957012414932251 0.90453273057937622
0.81920319795608521 0.83028191328048706 0.92883419990539551
0.95647764205932617 0.82993453741073608 0.93836963176727295
0.46629288792610168 0.91825294494628906 0.89650219678878784
0.49706634879112244 0.92097127437591553 0.90109354257583618
0.56173384189605713 0.92719340324401855 0.90997248888015747
0.65308123826980591 0.93422430753707886 0.92157262563705444
0.76013195514678955 0.94629698991775513 0.93968707323074341
0.87179785966873169 0.95809918642044067 0.95869731903076172
0.9724845290184021 0.9695972204208374 0.96916431188583374
