luts/colorslide/agfa_precisa_100.cube
# Created by: G'MIC (https://gmic.eu)
TITLE "agfa_precisa_100"
# LUT size
LUT_3D_SIZE 5
# Data domain
DOMAIN_MIN 0.0 0.0 0.0
DOMAIN_MAX 1.0 1.0 1.0
# LUT data points
0.030907485634088516 0.02765178307890892 0.026616040617227554
0.19070440530776978 0.036178499460220337 0.024261385202407837
0.41888847947120667 0.052052725106477737 0.066229484975337982
0.6991722583770752 0.083442538976669312 0.14155231416225433
0.95233100652694702 0.12254782021045685 0.20680758357048035
0.11630541086196899 0.21172112226486206 0.090400636196136475
0.23573912680149078 0.22902826964855194 0.095378264784812927
0.45808824896812439 0.23874683678150177 0.08958696573972702
0.73526591062545776 0.23271362483501434 0.11129877716302872
0.96343612670898438 0.154217928647995 0.20205157995223999
0.1447564959526062 0.47989040613174438 0.18564262986183167
0.28441587090492249 0.48982429504394531 0.18422728776931763
0.51377445459365845 0.51580888032913208 0.15894031524658203
0.77596104145050049 0.52400022745132446 0.10223783552646637
0.99035751819610596 0.46656489372253418 0.11244522035121918
0.29229876399040222 0.75647640228271484 0.3443208634853363
0.40299510955810547 0.7709929347038269 0.34814292192459106
0.59407228231430054 0.79176712036132812 0.32387593388557434
0.80663031339645386 0.8214792013168335 0.21604050695896149
0.99411040544509888 0.85831516981124878 0.010743638500571251
0.55482518672943115 0.96699589490890503 0.60779780149459839
0.60311305522918701 0.97266465425491333 0.60500317811965942
0.71357333660125732 0.98499268293380737 0.59636563062667847
0.86729812622070312 0.99615490436553955 0.55236184597015381
0.9980655312538147 1 0.32976493239402771
0.019519716501235962 0.022309068590402603 0.14466409385204315
0.17206455767154694 0.030162198469042778 0.14521251618862152
0.41186583042144775 0.047394383698701859 0.1414019912481308
0.70288378000259399 0.08338107168674469 0.14726285636425018
0.95777970552444458 0.12391064316034317 0.20970623195171356
0.1002499908208847 0.20455028116703033 0.21274366974830627
0.21809069812297821 0.21445155143737793 0.21306613087654114
0.44559204578399658 0.23240047693252563 0.21110460162162781
0.73180824518203735 0.23421947658061981 0.16474145650863647
0.96954858303070068 0.17212244868278503 0.20066644251346588
0.11884595453739166 0.47068116068840027 0.29476246237754822
0.26775628328323364 0.47795432806015015 0.29620456695556641
0.50554132461547852 0.50040948390960693 0.28896856307983398
0.76430428028106689 0.51351469755172729 0.21870645880699158
0.99096846580505371 0.49429523944854736 0.11152491718530655
0.28069230914115906 0.74667465686798096 0.44249704480171204
0.38148528337478638 0.74982112646102905 0.43770655989646912
0.57740277051925659 0.77635139226913452 0.43111145496368408
0.79714733362197876 0.80381447076797485 0.36381322145462036
0.99405312538146973 0.84691965579986572 0.083216018974781036
0.54988569021224976 0.95628470182418823 0.65748506784439087
0.60065674781799316 0.96076536178588867 0.66028434038162231
0.7108536958694458 0.97480678558349609 0.65695607662200928
0.85949712991714478 0.99385714530944824 0.62982600927352905
0.99804866313934326 0.9998365044593811 0.46584814786911011
0.011655395850539207 0.011330218985676765 0.30721500515937805
0.14184392988681793 0.019029416143894196 0.31024667620658875
0.38710230588912964 0.026696538552641869 0.30965003371238708
0.69195246696472168 0.05256347730755806 0.26929154992103577
0.96043741703033447 0.1209915429353714 0.21533876657485962
0.08032708615064621 0.19131627678871155 0.37670594453811646
0.1832728385925293 0.200338214635849 0.38615354895591736
0.42848485708236694 0.21033035218715668 0.39073339104652405
0.71308177709579468 0.21666766703128815 0.36211207509040833
0.97335022687911987 0.18869693577289581 0.2322910875082016
0.070931285619735718 0.45618963241577148 0.46225431561470032
0.22900767624378204 0.46720558404922485 0.47345796227455139
0.48823407292366028 0.47541677951812744 0.47256603837013245
0.74477636814117432 0.49069318175315857 0.44627359509468079
0.9840582013130188 0.48136302828788757 0.29743757843971252
0.23919247090816498 0.72775697708129883 0.57745522260665894
0.35890653729438782 0.73565804958343506 0.58694207668304443
0.56459623575210571 0.7548370361328125 0.58796387910842896
0.78060686588287354 0.77528327703475952 0.56472784280776978
0.98890888690948486 0.80374825000762939 0.42360448837280273
0.54239660501480103 0.94193631410598755 0.74584543704986572
0.5904386043548584 0.94703495502471924 0.74702054262161255
0.70118308067321777 0.96046537160873413 0.74989968538284302
0.85193204879760742 0.98127561807632446 0.74647575616836548
0.99146836996078491 0.99627161026000977 0.65409225225448608
0.0022745470050722361 0.0068662604317069054 0.50690001249313354
0.091229863464832306 0.0093422979116439819 0.52644187211990356
0.34456303715705872 0.012057196348905563 0.55083930492401123
0.65416854619979858 0.016144786030054092 0.54447460174560547
0.94851380586624146 0.075270801782608032 0.38949400186538696
0.032102517783641815 0.18004968762397766 0.56743836402893066
0.13064999878406525 0.18944427371025085 0.58492779731750488
0.38147029280662537 0.19872821867465973 0.61237102746963501
0.67633330821990967 0.1891038566827774 0.61983793973922729
0.94516527652740479 0.14787301421165466 0.53750300407409668
0.016856115311384201 0.44376784563064575 0.6300167441368103
0.1531057208776474 0.45507767796516418 0.64513105154037476
0.43002349138259888 0.46616563200950623 0.66669654846191406
0.7120969295501709 0.47026240825653076 0.68216770887374878
0.96442192792892456 0.44632822275161743 0.63030153512954712
0.14028307795524597 0.71465045213699341 0.71317631006240845
0.29934069514274597 0.71990108489990234 0.72372341156005859
0.52534443140029907 0.73436963558197021 0.74254262447357178
0.76030713319778442 0.75202351808547974 0.75780630111694336
0.97483128309249878 0.76362806558609009 0.71004068851470947
0.52272260189056396 0.92726129293441772 0.83307367563247681
0.57844585180282593 0.93402248620986938 0.84094810485839844
0.68942111730575562 0.94572144746780396 0.84897100925445557
0.84100341796875 0.96248620748519897 0.86506932973861694
0.98267161846160889 0.9845583438873291 0.8274691104888916
0 0.011483465321362019 0.69145959615707397
0.027514034882187843 0.011251846328377724 0.71802544593811035
0.28835338354110718 0.013296733610332012 0.76482373476028442
0.60767567157745361 0.018633464351296425 0.80659729242324829
0.89377331733703613 0.0025942784268409014 0.78190970420837402
0.0076315635815262794 0.19141347706317902 0.72815883159637451
0.068536616861820221 0.19698397815227509 0.75054252147674561
0.31673726439476013 0.21085759997367859 0.79636377096176147
0.63195478916168213 0.20123329758644104 0.84884786605834961
0.90364128351211548 0.12773405015468597 0.86376774311065674
0.0038165522273629904 0.45158901810646057 0.76717597246170044
0.026295546442270279 0.45764967799186707 0.78875124454498291
0.36070767045021057 0.47255799174308777 0.82605892419815063
0.67297863960266113 0.48285451531410217 0.87451422214508057
0.93196165561676025 0.44712823629379272 0.90130794048309326
0.0091596711426973343 0.70908582210540771 0.82173353433609009
0.14634312689304352 0.71810340881347656 0.83727544546127319
0.46335825324058533 0.73565804958343506 0.86709487438201904
0.71940666437149048 0.74380755424499512 0.90189617872238159
0.95148962736129761 0.74521970748901367 0.93021637201309204
0.46629288792610168 0.91825294494628906 0.89650219678878784
0.52731150388717651 0.92373937368392944 0.90477728843688965
0.65308123826980591 0.93422430753707886 0.92157262563705444
0.81913185119628906 0.95233994722366333 0.95015221834182739
0.9724845290184021 0.9695972204208374 0.96916431188583374
