luts/colorslide/agfa_precisa_100.cube
# Created by: G'MIC (https://gmic.eu)
TITLE "agfa_precisa_100"
# LUT size
LUT_3D_SIZE 13
# Data domain
DOMAIN_MIN 0.0 0.0 0.0
DOMAIN_MAX 1.0 1.0 1.0
# LUT data points
0.030907485634088516 0.02765178307890892 0.026616040617227554
0.075218170881271362 0.028846440836787224 0.023356838151812553
0.12979936599731445 0.032239548861980438 0.023881096392869949
0.19070440530776978 0.036178499460220337 0.024261385202407837
0.25822332501411438 0.040076401084661484 0.035300940275192261
0.33561304211616516 0.047614376991987228 0.049813557416200638
0.41888847947120667 0.052052725106477737 0.066229484975337982
0.512908935546875 0.056419868022203445 0.090403586626052856
0.60589981079101562 0.069186113774776459 0.11640756577253342
0.6991722583770752 0.083442538976669312 0.14155231416225433
0.78855037689208984 0.096445254981517792 0.16535350680351257
0.87561273574829102 0.11016473174095154 0.18812030553817749
0.95233100652694702 0.12254782021045685 0.20680758357048035
0.057830914855003357 0.082815267145633698 0.039818558841943741
0.093519799411296844 0.08495040237903595 0.04235139861702919
0.14537687599658966 0.089677415788173676 0.042607475072145462
0.20588608086109161 0.095254503190517426 0.042740076780319214
0.27281934022903442 0.09961199015378952 0.049159299582242966
0.34702125191688538 0.10539977252483368 0.052139103412628174
0.43193292617797852 0.11028131097555161 0.059630539268255234
0.52482098340988159 0.10972375422716141 0.082535445690155029
0.61549705266952515 0.10688265413045883 0.11091833561658859
0.70522606372833252 0.10093023627996445 0.13938601315021515
0.79038172960281372 0.10126879811286926 0.1645420640707016
0.87662887573242188 0.11256154626607895 0.1871778815984726
0.95572203397750854 0.12398476898670197 0.20735619962215424
0.092674523591995239 0.14429700374603271 0.0641341432929039
0.11610143631696701 0.14510573446750641 0.063875682651996613
0.15881957113742828 0.15027345716953278 0.066379889845848083
0.21917267143726349 0.15501125156879425 0.068541310727596283
0.28622454404830933 0.16015274822711945 0.070154093205928802
0.35948264598846436 0.16336297988891602 0.070175483822822571
0.44385823607444763 0.1702500581741333 0.069264493882656097
0.538463294506073 0.17674672603607178 0.079080753028392792
0.63109606504440308 0.17300970852375031 0.10086801648139954
0.71910464763641357 0.1622413843870163 0.12714064121246338
0.80152803659439087 0.14504590630531311 0.15484420955181122
0.88228440284729004 0.12645372748374939 0.18491208553314209
0.9564131498336792 0.12795290350914001 0.20699919760227203
0.11630541086196899 0.21172112226486206 0.090400636196136475
0.13285261392593384 0.21467529237270355 0.091370284557342529
0.17435750365257263 0.22085711359977722 0.093267135322093964
0.23573912680149078 0.22902826964855194 0.095378264784812927
0.30428484082221985 0.235035240650177 0.095330029726028442
0.37554255127906799 0.23575082421302795 0.092896148562431335
0.45808824896812439 0.23874683678150177 0.08958696573972702
0.55092757940292358 0.2436465322971344 0.087083674967288971
0.64649361371994019 0.24432043731212616 0.090887151658535004
0.73526591062545776 0.23271362483501434 0.11129877716302872
0.81693375110626221 0.21335521340370178 0.13891543447971344
0.89270693063735962 0.18677216768264771 0.17028455436229706
0.96343612670898438 0.154217928647995 0.20205157995223999
0.11562663316726685 0.29264518618583679 0.12498892843723297
0.14243088662624359 0.29302498698234558 0.12022662907838821
0.1889072060585022 0.29614761471748352 0.12000454217195511
0.25034648180007935 0.30427861213684082 0.12118597328662872
0.31989243626594543 0.31323960423469543 0.12016088515520096
0.39300793409347534 0.3174932599067688 0.11583814769983292
0.47561651468276978 0.32315310835838318 0.11025825887918472
0.56680923700332642 0.32546883821487427 0.10293454676866531
0.66124480962753296 0.32352414727210999 0.092448949813842773
0.75161600112915039 0.31577244400978088 0.093488924205303192
0.8317943811416626 0.29855054616928101 0.11815708875656128
0.9063875675201416 0.27161675691604614 0.14786352217197418
0.97230172157287598 0.23191563785076141 0.18206652998924255
0.12553331255912781 0.38013193011283875 0.15931031107902527
0.1595408171415329 0.38171789050102234 0.15186387300491333
0.20790399610996246 0.38551145792007446 0.15103864669799805
0.26627665758132935 0.38939166069030762 0.1488451212644577
0.33602786064147949 0.39889049530029297 0.14651472866535187
0.41303029656410217 0.4105469286441803 0.14248280227184296
0.49314221739768982 0.41864863038063049 0.13238897919654846
0.58012634515762329 0.4211219847202301 0.12139913439750671
0.67329823970794678 0.41865000128746033 0.10685481876134872
0.76395851373672485 0.41509747505187988 0.088581487536430359
0.84586316347122192 0.40115243196487427 0.094951406121253967
0.92320311069488525 0.37428855895996094 0.12066379934549332
0.98474365472793579 0.33588778972625732 0.15317818522453308
0.1447564959526062 0.47989040613174438 0.18564262986183167
0.17810338735580444 0.48416393995285034 0.18435695767402649
0.22591079771518707 0.48827299475669861 0.18494150042533875
0.28441587090492249 0.48982429504394531 0.18422728776931763
0.35601148009300232 0.49679666757583618 0.18026003241539001
0.43230655789375305 0.50735193490982056 0.17125159502029419
0.51377445459365845 0.51580888032913208 0.15894031524658203
0.5974966287612915 0.52224934101104736 0.14404933154582977
0.68694806098937988 0.52324706315994263 0.12536036968231201
0.77596104145050049 0.52400022745132446 0.10223783552646637
0.86032116413116455 0.51965731382369995 0.080111920833587646
0.93780267238616943 0.5010567307472229 0.086092494428157806
0.99035751819610596 0.46656489372253418 0.11244522035121918
0.18116365373134613 0.5759773850440979 0.22992223501205444
0.20523396134376526 0.58305114507675171 0.22556035220623016
0.25025367736816406 0.58769339323043823 0.22569233179092407
0.30946642160415649 0.5902702808380127 0.22507141530513763
0.37862667441368103 0.59522163867950439 0.22154794633388519
0.45448920130729675 0.60171592235565186 0.21368497610092163
0.53551167249679565 0.60987716913223267 0.19939051568508148
0.61863917112350464 0.61954295635223389 0.17598921060562134
0.70298528671264648 0.6290929913520813 0.14759503304958344
0.78714627027511597 0.63444072008132935 0.11590865254402161
0.87115907669067383 0.63492166996002197 0.082527756690979004
0.95162737369537354 0.63237059116363525 0.056435246020555496
0.99583834409713745 0.60902905464172363 0.067587368190288544
0.22985617816448212 0.66805732250213623 0.28362831473350525
0.25199902057647705 0.67386037111282349 0.28045448660850525
0.29358521103858948 0.68075495958328247 0.28113552927970886
0.35324028134346008 0.68546658754348755 0.28207534551620483
0.4149664044380188 0.68815380334854126 0.27750164270401001
0.48519724607467651 0.69573080539703369 0.27108561992645264
0.56135088205337524 0.7039107084274292 0.25742581486701965
0.63893526792526245 0.71291577816009521 0.23479193449020386
0.71742570400238037 0.72417056560516357 0.20027469098567963
0.79586637020111084 0.73279964923858643 0.14870466291904449
0.87646579742431641 0.73936909437179565 0.092859990894794464
0.95374780893325806 0.74529707431793213 0.047234732657670975
0.99638420343399048 0.74268472194671631 0.03065439872443676
0.29229876399040222 0.75647640228271484 0.3443208634853363
0.31534075736999512 0.76009690761566162 0.34574800729751587
0.35133689641952515 0.7672574520111084 0.34726116061210632
0.40299510955810547 0.7709929347038269 0.34814292192459106
0.46201452612876892 0.77224820852279663 0.34675389528274536
0.52624285221099854 0.77961152791976929 0.34228253364562988
0.59407228231430054 0.79176712036132812 0.32387593388557434
0.6609722375869751 0.80233085155487061 0.30068233609199524
0.73266249895095825 0.81173449754714966 0.26642420887947083
0.80663031339645386 0.8214792013168335 0.21604050695896149
0.88279813528060913 0.83521020412445068 0.14379489421844482
0.95660865306854248 0.84869617223739624 0.043196540325880051
0.99411040544509888 0.85831516981124878 0.010743638500571251
0.37272423505783081 0.83557665348052979 0.42067292332649231
0.38993135094642639 0.8412824273109436 0.42047077417373657
0.4200805127620697 0.84654408693313599 0.42117035388946533
0.45695003867149353 0.84943318367004395 0.41713938117027283
0.50770705938339233 0.8503296971321106 0.41618701815605164
0.5681755542755127 0.85645848512649536 0.41313260793685913
0.62934577465057373 0.86713337898254395 0.4020572304725647
0.68817371129989624 0.87747907638549805 0.38756248354911804
0.75223284959793091 0.88669872283935547 0.35770049691200256
0.82107311487197876 0.89792311191558838 0.30950736999511719
0.8894914984703064 0.9154934287071228 0.2485509067773819
0.95928955078125 0.93624705076217651 0.1277226060628891
0.99727678298950195 0.9537845253944397 0.013564165681600571
0.45835766196250916 0.9122852087020874 0.50503259897232056
0.47129648923873901 0.91374891996383667 0.50527912378311157
0.49408641457557678 0.91560202836990356 0.50522488355636597
0.52471399307250977 0.91743588447570801 0.50208395719528198
0.56367021799087524 0.9218328595161438 0.49763143062591553
0.61068874597549438 0.92663019895553589 0.49589377641677856
0.66329020261764526 0.93388634920120239 0.49241530895233154
0.71752709150314331 0.94482064247131348 0.48046392202377319
0.77544116973876953 0.9537011981010437 0.46027356386184692
0.8368610143661499 0.96464067697525024 0.42391619086265564
0.8998381495475769 0.97660458087921143 0.36911442875862122
0.96042031049728394 0.98843610286712646 0.28214487433433533
0.99713677167892456 0.99712055921554565 0.10909675061702728
0.55482518672943115 0.96699589490890503 0.60779780149459839
0.56243759393692017 0.96805030107498169 0.60654169321060181
0.57827270030975342 0.9706835150718689 0.60499018430709839
0.60311305522918701 0.97266465425491333 0.60500317811965942
0.63384902477264404 0.97410714626312256 0.60231441259384155
0.67024648189544678 0.97685998678207397 0.59985321760177612
0.71357333660125732 0.98499268293380737 0.59636563062667847
0.76162099838256836 0.98697859048843384 0.58764171600341797
0.81225645542144775 0.9950067400932312 0.57432436943054199
0.86729812622070312 0.99615490436553955 0.55236184597015381
0.92504453659057617 0.99663060903549194 0.52028036117553711
0.97745805978775024 0.99863362312316895 0.4619661271572113
0.9980655312538147 1 0.32976493239402771
0.023842247202992439 0.024118011817336082 0.058574721217155457
0.067788355052471161 0.029083281755447388 0.0585060715675354
0.12168107926845551 0.02993297204375267 0.059168107807636261
0.18531478941440582 0.033247090876102448 0.059072919189929962
0.25578978657722473 0.039496239274740219 0.05839843675494194
0.33276307582855225 0.04745960608124733 0.062960952520370483
0.41793903708457947 0.054658509790897369 0.073203191161155701
0.51342171430587769 0.061334975063800812 0.0916900634765625
0.60919511318206787 0.069335833191871643 0.1169770359992981
0.70060694217681885 0.084493838250637054 0.14094652235507965
0.78860211372375488 0.097382143139839172 0.16475531458854675
0.87559759616851807 0.11149824410676956 0.18805223703384399
0.95285981893539429 0.12275552004575729 0.20746782422065735
0.052317060530185699 0.079315528273582458 0.080889157950878143
0.088761225342750549 0.083249233663082123 0.081125952303409576
0.13936744630336761 0.087006255984306335 0.081588208675384521
0.20074789226055145 0.091390840709209442 0.082509614527225494
0.26923075318336487 0.095906183123588562 0.082285024225711823
0.34387770295143127 0.102508544921875 0.082370072603225708
0.43167844414710999 0.11008027195930481 0.083492383360862732
0.52583318948745728 0.11333740502595901 0.088415361940860748
0.61856591701507568 0.1113014817237854 0.1116359755396843
0.70539867877960205 0.10740018635988235 0.13765382766723633
0.79043054580688477 0.1061597466468811 0.16314825415611267
0.87667959928512573 0.11308137327432632 0.18733035027980804
0.95467424392700195 0.12357695400714874 0.20746782422065735
0.089492112398147583 0.14145457744598389 0.10180405527353287
0.11188594996929169 0.14302234351634979 0.10293149948120117
0.15389728546142578 0.1472761482000351 0.10432812571525574
0.21418003737926483 0.152838334441185 0.10560353845357895
0.28311833739280701 0.15747511386871338 0.10594823211431503
0.35666033625602722 0.16150225698947906 0.10478741675615311
0.44313505291938782 0.16897603869438171 0.10335835814476013
0.5376971960067749 0.17674946784973145 0.098685212433338165
0.63103306293487549 0.17468328773975372 0.1059810146689415
0.71869564056396484 0.1657126247882843 0.12724043428897858
0.80257236957550049 0.15169106423854828 0.15384520590305328
0.88375687599182129 0.13272935152053833 0.18396644294261932
0.95876169204711914 0.12792694568634033 0.20771846175193787
0.11353747546672821 0.20831337571144104 0.12508367002010345
0.1292870044708252 0.21192733943462372 0.12464750558137894
0.16783413290977478 0.21778674423694611 0.12655332684516907
0.23158785700798035 0.22525274753570557 0.12860855460166931
0.30044472217559814 0.23026330769062042 0.12849780917167664
0.37288865447044373 0.23358906805515289 0.12681101262569427
0.45674160122871399 0.23772066831588745 0.12216521799564362
0.54943233728408813 0.24236363172531128 0.11510513722896576
0.64442747831344604 0.24445584416389465 0.10889528691768646
0.73534560203552246 0.23664110898971558 0.11475740373134613
0.81964278221130371 0.21907058358192444 0.13987189531326294
0.89620524644851685 0.19211597740650177 0.17088617384433746
0.96665555238723755 0.1584865003824234 0.20244431495666504
0.11273803561925888 0.28904569149017334 0.14935630559921265
0.13749589025974274 0.29079413414001465 0.15063267946243286
0.18333910405635834 0.29515340924263 0.15127488970756531
0.2471219003200531 0.30276584625244141 0.15234358608722687
0.31702229380607605 0.31107285618782043 0.15076477825641632
0.39004030823707581 0.31584396958351135 0.14571596682071686
0.47593683004379272 0.32227295637130737 0.13986589014530182
0.56721192598342896 0.32379284501075745 0.13168230652809143
0.65901315212249756 0.32171246409416199 0.12050766497850418
0.75070512294769287 0.31702858209609985 0.10824068635702133
0.83507078886032104 0.30493935942649841 0.12058428674936295
0.90949165821075439 0.27673560380935669 0.1491675078868866
0.97591912746429443 0.2396373450756073 0.18119882047176361
0.12058986723423004 0.37849718332290649 0.1768651157617569
0.15281553566455841 0.38302117586135864 0.17972224950790405
0.20613820850849152 0.3883819580078125 0.18163448572158813
0.26529181003570557 0.39169695973396301 0.18042421340942383
0.33093369007110596 0.39637935161590576 0.17665030062198639
0.40964782238006592 0.40803951025009155 0.17195218801498413
0.49276211857795715 0.41633120179176331 0.16099055111408234
0.58038753271102905 0.41956266760826111 0.14890241622924805
0.6706775426864624 0.41703662276268005 0.13502772152423859
0.76137900352478027 0.41377070546150208 0.11367706954479218
0.84859400987625122 0.40788406133651733 0.098486281931400299
0.92498522996902466 0.38013195991516113 0.12047941982746124
0.98569536209106445 0.34191206097602844 0.15233352780342102
0.13989138603210449 0.47938209772109985 0.20984962582588196
0.17168650031089783 0.48176753520965576 0.20927205681800842
0.2250652015209198 0.48585200309753418 0.2132735550403595
0.28298279643058777 0.48821324110031128 0.21318663656711578
0.35084816813468933 0.49287912249565125 0.20977114140987396
0.42927175760269165 0.50345730781555176 0.20351094007492065
0.51111727952957153 0.51037502288818359 0.18984422087669373
0.59649282693862915 0.51768404245376587 0.1700364351272583
0.68600434064865112 0.52077305316925049 0.14970141649246216
0.77395939826965332 0.5221259593963623 0.12633021175861359
0.8609015941619873 0.52173620462417603 0.097525745630264282
0.93919020891189575 0.50753140449523926 0.086756028234958649
0.99001872539520264 0.47339537739753723 0.11127739399671555
0.17164087295532227 0.57778036594390869 0.25368994474411011
0.19913162291049957 0.58005702495574951 0.24982908368110657
0.24657486379146576 0.58289903402328491 0.25082913041114807
0.30526530742645264 0.58578181266784668 0.25109374523162842
0.37535426020622253 0.59113442897796631 0.24861355125904083
0.4497065544128418 0.59756118059158325 0.24072767794132233
0.52879428863525391 0.60218518972396851 0.22606906294822693
0.61354327201843262 0.61240291595458984 0.20682902634143829
0.70038634538650513 0.62331146001815796 0.18018028140068054
0.78492194414138794 0.63034367561340332 0.14347212016582489
0.87039268016815186 0.63325279951095581 0.10471290349960327
0.95093452930450439 0.63344979286193848 0.066935203969478607
0.99554687738418579 0.61533093452453613 0.0667153000831604
0.21852113306522369 0.66982340812683105 0.30455610156059265
0.24342626333236694 0.67220127582550049 0.3028513491153717
0.28828293085098267 0.67666763067245483 0.30406919121742249
0.34628847241401672 0.6808398962020874 0.30403223633766174
0.41338828206062317 0.68508994579315186 0.30245140194892883
0.48255458474159241 0.69200026988983154 0.29536157846450806
0.55811071395874023 0.69819146394729614 0.28029024600982666
0.63527148962020874 0.70801526308059692 0.2619415819644928
0.71425634622573853 0.71887272596359253 0.23306754231452942
0.79449474811553955 0.72765833139419556 0.18173618614673615
0.87546581029891968 0.73741006851196289 0.11863554269075394
0.95050877332687378 0.74367040395736694 0.062429822981357574
0.99609655141830444 0.74835658073425293 0.030671332031488419
0.29537376761436462 0.75271010398864746 0.36995676159858704
0.31181502342224121 0.75821763277053833 0.36798149347305298
0.34832525253295898 0.76378977298736572 0.36806270480155945
0.39711996912956238 0.7665029764175415 0.36617952585220337
0.45698502659797668 0.77175837755203247 0.36358436942100525
0.52190852165222168 0.77986794710159302 0.35995453596115112
0.59011727571487427 0.78909897804260254 0.34715825319290161
0.65961712598800659 0.79798942804336548 0.32808011770248413
0.73045861721038818 0.80780744552612305 0.29814052581787109
0.80378210544586182 0.81542009115219116 0.25230205059051514
0.88051360845565796 0.82755368947982788 0.18454299867153168
0.95639395713806152 0.84580785036087036 0.07284826785326004
0.99603146314620972 0.85677164793014526 0.012968983501195908
0.37799063324928284 0.83233535289764404 0.44235309958457947
0.38963666558265686 0.83882850408554077 0.44084334373474121
0.41667419672012329 0.84195399284362793 0.4394378662109375
0.45624741911888123 0.84485048055648804 0.43481588363647461
0.50359082221984863 0.84976977109909058 0.43144002556800842
0.56507813930511475 0.85568010807037354 0.43165859580039978
0.62824475765228271 0.86483108997344971 0.42501801252365112
0.68862497806549072 0.87357044219970703 0.41012609004974365
0.7498631477355957 0.88459056615829468 0.38606494665145874
0.81691473722457886 0.89661884307861328 0.34100419282913208
0.8874506950378418 0.91131317615509033 0.28294390439987183
0.9579395055770874 0.93066728115081787 0.16894014179706573
0.99789524078369141 0.94946551322937012 0.027425922453403473
0.46081307530403137 0.90795773267745972 0.52167606353759766
0.47031381726264954 0.91119891405105591 0.51997941732406616
0.49254238605499268 0.91189247369766235 0.52006542682647705
0.52263396978378296 0.9146847128868103 0.51561528444290161
0.56333106756210327 0.91927993297576904 0.51314419507980347
0.61152529716491699 0.92557710409164429 0.5132257342338562
0.66396546363830566 0.93286770582199097 0.50932085514068604
0.7169729471206665 0.94136524200439453 0.49740386009216309
0.77432173490524292 0.95201045274734497 0.47957772016525269
0.8349727988243103 0.96334612369537354 0.44583487510681152
0.8981088399887085 0.97410452365875244 0.39538976550102234
0.96101772785186768 0.98807024955749512 0.31570649147033691
0.99784374237060547 0.99673449993133545 0.14627058804035187
0.555045485496521 0.96376699209213257 0.61836022138595581
0.56366086006164551 0.96571493148803711 0.61840367317199707
0.57850748300552368 0.96817624568939209 0.61530584096908569
0.6033012866973877 0.97007662057876587 0.61487150192260742
0.63175362348556519 0.97362184524536133 0.61122018098831177
0.67145031690597534 0.97681295871734619 0.61251205205917358
0.71456974744796753 0.98092103004455566 0.61015373468399048
0.76230204105377197 0.98641383647918701 0.60373842716217041
0.81226378679275513 0.99445319175720215 0.59059935808181763
0.86586833000183105 0.99616169929504395 0.56891661882400513
0.92324233055114746 0.99627465009689331 0.53676003217697144
0.97613543272018433 0.99869388341903687 0.4844210147857666
0.99895823001861572 1 0.36454916000366211
0.024158492684364319 0.025237243622541428 0.10199263691902161
0.063451953232288361 0.027996720746159554 0.099775426089763641
0.11914650350809097 0.030390078201889992 0.10277072340250015
0.17866766452789307 0.031215503811836243 0.10236913710832596
0.25215572118759155 0.039423249661922455 0.10102713853120804
0.32947269082069397 0.045572288334369659 0.09765683114528656
0.41425380110740662 0.052735168486833572 0.096979327499866486
0.51262158155441284 0.061226997524499893 0.10545221716165543
0.61046522855758667 0.070841819047927856 0.12045703828334808
0.70205175876617432 0.0842704176902771 0.14177514612674713
0.7887997031211853 0.097528629004955292 0.16449983417987823
0.87411850690841675 0.11160928755998611 0.18740618228912354
0.95575511455535889 0.1239289790391922 0.20936240255832672
0.047737181186676025 0.076191909611225128 0.12392862141132355
0.083032421767711639 0.080995164811611176 0.12348451465368271
0.13350707292556763 0.083973303437232971 0.12396278977394104
0.19449710845947266 0.088189095258712769 0.12362869828939438
0.26597133278846741 0.094880752265453339 0.12190279364585876
0.34021210670471191 0.101449154317379 0.12126249074935913
0.4263920783996582 0.10936105996370316 0.12397773563861847
0.52454161643981934 0.11347520351409912 0.12415050715208054
0.62065070867538452 0.11502900719642639 0.12016655504703522
0.70837056636810303 0.10865814983844757 0.13765189051628113
0.79311752319335938 0.10677815228700638 0.16323986649513245
0.87800651788711548 0.11211580783128738 0.1882585734128952
0.95731282234191895 0.12405963987112045 0.20928014814853668
0.084761373698711395 0.138753741979599 0.14367896318435669
0.1058083176612854 0.13929235935211182 0.14384138584136963
0.14605040848255157 0.14223437011241913 0.14422497153282166
0.20659565925598145 0.14739677309989929 0.14392538368701935
0.27812570333480835 0.1555124819278717 0.14472037553787231
0.35165363550186157 0.16064237058162689 0.14645750820636749
0.43794342875480652 0.16745492815971375 0.14680387079715729
0.53337603807449341 0.17301265895366669 0.13783226907253265
0.62878656387329102 0.17345699667930603 0.12672020494937897
0.72099775075912476 0.16835327446460724 0.12787394225597382
0.80511033535003662 0.15549200773239136 0.15339821577072144
0.8876502513885498 0.13464291393756866 0.18470773100852966
0.96276760101318359 0.12810227274894714 0.21038183569908142
0.10958109796047211 0.20637528598308563 0.1646384596824646
0.12482859194278717 0.20995064079761505 0.16580106317996979
0.16227413713932037 0.21402856707572937 0.16721290349960327
0.22404658794403076 0.21795758605003357 0.16742558777332306
0.29173213243484497 0.22275529801845551 0.16644184291362762
0.36729961633682251 0.22940799593925476 0.16753402352333069
0.45256265997886658 0.23626880347728729 0.16441138088703156
0.54495322704315186 0.23996090888977051 0.15377536416053772
0.63973903656005859 0.24192821979522705 0.14017412066459656
0.73372769355773926 0.23644711077213287 0.12791851162910461
0.82135152816772461 0.22418075799942017 0.1391834020614624
0.90024679899215698 0.19831231236457825 0.16935800015926361
0.96947747468948364 0.16314753890037537 0.2030387669801712
0.11058434844017029 0.28606322407722473 0.18854370713233948
0.12808208167552948 0.2878987193107605 0.18894389271736145
0.1787339448928833 0.29216444492340088 0.19082199037075043
0.24248053133487701 0.29819598793983459 0.19192932546138763
0.30939477682113647 0.3044445812702179 0.19017679989337921
0.38621076941490173 0.31118836998939514 0.18655195832252502
0.47309285402297974 0.31861570477485657 0.1797078549861908
