luts/colorslide/fuji_astia_100_generic.cube
# Created by: G'MIC (https://gmic.eu)
TITLE "fuji_astia_100_generic"
# LUT size
LUT_3D_SIZE 5
# Data domain
DOMAIN_MIN 0.0 0.0 0.0
DOMAIN_MAX 1.0 1.0 1.0
# LUT data points
0.034153837710618973 0.031374208629131317 0.028303064405918121
0.23253698647022247 0.030596699565649033 0.026629818603396416
0.50207793712615967 0.031208323314785957 0.021035213023424149
0.75499653816223145 0.02880311943590641 0.017417250201106071
0.96787935495376587 0.023036733269691467 0.0083331838250160217
0.079343147575855255 0.24254654347896576 0.056664440780878067
0.24042907357215881 0.24047337472438812 0.049218077212572098
0.50655156373977661 0.24035528302192688 0.043537139892578125
0.75559628009796143 0.23740255832672119 0.030953710898756981
0.96659159660339355 0.23229457437992096 0.024124864488840103
0.015730973333120346 0.51369196176528931 0.089577123522758484
0.22834911942481995 0.5112382173538208 0.087588563561439514
0.50693613290786743 0.50446921586990356 0.078109234571456909
0.74782121181488037 0.50133180618286133 0.066495053470134735
0.96117907762527466 0.50143390893936157 0.057666074484586716
0.026791516691446304 0.75318628549575806 0.080696910619735718
0.24930930137634277 0.74917352199554443 0.078742638230323792
0.51457220315933228 0.74271106719970703 0.071397386491298676
0.74596548080444336 0.74084013700485229 0.070182725787162781
0.94827383756637573 0.74573689699172974 0.073977574706077576
0.14692781865596771 0.95993131399154663 0.072583518922328949
0.30949479341506958 0.96024900674819946 0.071647480130195618
0.52941179275512695 0.95442831516265869 0.054328050464391708
0.74592757225036621 0.96023893356323242 0.035520888864994049
0.96063196659088135 0.95839661359786987 0.018969576805830002
0.036749508231878281 0.032892264425754547 0.23723421990871429
0.23768350481987 0.034730635583400726 0.22727875411510468
0.5057947039604187 0.03141021728515625 0.22034081816673279
0.74957257509231567 0.029191425070166588 0.20441010594367981
0.96602219343185425 0.025636246427893639 0.1902671605348587
0.080889038741588593 0.2409110963344574 0.24554519355297089
0.24026499688625336 0.24186363816261292 0.24126207828521729
0.50442862510681152 0.24328860640525818 0.23637880384922028
0.75363874435424805 0.23535215854644775 0.21787168085575104
0.96596997976303101 0.2342684417963028 0.208243727684021
0.014106106944382191 0.51507145166397095 0.26153534650802612
0.22888106107711792 0.51111406087875366 0.2484738677740097
0.50380361080169678 0.51558321714401245 0.23831392824649811
0.74891608953475952 0.50961565971374512 0.23514655232429504
0.96107178926467896 0.50761950016021729 0.2209237664937973
0.026999754831194878 0.75294286012649536 0.27116832137107849
0.24366852641105652 0.7441030740737915 0.26991426944732666
0.50845026969909668 0.74455350637435913 0.25315707921981812
0.74969363212585449 0.74225270748138428 0.2438923567533493
0.95398187637329102 0.74785667657852173 0.23436833918094635
0.1455293744802475 0.96189552545547485 0.29218810796737671
0.30817914009094238 0.95352369546890259 0.29329013824462891
0.52617889642715454 0.95968645811080933 0.28365147113800049
0.74319124221801758 0.96144735813140869 0.2733364999294281
0.95701611042022705 0.96215641498565674 0.26418393850326538
0.036437239497900009 0.030793417245149612 0.49904581904411316
0.23487745225429535 0.031605605036020279 0.49070766568183899
0.49905672669410706 0.031979653984308243 0.47917449474334717
0.74961435794830322 0.033896308392286301 0.46847015619277954
0.96726948022842407 0.024680223315954208 0.45413076877593994
0.088517025113105774 0.24904778599739075 0.51395159959793091
0.23997876048088074 0.24232877790927887 0.5043531060218811
0.50874924659729004 0.24003510177135468 0.48756575584411621
0.75267148017883301 0.23674355447292328 0.4793638288974762
0.96570241451263428 0.23502327501773834 0.46781566739082336
0.016859825700521469 0.51040393114089966 0.5212094783782959
0.23202121257781982 0.507068932056427 0.50890862941741943
0.51176470518112183 0.50391459465026855 0.50521606206893921
0.7569851279258728 0.50047212839126587 0.49744325876235962
0.95801401138305664 0.50717371702194214 0.48180669546127319
0.031332068145275116 0.7502254843711853 0.53130543231964111
0.24989210069179535 0.74633604288101196 0.52968752384185791
0.51223242282867432 0.7463982105255127 0.52408784627914429
0.74758893251419067 0.74613934755325317 0.51323741674423218
0.95127886533737183 0.74553060531616211 0.5040857195854187
0.14626075327396393 0.96195501089096069 0.54484802484512329
0.30648329854011536 0.95938533544540405 0.53688627481460571
0.52550959587097168 0.96349513530731201 0.53298026323318481
0.74251240491867065 0.95954209566116333 0.52438938617706299
0.95918464660644531 0.96028727293014526 0.51947712898254395
0.035402800887823105 0.03127041831612587 0.73674160242080688
0.24127174913883209 0.03783620148897171 0.72280383110046387
0.5069921612739563 0.034423302859067917 0.71509629487991333
0.75633442401885986 0.029174474999308586 0.70433503389358521
0.96751731634140015 0.023064153268933296 0.6931757926940918
0.091010376811027527 0.24126383662223816 0.74680155515670776
0.23424579203128815 0.23498997092247009 0.74189227819442749
0.51132643222808838 0.23905313014984131 0.72898656129837036
0.75550705194473267 0.23849162459373474 0.72077637910842896
0.96609628200531006 0.23498223721981049 0.70651030540466309
0.010662168264389038 0.5124015212059021 0.75564432144165039
0.23810873925685883 0.50259125232696533 0.74869781732559204
0.51224803924560547 0.50062060356140137 0.7447507381439209
0.75730341672897339 0.50379049777984619 0.73599058389663696
0.9578545093536377 0.50258922576904297 0.72322654724121094
0.035170432180166245 0.74928641319274902 0.76492589712142944
0.25271803140640259 0.74901127815246582 0.75735735893249512
0.5177726149559021 0.7516905665397644 0.75657463073730469
0.74816018342971802 0.74560976028442383 0.74977380037307739
0.95142042636871338 0.73875385522842407 0.73166453838348389
0.14885562658309937 0.96102988719940186 0.77130627632141113
0.30801257491111755 0.95520424842834473 0.76529085636138916
0.53171044588088989 0.96010792255401611 0.76418805122375488
0.74477124214172363 0.96351248025894165 0.75643879175186157
0.95996236801147461 0.95948636531829834 0.74960470199584961
0.03953121230006218 0.030144935473799706 0.94719088077545166
0.23635460436344147 0.03146776556968689 0.93836784362792969
0.49828231334686279 0.029008634388446808 0.92466717958450317
0.75326913595199585 0.022921737283468246 0.91836410760879517
0.96811586618423462 0.022722849622368813 0.90741604566574097
0.090578503906726837 0.24520795047283173 0.95622050762176514
0.23691904544830322 0.23678605258464813 0.95035892724990845
0.50938934087753296 0.24332210421562195 0.93753838539123535
0.75666755437850952 0.23042601346969604 0.92355597019195557
0.96662706136703491 0.23663416504859924 0.92265444993972778
0.016322042793035507 0.50910347700119019 0.96209514141082764
0.23501996695995331 0.50268149375915527 0.96037948131561279
0.50573688745498657 0.50896388292312622 0.94933450222015381
0.75327616930007935 0.49987584352493286 0.93901091814041138
0.96195852756500244 0.50359934568405151 0.93601197004318237
0.033898685127496719 0.74920803308486938 0.96890467405319214
0.24844951927661896 0.74565482139587402 0.9632875919342041
0.51411652565002441 0.74483072757720947 0.96090871095657349
0.74696964025497437 0.73869961500167847 0.95367956161499023
0.95494413375854492 0.74358558654785156 0.94764447212219238
0.14996626973152161 0.96056324243545532 0.97516018152236938
0.31350135803222656 0.95846748352050781 0.96803981065750122
0.5321924090385437 0.95544850826263428 0.96148777008056641
0.74385637044906616 0.95763975381851196 0.96503573656082153
0.95822334289550781 0.95895999670028687 0.959328293800354
