luts/colorslide/fuji_provia_400x.cube
# Created by: G'MIC (https://gmic.eu)
TITLE "fuji_provia_400x"
# LUT size
LUT_3D_SIZE 13
# Data domain
DOMAIN_MIN 0.0 0.0 0.0
DOMAIN_MAX 1.0 1.0 1.0
# LUT data points
0.04399128258228302 0.039295315742492676 0.031046893447637558
0.11873745173215866 0.039869599044322968 0.032061468809843063
0.20001053810119629 0.037558894604444504 0.030651181936264038
0.28145593404769897 0.035871274769306183 0.030398275703191757
0.37164533138275146 0.031675316393375397 0.030736707150936127
0.47382548451423645 0.028783984482288361 0.032157238572835922
0.57578295469284058 0.0268987026065588 0.031581908464431763
0.67171758413314819 0.022341335192322731 0.026548556983470917
0.76231229305267334 0.017512526363134384 0.022858070209622383
0.84651541709899902 0.012350329197943211 0.015489630401134491
0.92270117998123169 0.010802758857607841 0.01072197686880827
0.98368501663208008 0.0050074858590960503 0.0072690029628574848
0.99610644578933716 0.0046201217919588089 0.0060411193408071995
0.066071406006813049 0.11886909604072571 0.04877389594912529
0.1225634440779686 0.11709009855985641 0.047678481787443161
0.19878073036670685 0.11416774243116379 0.048090886324644089
0.27986490726470947 0.10913814604282379 0.045256700366735458
0.37362605333328247 0.10425904393196106 0.047717928886413574
0.47690227627754211 0.096572428941726685 0.052047625184059143
0.57966715097427368 0.090503036975860596 0.053068108856678009
0.67848384380340576 0.084274753928184509 0.046620972454547882
0.77127748727798462 0.073367446660995483 0.032990161329507828
0.85502558946609497 0.06101144477725029 0.024980582296848297
0.92916995286941528 0.04825122281908989 0.019903205335140228
0.98459076881408691 0.040697313845157623 0.013077171519398689
0.9968489408493042 0.026401683688163757 0.0066593242809176445
0.086192876100540161 0.19962488114833832 0.076138637959957123
0.12794239819049835 0.196865513920784 0.073533482849597931
0.19343438744544983 0.19356031715869904 0.072757899761199951
0.27341237664222717 0.19153743982315063 0.071006461977958679
0.37087485194206238 0.1865856796503067 0.070690467953681946
0.47783753275871277 0.17633232474327087 0.071886114776134491
0.58463889360427856 0.1671142578125 0.071745701134204865
0.68576174974441528 0.16060057282447815 0.066571898758411407
0.77647465467453003 0.15042565762996674 0.054388068616390228
0.85729879140853882 0.1396346241235733 0.043132256716489792
0.93325155973434448 0.12716256082057953 0.035637021064758301
0.98601406812667847 0.11364612728357315 0.024967387318611145
0.99728071689605713 0.090904369950294495 0.012378078885376453
0.09122321754693985 0.27839374542236328 0.10156408697366714
0.11594086885452271 0.27707043290138245 0.10045743733644485
0.18028497695922852 0.27514147758483887 0.10034254193305969
0.2646719217300415 0.27549216151237488 0.098579287528991699
0.36474812030792236 0.27002361416816711 0.097553804516792297
0.47306212782859802 0.26023611426353455 0.096523046493530273
0.58342891931533813 0.25185760855674744 0.092825807631015778
0.69059091806411743 0.24475178122520447 0.08697015792131424
0.7773507833480835 0.23583652079105377 0.07904573529958725
0.85695642232894897 0.22566722333431244 0.068407095968723297
0.93840551376342773 0.21297673881053925 0.054321035742759705
0.9899827241897583 0.19846190512180328 0.038643453270196915
0.99751424789428711 0.18286767601966858 0.022754939272999763
0.035395663231611252 0.36918994784355164 0.12474524974822998
0.083558090031147003 0.3661903440952301 0.12299774587154388
0.16850489377975464 0.36309328675270081 0.12288600206375122
0.25706493854522705 0.36202806234359741 0.12222649157047272
0.35963547229766846 0.35662266612052917 0.12137465924024582
0.46975588798522949 0.35190391540527344 0.1186230257153511
0.58348721265792847 0.34636706113815308 0.11508186161518097
0.69475960731506348 0.33961436152458191 0.10965973883867264
0.78237628936767578 0.33066239953041077 0.10217353701591492
0.86340862512588501 0.31991416215896606 0.090669043362140656
0.94234275817871094 0.30725216865539551 0.075488686561584473
0.98855799436569214 0.29124927520751953 0.058589454740285873
0.99808025360107422 0.27710127830505371 0.03889051079750061
0.026947649195790291 0.46196487545967102 0.13953270018100739
0.064970158040523529 0.4585568904876709 0.13840684294700623
0.13986645638942719 0.45449542999267578 0.13858704268932343
0.24770252406597137 0.45195716619491577 0.13893343508243561
0.35661506652832031 0.44821736216545105 0.13718913495540619
0.47220554947853088 0.44638127088546753 0.13403284549713135
0.58840727806091309 0.44241225719451904 0.13160037994384766
0.70214968919754028 0.43504559993743896 0.12651392817497253
0.79205894470214844 0.42681249976158142 0.11987482756376266
0.87533164024353027 0.41717779636383057 0.10781006515026093
0.95222103595733643 0.4063887894153595 0.094549991190433502
0.99191546440124512 0.3897397518157959 0.076582498848438263
0.99861985445022583 0.37699344754219055 0.054678585380315781
0.0054358239285647869 0.54529792070388794 0.14712880551815033
0.025466829538345337 0.54520392417907715 0.14464518427848816
0.1067393571138382 0.54228907823562622 0.14483994245529175
0.22936975955963135 0.53787165880203247 0.14531265199184418
0.35277044773101807 0.53588211536407471 0.14450983703136444
0.47979217767715454 0.53588700294494629 0.14284223318099976
0.5960879921913147 0.53020668029785156 0.13907480239868164
0.70511454343795776 0.51949173212051392 0.13322465121746063
0.8042525053024292 0.51794469356536865 0.12764382362365723
0.89120608568191528 0.5139119029045105 0.11844401806592941
0.9678155779838562 0.50743108987808228 0.10594946146011353
0.99550694227218628 0.49365875124931335 0.087352901697158813
0.99921917915344238 0.48072648048400879 0.065763078629970551
0.0055237114429473877 0.61617213487625122 0.14559422433376312
0.021847205236554146 0.61859220266342163 0.14340324699878693
0.075916454195976257 0.62048220634460449 0.1438772976398468
0.21495747566223145 0.6177600622177124 0.14436408877372742
0.35485345125198364 0.61435979604721069 0.14272962510585785
0.48603039979934692 0.61115914583206177 0.14133009314537048
0.60580897331237793 0.60698050260543823 0.13987381756305695
0.71753573417663574 0.60146290063858032 0.13343806564807892
0.8134729266166687 0.59688204526901245 0.12729214131832123
0.90203642845153809 0.59386241436004639 0.11802387982606888
0.97645998001098633 0.59119391441345215 0.10616277158260345
0.99593889713287354 0.58585870265960693 0.089883230626583099
0.99957883358001709 0.58015924692153931 0.070875607430934906
0.0082014789804816246 0.68156546354293823 0.13537317514419556
0.013631932437419891 0.6839103102684021 0.13608242571353912
0.056089889258146286 0.68676334619522095 0.13655577600002289
0.20716381072998047 0.68620836734771729 0.13848322629928589
0.36019191145896912 0.68275731801986694 0.13574936985969543
0.49850678443908691 0.67902457714080811 0.13161347806453705
0.61699807643890381 0.67612951993942261 0.13000158965587616
0.72724103927612305 0.67379599809646606 0.12332892417907715
0.82240766286849976 0.66903132200241089 0.11577621102333069
0.91195166110992432 0.66571891307830811 0.10811325907707214
0.98359853029251099 0.66401869058609009 0.098489083349704742
0.99708700180053711 0.6587178111076355 0.082711599767208099
1 0.65489989519119263 0.066359922289848328
0.0060300040058791637 0.74631983041763306 0.11941348761320114
0.0078470269218087196 0.74796116352081299 0.11995626986026764
0.051157798618078232 0.74966615438461304 0.11769672483205795
0.21018430590629578 0.74954962730407715 0.11707332730293274
0.36979731917381287 0.74719679355621338 0.1174938902258873
0.51113545894622803 0.7449149489402771 0.11455648392438889
0.63347572088241577 0.74349081516265869 0.11248333752155304
0.73615807294845581 0.74158114194869995 0.10541118681430817
0.83109962940216064 0.73812401294708252 0.09504324197769165
0.92179584503173828 0.73344951868057251 0.086563199758529663
0.9844353199005127 0.72836238145828247 0.080951854586601257
0.99724006652832031 0.72473359107971191 0.069626122713088989
1 0.72281903028488159 0.058587003499269485
0.0022996191401034594 0.81345003843307495 0.08377470076084137
0.0029069338925182819 0.81385809183120728 0.08381151407957077
0.03806653618812561 0.81484293937683105 0.082592561841011047
0.20761671662330627 0.81328994035720825 0.080067276954650879
0.37894240021705627 0.81125801801681519 0.080919124186038971
0.52122294902801514 0.80993765592575073 0.076267391443252563
0.64177936315536499 0.81102186441421509 0.071576274931430817
0.74854946136474609 0.81065869331359863 0.069758050143718719
0.84500712156295776 0.80679804086685181 0.062323357909917831
0.93679273128509521 0.80170732736587524 0.055965423583984375
0.98966950178146362 0.7962685227394104 0.050481550395488739
0.99830383062362671 0.79382652044296265 0.042440991848707199
1 0.79486346244812012 0.040155239403247833
0 0.88021934032440186 0.031488753855228424
0.0010260188719257712 0.88144159317016602 0.029843991622328758
0.019581185653805733 0.88368690013885498 0.025621796026825905
0.17099936306476593 0.88337808847427368 0.021465929225087166
0.3706783652305603 0.88094079494476318 0.023766282945871353
0.52366870641708374 0.87968814373016357 0.02338855154812336
0.65233457088470459 0.87963485717773438 0.022775538265705109
0.76460635662078857 0.87916243076324463 0.023142781108617783
0.86460471153259277 0.87583470344543457 0.018902048468589783
0.95683044195175171 0.87291896343231201 0.015434908680617809
0.99704837799072266 0.87015748023986816 0.014743535779416561
0.99987989664077759 0.87021845579147339 0.015722267329692841
1 0.87395000457763672 0.019379455596208572
0 0.94950920343399048 0.0087328441441059113
0.00021233652660157531 0.95208650827407837 0.0071292351931333542
0.0037495631258934736 0.96016889810562134 0.0031379100400954485
0.04674694687128067 0.9630434513092041 0.00023875516490079463
0.21886450052261353 0.96420258283615112 0.00044358198647387326
0.43856677412986755 0.96053296327590942 0.00094018073286861181
0.61111712455749512 0.95745962858200073 0.00076329847797751427
0.74102938175201416 0.95684361457824707 0.0010403202613815665
0.84900844097137451 0.95557659864425659 0.0015895619289949536
0.94945830106735229 0.95446509122848511 0.001337642315775156
0.99309957027435303 0.95432007312774658 0.0019363702740520239
0.99951553344726562 0.95581656694412231 0.003759975079447031
1 0.95494610071182251 0.0047502107918262482
0.03279406949877739 0.030079051852226257 0.080014444887638092
0.10540949553251266 0.033940214663743973 0.081822924315929413
0.18566872179508209 0.03479621559381485 0.082981139421463013
0.26724305748939514 0.033495854586362839 0.083981998264789581
0.35485517978668213 0.029580524191260338 0.084386654198169708
0.45457208156585693 0.026921410113573074 0.08147856593132019
0.55581176280975342 0.020501364022493362 0.076415374875068665
0.65171509981155396 0.015746517106890678 0.070383228361606598
0.74049574136734009 0.015075548551976681 0.063240617513656616
0.82684051990509033 0.0090355370193719864 0.049616899341344833
0.90362942218780518 0.0057017756626009941 0.03819873183965683
0.97269755601882935 0.0032707962673157454 0.027184909209609032
0.99733573198318481 0.0024902643635869026 0.013262206688523293
0.050639823079109192 0.10495126992464066 0.10100381821393967
0.11454226821660995 0.10557094216346741 0.098831802606582642
0.1874648779630661 0.10323043167591095 0.097634531557559967
0.26714777946472168 0.10041604191064835 0.0977044478058815
0.35634103417396545 0.096784003078937531 0.098055325448513031
0.45724019408226013 0.090968459844589233 0.095945127308368683
0.56023514270782471 0.082740947604179382 0.091368608176708221
0.66026574373245239 0.075333721935749054 0.085500918328762054
0.74991387128829956 0.066300950944423676 0.076825208961963654
0.83326882123947144 0.051010672003030777 0.066161930561065674
0.90943831205368042 0.040588513016700745 0.055045004934072495
0.97713655233383179 0.029359316453337669 0.037809677422046661
0.99692434072494507 0.016941474750638008 0.020172208547592163
0.072892673313617706 0.18661075830459595 0.11992471665143967
0.12405748665332794 0.18549443781375885 0.11749297380447388
0.19091098010540009 0.18359746038913727 0.11665013432502747
0.26583856344223022 0.18277178704738617 0.11621720343828201
0.35747566819190979 0.17884792387485504 0.11534721404314041
0.46222361922264099 0.17173008620738983 0.11345458775758743
0.56885582208633423 0.16420403122901917 0.11033401638269424
0.67127794027328491 0.15640345215797424 0.1050700768828392
0.76033544540405273 0.14644479751586914 0.095680192112922668
0.83896535634994507 0.13509470224380493 0.085473082959651947
0.91520053148269653 0.11732263118028641 0.073812000453472137
0.9773707389831543 0.099160231649875641 0.057447366416454315
0.99547910690307617 0.080819040536880493 0.034291137009859085
0.085470177233219147 0.26863694190979004 0.13969579339027405
0.12162230163812637 0.26774045825004578 0.1388232409954071
0.18199042975902557 0.26811295747756958 0.13885384798049927
0.25566071271896362 0.26854625344276428 0.13766489923000336
0.35272350907325745 0.26389506459236145 0.13562925159931183
0.46206903457641602 0.25735670328140259 0.13362756371498108
0.57223767042160034 0.24884457886219025 0.13025297224521637
0.67836016416549683 0.23819559812545776 0.12490114569664001
0.76563477516174316 0.23199911415576935 0.11575593799352646
0.84426063299179077 0.22293126583099365 0.10560771077871323
0.92061209678649902 0.20906442403793335 0.095132671296596527
0.97885370254516602 0.19368709623813629 0.080418407917022705
0.99518948793411255 0.17763838171958923 0.05440438911318779
0.040703058242797852 0.36220553517341614 0.15813101828098297
0.076669670641422272 0.36073172092437744 0.15730945765972137
0.15935502946376801 0.35948818922042847 0.15701504051685333
0.24352118372917175 0.3571435809135437 0.15670858323574066
0.34707918763160706 0.3531683087348938 0.1553717702627182
0.46120342612266541 0.35136312246322632 0.15299081802368164
0.57375764846801758 0.34566009044647217 0.14926975965499878
0.68273991346359253 0.33786052465438843 0.14428797364234924
0.77516508102416992 0.33084172010421753 0.13511449098587036
0.85420173406600952 0.32031205296516418 0.12476632744073868
0.92871713638305664 0.30580821633338928 0.11488789319992065
0.98222577571868896 0.28894242644309998 0.099478535354137421
0.99693828821182251 0.27236217260360718 0.072546489536762238
0.014736504293978214 0.45798188447952271 0.17002682387828827
0.055286675691604614 0.45452156662940979 0.16996122896671295
0.12789897620677948 0.45135021209716797 0.17051845788955688
0.23348918557167053 0.44892692565917969 0.17124165594577789
0.34551703929901123 0.44553542137145996 0.17191928625106812
0.46327024698257446 0.44496273994445801 0.16911028325557709
0.58127790689468384 0.44188076257705688 0.1633809506893158
0.68826425075531006 0.43535807728767395 0.15868903696537018
0.78545504808425903 0.42696917057037354 0.14992369711399078
0.86521464586257935 0.41626384854316711 0.14011405408382416
0.93883836269378662 0.40261489152908325 0.13002607226371765
0.9871031641960144 0.38593271374702454 0.11282014846801758
0.99809360504150391 0.37136361002922058 0.087422162294387817
0.0063510369509458542 0.54022425413131714 0.17753520607948303
0.018336964771151543 0.54075556993484497 0.1768084317445755
0.092318758368492126 0.54018759727478027 0.17666676640510559
0.21791808307170868 0.53531819581985474 0.17769300937652588
0.34347730875015259 0.53301525115966797 0.17999842762947083
0.46792629361152649 0.53254914283752441 0.18103970587253571
0.58782082796096802 0.52773207426071167 0.17212149500846863
0.69405227899551392 0.52058732509613037 0.16506543755531311
0.79404151439666748 0.51430457830429077 0.15685644745826721
0.87800025939941406 0.50975173711776733 0.1477886438369751
0.95416533946990967 0.49931573867797852 0.13501971960067749
0.99212825298309326 0.4862116277217865 0.11735390871763229
0.99807953834533691 0.477487713098526 0.096054539084434509
0.0077893873676657677 0.61038035154342651 0.1816675066947937
0.013044021092355251 0.6138731837272644 0.18013234436511993
0.059173673391342163 0.61772561073303223 0.1780468225479126
0.19755980372428894 0.61570137739181519 0.17810192704200745
0.3427678644657135 0.61219888925552368 0.17801359295845032
0.47523367404937744 0.60772955417633057 0.17843073606491089
0.59774374961853027 0.603668212890625 0.17254561185836792
0.70295542478561401 0.59904450178146362 0.16572412848472595
0.80487161874771118 0.59712392091751099 0.15479274094104767
0.89020353555679321 0.59304904937744141 0.14638732373714447
0.97058451175689697 0.59011596441268921 0.13383214175701141
0.99549788236618042 0.58479171991348267 0.11736056953668594
0.99859368801116943 0.57925546169281006 0.09789218008518219
0.0078546861186623573 0.67875188589096069 0.17756661772727966
0.0088667925447225571 0.68123477697372437 0.17915765941143036
0.040177334100008011 0.68420207500457764 0.17728599905967712
0.18666747212409973 0.68392664194107056 0.17853020131587982
0.34288737177848816 0.67936873435974121 0.17652083933353424
0.48230129480361938 0.67535662651062012 0.17282196879386902
0.60635972023010254 0.67443853616714478 0.16371195018291473
0.71410810947418213 0.67184829711914062 0.15632025897502899
0.81463021039962769 0.66868168115615845 0.14653682708740234
0.90189898014068604 0.66385364532470703 0.13703598082065582
0.97557646036148071 0.66131603717803955 0.12504290044307709
0.99560028314590454 0.65886855125427246 0.1085999459028244
0.99926996231079102 0.65541344881057739 0.09040030837059021
0.0058170543052256107 0.74468022584915161 0.16172067821025848
0.0087031945586204529 0.74582231044769287 0.16592070460319519
0.038349661976099014 0.74770700931549072 0.16572412848472595
0.18976312875747681 0.74768662452697754 0.1639602929353714
0.35720339417457581 0.74524778127670288 0.16354064643383026
0.4966374933719635 0.74280387163162231 0.15731263160705566
0.61355626583099365 0.74255448579788208 0.14827410876750946
0.72251081466674805 0.74031418561935425 0.14182892441749573
0.82083922624588013 0.73510605096817017 0.13466770946979523
0.91126894950866699 0.73038440942764282 0.1221744492650032
0.98321640491485596 0.72743743658065796 0.10878484696149826
0.99635690450668335 0.72464162111282349 0.094658046960830688
0.99983459711074829 0.72262430191040039 0.0801963210105896
0.0019987667910754681 0.81354737281799316 0.13336271047592163
0.0040897293947637081 0.81297880411148071 0.13125291466712952
0.02456156350672245 0.81339460611343384 0.13229638338088989
0.18897347152233124 0.81187444925308228 0.12960933148860931
0.36664441227912903 0.81025093793869019 0.12845122814178467
0.50641089677810669 0.8098524808883667 0.11898849904537201
0.62537038326263428 0.80978429317474365 0.11240009963512421
0.7343408465385437 0.80809485912322998 0.10876931250095367
0.83197349309921265 0.80393606424331665 0.1065027266740799
0.9246898889541626 0.79935526847839355 0.093367889523506165
0.98793381452560425 0.7961113452911377 0.077624224126338959
0.99756908416748047 0.79379522800445557 0.065060228109359741
1 0.79257297515869141 0.056685846298933029
0 0.8833918571472168 0.05662975087761879
0.00063039740780368447 0.88301205635070801 0.05245952308177948
0.01132787112146616 0.88231384754180908 0.056896165013313293
0.14848490059375763 0.88181006908416748 0.053981587290763855
0.35467568039894104 0.88072830438613892 0.05191122367978096
0.50957340002059937 0.88007348775863647 0.047117032110691071
0.63670629262924194 0.87911117076873779 0.047175988554954529
0.75104439258575439 0.87689119577407837 0.04172782227396965
0.85344606637954712 0.8745274543762207 0.036994230002164841
0.9485328197479248 0.8719257116317749 0.028925683349370956
0.99426740407943726 0.8684312105178833 0.026361502707004547
0.99926358461380005 0.86728298664093018 0.020354596897959709
1 0.86848205327987671 0.019761493429541588
0 0.96008598804473877 0.0071683698333799839
1.9746669295273023e-06 0.95933932065963745 0.0096028493717312813
0.0015257741324603558 0.96011930704116821 0.0059014712460339069
0.037264477461576462 0.96201002597808838 0.0031071233097463846
0.21993023157119751 0.96401143074035645 0.002623135456815362
0.43879479169845581 0.9609946608543396 0.0038419687189161777
0.61039179563522339 0.95839953422546387 0.0022682638373225927
0.7433972954750061 0.95669794082641602 0.0026200087741017342
0.85309690237045288 0.95516085624694824 0.0022096820175647736
0.94852465391159058 0.95326358079910278 0.0013964185491204262
0.99354833364486694 0.95089167356491089 0.002597749000415206
0.99960851669311523 0.95078641176223755 0.0030578612349927425
1 0.95093441009521484 0.0042161829769611359
0.026419186964631081 0.027406670153141022 0.13428770005702972
0.092493884265422821 0.027068404480814934 0.13530862331390381
0.1702868640422821 0.025286566466093063 0.13509505987167358
0.2528080940246582 0.026738783344626427 0.13719083368778229
0.33739170432090759 0.021125074476003647 0.13577018678188324
0.43472301959991455 0.021383427083492279 0.13401564955711365
0.53688907623291016 0.017620895057916641 0.12838149070739746
0.63265407085418701 0.013548622839152813 0.11931747943162918
0.72023856639862061 0.013078817166388035 0.10948257148265839
0.80624896287918091 0.0095691606402397156 0.096844874322414398
0.88251125812530518 0.0060618980787694454 0.084506675601005554
0.95249259471893311 0.0037416794802993536 0.069604553282260895
0.99013835191726685 6.8604713305830956e-05 0.044239584356546402
0.040434997528791428 0.094667799770832062 0.15290766954421997
0.10024144500494003 0.092281654477119446 0.15168409049510956
0.17397004365921021 0.087886273860931396 0.14975500106811523
0.25435468554496765 0.086154937744140625 0.15025879442691803
0.34079477190971375 0.082785479724407196 0.14951498806476593
0.440437912940979 0.078739076852798462 0.14675815403461456
0.54345393180847168 0.0720633864402771 0.14196337759494781
0.64180439710617065 0.064909271895885468 0.13497982919216156
0.72809439897537231 0.056916538625955582 0.12661376595497131
0.81041949987411499 0.043119005858898163 0.11716247349977493
0.88669878244400024 0.031835265457630157 0.10330361872911453
0.96155035495758057 0.019749823957681656 0.08118884265422821
0.99551236629486084 0.011906731873750687 0.055654022842645645
0.063428856432437897 0.17664571106433868 0.17026086151599884
0.11028364300727844 0.17550551891326904 0.16977427899837494
0.17847228050231934 0.17283375561237335 0.16902393102645874
0.2555452287197113 0.1695936918258667 0.16838878393173218
0.34383565187454224 0.16457986831665039 0.16682492196559906
0.44733527302742004 0.15783332288265228 0.1636330783367157
0.55296534299850464 0.15267147123813629 0.15957996249198914
0.65340554714202881 0.14573150873184204 0.15373459458351135
0.73899680376052856 0.13662068545818329 0.14527866244316101
0.81796461343765259 0.12551321089267731 0.13571259379386902
0.89589881896972656 0.10847418010234833 0.12088558822870255
0.96952927112579346 0.087706141173839569 0.10206342488527298
0.99601596593856812 0.070211194455623627 0.07697577029466629
0.07919534295797348 0.25856557488441467 0.1871689110994339
0.11243884265422821 0.25969883799552917 0.1876823753118515
0.17374426126480103 0.26032504439353943 0.18809589743614197
0.25011831521987915 0.25777396559715271 0.18790227174758911
0.34108021855354309 0.25127539038658142 0.185962975025177
0.44874611496925354 0.24628479778766632 0.18305347859859467
0.55824631452560425 0.24039450287818909 0.17897021770477295
0.66014182567596436 0.2327178418636322 0.17313691973686218
0.7475205659866333 0.22603322565555573 0.1640593558549881
0.82654982805252075 0.21776729822158813 0.15367947518825531
0.90409016609191895 0.2040383517742157 0.14172714948654175
0.97379404306411743 0.18600405752658844 0.12638583779335022
0.99601894617080688 0.16829480230808258 0.1023070365190506
0.040736854076385498 0.34965506196022034 0.20312130451202393
0.067020609974861145 0.35171422362327576 0.20426681637763977
0.14760354161262512 0.35383462905883789 0.20590342581272125
0.23436412215232849 0.34980228543281555 0.20537756383419037
0.33527097105979919 0.3440985381603241 0.20469324290752411
0.44879782199859619 0.34194570779800415 0.20248448848724365
