luts/colorslide/fuji_astia_100f.cube
# Created by: G'MIC (https://gmic.eu)
TITLE "fuji_astia_100f"
# LUT size
LUT_3D_SIZE 13
# Data domain
DOMAIN_MIN 0.0 0.0 0.0
DOMAIN_MAX 1.0 1.0 1.0
# LUT data points
0.040260672569274902 0.034579511731863022 0.028535252436995506
0.095569461584091187 0.033367544412612915 0.0259857177734375
0.16702133417129517 0.034423589706420898 0.027175154536962509
0.24269552528858185 0.030379321426153183 0.024766614660620689
0.32725027203559875 0.029741549864411354 0.023348534479737282
0.40776845812797546 0.027514873072504997 0.022569693624973297
0.48531720042228699 0.026870144531130791 0.026320153847336769
0.57238531112670898 0.034909866750240326 0.034712053835391998
0.65194904804229736 0.046409592032432556 0.046276018023490906
0.73078137636184692 0.056547306478023529 0.055144172161817551
0.80716198682785034 0.066616207361221313 0.074881382286548615
0.87996971607208252 0.076399542391300201 0.098869889974594116
0.94574844837188721 0.086012177169322968 0.12156163901090622
0.07318095862865448 0.10698267817497253 0.066865153610706329
0.11992280185222626 0.10362973809242249 0.05853646993637085
0.18891997635364532 0.10426795482635498 0.055918257683515549
0.26392713189125061 0.10039909183979034 0.04787609726190567
0.34581753611564636 0.094268679618835449 0.04355437308549881
0.42312520742416382 0.083885714411735535 0.038305800408124924
0.49944508075714111 0.072698213160037994 0.035229850560426712
0.58060890436172485 0.063255205750465393 0.036122836172580719
0.66083157062530518 0.056593667715787888 0.038693476468324661
0.73967260122299194 0.060437235981225967 0.050398480147123337
0.81625699996948242 0.069894053041934967 0.069238670170307159
0.88851207494735718 0.078829668462276459 0.087502151727676392
0.94681084156036377 0.087084479629993439 0.11414770781993866
0.11008719354867935 0.18601928651332855 0.10983672738075256
0.14182467758655548 0.18381918966770172 0.10609675198793411
0.20697721838951111 0.18403564393520355 0.10031113028526306
0.28603139519691467 0.18160600960254669 0.089357130229473114
0.36681085824966431 0.17636235058307648 0.082975916564464569
0.44140845537185669 0.16415701806545258 0.076480880379676819
0.51680785417556763 0.14711357653141022 0.066908620297908783
0.59533894062042236 0.12897692620754242 0.064316675066947937
0.67473256587982178 0.10691563040018082 0.06042010709643364
0.7489389181137085 0.084210701286792755 0.059863384813070297
0.82204711437225342 0.077631451189517975 0.070097275078296661
0.89355438947677612 0.083075866103172302 0.088023059070110321
0.95576190948486328 0.089484900236129761 0.11281539499759674
0.12528842687606812 0.26314294338226318 0.14815725386142731
0.16257554292678833 0.26406985521316528 0.14621855318546295
0.22738601267337799 0.26465877890586853 0.14185288548469543
0.30727845430374146 0.26382744312286377 0.13228181004524231
0.38700586557388306 0.25985580682754517 0.12471675127744675
0.4604945182800293 0.24843648076057434 0.11983838677406311
0.5381014347076416 0.23632320761680603 0.11643293499946594
0.61768519878387451 0.21667422354221344 0.11213771998882294
0.69511121511459351 0.19047023355960846 0.10411188751459122
0.76589179039001465 0.16017766296863556 0.099695675075054169
0.8351396918296814 0.12467147409915924 0.091654770076274872
0.90196400880813599 0.096064940094947815 0.089525081217288971
0.9646146297454834 0.092635601758956909 0.10883252322673798
0.1551717072725296 0.34092658758163452 0.18030384182929993
0.20222616195678711 0.34005045890808105 0.17592118680477142
0.26236099004745483 0.34401831030845642 0.17272849380970001
0.33318677544593811 0.34618979692459106 0.16722363233566284
0.40982210636138916 0.34323704242706299 0.16102370619773865
0.48498073220252991 0.33631753921508789 0.16245433688163757
0.56367158889770508 0.32813259959220886 0.16297014057636261
0.64204132556915283 0.31446686387062073 0.15821455419063568
0.7179754376411438 0.29060333967208862 0.15191465616226196
0.78783053159713745 0.26189300417900085 0.14808006584644318
0.85417914390563965 0.22277434170246124 0.13986314833164215
0.91807377338409424 0.17454557120800018 0.13123299181461334
0.97727173566818237 0.12052570283412933 0.11731733381748199
0.20645990967750549 0.41878700256347656 0.21278047561645508
0.24949014186859131 0.41951915621757507 0.20488712191581726
0.30386322736740112 0.42346307635307312 0.19972054660320282
0.36756712198257446 0.42579212784767151 0.1953488290309906
0.43754303455352783 0.42626044154167175 0.19271980226039886
0.51552540063858032 0.42296472191810608 0.1945614367723465
0.59449487924575806 0.41610479354858398 0.19459886848926544
0.67096555233001709 0.4061463475227356 0.19185428321361542
0.74321246147155762 0.39099618792533875 0.19126118719577789
0.81275057792663574 0.37061622738838196 0.19453345239162445
0.87704485654830933 0.33735227584838867 0.19391743838787079
0.93959254026412964 0.2941000759601593 0.19293017685413361
0.98618292808532715 0.22539645433425903 0.17203919589519501
0.25554090738296509 0.50099211931228638 0.24781611561775208
0.29468527436256409 0.49997207522392273 0.239515021443367
0.34056288003921509 0.50181818008422852 0.23414933681488037
0.40091544389724731 0.50624048709869385 0.23011654615402222
0.46869370341300964 0.5083433985710144 0.22749814391136169
0.54758298397064209 0.5065876841545105 0.22050221264362335
0.62902045249938965 0.50249624252319336 0.21386332809925079
0.70728379487991333 0.49601101875305176 0.21082969009876251
0.78095394372940063 0.48676052689552307 0.21085150539875031
0.84763199090957642 0.47348117828369141 0.21882523596286774
0.90944135189056396 0.45406624674797058 0.23376505076885223
0.9689631462097168 0.42360633611679077 0.2438712865114212
0.99464142322540283 0.37293195724487305 0.24338275194168091
0.30026465654373169 0.58232003450393677 0.28489193320274353
0.33428734540939331 0.58151644468307495 0.28068450093269348
0.37786781787872314 0.58094185590744019 0.27493682503700256
0.43213739991188049 0.58420073986053467 0.27007219195365906
0.49928829073905945 0.58662182092666626 0.26673924922943115
0.57671195268630981 0.58651554584503174 0.25719729065895081
0.66137313842773438 0.58664619922637939 0.24054098129272461
0.74471473693847656 0.58591634035110474 0.22608467936515808
0.82073467969894409 0.58126312494277954 0.22395162284374237
0.89111894369125366 0.57405769824981689 0.23026303946971893
0.95012688636779785 0.55668705701828003 0.24869771301746368
0.98967480659484863 0.53742766380310059 0.27094787359237671
0.9984583854675293 0.50031560659408569 0.28876900672912598
0.34606015682220459 0.6573793888092041 0.32416117191314697
0.37473887205123901 0.66027140617370605 0.32194596529006958
0.41379010677337646 0.65928953886032104 0.31602677702903748
0.46474498510360718 0.66077995300292969 0.30942574143409729
0.52972280979156494 0.66290062665939331 0.30259978771209717
0.6057363748550415 0.66539794206619263 0.29423043131828308
0.68749505281448364 0.66737550497055054 0.28000199794769287
0.77145504951477051 0.66520684957504272 0.26127776503562927
0.85515981912612915 0.66397690773010254 0.2465752512216568
0.9350898265838623 0.66282325983047485 0.23707987368106842
0.98593449592590332 0.65523421764373779 0.24542340636253357
0.99545407295227051 0.63786506652832031 0.27048107981681824
0.99917709827423096 0.61565631628036499 0.31134259700775146
0.39497077465057373 0.72386115789413452 0.3573034405708313
0.42166879773139954 0.72477817535400391 0.35445693135261536
0.45311003923416138 0.72756403684616089 0.35126018524169922
0.50230962038040161 0.72571134567260742 0.34279850125312805
0.56486016511917114 0.72683846950531006 0.33391028642654419
0.63822543621063232 0.7342110276222229 0.3266739547252655
0.71256613731384277 0.74006330966949463 0.31753674149513245
0.79356980323791504 0.73963135480880737 0.30254530906677246
0.87768924236297607 0.73711270093917847 0.28475719690322876
0.95824038982391357 0.73909151554107666 0.26886826753616333
0.99465751647949219 0.73944222927093506 0.25715720653533936
0.99894005060195923 0.73176413774490356 0.25576764345169067
1 0.71517324447631836 0.29037672281265259
0.44815123081207275 0.7823982834815979 0.38517570495605469
0.47036251425743103 0.78259801864624023 0.38311007618904114
0.50034171342849731 0.78597229719161987 0.37998089194297791
0.54432719945907593 0.78624129295349121 0.37332680821418762
0.6038786768913269 0.78710919618606567 0.36513960361480713
0.67082118988037109 0.79464364051818848 0.35854035615921021
0.74085789918899536 0.80029970407485962 0.34980589151382446
0.81984627246856689 0.80341124534606934 0.33731618523597717
0.9010271430015564 0.80624896287918091 0.3233795166015625
0.97495418787002563 0.81074851751327515 0.3105003833770752
0.99600106477737427 0.80932009220123291 0.29531106352806091
0.99970513582229614 0.80593448877334595 0.28034296631813049
1 0.80206674337387085 0.27076229453086853
0.50317496061325073 0.83868294954299927 0.412241131067276
0.51880431175231934 0.84070181846618652 0.41153594851493835
0.54755067825317383 0.84376007318496704 0.4084027111530304
0.58721470832824707 0.84537661075592041 0.40379634499549866
0.64289599657058716 0.84852772951126099 0.39705732464790344
0.70390963554382324 0.8539198637008667 0.38993105292320251
0.77169400453567505 0.85911506414413452 0.38141390681266785
0.84620094299316406 0.86384779214859009 0.3702893853187561
0.92249321937561035 0.86838871240615845 0.35871061682701111
0.98485672473907471 0.87361884117126465 0.34715461730957031
0.99643445014953613 0.87552279233932495 0.33360093832015991
0.9996103048324585 0.87489402294158936 0.31874927878379822
1 0.87458372116088867 0.30243217945098877
0.55478519201278687 0.89121240377426147 0.4366309642791748
0.5642818808555603 0.89476120471954346 0.43786472082138062
0.5913129448890686 0.89819121360778809 0.43550732731819153
0.62707376480102539 0.90405374765396118 0.43363577127456665
0.67666250467300415 0.90727776288986206 0.42763301730155945
0.73445963859558105 0.90887981653213501 0.41906857490539551
0.79938596487045288 0.91339617967605591 0.41044408082962036
0.86968320608139038 0.91814404726028442 0.40093404054641724
0.94107151031494141 0.92664998769760132 0.39313900470733643
0.99352633953094482 0.93343698978424072 0.38305366039276123
0.99973618984222412 0.93541646003723145 0.36807215213775635
1 0.94017815589904785 0.35453659296035767
1 0.94164580106735229 0.34361520409584045
0.029167788103222847 0.032189089804887772 0.067472852766513824
0.080135643482208252 0.033334095031023026 0.068192966282367706
0.14811478555202484 0.034695897251367569 0.068989396095275879
0.22772713005542755 0.03261851891875267 0.065151587128639221
0.31188181042671204 0.031780064105987549 0.063884526491165161
0.39089673757553101 0.028362993150949478 0.063351288437843323
0.46548989415168762 0.026838669553399086 0.066994838416576385
0.55077409744262695 0.036844935268163681 0.076749227941036224
0.63310724496841431 0.046650577336549759 0.088485687971115112
0.71284300088882446 0.056308027356863022 0.10115543752908707
0.79182225465774536 0.06735152006149292 0.11480669677257538
0.86807399988174438 0.078016601502895355 0.1303192675113678
0.93391859531402588 0.086166396737098694 0.14713463187217712
0.062885940074920654 0.10346870869398117 0.10741928964853287
0.10551030933856964 0.1022636890411377 0.10254351794719696
0.1730053722858429 0.106808140873909 0.10109418630599976
0.25005710124969482 0.1004619374871254 0.093644127249717712
0.33087199926376343 0.091416932642459869 0.086732588708400726
0.40796396136283875 0.081186063587665558 0.081235699355602264
0.48186448216438293 0.068429522216320038 0.07516605406999588
0.5624815821647644 0.058951001614332199 0.072257235646247864
0.6446654200553894 0.05535869300365448 0.076702982187271118
0.72459292411804199 0.061118405312299728 0.090001247823238373
0.80260437726974487 0.070099607110023499 0.10318956524133682
0.876639723777771 0.079894617199897766 0.11864452064037323
0.93771380186080933 0.087394863367080688 0.13925850391387939
0.09722631424665451 0.18221849203109741 0.14451184868812561
0.12987934052944183 0.18250937759876251 0.14361828565597534
0.19552139937877655 0.18490202724933624 0.13895502686500549
0.27371585369110107 0.18047505617141724 0.1288897693157196
0.35115373134613037 0.17353549599647522 0.12314464896917343
0.42727327346801758 0.16316799819469452 0.11794479936361313
0.50098472833633423 0.14524310827255249 0.10899093002080917
0.57992231845855713 0.12649327516555786 0.10187783092260361
0.65993744134902954 0.10425432771444321 0.096130251884460449
0.73609894514083862 0.081001222133636475 0.091074146330356598
0.80998021364212036 0.076629474759101868 0.099002569913864136
0.88311606645584106 0.084611333906650543 0.11489608138799667
0.9461638331413269 0.089490450918674469 0.13646973669528961
0.11597397923469543 0.26218292117118835 0.17769791185855865
0.15335981547832489 0.26270398497581482 0.17864939570426941
0.21870768070220947 0.26483598351478577 0.17716473340988159
0.29681670665740967 0.26375377178192139 0.1670895516872406
0.37288472056388855 0.2598537802696228 0.16264902055263519
0.44639834761619568 0.25016108155250549 0.16015475988388062
0.52322214841842651 0.23346631228923798 0.15367576479911804
0.60312145948410034 0.21296608448028564 0.14721022546291351
0.68180572986602783 0.18734420835971832 0.13783815503120422
0.75554776191711426 0.15731249749660492 0.12808375060558319
0.82376003265380859 0.12151915580034256 0.11730180680751801
0.89285719394683838 0.094656817615032196 0.1132105365395546
0.95705056190490723 0.093201734125614166 0.13232782483100891
0.14608076214790344 0.34113740921020508 0.20602190494537354
0.19130700826644897 0.3402353823184967 0.20314408838748932
0.25587984919548035 0.34439888596534729 0.20321181416511536
0.32578644156455994 0.34661081433296204 0.19846299290657043
0.39963510632514954 0.34405556321144104 0.19442075490951538
0.4715636670589447 0.33741199970245361 0.19955506920814514
0.54947876930236816 0.32595095038414001 0.19867107272148132
0.62784731388092041 0.30801841616630554 0.19218116998672485
0.70468699932098389 0.28432789444923401 0.18417520821094513
0.77669680118560791 0.25643634796142578 0.17539818584918976
0.84448885917663574 0.21595591306686401 0.16310429573059082
0.91026455163955688 0.16479715704917908 0.14674936234951019
0.96995580196380615 0.11603225767612457 0.13634182512760162
0.20578287541866302 0.42195326089859009 0.23228637874126434
0.24420343339443207 0.42197653651237488 0.22460834681987762
0.29771286249160767 0.42507874965667725 0.22477737069129944
0.36085808277130127 0.42744535207748413 0.22276195883750916
0.42831799387931824 0.42638662457466125 0.2208431214094162
0.50545865297317505 0.42241233587265015 0.22474324703216553
0.58123677968978882 0.41430318355560303 0.22721970081329346
0.65702974796295166 0.40199065208435059 0.22607292234897614
0.73020482063293457 0.38524797558784485 0.2235005646944046
0.79942172765731812 0.36384457349777222 0.22190111875534058
0.86690860986709595 0.33423072099685669 0.21739442646503448
0.93190252780914307 0.28852087259292603 0.20845781266689301
0.98271161317825317 0.21977278590202332 0.1876630038022995
0.2677704393863678 0.50518321990966797 0.25637757778167725
0.30010256171226501 0.5059400200843811 0.24676601588726044
0.3443143367767334 0.5076674222946167 0.24333272874355316
0.40205228328704834 0.51058864593505859 0.24290449917316437
0.46739315986633301 0.51064497232437134 0.2461494505405426
0.54308938980102539 0.50789725780487061 0.24395120143890381
0.61738312244415283 0.50106406211853027 0.24526424705982208
0.69127041101455688 0.49284917116165161 0.24618141353130341
0.76620543003082275 0.48466253280639648 0.24228522181510925
0.83385401964187622 0.47220280766487122 0.24852035939693451
0.89687013626098633 0.45261469483375549 0.25905627012252808
0.95920592546463013 0.41783931851387024 0.26220300793647766
0.99370080232620239 0.3697350025177002 0.2614891529083252
0.31469610333442688 0.58552128076553345 0.28757491707801819
0.34198874235153198 0.58669412136077881 0.28190192580223083
0.38689133524894714 0.58810067176818848 0.27696555852890015
0.44022488594055176 0.58897155523300171 0.27159476280212402
0.50779229402542114 0.59048563241958618 0.26986587047576904
0.58244341611862183 0.59116494655609131 0.2655450701713562
0.66185331344604492 0.58907175064086914 0.25521504878997803
0.73702365159988403 0.58370983600616455 0.25108924508094788
0.80923342704772949 0.57986909151077271 0.25125491619110107
0.87705957889556885 0.57443779706954956 0.25995317101478577
0.93709397315979004 0.55981224775314331 0.28088006377220154
0.98623311519622803 0.53549396991729736 0.29782107472419739
0.99856185913085938 0.49775415658950806 0.31133154034614563
0.35517615079879761 0.65888315439224243 0.32392194867134094
0.37900379300117493 0.66154450178146362 0.32212799787521362
0.42634528875350952 0.66197669506072998 0.31543344259262085
0.47879880666732788 0.66057014465332031 0.30746310949325562
0.54182529449462891 0.6628490686416626 0.30194556713104248
0.61646425724029541 0.66703623533248901 0.29476627707481384
0.69482982158660889 0.66998451948165894 0.28341010212898254
0.77444994449615479 0.66803377866744995 0.26933920383453369
0.84908491373062134 0.66347497701644897 0.26141375303268433
0.92452991008758545 0.66252642869949341 0.25786784291267395
0.97924178838729858 0.65638786554336548 0.27453777194023132
0.9974062442779541 0.64104545116424561 0.30450192093849182
0.99999392032623291 0.6158180832862854 0.33798503875732422
0.40786910057067871 0.72050434350967407 0.35424348711967468
0.42843303084373474 0.72361618280410767 0.35307139158248901
0.46809747815132141 0.72663497924804688 0.34919056296348572
0.51745164394378662 0.7265549898147583 0.34176412224769592
0.57564514875411987 0.72758215665817261 0.3339667022228241
0.64694797992706299 0.7340354323387146 0.32703694701194763
0.72097587585449219 0.73761165142059326 0.31647691130638123
0.79836583137512207 0.73920756578445435 0.30410054326057434
0.87924444675445557 0.73912447690963745 0.28900566697120667
0.95655220746994019 0.74066060781478882 0.27420958876609802
0.99324095249176025 0.74063014984130859 0.26826363801956177
0.99894100427627563 0.7314721941947937 0.28075525164604187
1 0.71616131067276001 0.32263702154159546
0.46129897236824036 0.78227978944778442 0.38423916697502136
0.47766244411468506 0.78268933296203613 0.38223135471343994
0.51137453317642212 0.78631174564361572 0.37915340065956116
0.55575132369995117 0.78666996955871582 0.37270465493202209
0.61166352033615112 0.78855633735656738 0.3651333749294281
0.67660880088806152 0.79497247934341431 0.35886788368225098
0.7478441596031189 0.79902064800262451 0.34940817952156067
0.82563072443008423 0.80217504501342773 0.33697816729545593
0.90497422218322754 0.80554735660552979 0.32380485534667969
0.975239098072052 0.81063473224639893 0.3117007315158844
0.99595397710800171 0.81025320291519165 0.29913827776908875
0.99976438283920288 0.8065561056137085 0.28624004125595093
1 0.80318665504455566 0.28250798583030701
0.51359999179840088 0.8411020040512085 0.41308867931365967
0.52483230829238892 0.84246200323104858 0.41199257969856262
0.55501097440719604 0.84470945596694946 0.40823855996131897
0.59486949443817139 0.84702831506729126 0.40322577953338623
0.64750838279724121 0.84973669052124023 0.39693248271942139
0.70701247453689575 0.85510528087615967 0.39088475704193115
0.77769583463668823 0.85996532440185547 0.381917804479599
0.8533589243888855 0.86432093381881714 0.37090763449668884
0.92730331420898438 0.86857694387435913 0.35903561115264893
0.98546230792999268 0.87360292673110962 0.34688118100166321
0.99682122468948364 0.87600934505462646 0.33470529317855835
0.99989122152328491 0.87489157915115356 0.32000797986984253
1 0.87580007314682007 0.30143588781356812
0.56171602010726929 0.89528882503509521 0.43861746788024902
0.56976008415222168 0.900107741355896 0.44027310609817505
0.59619057178497314 0.90164709091186523 0.43697717785835266
0.63313639163970947 0.90483182668685913 0.43286171555519104
0.68189144134521484 0.90819716453552246 0.4272148609161377
0.7386888861656189 0.91398519277572632 0.42166638374328613
0.8057062029838562 0.91799288988113403 0.41273224353790283
0.87676811218261719 0.92023760080337524 0.40186110138893127
0.94674551486968994 0.92701369524002075 0.39246886968612671
0.99391704797744751 0.93330109119415283 0.38193482160568237
0.99892479181289673 0.93842816352844238 0.37002682685852051
1 0.94264620542526245 0.35634639859199524
1 0.94465941190719604 0.34395536780357361
0.017006607726216316 0.028070906177163124 0.11300314962863922
0.062414955347776413 0.030190456658601761 0.11422211676836014
0.133281409740448 0.033230200409889221 0.11318230628967285
0.21198280155658722 0.033642053604125977 0.1085636094212532
0.29657101631164551 0.031822055578231812 0.10403825342655182
0.37789508700370789 0.027189232409000397 0.10121317952871323
0.45467668771743774 0.02687365934252739 0.10514698177576065
0.53869569301605225 0.037034817039966583 0.10926015675067902
0.62104994058609009 0.04781506210565567 0.11532849818468094
0.70048469305038452 0.057893477380275726 0.13031376898288727
0.77934873104095459 0.068431884050369263 0.14460423588752747
0.85689592361450195 0.078466854989528656 0.15939779579639435
0.92730307579040527 0.08690769225358963 0.17518271505832672
0.050315827131271362 0.098684392869472504 0.14659781754016876
0.089524544775485992 0.099000565707683563 0.14587359130382538
0.15731622278690338 0.10285080224275589 0.14486664533615112
0.23289820551872253 0.09674198180437088 0.13733506202697754
0.31406399607658386 0.087287783622741699 0.12811039388179779
0.39078789949417114 0.075258336961269379 0.12047839909791946
0.46771711111068726 0.06386064738035202 0.11407730728387833
0.54879188537597656 0.054611429572105408 0.10893937945365906
0.63023847341537476 0.050581719726324081 0.10878219455480576
0.70967656373977661 0.061207655817270279 0.12197708338499069
0.78856295347213745 0.071233324706554413 0.13572509586811066
0.86358481645584106 0.080859959125518799 0.15116769075393677
0.93013566732406616 0.088267318904399872 0.16628661751747131
0.086280062794685364 0.17980389297008514 0.18150323629379272
0.11976062506437302 0.18131093680858612 0.18261542916297913
0.18135863542556763 0.18281382322311401 0.18032069504261017
0.25763323903083801 0.17528139054775238 0.17214493453502655
0.3339897096157074 0.16675150394439697 0.16448429226875305
0.4091147780418396 0.15598230063915253 0.15713001787662506
0.48489862680435181 0.13975195586681366 0.14843423664569855
0.56504756212234497 0.1231277734041214 0.14012274146080017
0.64493995904922485 0.10024424642324448 0.13039562106132507
0.72140806913375854 0.07781575620174408 0.1229916587471962
0.79745262861251831 0.077263712882995605 0.13021096587181091
0.87110710144042969 0.085357740521430969 0.14456924796104431
0.93773841857910156 0.090325959026813507 0.16048189997673035
0.10926682502031326 0.26132592558860779 0.21422204375267029
0.1431746780872345 0.26220792531967163 0.21533702313899994
0.20345829427242279 0.26289072632789612 0.21567690372467041
0.27975264191627502 0.26142513751983643 0.21070069074630737
0.35488694906234741 0.25647398829460144 0.20657564699649811
0.42852798104286194 0.24646499752998352 0.20008397102355957
0.50679367780685425 0.22895269095897675 0.19237211346626282
0.58670449256896973 0.21046784520149231 0.18367710709571838
0.66557741165161133 0.18463477492332458 0.17259907722473145
0.74054050445556641 0.15120039880275726 0.15862925350666046
0.81206446886062622 0.11689264327287674 0.14469681680202484
0.88162875175476074 0.09498220682144165 0.14146450161933899
0.94783705472946167 0.093047782778739929 0.15546920895576477
0.12867707014083862 0.34199386835098267 0.24117888510227203
0.17559172213077545 0.34200981259346008 0.2412412017583847
0.23950377106666565 0.34539949893951416 0.2439209520816803
0.30927237868309021 0.34654748439788818 0.24218215048313141
0.38102361559867859 0.34288135170936584 0.23955711722373962
0.45141527056694031 0.33491957187652588 0.2380785197019577
0.53080588579177856 0.3205392062664032 0.23492743074893951
0.60989463329315186 0.30461251735687256 0.22905182838439941
0.68709999322891235 0.2804797887802124 0.21968521177768707
