luts/colorslide/fuji_sensia_100.cube
# Created by: G'MIC (https://gmic.eu)
TITLE "fuji_sensia_100"
# LUT size
LUT_3D_SIZE 7
# Data domain
DOMAIN_MIN 0.0 0.0 0.0
DOMAIN_MAX 1.0 1.0 1.0
# LUT data points
0.047599911689758301 0.045878630131483078 0.039406150579452515
0.16495963931083679 0.04265270009636879 0.031034132465720177
0.29656192660331726 0.042909614741802216 0.019440431147813797
0.44761118292808533 0.038380596786737442 0.0093347588554024696
0.63836640119552612 0.032666988670825958 0.0045367819257080555
0.79896694421768188 0.030256712809205055 0.0059047774411737919
0.89645004272460938 0.030490515753626823 0.013842803426086903
0.12610664963722229 0.21917206048965454 0.1175592765212059
0.2147127240896225 0.21675311028957367 0.10952096432447433
0.34401747584342957 0.21133323013782501 0.087374456226825714
0.49961647391319275 0.20474478602409363 0.071621552109718323
0.68754875659942627 0.19575949013233185 0.046315643936395645
0.84816819429397583 0.19424346089363098 0.047754041850566864
0.9455065131187439 0.19940349459648132 0.07996203750371933
0.15791095793247223 0.39496740698814392 0.19747287034988403
0.25011739134788513 0.39534515142440796 0.18633061647415161
0.38540399074554443 0.38678696751594543 0.17220635712146759
0.54828578233718872 0.37786507606506348 0.14944437146186829
0.73677211999893188 0.37555590271949768 0.12814722955226898
0.89527589082717896 0.37095066905021667 0.12382345646619797
0.98330783843994141 0.37680289149284363 0.16315227746963501
0.19918034970760345 0.60540115833282471 0.26744005084037781
0.28883671760559082 0.60326510667800903 0.25835701823234558
0.42909020185470581 0.59601587057113647 0.24324648082256317
0.61150485277175903 0.58816802501678467 0.21763096749782562
0.80524152517318726 0.58717405796051025 0.19487111270427704
0.95610558986663818 0.58535826206207275 0.19556237757205963
0.99954891204833984 0.58717805147171021 0.24562069773674011
0.26048019528388977 0.76681333780288696 0.30395105481147766
0.33954107761383057 0.77388054132461548 0.29459899663925171
0.49457424879074097 0.76220369338989258 0.27716538310050964
0.67690092325210571 0.76521295309066772 0.25793719291687012
0.86472958326339722 0.7626197338104248 0.23503836989402771
0.99288070201873779 0.75888311862945557 0.2449476569890976
1 0.75212103128433228 0.29470112919807434
0.3531096875667572 0.88524425029754639 0.27540978789329529
0.42846941947937012 0.8841138482093811 0.26477822661399841
0.57042390108108521 0.87779194116592407 0.24240455031394958
0.75291895866394043 0.87532413005828857 0.22542612254619598
0.92867571115493774 0.86977595090866089 0.20606495440006256
0.99787122011184692 0.86640667915344238 0.23090140521526337
1 0.86922562122344971 0.31242957711219788
0.4027823805809021 0.96035671234130859 0.13733476400375366
0.47884270548820496 0.95940947532653809 0.11952625215053558
0.62850087881088257 0.95426279306411743 0.061757553368806839
0.8263738751411438 0.94380044937133789 0.023608697578310966
0.99128061532974243 0.94024181365966797 0.014980495907366276
1 0.93789976835250854 0.039395425468683243
1 0.94108688831329346 0.16399586200714111
0.038083393126726151 0.033210471272468567 0.14371150732040405
0.15661413967609406 0.036237753927707672 0.12612372636795044
0.28253123164176941 0.027046786621212959 0.10555001348257065
0.43563535809516907 0.024317529052495956 0.080716945230960846
0.61717742681503296 0.020210506394505501 0.052918691188097
0.76396363973617554 0.020273918285965919 0.053269211202859879
0.85950636863708496 0.022825950756669044 0.088802248239517212
0.12301978468894958 0.20197954773902893 0.2118971049785614
0.20180913805961609 0.1996324211359024 0.19879201054573059
0.33113300800323486 0.19006608426570892 0.17548111081123352
0.48612892627716064 0.18456418812274933 0.15730954706668854
0.66485321521759033 0.17760434746742249 0.12909546494483948
0.81864374876022339 0.17270161211490631 0.12556865811347961
0.91255635023117065 0.17939931154251099 0.16602101922035217
0.14793434739112854 0.38332939147949219 0.27775999903678894
0.24240639805793762 0.3886522650718689 0.26971429586410522
0.37538626790046692 0.3772464394569397 0.2500937283039093
0.54806894063949585 0.37094202637672424 0.22767716646194458
0.72779339551925659 0.36488199234008789 0.20200170576572418
0.87163698673248291 0.36249646544456482 0.20316438376903534
0.96742916107177734 0.36572465300559998 0.24084396660327911
0.17848303914070129 0.59910207986831665 0.34739306569099426
0.27540725469589233 0.60119116306304932 0.3398590087890625
0.41736289858818054 0.59572023153305054 0.32563653588294983
0.60577821731567383 0.59117966890335083 0.29968705773353577
0.79197502136230469 0.58346670866012573 0.27646303176879883
0.9332277774810791 0.57983040809631348 0.28221213817596436
0.99616891145706177 0.58239185810089111 0.32397255301475525
0.22857214510440826 0.77697932720184326 0.38693392276763916
0.32347273826599121 0.77603697776794434 0.38124042749404907
0.47501340508460999 0.76849865913391113 0.36450433731079102
0.66817235946655273 0.76579684019088745 0.34203943610191345
0.8462865948677063 0.76303601264953613 0.32669174671173096
0.98045384883880615 0.75946909189224243 0.33277773857116699
0.99926376342773438 0.75870698690414429 0.38162899017333984
0.32821974158287048 0.89010345935821533 0.37252575159072876
0.41190117597579956 0.88668453693389893 0.36099138855934143
0.55565327405929565 0.88112223148345947 0.34489646553993225
0.73519742488861084 0.87940710783004761 0.32814466953277588
0.90875208377838135 0.87145912647247314 0.31188243627548218
0.99449020624160767 0.86811822652816772 0.32938674092292786
0.99998205900192261 0.86930614709854126 0.3989892303943634
0.40959122776985168 0.96290856599807739 0.21120184659957886
0.48258054256439209 0.96151912212371826 0.1964351087808609
0.62476247549057007 0.9577288031578064 0.16547277569770813
0.8097233772277832 0.9522089958190918 0.13393823802471161
0.97955721616744995 0.9469449520111084 0.1278509795665741
1 0.9442441463470459 0.1672590970993042
1 0.9453970193862915 0.29334861040115356
0.03368816152215004 0.020551614463329315 0.24195381999015808
0.14518408477306366 0.020644901320338249 0.22478701174259186
0.27131190896034241 0.018376907333731651 0.20382615923881531
0.42253473401069641 0.015972809866070747 0.18043401837348938
0.59605628252029419 0.013205838389694691 0.15252141654491425
0.73108953237533569 0.011448774486780167 0.15355150401592255
0.82365274429321289 0.0097191156819462776 0.18566222488880157
0.11721602827310562 0.17887173593044281 0.30705615878105164
0.18990588188171387 0.17626872658729553 0.29290202260017395
0.32052123546600342 0.16912686824798584 0.27452719211578369
0.47165533900260925 0.15995416045188904 0.25587797164916992
0.6428292989730835 0.15715627372264862 0.23344215750694275
0.78283357620239258 0.15250682830810547 0.22950445115566254
0.86945647001266479 0.1574021577835083 0.26166686415672302
0.13722532987594604 0.3620351254940033 0.38333919644355774
0.23096108436584473 0.36193159222602844 0.36997076869010925
0.3665059506893158 0.36048516631126404 0.35499361157417297
0.52752113342285156 0.35480824112892151 0.33675256371498108
0.70329320430755615 0.34496179223060608 0.31156551837921143
0.83757799863815308 0.34624409675598145 0.31276705861091614
0.92684078216552734 0.3484438955783844 0.34795734286308289
0.15515793859958649 0.58896774053573608 0.46064099669456482
0.25604856014251709 0.58742856979370117 0.45370322465896606
0.40386477112770081 0.58545082807540894 0.44130405783653259
0.59097737073898315 0.58023375272750854 0.41626414656639099
0.76493674516677856 0.57491731643676758 0.39799791574478149
0.89452230930328369 0.57614791393280029 0.40664359927177429
0.97883057594299316 0.57487452030181885 0.44002458453178406
0.19223885238170624 0.77821671962738037 0.5199701189994812
0.29455453157424927 0.77464324235916138 0.51183593273162842
0.45568680763244629 0.76590502262115479 0.49606901407241821
0.64153808355331421 0.76140362024307251 0.47797346115112305
0.81538969278335571 0.76308661699295044 0.4673023521900177
0.94193869829177856 0.75977563858032227 0.47387921810150146
0.99788796901702881 0.75820058584213257 0.51297652721405029
0.28441405296325684 0.89361661672592163 0.52416753768920898
0.37648454308509827 0.88813024759292603 0.51026886701583862
0.52759855985641479 0.88795930147171021 0.50442385673522949
0.70311635732650757 0.88340437412261963 0.49094155430793762
0.86097359657287598 0.87856942415237427 0.48111677169799805
0.98026204109191895 0.87794667482376099 0.49675491452217102
0.99871331453323364 0.87453997135162354 0.54724651575088501
0.35411903262138367 0.97078734636306763 0.42021989822387695
0.43304881453514099 0.96811717748641968 0.41676688194274902
0.58097440004348755 0.96581286191940308 0.40104693174362183
0.76493799686431885 0.96093952655792236 0.37892237305641174
0.93608707189559937 0.95596432685852051 0.37213864922523499
0.99882274866104126 0.95301061868667603 0.39869078993797302
1 0.95424115657806396 0.48459136486053467
0.03050149604678154 0.0074808904901146889 0.35209214687347412
0.13486739993095398 0.0076966825872659683 0.33882471919059753
0.25502777099609375 0.0044371811673045158 0.31898006796836853
0.40166285634040833 0.0044600395485758781 0.29568767547607422
0.56845283508300781 0.0046758465468883514 0.27338710427284241
0.69768446683883667 0.0039531635120511055 0.2778078019618988
0.78436768054962158 0.003477373393252492 0.2947881817817688
0.10854405164718628 0.14613847434520721 0.42164164781570435
0.17796444892883301 0.13811098039150238 0.41151607036590576
0.30212438106536865 0.13898292183876038 0.39249375462532043
0.45142638683319092 0.13051843643188477 0.37008252739906311
0.61067551374435425 0.11998488754034042 0.35136145353317261
0.73212659358978271 0.1182311549782753 0.35030761361122131
0.8224371075630188 0.11761683970689774 0.36416858434677124
0.13379800319671631 0.33395731449127197 0.50768274068832397
0.22346460819244385 0.33129164576530457 0.50230544805526733
0.35002747178077698 0.33246874809265137 0.48462730646133423
0.49854514002799988 0.32608774304389954 0.46168351173400879
0.66444247961044312 0.31720218062400818 0.44124728441238403
0.78884720802307129 0.31624767184257507 0.442146897315979
0.87381649017333984 0.31371656060218811 0.45512741804122925
0.1462138295173645 0.56682121753692627 0.60836672782897949
0.24492840468883514 0.57028311491012573 0.5969235897064209
0.39009496569633484 0.56347787380218506 0.58023244142532349
0.56572526693344116 0.56620019674301147 0.56089264154434204
0.72367852926254272 0.5568738579750061 0.53977054357528687
0.84436935186386108 0.55370312929153442 0.54012066125869751
0.93436771631240845 0.55145210027694702 0.55956721305847168
0.15792521834373474 0.77662163972854614 0.68242460489273071
0.27503609657287598 0.77278512716293335 0.67167454957962036
0.43533122539520264 0.76874256134033203 0.65893220901489258
0.6110413670539856 0.76005208492279053 0.63886278867721558
0.77304339408874512 0.75804203748703003 0.62440532445907593
0.89490139484405518 0.75751173496246338 0.62297040224075317
0.97677910327911377 0.75013953447341919 0.639026939868927
0.25080680847167969 0.89987921714782715 0.7093207836151123
0.34688043594360352 0.89429104328155518 0.69894832372665405
0.49456048011779785 0.89109724760055542 0.68746024370193481
0.66326749324798584 0.88629740476608276 0.67084741592407227
0.81634747982025146 0.88313168287277222 0.65977078676223755
0.92992550134658813 0.87932091951370239 0.6613086462020874
0.99648004770278931 0.87954032421112061 0.68665152788162231
0.28258016705513 0.98094266653060913 0.65348297357559204
0.37314590811729431 0.97934603691101074 0.64516675472259521
0.53173303604125977 0.97550004720687866 0.63573646545410156
0.7102581262588501 0.96989244222640991 0.61959803104400635
0.86829137802124023 0.96712213754653931 0.61033666133880615
0.97860991954803467 0.96463656425476074 0.62547391653060913
1 0.96214109659194946 0.67141175270080566
0.034736886620521545 0.003705701557919383 0.48780679702758789
0.13504666090011597 0.00080219341907650232 0.47051206231117249
0.24942232668399811 8.0422796600032598e-05 0.45267528295516968
0.39371731877326965 0.00013236251834314317 0.42631739377975464
0.5444144606590271 0.0017989663174375892 0.40409079194068909
0.66239702701568604 0 0.39522919058799744
0.74482619762420654 6.4625462982803583e-05 0.39458099007606506
0.093377344310283661 0.08562188595533371 0.54159408807754517
0.16595748066902161 0.080447718501091003 0.53399145603179932
0.28222644329071045 0.07798641175031662 0.51088005304336548
0.42647236585617065 0.06753433495759964 0.48382532596588135
0.57284742593765259 0.063888683915138245 0.45968702435493469
0.68265515565872192 0.052567590028047562 0.44636863470077515
0.7701379656791687 0.050087422132492065 0.45001009106636047
0.15936009585857391 0.2836931049823761 0.6302649974822998
0.22639383375644684 0.28182876110076904 0.62202072143554688
0.34683829545974731 0.28203842043876648 0.60242372751235962
0.49067533016204834 0.27498766779899597 0.57283109426498413
0.63211405277252197 0.26387768983840942 0.54975718259811401
0.74413466453552246 0.25326079130172729 0.5359492301940918
0.82928186655044556 0.25663182139396667 0.53879541158676147
0.18608441948890686 0.53201007843017578 0.72800087928771973
0.27416890859603882 0.53567016124725342 0.72251325845718384
0.40458852052688599 0.52871561050415039 0.70206177234649658
0.55580985546112061 0.52330631017684937 0.67675721645355225
0.69898247718811035 0.51996976137161255 0.6592140793800354
0.80732995271682739 0.51239001750946045 0.64382153749465942
0.89536142349243164 0.51194429397583008 0.64495080709457397
0.22797098755836487 0.76111191511154175 0.81672614812850952
0.31127852201461792 0.75915729999542236 0.80723023414611816
0.45870372653007507 0.75300097465515137 0.78751516342163086
0.61424130201339722 0.74900716543197632 0.76687681674957275
0.75151437520980835 0.74719035625457764 0.75035160779953003
0.85884571075439453 0.73799002170562744 0.73449170589447021
0.94892054796218872 0.74172091484069824 0.73893040418624878
0.29753667116165161 0.89410269260406494 0.85213351249694824
0.37499591708183289 0.89632648229598999 0.85104697942733765
0.51072996854782104 0.89286506175994873 0.83355021476745605
0.6571165919303894 0.88762533664703369 0.81496089696884155
0.78802740573883057 0.88396573066711426 0.79713535308837891
0.89162993431091309 0.87433987855911255 0.78244400024414062
0.97461777925491333 0.87336134910583496 0.78707349300384521
0.2744135856628418 0.98695051670074463 0.86096692085266113
0.36671304702758789 0.98704689741134644 0.8545912504196167
0.51465266942977905 0.98327314853668213 0.8377758264541626
0.67318135499954224 0.97645598649978638 0.81561869382858276
0.81282812356948853 0.97582513093948364 0.80189347267150879
0.92520958185195923 0.97244024276733398 0.79591262340545654
0.98964011669158936 0.96874600648880005 0.8036646842956543
0.051421746611595154 0.0039215688593685627 0.60741710662841797
0.16080208122730255 0.00024946624762378633 0.58741992712020874
0.28002133965492249 0.00022636861831415445 0.56264722347259521
0.40990519523620605 0 0.53765451908111572
0.53731775283813477 0.00077574484748765826 0.51501792669296265
0.64581477642059326 0.00040731992339715362 0.48682352900505066
0.7187734842300415 0 0.48212826251983643
0.11668922752141953 0.01637052558362484 0.6265144944190979
0.18309114873409271 0.015615261159837246 0.61332285404205322
0.28906172513961792 0.011137823574244976 0.59082716703414917
0.41946068406105042 0.0073422002606093884 0.56073272228240967
0.54583907127380371 0.0079755298793315887 0.53398227691650391
0.64505374431610107 0.0083860959857702255 0.51587796211242676
0.72468119859695435 0.0062090856954455376 0.50862568616867065
0.21373251080513 0.20468792319297791 0.7018706202507019
0.26916036009788513 0.2018742710351944 0.68863570690155029
0.36669078469276428 0.19340024888515472 0.66758483648300171
0.49022069573402405 0.18389217555522919 0.63868993520736694
0.60721027851104736 0.16845248639583588 0.61109858751296997
0.70393079519271851 0.16451780498027802 0.59548014402389526
0.78291350603103638 0.16327500343322754 0.58736211061477661
0.29969465732574463 0.47082629799842834 0.79468059539794922
0.35269582271575928 0.46873822808265686 0.7877194881439209
0.4559360146522522 0.46156859397888184 0.76789230108261108
0.57622611522674561 0.45846736431121826 0.74204075336456299
0.68742507696151733 0.44850999116897583 0.71820628643035889
0.78271740674972534 0.44316774606704712 0.70435857772827148
0.8591541051864624 0.44099152088165283 0.69454139471054077
0.36653289198875427 0.72527045011520386 0.88615626096725464
0.42011693120002747 0.72249424457550049 0.8780704140663147
0.52475440502166748 0.7246401309967041 0.86488860845565796
0.6437993049621582 0.7181016206741333 0.84185636043548584
0.75171053409576416 0.714946448802948 0.82480925321578979
0.84240663051605225 0.71167153120040894 0.81056910753250122
0.92336511611938477 0.71011316776275635 0.8025931715965271
0.4324495792388916 0.88649791479110718 0.94198936223983765
0.48391491174697876 0.88451027870178223 0.9351198673248291
0.57675421237945557 0.8788381814956665 0.91814970970153809
0.68673408031463623 0.87806564569473267 0.90255331993103027
0.78423291444778442 0.87051624059677124 0.88323521614074707
0.87527084350585938 0.86753988265991211 0.87155675888061523
0.95440298318862915 0.86434781551361084 0.86274135112762451
0.43121406435966492 0.98623532056808472 0.97627586126327515
0.48514962196350098 0.98629361391067505 0.96976238489151001
0.57971394062042236 0.98298764228820801 0.95354670286178589
0.695995032787323 0.98084139823913574 0.93635362386703491
0.79961645603179932 0.97914505004882812 0.91722244024276733
0.89852696657180786 0.97595715522766113 0.90599906444549561
0.98239809274673462 0.96978425979614258 0.89592486619949341
0.13040550053119659 0.0039215688593685627 0.6783326268196106
0.22665511071681976 0.00021297977946233004 0.65585911273956299
0.33248335123062134 0 0.6312025785446167
0.4463634192943573 0 0.60501599311828613
0.54786562919616699 0 0.58059078454971313
0.63757216930389404 0 0.56037533283233643
0.71045017242431641 0 0.54789227247238159
0.19643445312976837 0.0017498689703643322 0.6803012490272522
0.2554781436920166 0.0020851434674113989 0.66679954528808594
0.34934711456298828 0.00068920361809432507 0.6446118950843811
0.45331272482872009 0 0.61727726459503174
0.55452573299407959 0.00033464617445133626 0.59514325857162476
0.6363217830657959 0.00010788861254695803 0.57632803916931152
0.70746368169784546 0.00036790137528441846 0.56600821018218994
0.28080174326896667 0.063531093299388885 0.70808595418930054
0.32381179928779602 0.060386523604393005 0.69525468349456787
0.39936509728431702 0.049992237240076065 0.67671161890029907
0.49163398146629333 0.042588267475366592 0.65166062116622925
0.5819706916809082 0.037849292159080505 0.62879425287246704
0.65753662586212158 0.031630601733922958 0.61123442649841309
0.72630935907363892 0.027465954422950745 0.59921449422836304
0.41387191414833069 0.3501000702381134 0.80378645658493042
0.4476313591003418 0.34706157445907593 0.79645895957946777
0.51536321640014648 0.3403448760509491 0.7817646861076355
0.5999295711517334 0.33251264691352844 0.76110422611236572
0.67981821298599243 0.32409730553627014 0.7407795786857605
0.75371581315994263 0.31684738397598267 0.72448039054870605
0.81859952211380005 0.30916330218315125 0.71070289611816406
0.50999206304550171 0.66013628244400024 0.91168713569641113
0.54565292596817017 0.65622663497924805 0.90622186660766602
0.60878384113311768 0.65351957082748413 0.89376479387283325
0.68416237831115723 0.65063267946243286 0.87563401460647583
0.76161801815032959 0.64426743984222412 0.86109244823455811
0.83332610130310059 0.63782572746276855 0.84591591358184814
0.8992847204208374 0.63611608743667603 0.83410096168518066
0.58859825134277344 0.85892409086227417 0.98033291101455688
0.61605358123779297 0.85899746417999268 0.97694891691207886
0.66855180263519287 0.8572925329208374 0.96665310859680176
0.73741590976715088 0.85244739055633545 0.95462679862976074
0.80582457780838013 0.84913176298141479 0.94084072113037109
0.87674593925476074 0.84374904632568359 0.92583161592483521
0.94444656372070312 0.84858477115631104 0.9150160551071167
0.62165677547454834 0.97426599264144897 0.9987940788269043
0.64408659934997559 0.97448486089706421 0.99915486574172974
0.6938362717628479 0.97735732793807983 0.9970163106918335
0.75754278898239136 0.97419440746307373 0.99495035409927368
0.82924598455429077 0.97154968976974487 0.98391032218933105
0.90197241306304932 0.97043824195861816 0.97601646184921265
0.97384822368621826 0.97119969129562378 0.97012418508529663
