luts/colorslide/fuji_sensia_100.cube
# Created by: G'MIC (https://gmic.eu)
TITLE "fuji_sensia_100"
# LUT size
LUT_3D_SIZE 13
# Data domain
DOMAIN_MIN 0.0 0.0 0.0
DOMAIN_MAX 1.0 1.0 1.0
# LUT data points
0.047599911689758301 0.045878630131483078 0.039406150579452515
0.10364400595426559 0.044612046331167221 0.033376716077327728
0.16495963931083679 0.04265270009636879 0.031034132465720177
0.22920812666416168 0.043380092829465866 0.024750653654336929
0.29656192660331726 0.042909614741802216 0.019440431147813797
0.36848527193069458 0.041196487843990326 0.015150287188589573
0.44761118292808533 0.038380596786737442 0.0093347588554024696
0.53929615020751953 0.036144554615020752 0.006312904879450798
0.63836640119552612 0.032666988670825958 0.0045367819257080555
0.72097790241241455 0.033920451998710632 0.0053455280140042305
0.79896694421768188 0.030256712809205055 0.0059047774411737919
0.85276055335998535 0.027972845360636711 0.0078987721353769302
0.89645004272460938 0.030490515753626823 0.013842803426086903
0.09396158903837204 0.13537484407424927 0.076173834502696991
0.1349940299987793 0.13370627164840698 0.069997705519199371
0.19092395901679993 0.12972244620323181 0.067932277917861938
0.25355702638626099 0.12864783406257629 0.056158747524023056
0.32119196653366089 0.1267259418964386 0.045405533164739609
0.39494144916534424 0.12428031116724014 0.043005026876926422
0.47830122709274292 0.12147103250026703 0.035165615379810333
0.56993180513381958 0.1180209293961525 0.023510457947850227
0.66460973024368286 0.11396198719739914 0.016754807904362679
0.74891352653503418 0.1128331795334816 0.016476934775710106
0.82426953315734863 0.11098330467939377 0.018569407984614372
0.88208490610122681 0.10945947468280792 0.023917060345411301
0.92564570903778076 0.11151131987571716 0.041378993541002274
0.12610664963722229 0.21917206048965454 0.1175592765212059
0.15897540748119354 0.21744847297668457 0.11500604450702667
0.2147127240896225 0.21675311028957367 0.10952096432447433
0.27765262126922607 0.21545852720737457 0.098799176514148712
0.34401747584342957 0.21133323013782501 0.087374456226825714
0.41806867718696594 0.20867632329463959 0.080664046108722687
0.49961647391319275 0.20474478602409363 0.071621552109718323
0.59334611892700195 0.20150057971477509 0.059126432985067368
0.68754875659942627 0.19575949013233185 0.046315643936395645
0.77217018604278564 0.19503355026245117 0.045347295701503754
0.84816819429397583 0.19424346089363098 0.047754041850566864
0.90380674600601196 0.19541241228580475 0.057757988572120667
0.9455065131187439 0.19940349459648132 0.07996203750371933
0.14077092707157135 0.30052593350410461 0.1583520919084549
0.17646554112434387 0.30179271101951599 0.15445375442504883
0.23468436300754547 0.30523627996444702 0.15151537954807281
0.29817190766334534 0.30185040831565857 0.14328669011592865
0.36404821276664734 0.29453933238983154 0.13141146302223206
0.44073298573493958 0.29238086938858032 0.12232094258069992
0.52107447385787964 0.2885957658290863 0.1100284531712532
0.61562252044677734 0.28663426637649536 0.099912352859973907
0.71094149351119995 0.28303897380828857 0.087403237819671631
0.79678529500961304 0.27759242057800293 0.081134974956512451
0.87112486362457275 0.27580535411834717 0.08252938836812973
0.92395150661468506 0.28018495440483093 0.098287113010883331
0.96188688278198242 0.2864164412021637 0.12622556090354919
0.15791095793247223 0.39496740698814392 0.19747287034988403
0.19888605177402496 0.39813107252120972 0.19283981621265411
0.25011739134788513 0.39534515142440796 0.18633061647415161
0.31582492589950562 0.39353859424591064 0.18038944900035858
0.38540399074554443 0.38678696751594543 0.17220635712146759
0.46248805522918701 0.38095420598983765 0.16284610331058502
0.54828578233718872 0.37786507606506348 0.14944437146186829
0.64139235019683838 0.37567964196205139 0.13904900848865509
0.73677211999893188 0.37555590271949768 0.12814722955226898
0.82470703125 0.37092882394790649 0.11940660327672958
0.89527589082717896 0.37095066905021667 0.12382345646619797
0.9515877366065979 0.37467998266220093 0.13744419813156128
0.98330783843994141 0.37680289149284363 0.16315227746963501
0.18084260821342468 0.50223618745803833 0.23477759957313538
0.22006699442863464 0.50293415784835815 0.23082225024700165
0.26938039064407349 0.49868008494377136 0.22354559600353241
0.3346598744392395 0.49397355318069458 0.21697570383548737
0.40680232644081116 0.48629355430603027 0.20998695492744446
0.48712614178657532 0.48153242468833923 0.20056648552417755
0.57862520217895508 0.48029503226280212 0.18495319783687592
0.67415958642959595 0.47928565740585327 0.17384473979473114
0.76854979991912842 0.47721731662750244 0.16382354497909546
0.85579782724380493 0.47483831644058228 0.15642833709716797
0.92290961742401123 0.47606503963470459 0.16361342370510101
0.97765827178955078 0.47634002566337585 0.17584314942359924
0.99661904573440552 0.47706270217895508 0.19909548759460449
0.19918034970760345 0.60540115833282471 0.26744005084037781
0.23546589910984039 0.60695070028305054 0.26441231369972229
0.28883671760559082 0.60326510667800903 0.25835701823234558
0.35509461164474487 0.59755069017410278 0.25104010105133057
0.42909020185470581 0.59601587057113647 0.24324648082256317
0.51514571905136108 0.59167373180389404 0.23218351602554321
0.61150485277175903 0.58816802501678467 0.21763096749782562
0.70926690101623535 0.58765316009521484 0.20647841691970825
0.80524152517318726 0.58717405796051025 0.19487111270427704
0.8874969482421875 0.58497804403305054 0.18974827229976654
0.95610558986663818 0.58535826206207275 0.19556237757205963
0.99490123987197876 0.58517110347747803 0.21451777219772339
0.99954891204833984 0.58717805147171021 0.24562069773674011
0.22302284836769104 0.6940569281578064 0.29754364490509033
0.25529932975769043 0.69972407817840576 0.28908783197402954
0.30852115154266357 0.69941824674606323 0.28381738066673279
0.3758426308631897 0.69407796859741211 0.27628839015960693
0.45731589198112488 0.69061142206192017 0.26758074760437012
0.54826027154922485 0.69027382135391235 0.25770103931427002
0.64454913139343262 0.68965059518814087 0.2450861930847168
0.74157273769378662 0.68473911285400391 0.23138827085494995
0.83437281847000122 0.68321925401687622 0.22098679840564728
0.91251969337463379 0.68165916204452515 0.2203364372253418
0.97946083545684814 0.68247592449188232 0.22553344070911407
0.99856925010681152 0.68142229318618774 0.24632002413272858
1 0.68192696571350098 0.27726560831069946
0.26048019528388977 0.76681333780288696 0.30395105481147766
0.28975635766983032 0.77492415904998779 0.29990723729133606
0.33954107761383057 0.77388054132461548 0.29459899663925171
0.40954092144966125 0.76551681756973267 0.28553929924964905
0.49457424879074097 0.76220369338989258 0.27716538310050964
0.58349347114562988 0.7659306526184082 0.27008551359176636
0.67690092325210571 0.76521295309066772 0.25793719291687012
0.77428704500198364 0.76312810182571411 0.24370107054710388
0.86472958326339722 0.7626197338104248 0.23503836989402771
0.94083058834075928 0.75959467887878418 0.23571969568729401
0.99288070201873779 0.75888311862945557 0.2449476569890976
0.99975717067718506 0.75554162263870239 0.26550719141960144
1 0.75212103128433228 0.29470112919807434
0.30377405881881714 0.8326076865196228 0.2973807156085968
0.33544576168060303 0.83346885442733765 0.29276248812675476
0.38242295384407043 0.83230948448181152 0.28938579559326172
0.44627994298934937 0.83045053482055664 0.28398469090461731
0.52945703268051147 0.82861936092376709 0.27548140287399292
0.61852747201919556 0.82932007312774658 0.26611638069152832
0.71378999948501587 0.82632642984390259 0.25227349996566772
0.80790489912033081 0.8235856294631958 0.23936639726161957
0.89557582139968872 0.82176756858825684 0.23455078899860382
0.9689558744430542 0.82015085220336914 0.23665924370288849
0.99495178461074829 0.81828457117080688 0.25205296277999878
0.99879181385040283 0.81752842664718628 0.27594077587127686
1 0.81725746393203735 0.31205043196678162
0.3531096875667572 0.88524425029754639 0.27540978789329529
0.38279861211776733 0.88572579622268677 0.27184209227561951
0.42846941947937012 0.8841138482093811 0.26477822661399841
0.4899393618106842 0.88012105226516724 0.25289145112037659
0.57042390108108521 0.87779194116592407 0.24240455031394958
0.65888321399688721 0.8765408992767334 0.23492647707462311
0.75291895866394043 0.87532413005828857 0.22542612254619598
0.84464931488037109 0.87275022268295288 0.21139532327651978
0.92867571115493774 0.86977595090866089 0.20606495440006256
0.9875609278678894 0.86866563558578491 0.21254929900169373
0.99787122011184692 0.86640667915344238 0.23090140521526337
0.99988394975662231 0.86730766296386719 0.26282840967178345
1 0.86922562122344971 0.31242957711219788
0.4067663848400116 0.92488569021224976 0.20730793476104736
0.43309542536735535 0.92539471387863159 0.20748402178287506
0.47655460238456726 0.92541736364364624 0.20204387605190277
0.53704929351806641 0.92206341028213501 0.18820320069789886
0.61312562227249146 0.91861140727996826 0.17315903306007385
0.70111161470413208 0.91545784473419189 0.16036812961101532
0.79360991716384888 0.91547417640686035 0.15426720678806305
0.8866196870803833 0.9127468466758728 0.14023426175117493
0.96564847230911255 0.91045767068862915 0.13363289833068848
0.99689942598342896 0.9097975492477417 0.146458700299263
0.99995881319046021 0.90696930885314941 0.17503358423709869
1 0.9085659384727478 0.22019581496715546
1 0.90954625606536865 0.28259670734405518
0.4027823805809021 0.96035671234130859 0.13733476400375366
0.42882391810417175 0.96029853820800781 0.13323773443698883
0.47884270548820496 0.95940947532653809 0.11952625215053558
0.54608154296875 0.95691049098968506 0.097945541143417358
0.62850087881088257 0.95426279306411743 0.061757553368806839
0.72324252128601074 0.95066839456558228 0.030880901962518692
0.8263738751411438 0.94380044937133789 0.023608697578310966
0.9252515435218811 0.94241797924041748 0.018498664721846581
0.99128061532974243 0.94024181365966797 0.014980495907366276
0.99995958805084229 0.939583420753479 0.022896172478795052
1 0.93789976835250854 0.039395425468683243
1 0.93951070308685303 0.080602310597896576
1 0.94108688831329346 0.16399586200714111
0.042164374142885208 0.038042914122343063 0.092391550540924072
0.098057359457015991 0.041497532278299332 0.083145111799240112
0.16070368885993958 0.041317358613014221 0.075152650475502014
0.22144104540348053 0.036414772272109985 0.067671053111553192
0.28805837035179138 0.034036986529827118 0.061086840927600861
0.36059799790382385 0.033750139176845551 0.051652241498231888
0.44011965394020081 0.032239366322755814 0.037944406270980835
0.53339415788650513 0.028184449300169945 0.025673391297459602
0.62691891193389893 0.026044195517897606 0.018617143854498863
0.71015989780426025 0.025384955108165741 0.015814553946256638
0.7809491753578186 0.022047139704227448 0.017003107815980911
0.8338741660118103 0.022222541272640228 0.025835612788796425
0.87648838758468628 0.024605380371212959 0.045269206166267395
0.089824169874191284 0.12507104873657227 0.12969481945037842
0.12918347120285034 0.12532977759838104 0.12070981413125992
0.18344619870185852 0.12277444452047348 0.11422313749790192
0.24556595087051392 0.11841669678688049 0.10383480042219162
0.31282755732536316 0.114291712641716 0.093960508704185486
0.38724076747894287 0.11406094580888748 0.087434358894824982
0.46831551194190979 0.1124066486954689 0.076562918722629547
0.55914688110351562 0.10629910975694656 0.061737764626741409
0.65068066120147705 0.10232523083686829 0.0522739477455616
0.73520797491073608 0.10044571757316589 0.047937057912349701
0.80782413482666016 0.098441809415817261 0.050603605806827545
0.86246383190155029 0.098465874791145325 0.062014918774366379
0.90521669387817383 0.10196311771869659 0.085043437778949738
0.1255611777305603 0.21043494343757629 0.16563417017459869
0.15593644976615906 0.21132703125476837 0.15978154540061951
0.20808663964271545 0.20968195796012878 0.15261383354663849
0.27132180333137512 0.20570962131023407 0.14134207367897034
0.33702391386032104 0.20059636235237122 0.1297733336687088
0.41061639785766602 0.19898189604282379 0.12221120297908783
0.4907321035861969 0.19643568992614746 0.11222755908966064
0.58294391632080078 0.19157269597053528 0.098221436142921448
0.67469710111618042 0.1873788982629776 0.087660618126392365
0.75871425867080688 0.18517696857452393 0.082358278334140778
0.83468258380889893 0.18427625298500061 0.084374703466892242
0.88720488548278809 0.18657305836677551 0.099646762013435364
0.92964076995849609 0.19154272973537445 0.12159278988838196
0.13604463636875153 0.29461658000946045 0.19860248267650604
0.17368794977664948 0.29873862862586975 0.19704817235469818
0.22979438304901123 0.29928147792816162 0.19180202484130859
0.29393136501312256 0.29387381672859192 0.18067930638790131
0.35848695039749146 0.28760799765586853 0.16895014047622681
0.43389776349067688 0.28506121039390564 0.15844829380512238
0.51783782243728638 0.28314879536628723 0.14785493910312653
0.6096729040145874 0.27878037095069885 0.13549509644508362
0.70249009132385254 0.27435174584388733 0.1241244301199913
0.78550499677658081 0.27094852924346924 0.11873070150613785
0.85989058017730713 0.27075031399726868 0.11893054842948914
0.91105920076370239 0.27584731578826904 0.13820922374725342
0.95424765348434448 0.27943459153175354 0.15936191380023956
0.15327641367912292 0.3905186653137207 0.23288148641586304
0.19439420104026794 0.39597025513648987 0.23091749846935272
0.24686127901077271 0.39539209008216858 0.22746743261814117
0.31216642260551453 0.38918343186378479 0.21788057684898376
0.38001924753189087 0.3814539909362793 0.20709013938903809
0.45783403515815735 0.37767699360847473 0.19568599760532379
0.55014210939407349 0.37624865770339966 0.18384353816509247
0.64193165302276611 0.37237906455993652 0.17019738256931305
0.73443299531936646 0.37048017978668213 0.1582752913236618
0.81630086898803711 0.36664009094238281 0.15395762026309967
0.88682526350021362 0.36680406332015991 0.15656639635562897
0.94001221656799316 0.37082165479660034 0.17398017644882202
0.98105394840240479 0.37114980816841125 0.19538331031799316
0.17305004596710205 0.49659997224807739 0.27029615640640259
0.21253198385238647 0.49926373362541199 0.26531952619552612
0.26480233669281006 0.49896684288978577 0.26245397329330444
0.33101966977119446 0.49318692088127136 0.25635012984275818
0.4017798900604248 0.48530691862106323 0.24472969770431519
0.48317632079124451 0.48205456137657166 0.23209591209888458
0.5792662501335144 0.47973844408988953 0.21856659650802612
0.67490512132644653 0.47596102952957153 0.20421755313873291
0.76815474033355713 0.47329944372177124 0.1915508508682251
0.84823572635650635 0.47104167938232422 0.18898528814315796
0.91662418842315674 0.47148814797401428 0.19522368907928467
0.9696955680847168 0.47284054756164551 0.21039494872093201
0.9955216646194458 0.47486615180969238 0.23164747655391693
0.18897129595279694 0.60106319189071655 0.30160468816757202
0.22833628952503204 0.6037592887878418 0.29742735624313354
0.28331229090690613 0.60301417112350464 0.29399049282073975
0.35003021359443665 0.59719687700271606 0.28781071305274963
0.42579039931297302 0.59527122974395752 0.27871474623680115
0.50978660583496094 0.59487682580947876 0.26684042811393738
0.60788911581039429 0.59106153249740601 0.25360733270645142
0.70666342973709106 0.58503252267837524 0.24043720960617065
0.79902923107147217 0.58192229270935059 0.227193683385849
0.87981069087982178 0.58190417289733887 0.22408662736415863
0.94804215431213379 0.58326458930969238 0.23111182451248169
0.99220305681228638 0.58435624837875366 0.24849919974803925
0.99927568435668945 0.58279788494110107 0.27893665432929993
0.20709393918514252 0.69837230443954468 0.32432436943054199
0.24659816920757294 0.70170056819915771 0.3231080174446106
0.30196917057037354 0.70027416944503784 0.31824541091918945
0.37017935514450073 0.69589012861251831 0.31209665536880493
0.45159974694252014 0.69441163539886475 0.30567693710327148
0.54202699661254883 0.69313490390777588 0.29431462287902832
0.64163810014724731 0.68941283226013184 0.28402116894721985
0.73825013637542725 0.68465667963027954 0.26946130394935608
0.82907271385192871 0.68441855907440186 0.25657671689987183
0.90979903936386108 0.68354266881942749 0.25283017754554749
0.97279816865921021 0.68306106328964233 0.25957542657852173
0.99608707427978516 0.6809309720993042 0.28042358160018921
0.9999348521232605 0.67930334806442261 0.30575215816497803
0.24545089900493622 0.76923209428787231 0.33686727285385132
0.28107994794845581 0.7755623459815979 0.33770972490310669
0.33362320065498352 0.77647274732589722 0.32987815141677856
0.40051555633544922 0.77350342273712158 0.32291904091835022
0.48601260781288147 0.7708284854888916 0.31594601273536682
0.57804900407791138 0.76988548040390015 0.3063666820526123
0.67473429441452026 0.76581525802612305 0.2948269248008728
0.7697102427482605 0.7655566930770874 0.28145578503608704
0.85869932174682617 0.76369220018386841 0.27160236239433289
0.936778724193573 0.76044130325317383 0.27013266086578369
0.98945087194442749 0.76052099466323853 0.27973854541778564
0.99863237142562866 0.75589454174041748 0.30186629295349121
1 0.75518792867660522 0.32609429955482483
0.29118496179580688 0.8345145583152771 0.33971995115280151
0.32456153631210327 0.8351205587387085 0.33432593941688538
0.376860111951828 0.83396452665328979 0.32679486274719238
0.43892008066177368 0.83318513631820679 0.32079288363456726
0.52226513624191284 0.83082371950149536 0.31180301308631897
0.61614954471588135 0.82895815372467041 0.30289387702941895
0.70982038974761963 0.82665157318115234 0.28923177719116211
0.80028653144836426 0.82575982809066772 0.27848672866821289
0.88678902387619019 0.8223453164100647 0.273000568151474
0.96288979053497314 0.82071590423583984 0.2726360559463501
0.99436396360397339 0.8195565938949585 0.28780066967010498
0.99815195798873901 0.81676322221755981 0.31345796585083008
1 0.81630855798721313 0.34821256995201111
0.34255173802375793 0.88659286499023438 0.31777960062026978
0.37299895286560059 0.88585132360458374 0.31381219625473022
0.42394140362739563 0.88411420583724976 0.30452117323875427
0.48660996556282043 0.88157051801681519 0.29254671931266785
0.56538301706314087 0.87920588254928589 0.28443136811256409
0.65385317802429199 0.87835371494293213 0.27811908721923828
0.74680620431900024 0.87724089622497559 0.26658189296722412
0.83611786365509033 0.87460356950759888 0.25588557124137878
0.92075484991073608 0.87148898839950562 0.25282785296440125
0.98445320129394531 0.86916381120681763 0.25667083263397217
0.99663662910461426 0.86619549989700317 0.27213886380195618
0.99947184324264526 0.86646503210067749 0.3023827075958252
1 0.86702269315719604 0.34580299258232117
0.39649328589439392 0.92599993944168091 0.24769793450832367
0.42505210638046265 0.92616021633148193 0.24879014492034912
0.47185137867927551 0.92584848403930664 0.24381472170352936
0.53206074237823486 0.92371326684951782 0.23619367182254791
0.60795587301254272 0.92056715488433838 0.22350804507732391
0.6935773491859436 0.9190024733543396 0.21496525406837463
0.78620612621307373 0.91744899749755859 0.20417618751525879
0.87728995084762573 0.91422784328460693 0.19414901733398438
0.95961248874664307 0.9125831127166748 0.19149427115917206
0.99642491340637207 0.90985029935836792 0.19951954483985901
0.99997693300247192 0.90756547451019287 0.22185423970222473
1 0.90873867273330688 0.26391470432281494
1 0.91063958406448364 0.32015416026115417
0.41076859831809998 0.96137869358062744 0.15479265153408051
0.4374774694442749 0.96054184436798096 0.15189585089683533
0.4835321307182312 0.95989453792572021 0.13995479047298431
0.5501716136932373 0.95797783136367798 0.12271502614021301
0.63021445274353027 0.95499628782272339 0.093396008014678955
0.72189676761627197 0.95229417085647583 0.068344667553901672
0.82247984409332275 0.94790256023406982 0.0566139817237854
0.92004126310348511 0.94508850574493408 0.04915187880396843
0.98900806903839111 0.94252586364746094 0.04974052682518959
0.99989831447601318 0.94059830904006958 0.060565859079360962
1 0.94082534313201904 0.083966590464115143
1 0.94094061851501465 0.12725993990898132
1 0.94303739070892334 0.21357129514217377
0.038083393126726151 0.033210471272468567 0.14371150732040405
0.095067791640758514 0.035402290523052216 0.13363602757453918
0.15661413967609406 0.036237753927707672 0.12612372636795044
0.21697962284088135 0.032068721950054169 0.11788802593946457
0.28253123164176941 0.027046786621212959 0.10555001348257065
0.3547462522983551 0.026183469220995903 0.093318864703178406
0.43563535809516907 0.024317529052495956 0.080716945230960846
0.5260193943977356 0.021236838772892952 0.065009146928787231
0.61717742681503296 0.020210506394505501 0.052918691188097
0.69908469915390015 0.019679738208651543 0.048760000616312027
0.76396363973617554 0.020273918285965919 0.053269211202859879
0.818126380443573 0.019667023792862892 0.06436774879693985
0.85950636863708496 0.022825950756669044 0.088802248239517212
0.08203183114528656 0.11649543792009354 0.18068970739841461
0.12399100512266159 0.11688359826803207 0.17228397727012634
0.17932531237602234 0.11444832384586334 0.16432963311672211
0.24037709832191467 0.10913932323455811 0.15363515913486481
0.30745828151702881 0.10454939305782318 0.14123839139938354
0.38179752230644226 0.10299308598041534 0.13171826303005219
0.46236371994018555 0.10003989934921265 0.1209007129073143
0.55133306980133057 0.0949997678399086 0.10578945279121399
0.63976740837097168 0.092068992555141449 0.09310893714427948
0.72279012203216553 0.090574823319911957 0.086507938802242279
0.79121947288513184 0.086846068501472473 0.089876540005207062
0.84560710191726685 0.087150171399116516 0.10391486436128616
0.88528060913085938 0.095339186489582062 0.12755513191223145
0.12301978468894958 0.20197954773902893 0.2118971049785614
0.14982412755489349 0.20193688571453094 0.20668923854827881
0.20180913805961609 0.1996324211359024 0.19879201054573059
0.26494517922401428 0.19507534801959991 0.1879744678735733
0.33113300800323486 0.19006608426570892 0.17548111081123352
0.40601819753646851 0.18799397349357605 0.16688825190067291
0.48612892627716064 0.18456418812274933 0.15730954706668854
0.57679420709609985 0.17992483079433441 0.14183418452739716
0.66485321521759033 0.17760434746742249 0.12909546494483948
0.74615639448165894 0.17613157629966736 0.1237248107790947
0.81864374876022339 0.17270161211490631 0.12556865811347961
0.86992532014846802 0.17565728724002838 0.14355254173278809
0.91255635023117065 0.17939931154251099 0.16602101922035217
0.13373288512229919 0.28586140275001526 0.24322552978992462
0.1690116673707962 0.28934979438781738 0.23929758369922638
0.22402527928352356 0.28797915577888489 0.23274737596511841
0.28766065835952759 0.28253465890884399 0.22200849652290344
0.35231021046638489 0.27736780047416687 0.21092019975185394
0.42982283234596252 0.27483981847763062 0.20247289538383484
0.51374447345733643 0.27328783273696899 0.19299910962581635
0.60609263181686401 0.26944482326507568 0.17746616899967194
0.69583773612976074 0.26678401231765747 0.16490831971168518
0.77611875534057617 0.26404199004173279 0.15917515754699707
0.84503626823425293 0.26385676860809326 0.16325120627880096
0.89730691909790039 0.26599326729774475 0.17940449714660645
0.93942034244537354 0.26971957087516785 0.20331373810768127
0.14793434739112854 0.38332939147949219 0.27775999903678894
0.18832609057426453 0.39032101631164551 0.27443093061447144
0.24240639805793762 0.3886522650718689 0.26971429586410522
0.30647677183151245 0.38160479068756104 0.25988855957984924
0.37538626790046692 0.3772464394569397 0.2500937283039093
0.45797783136367798 0.37254515290260315 0.24001592397689819
0.54806894063949585 0.37094202637672424 0.22767716646194458
0.63994622230529785 0.36901149153709412 0.21355712413787842
0.72779339551925659 0.36488199234008789 0.20200170576572418
0.80648422241210938 0.3622170090675354 0.19717395305633545
0.87163698673248291 0.36249646544456482 0.20316438376903534
