luts/colorslide/fuji_provia_100_generic.cube
# Created by: G'MIC (https://gmic.eu)
TITLE "fuji_provia_100_generic"
# LUT size
LUT_3D_SIZE 7
# Data domain
DOMAIN_MIN 0.0 0.0 0.0
DOMAIN_MAX 1.0 1.0 1.0
# LUT data points
0.03367329016327858 0.027755049988627434 0.030393278226256371
0.16479578614234924 0.028142068535089493 0.030305001884698868
0.36245971918106079 0.032435338944196701 0.033351629972457886
0.58820152282714844 0.030281456187367439 0.03136545792222023
0.78928720951080322 0.032389950007200241 0.033068668097257614
0.97167223691940308 0.03218262642621994 0.029902977868914604
0.99863243103027344 0.032987169921398163 0.031311005353927612
0.061103250831365585 0.15148036181926727 0.034213539212942123
0.14796718955039978 0.15078407526016235 0.033953335136175156
0.35178220272064209 0.15562780201435089 0.034670453518629074
0.57469922304153442 0.15755821764469147 0.037423077970743179
0.77431541681289673 0.15867586433887482 0.036256961524486542
0.95449638366699219 0.1603182852268219 0.037366516888141632
0.99454092979431152 0.16366548836231232 0.039192289113998413
0.019572703167796135 0.33878591656684875 0.043034378439188004
0.077849261462688446 0.33919200301170349 0.045015402138233185
0.32621711492538452 0.34536924958229065 0.049297962337732315
0.55330145359039307 0.34226503968238831 0.048128943890333176
0.74918478727340698 0.3474506139755249 0.049737382680177689
0.92287367582321167 0.34833970665931702 0.047646064311265945
0.99167609214782715 0.35810235142707825 0.048872824758291245
0.0036041857674717903 0.52460008859634399 0.053012996912002563
0.013116290792822838 0.5305100679397583 0.051824755966663361
0.28530776500701904 0.53479504585266113 0.054875779896974564
0.52073711156845093 0.53724539279937744 0.055908713489770889
0.7157745361328125 0.53562623262405396 0.056269209831953049
0.8827279806137085 0.5429149866104126 0.055917374789714813
0.99363917112350464 0.54321950674057007 0.055187314748764038
0 0.69449037313461304 0.049070172011852264
0.0075008166022598743 0.70141142606735229 0.048310492187738419
0.23966757953166962 0.70375806093215942 0.05004444345831871
0.48007431626319885 0.70732492208480835 0.051242347806692123
0.68685346841812134 0.70574098825454712 0.049836985766887665
0.84924507141113281 0.70735293626785278 0.049674179404973984
0.97235673666000366 0.70481294393539429 0.056081689894199371
0.0010723188752308488 0.83453094959259033 0.022735340520739555
0.0099634062498807907 0.84211629629135132 0.021463939920067787
0.24191038310527802 0.84134888648986816 0.019760880619287491
0.48376056551933289 0.84142154455184937 0.020097335800528526
0.67102211713790894 0.8407701849937439 0.022557232528924942
0.82037645578384399 0.84578341245651245 0.023983510211110115
0.95160335302352905 0.84308433532714844 0.022345030680298805
0.0025238934904336929 0.959511399269104 0.0040668412111699581
0.06681409478187561 0.96197694540023804 5.4452932090498507e-05
0.30236175656318665 0.96115773916244507 0.00360107421875
0.5012480616569519 0.96538060903549194 0.0012537488946691155
0.65926057100296021 0.96173673868179321 0.0038579604588449001
0.79500865936279297 0.96537089347839355 0.0034536474850028753
0.93381184339523315 0.96463871002197266 0.0040034274570643902
0.035237375646829605 0.027244327589869499 0.15176035463809967
0.16605792939662933 0.029379362240433693 0.15351349115371704
0.3665822446346283 0.030666051432490349 0.1548563539981842
0.5934637188911438 0.031648419797420502 0.15541195869445801
0.79281699657440186 0.032077997922897339 0.15677258372306824
0.97064918279647827 0.033850964158773422 0.16387417912483215
0.9975970983505249 0.033553645014762878 0.15922987461090088
0.065523944795131683 0.15082351863384247 0.15192423760890961
0.1516091376543045 0.15428049862384796 0.15189045667648315
0.35516470670700073 0.15636256337165833 0.15206074714660645
0.57749265432357788 0.15674898028373718 0.1542273610830307
0.77485030889511108 0.16186553239822388 0.15753805637359619
0.95270407199859619 0.16042421758174896 0.15572044253349304
0.99215686321258545 0.16941842436790466 0.15300247073173523
0.024492839351296425 0.33833947777748108 0.14920833706855774
0.086531184613704681 0.33920338749885559 0.14711500704288483
0.32961356639862061 0.34044554829597473 0.15316890180110931
0.551727294921875 0.34231245517730713 0.15295521914958954
0.75031006336212158 0.34152501821517944 0.15274612605571747
0.92837613821029663 0.34623509645462036 0.15206976234912872
0.99215686321258545 0.35326743125915527 0.15110275149345398
0.0035100600216537714 0.52210551500320435 0.14534193277359009
0.020186271518468857 0.53007298707962036 0.1380135715007782
0.29162374138832092 0.53132134675979614 0.1418435126543045
0.51822179555892944 0.53757071495056152 0.14598815143108368
0.72109097242355347 0.53381627798080444 0.14532363414764404
0.8910747766494751 0.54223740100860596 0.14296406507492065
0.98877418041229248 0.54661291837692261 0.14291004836559296
0 0.6998903751373291 0.12618005275726318
0.0074262283742427826 0.70425760746002197 0.12428947538137436
0.24689760804176331 0.70339930057525635 0.12467202544212341
0.4860704243183136 0.70571184158325195 0.12246759235858917
0.68821901082992554 0.70424795150756836 0.12585793435573578
0.85122203826904297 0.70532071590423584 0.12516860663890839
0.97607934474945068 0.71027994155883789 0.12770767509937286
0 0.84008252620697021 0.10058185458183289
0.01075249444693327 0.84246146678924561 0.10324946045875549
0.25278756022453308 0.83755868673324585 0.10276371240615845
0.49005460739135742 0.83978533744812012 0.09992014616727829
0.67376244068145752 0.84317010641098022 0.098432384431362152
0.82176083326339722 0.84059387445449829 0.10209173709154129
0.95472955703735352 0.84327059984207153 0.094781763851642609
0.0022601408418267965 0.96184152364730835 0.1224050298333168
0.079505637288093567 0.96016931533813477 0.1196049228310585
0.31748569011688232 0.96118474006652832 0.12326333671808243
0.5053897500038147 0.96305000782012939 0.12277729064226151
0.66383081674575806 0.96212160587310791 0.1230207234621048
0.79975318908691406 0.96394425630569458 0.11993236094713211
0.93979036808013916 0.96546107530593872 0.11804518103599548
0.039979748427867889 0.029742192476987839 0.34340870380401611
0.1774008572101593 0.029937010258436203 0.34615173935890198
0.37726792693138123 0.032237287610769272 0.34684553742408752
0.59012281894683838 0.036519996821880341 0.34630119800567627
0.7950243353843689 0.032411731779575348 0.34857511520385742
0.97354692220687866 0.031961973756551743 0.34518048167228699
0.99908870458602905 0.036063835024833679 0.35472297668457031
0.068284042179584503 0.15667732059955597 0.34294527769088745
0.16129535436630249 0.15357376635074615 0.34297072887420654
0.36045011878013611 0.15918895602226257 0.34530436992645264
0.57549065351486206 0.15892547369003296 0.34564334154129028
0.77953839302062988 0.15973447263240814 0.34625443816184998
0.96182441711425781 0.15899406373500824 0.34449055790901184
0.99628233909606934 0.16210316121578217 0.3471735417842865
0.037061683833599091 0.33731964230537415 0.34391948580741882
0.09189874678850174 0.33815169334411621 0.34150025248527527
0.33001384139060974 0.33423838019371033 0.33848613500595093
0.55306541919708252 0.33163297176361084 0.34029367566108704
0.75771629810333252 0.33895611763000488 0.34213730692863464
0.93252015113830566 0.34831652045249939 0.34515118598937988
0.99303674697875977 0.35307306051254272 0.3384644091129303
0.0039215688593685627 0.52995967864990234 0.3402036726474762
0.020615970715880394 0.53010523319244385 0.3353486955165863
0.29563316702842712 0.52789223194122314 0.33517086505889893
0.52176064252853394 0.52636539936065674 0.33441102504730225
0.72829633951187134 0.53118747472763062 0.341104656457901
0.8928525447845459 0.53851962089538574 0.33855563402175903
0.9889330267906189 0.54518240690231323 0.33664160966873169
0.0025599012151360512 0.69529134035110474 0.33101841807365417
0.0098440283909440041 0.70377522706985474 0.33242747187614441
0.25670632719993591 0.70324987173080444 0.3339848518371582
0.49436905980110168 0.70451223850250244 0.32286569476127625
0.69308668375015259 0.70316904783248901 0.32735118269920349
0.85298848152160645 0.70249384641647339 0.33099430799484253
0.97847849130630493 0.70733392238616943 0.33115538954734802
0.0014370039571076632 0.83769041299819946 0.33397150039672852
0.014242643490433693 0.84172815084457397 0.33605244755744934
0.26964175701141357 0.83943182229995728 0.33850401639938354
0.49131891131401062 0.84043663740158081 0.32965970039367676
0.67654132843017578 0.83874404430389404 0.33344182372093201
0.82681334018707275 0.84020930528640747 0.33629897236824036
0.96084558963775635 0.843913733959198 0.3348994255065918
0.0090091479942202568 0.9626535177230835 0.34443753957748413
0.1001703292131424 0.95770460367202759 0.34552091360092163
0.31936201453208923 0.95870888233184814 0.34689688682556152
0.51232731342315674 0.96152621507644653 0.34350764751434326
0.66740494966506958 0.96006715297698975 0.34276968240737915
0.80302697420120239 0.96595317125320435 0.34004467725753784
0.94530075788497925 0.9666411280632019 0.34521210193634033
0.044796500355005264 0.026526940986514091 0.54350566864013672
0.18425033986568451 0.029064252972602844 0.54439640045166016
0.37704601883888245 0.034187931567430496 0.54556959867477417
0.59670388698577881 0.036810062825679779 0.54151207208633423
0.80260175466537476 0.032980572432279587 0.54138433933258057
0.97952616214752197 0.032983668148517609 0.54178404808044434
1 0.032661721110343933 0.54590356349945068
0.078513666987419128 0.15364441275596619 0.53831726312637329
0.17059674859046936 0.15567435324192047 0.54156935214996338
0.36564487218856812 0.156961590051651 0.54204088449478149
0.58076822757720947 0.15935502946376801 0.54138851165771484
0.78671681880950928 0.15909534692764282 0.53801679611206055
0.96308177709579468 0.16249749064445496 0.53842580318450928
0.99956810474395752 0.16534984111785889 0.53869783878326416
0.030192131176590919 0.33821624517440796 0.54036575555801392
0.10133559256792068 0.33804148435592651 0.53633636236190796
0.33506506681442261 0.33844286203384399 0.53186345100402832
0.56221401691436768 0.33434641361236572 0.53600805997848511
0.76495504379272461 0.341501384973526 0.53776365518569946
0.93738943338394165 0.34654262661933899 0.53608745336532593
0.99578976631164551 0.35098236799240112 0.5283319354057312
0.0039215688593685627 0.53204655647277832 0.53187865018844604
0.026984719559550285 0.53085190057754517 0.53309613466262817
0.306875079870224 0.52957773208618164 0.53156298398971558
0.53135222196578979 0.52664697170257568 0.52872228622436523
0.73704826831817627 0.53123658895492554 0.538441002368927
0.89605873823165894 0.53498166799545288 0.53355413675308228
0.99253791570663452 0.54363512992858887 0.52724629640579224
0.0039215688593685627 0.69993919134140015 0.53249549865722656
0.012694071047008038 0.70448762178421021 0.53059470653533936
0.26623189449310303 0.7036404013633728 0.53049999475479126
0.50382483005523682 0.70623224973678589 0.52688640356063843
0.70034050941467285 0.70233041048049927 0.52909797430038452
0.86242365837097168 0.69876730442047119 0.5285346508026123
0.98158031702041626 0.71096593141555786 0.53048408031463623
0.0037171756848692894 0.83744746446609497 0.52973675727844238
0.022409910336136818 0.84134817123413086 0.52977460622787476
0.27918154001235962 0.84109926223754883 0.52751117944717407
0.49722310900688171 0.84138315916061401 0.52846848964691162
0.68119519948959351 0.8391912579536438 0.52785021066665649
0.83212673664093018 0.84001046419143677 0.53439188003540039
0.96502727270126343 0.84458345174789429 0.53504651784896851
0.012973770499229431 0.9615519642829895 0.5336189866065979
0.13062882423400879 0.95979571342468262 0.53342598676681519
0.33822470903396606 0.96063405275344849 0.53352820873260498
0.51934254169464111 0.9615362286567688 0.53288334608078003
0.67573451995849609 0.96211272478103638 0.53019386529922485
0.80868446826934814 0.96729534864425659 0.53621393442153931
0.95282953977584839 0.96677261590957642 0.53756141662597656
0.050456628203392029 0.027876207605004311 0.72076690196990967
0.19320403039455414 0.030253661796450615 0.71983307600021362
0.38131999969482422 0.032296933233737946 0.71572643518447876
0.60822790861129761 0.032729502767324448 0.71812766790390015
0.81145519018173218 0.032388933002948761 0.71719324588775635
0.97964507341384888 0.034896131604909897 0.71466082334518433
1 0.033743284642696381 0.7189900279045105
0.081822127103805542 0.15100909769535065 0.71755111217498779
0.17586944997310638 0.15777258574962616 0.71496117115020752
0.37250420451164246 0.15885831415653229 0.7164311408996582
0.5937964916229248 0.15853700041770935 0.71755355596542358
0.79713499546051025 0.15881344676017761 0.71444660425186157
0.96887391805648804 0.16081435978412628 0.71499252319335938
0.99970638751983643 0.16404712200164795 0.71416628360748291
0.03708299994468689 0.33660966157913208 0.71483153104782104
0.11344608664512634 0.34063732624053955 0.7109454870223999
0.35059484839439392 0.34369537234306335 0.70944947004318237
0.56999891996383667 0.34547156095504761 0.71481913328170776
0.77353185415267944 0.34431132674217224 0.71063101291656494
0.94235694408416748 0.34642484784126282 0.71037042140960693
0.99579012393951416 0.34994089603424072 0.70666968822479248
0.00093343399930745363 0.5316624641418457 0.71413528919219971
0.034529726952314377 0.5304449200630188 0.71126323938369751
0.3177495002746582 0.53020620346069336 0.7076382040977478
0.5373680591583252 0.53536373376846313 0.70627957582473755
0.73944592475891113 0.53779482841491699 0.70538461208343506
0.90275520086288452 0.53586101531982422 0.70743465423583984
0.9918525218963623 0.54070097208023071 0.70440340042114258
0.0021683636587113142 0.69888085126876831 0.71023035049438477
0.019494134932756424 0.70445495843887329 0.70869636535644531
0.28507128357887268 0.69979679584503174 0.70631670951843262
0.51626652479171753 0.69893258810043335 0.70860475301742554
0.7078825831413269 0.70584231615066528 0.70487010478973389
0.86885923147201538 0.70376443862915039 0.70485234260559082
0.98486518859863281 0.70779895782470703 0.70558464527130127
0.0038589476607739925 0.83413273096084595 0.70746737718582153
0.033274795860052109 0.84214013814926147 0.70496916770935059
0.2909732460975647 0.83763617277145386 0.70190298557281494
0.51037406921386719 0.83395230770111084 0.70837545394897461
0.69169330596923828 0.83870905637741089 0.70248931646347046
0.83731824159622192 0.83914452791213989 0.70411491394042969
0.96816712617874146 0.84361094236373901 0.70692509412765503
0.018012985587120056 0.96051061153411865 0.70643609762191772
0.14737562835216522 0.95826518535614014 0.70356696844100952
0.34896275401115417 0.96078890562057495 0.70313781499862671
0.52646130323410034 0.96153497695922852 0.70663154125213623
0.68267530202865601 0.96390026807785034 0.70346194505691528
0.81586194038391113 0.96309000253677368 0.70064514875411987
0.95594263076782227 0.96679306030273438 0.70392310619354248
0.05061817541718483 0.029602169990539551 0.86526918411254883
0.19439709186553955 0.032348960638046265 0.86439484357833862
0.38472554087638855 0.036330323666334152 0.86152821779251099
0.61159098148345947 0.031627610325813293 0.86375278234481812
0.81461268663406372 0.034159433096647263 0.86274975538253784
0.98243170976638794 0.032245635986328125 0.86559367179870605
1 0.03266061469912529 0.86592179536819458
0.089329980313777924 0.14802505075931549 0.86034667491912842
0.17797251045703888 0.15148250758647919 0.8615649938583374
0.37709525227546692 0.15536579489707947 0.86187273263931274
0.59748083353042603 0.15712751448154449 0.861214280128479
0.79850655794143677 0.15875178575515747 0.86177581548690796
0.97120934724807739 0.15896508097648621 0.86347538232803345
0.99875503778457642 0.16223351657390594 0.86290866136550903
0.036002814769744873 0.33693087100982666 0.8543391227722168
0.12258710712194443 0.33710205554962158 0.85635936260223389
0.35455432534217834 0.33944737911224365 0.85433363914489746
0.57723629474639893 0.34377551078796387 0.85844635963439941
0.77711641788482666 0.34398934245109558 0.853840172290802
0.94476950168609619 0.34380578994750977 0.85884469747543335
0.99607843160629272 0.34715846180915833 0.85776305198669434
0.0040000169537961483 0.53184002637863159 0.84736484289169312
0.046507067978382111 0.53040146827697754 0.85254722833633423
0.32858705520629883 0.53049224615097046 0.85301035642623901
0.54152071475982666 0.53457212448120117 0.85590839385986328
0.73993420600891113 0.54008680582046509 0.85264390707015991
0.90811550617218018 0.53535312414169312 0.85353899002075195
0.99514091014862061 0.53859782218933105 0.85195034742355347
0.0039215688593685627 0.7025797963142395 0.84558266401290894
0.025341857224702835 0.70595246553421021 0.84937202930450439
0.29394134879112244 0.70139747858047485 0.84704774618148804
0.52119231224060059 0.69932061433792114 0.84974855184555054
0.71171247959136963 0.7048804759979248 0.84524279832839966
0.87136852741241455 0.70369583368301392 0.84856313467025757
0.98543906211853027 0.70390182733535767 0.84591162204742432
0.0037986605893820524 0.8385239839553833 0.84375524520874023
0.046875253319740295 0.84141844511032104 0.8452754020690918
0.30948373675346375 0.8390430212020874 0.84512960910797119
0.51940584182739258 0.83529925346374512 0.84589904546737671
0.69761484861373901 0.83749997615814209 0.84399324655532837
0.84540492296218872 0.83457934856414795 0.84527778625488281
0.96985799074172974 0.84296184778213501 0.84504371881484985
0.033603951334953308 0.95981204509735107 0.84132933616638184
0.16252639889717102 0.96116286516189575 0.84007668495178223
0.35834458470344543 0.96081006526947021 0.83961236476898193
0.53645795583724976 0.962604820728302 0.8412243127822876
0.68819147348403931 0.9632418155670166 0.84524476528167725
0.82193565368652344 0.96361106634140015 0.84451603889465332
0.95978230237960815 0.96630251407623291 0.84292972087860107
0.054056864231824875 0.028977906331419945 0.97770500183105469
0.19484260678291321 0.027310479432344437 0.9788823127746582
0.39187052845954895 0.030419668182730675 0.97503876686096191
0.61563640832901001 0.030814316123723984 0.97825479507446289
0.81783616542816162 0.032759513705968857 0.97827774286270142
0.98518723249435425 0.032708484679460526 0.97992235422134399
1 0.032666884362697601 0.97807854413986206
0.087111212313175201 0.15289552509784698 0.97541683912277222
0.18261264264583588 0.14923369884490967 0.97585183382034302
0.38144740462303162 0.15180468559265137 0.97608190774917603
0.60475897789001465 0.15498346090316772 0.97647225856781006
0.80052810907363892 0.15847346186637878 0.97624105215072632
0.97069209814071655 0.1591995507478714 0.97525477409362793
0.9991956353187561 0.16120168566703796 0.97641408443450928
0.041783995926380157 0.33695971965789795 0.97249835729598999
0.12804897129535675 0.33772429823875427 0.97386538982391357
0.35771939158439636 0.3401845395565033 0.9728502631187439
0.58034473657608032 0.34297555685043335 0.97399502992630005
0.77360135316848755 0.34514418244361877 0.96989148855209351
0.94996547698974609 0.34376519918441772 0.97423410415649414
0.99740183353424072 0.34589803218841553 0.97332799434661865
0.0017280877800658345 0.53111058473587036 0.96921271085739136
0.051015906035900116 0.53094488382339478 0.97129154205322266
0.33277732133865356 0.53423440456390381 0.97087037563323975
0.55168777704238892 0.53564417362213135 0.96743500232696533
0.74389958381652832 0.53690487146377563 0.9674370288848877
0.91381984949111938 0.53724557161331177 0.97211700677871704
0.99686187505722046 0.53283298015594482 0.9699895977973938
0.0011149088386446238 0.70093190670013428 0.96636736392974854
0.029118841513991356 0.70484006404876709 0.96753650903701782
0.30372720956802368 0.70396864414215088 0.9686121940612793
0.52609431743621826 0.70414990186691284 0.96858674287796021
0.71334713697433472 0.7005811333656311 0.96478724479675293
0.87464362382888794 0.70294094085693359 0.96783548593521118
0.99066519737243652 0.70482832193374634 0.96804428100585938
0.0021894117817282677 0.83647876977920532 0.96738505363464355
0.060055181384086609 0.84160840511322021 0.96557396650314331
0.31803038716316223 0.83848112821578979 0.96541845798492432
0.52624034881591797 0.84033042192459106 0.96695518493652344
0.69732540845870972 0.84147894382476807 0.9635276198387146
0.84918320178985596 0.84503453969955444 0.9668157696723938
0.97292160987854004 0.84205418825149536 0.96542596817016602
0.049587711691856384 0.96115231513977051 0.96563577651977539
0.18265251815319061 0.96082603931427002 0.96362757682800293
0.36907270550727844 0.96314460039138794 0.96401888132095337
0.54404580593109131 0.96543550491333008 0.96628177165985107
0.69655740261077881 0.96544325351715088 0.96619349718093872
0.82620769739151001 0.96429938077926636 0.96453142166137695
0.96552431583404541 0.96820944547653198 0.96429252624511719
