luts/colorslide/fuji_velvia_100_generic.cube
# Created by: G'MIC (https://gmic.eu)
TITLE "fuji_velvia_100_generic"
# LUT size
LUT_3D_SIZE 13
# Data domain
DOMAIN_MIN 0.0 0.0 0.0
DOMAIN_MAX 1.0 1.0 1.0
# LUT data points
0.023519223555922508 0.019244309514760971 0.01931743323802948
0.072305910289287567 0.020409213379025459 0.018799547106027603
0.13445365428924561 0.021005712449550629 0.020479807630181313
0.21474027633666992 0.019253017380833626 0.020621581003069878
0.32154840230941772 0.021320642903447151 0.025022275745868683
0.43645772337913513 0.020329255610704422 0.026795839890837669
0.55016094446182251 0.015122357755899429 0.017873950302600861
0.66152024269104004 0.015920286998152733 0.017745118588209152
0.77856910228729248 0.013347042724490166 0.016819359734654427
0.89130926132202148 0.01129443570971489 0.015929952263832092
0.97978043556213379 0.012055804952979088 0.016507871448993683
0.99746835231781006 0.013482441194355488 0.018829286098480225
1 0.014081483706831932 0.02106424979865551
0.033402342349290848 0.071886785328388214 0.02189299650490284
0.071212396025657654 0.070483185350894928 0.020658396184444427
0.13010098040103912 0.068947508931159973 0.020214544609189034
0.21150928735733032 0.067156881093978882 0.021315271034836769
0.32162463665008545 0.069506354629993439 0.024648254737257957
0.43298673629760742 0.066232107579708099 0.023715389892458916
0.54869502782821655 0.058220837265253067 0.018164496868848801
0.6597752571105957 0.053803388029336929 0.017925800755620003
0.77339869737625122 0.048707656562328339 0.016417963430285454
0.88294112682342529 0.044402118772268295 0.01521905604749918
0.97521179914474487 0.043147485703229904 0.013688794337213039
0.99802201986312866 0.043154127895832062 0.016322595998644829
1 0.039367839694023132 0.017593624070286751
0.049754615873098373 0.14039885997772217 0.022836318239569664
0.081515170633792877 0.14045591652393341 0.022294303402304649
0.12694475054740906 0.13516056537628174 0.021066434681415558
0.20807439088821411 0.1314796507358551 0.020257133990526199
0.31725877523422241 0.13038575649261475 0.021385477855801582
0.43004530668258667 0.12675417959690094 0.019327051937580109
0.54878526926040649 0.12376855313777924 0.017605889588594437
0.66203463077545166 0.1209445595741272 0.019060531631112099
0.77270340919494629 0.11561319977045059 0.018697760999202728
0.87434327602386475 0.11091926693916321 0.020062331110239029
0.96799808740615845 0.10775735974311829 0.021092627197504044
0.99639999866485596 0.10722177475690842 0.019447371363639832
0.99978941679000854 0.10515217483043671 0.015985915437340736
0.044953692704439163 0.23095400631427765 0.022612806409597397
0.070464253425598145 0.23048524558544159 0.022660544142127037
0.1128653883934021 0.22581201791763306 0.021782295778393745
0.19333843886852264 0.22520710527896881 0.021714543923735619
0.30478611588478088 0.22279518842697144 0.022466458380222321
0.42701181769371033 0.22232685983181 0.022394442930817604
0.54614150524139404 0.21736899018287659 0.019389178603887558
0.65981996059417725 0.21366716921329498 0.018924608826637268
0.76901364326477051 0.20751629769802094 0.019122015684843063
0.86749988794326782 0.20499803125858307 0.020408585667610168
0.96334511041641235 0.2010117769241333 0.01908397302031517
0.99618822336196899 0.20168659090995789 0.018175432458519936
0.99854123592376709 0.19878929853439331 0.01671072281897068
0.017117355018854141 0.33993852138519287 0.028502281755208969
0.025327451527118683 0.33542674779891968 0.025963367894291878
0.057427246123552322 0.33287328481674194 0.022376639768481255
0.1562771201133728 0.33228042721748352 0.021056843921542168
0.28260162472724915 0.33377596735954285 0.022598415613174438
0.41107833385467529 0.32986223697662354 0.023382298648357391
0.53329211473464966 0.3277306854724884 0.020364530384540558
0.64838778972625732 0.32480505108833313 0.019389986991882324
0.75833845138549805 0.31754115223884583 0.018077371641993523
0.857654869556427 0.31654137372970581 0.019782496616244316
0.95291948318481445 0.31232079863548279 0.017244091257452965
0.99415099620819092 0.30957785248756409 0.017238019034266472
0.99740338325500488 0.30767625570297241 0.017785778269171715
0.0050084879621863365 0.45129004120826721 0.031324394047260284
0.0068925297819077969 0.44600313901901245 0.026176093146204948
0.012517442926764488 0.4479353129863739 0.020865915343165398
0.089484319090843201 0.44897621870040894 0.01897856779396534
0.23841169476509094 0.4489036500453949 0.019791681319475174
0.38418340682983398 0.44456601142883301 0.022277846932411194
0.51270943880081177 0.44242015480995178 0.020874502137303352
0.6303824782371521 0.43903878331184387 0.019970972090959549
0.73922759294509888 0.43541020154953003 0.018760472536087036
0.84107589721679688 0.43102541565895081 0.019460206851363182
0.93569052219390869 0.42674800753593445 0.017686612904071808
0.99261206388473511 0.4228769838809967 0.016799492761492729
0.9974905252456665 0.42062833905220032 0.017624065279960632
0.0039215688593685627 0.56374627351760864 0.027525164186954498
0.0045802397653460503 0.55971944332122803 0.023177322000265121
0.005131949670612812 0.56190007925033569 0.01932087354362011
0.023526076227426529 0.56482630968093872 0.016618900001049042
0.17889510095119476 0.56306535005569458 0.018132183700799942
0.34678164124488831 0.55993509292602539 0.021817540749907494
0.47988036274909973 0.55817997455596924 0.020982511341571808
0.60577684640884399 0.55658417940139771 0.019440818578004837
0.71972823143005371 0.55190956592559814 0.017374958842992783
0.82473939657211304 0.54707354307174683 0.017017977312207222
0.91455662250518799 0.5429375171661377 0.016719084233045578
0.97921693325042725 0.53883844614028931 0.018542405217885971
0.99615740776062012 0.53869444131851196 0.015948306769132614
0.002504939679056406 0.67488306760787964 0.019816529005765915
0.0038154602516442537 0.67115700244903564 0.017296167090535164
0.0055753071792423725 0.67050492763519287 0.01621214859187603
0.010257137939333916 0.67236202955245972 0.015181014314293861
0.10739400237798691 0.67329323291778564 0.014279892668128014
0.30480527877807617 0.67115181684494019 0.015263097360730171
0.44666743278503418 0.67114847898483276 0.017339669167995453
0.57598531246185303 0.66937714815139771 0.016392666846513748
0.69779974222183228 0.66228568553924561 0.01429335679858923
0.80366241931915283 0.65379619598388672 0.014175055548548698
0.89370912313461304 0.6504744291305542 0.013451086357235909
0.96594089269638062 0.64878863096237183 0.01548665389418602
0.99269074201583862 0.64641481637954712 0.012785010039806366
0 0.78051167726516724 0.010475906543433666
0.001206566346809268 0.77790486812591553 0.010223822668194771
0.0040420680306851864 0.77473533153533936 0.0097113214433193207
0.0066992365755140781 0.77533835172653198 0.0095743816345930099
0.053431730717420578 0.7767174243927002 0.0076725082471966743
0.25772151350975037 0.77490293979644775 0.0080696707591414452
0.42113012075424194 0.77282679080963135 0.010128065943717957
0.55106502771377563 0.7703404426574707 0.011762237176299095
0.67298579216003418 0.76379132270812988 0.010427811183035374
0.78272682428359985 0.75569897890090942 0.010602734051644802
0.87201523780822754 0.75440490245819092 0.0090405484661459923
0.94863432645797729 0.75613969564437866 0.0089666629210114479
0.99102818965911865 0.75443756580352783 0.0083958795294165611
0 0.86621963977813721 0.0043400186114013195
0 0.86907213926315308 0.0041170604526996613
0.00072093290509656072 0.8726881742477417 0.0026620302814990282
0.0050917533226311207 0.8711317777633667 0.0022221584804356098
0.021718582138419151 0.87021684646606445 0.0016545762773603201
0.20819695293903351 0.86910969018936157 0.0016057481989264488
0.40017205476760864 0.86178141832351685 0.003899802453815937
0.53210711479187012 0.8580741286277771 0.0047533074393868446
0.65055382251739502 0.85638689994812012 0.005019722506403923
0.76146703958511353 0.85535585880279541 0.0048817652277648449
0.85111725330352783 0.85504382848739624 0.0031559662893414497
0.92601823806762695 0.85538226366043091 0.0022273941431194544
0.97975414991378784 0.85349398851394653 0.0030574125703424215
0 0.94316542148590088 0.0017025816487148404
0 0.9444955587387085 0.0010297887492924929
0 0.94800066947937012 7.7789909482817166e-06
0.002142678014934063 0.94588422775268555 0
0.0097049335017800331 0.94851863384246826 0
0.18717615306377411 0.94732463359832764 0
0.39327734708786011 0.93815112113952637 0.00087910069851204753
0.52965599298477173 0.93457788228988647 0.0011313793947920203
0.64458394050598145 0.93361371755599976 0.00072479248046875
0.74747341871261597 0.93194365501403809 0.00056714826496317983
0.8347470760345459 0.93068969249725342 0.00032175102387554944
0.90407860279083252 0.93033063411712646 1.3284122360346373e-05
0.96022021770477295 0.93256902694702148 0
0.0010470671113580465 0.99488896131515503 0
0.0020782020874321461 0.99420303106307983 0
0.0029684328474104404 0.99327242374420166 0
0.0086934855207800865 0.99357110261917114 0
0.072385542094707489 0.99532210826873779 0
0.25935837626457214 0.99371892213821411 0
0.42069008946418762 0.99137026071548462 0
0.5481637716293335 0.98956465721130371 0
0.65425974130630493 0.9882844090461731 2.8722426577587612e-05
0.74566388130187988 0.98636096715927124 0.0006166346138343215
0.82559454441070557 0.98718720674514771 0.00069849350256845355
0.88879001140594482 0.98565608263015747 0.00054644414922222495
0.94627642631530762 0.98806822299957275 0
0.0055053709074854851 1 0
0.016665276139974594 1 0
0.037956446409225464 0.99993932247161865 0
0.11765431612730026 1 0
0.25590053200721741 1 0
0.38739922642707825 1 0
0.49615487456321716 0.99838554859161377 0
0.59466910362243652 0.99666225910186768 0
0.68964892625808716 0.99698245525360107 0.00013697007670998573
0.77297878265380859 0.99805313348770142 0.00030876608798280358
0.83977019786834717 0.99880343675613403 0.00019567152776289731
0.89534687995910645 0.99898248910903931 0.00018705480033531785
0.94419550895690918 0.99991816282272339 0
0.024006189778447151 0.01739819161593914 0.069837413728237152
0.073652066290378571 0.019568528980016708 0.070023521780967712
0.13934771716594696 0.020057782530784607 0.071497641503810883
0.21529830992221832 0.017116831615567207 0.068580061197280884
0.32025390863418579 0.017919173464179039 0.067415632307529449
0.43403291702270508 0.016140224412083626 0.065501824021339417
0.55070394277572632 0.014474202878773212 0.062595710158348083
0.66374790668487549 0.013984485529363155 0.063702903687953949
0.78037875890731812 0.011932896450161934 0.063041135668754578
0.88977187871932983 0.0090310787782073021 0.061482403427362442
0.97927409410476685 0.0084835579618811607 0.060933791100978851
0.99817651510238647 0.010088004171848297 0.058445606380701065
1 0.0087353726848959923 0.054391134530305862
0.035433825105428696 0.068617895245552063 0.07136332243680954
0.074204467236995697 0.065408788621425629 0.071161068975925446
0.13165077567100525 0.063537150621414185 0.068366840481758118
0.21022583544254303 0.061856601387262344 0.065344855189323425
0.31744331121444702 0.062969639897346497 0.064859263598918915
0.43091771006584167 0.059582535177469254 0.063298165798187256
0.5491752028465271 0.055000007152557373 0.062370762228965759
0.66157239675521851 0.05162646621465683 0.063299991190433502
0.77476269006729126 0.046173244714736938 0.062449600547552109
0.88119924068450928 0.040107861161231995 0.058916669338941574
0.97368013858795166 0.037750482559204102 0.056582625955343246
0.99782693386077881 0.039064712822437286 0.056615568697452545
1 0.036900270730257034 0.054012779146432877
0.052630405873060226 0.13768556714057922 0.069376431405544281
0.082061290740966797 0.13364697992801666 0.068121366202831268
0.12671136856079102 0.12936078011989594 0.063435830175876617
0.20761516690254211 0.12874144315719604 0.062407653778791428
0.31715643405914307 0.12764197587966919 0.06274133175611496
0.4316108226776123 0.12568576633930206 0.060520216822624207
0.54887187480926514 0.12272072583436966 0.059849727898836136
0.66051626205444336 0.1199767142534256 0.06043599545955658
0.77135658264160156 0.11246567964553833 0.060136668384075165
0.8749697208404541 0.10539239645004272 0.057373002171516418
0.97029036283493042 0.10184946656227112 0.053360942751169205
0.99613946676254272 0.10272771865129471 0.053725387901067734
0.99940764904022217 0.10178801417350769 0.052632246166467667
0.048339635133743286 0.22560979425907135 0.063762784004211426
0.074651308357715607 0.22251680493354797 0.063015192747116089
0.11879026889801025 0.22229860723018646 0.062038704752922058
0.19660726189613342 0.22380761802196503 0.06183769553899765
0.30584591627120972 0.22306735813617706 0.063145577907562256
0.42496216297149658 0.22273392975330353 0.062419142574071884
0.54334545135498047 0.21491947770118713 0.058485608547925949
0.65664499998092651 0.21016716957092285 0.058500610291957855
0.7667546272277832 0.20404861867427826 0.059688612818717957
0.86912685632705688 0.19992668926715851 0.057730983942747116
0.96517270803451538 0.1965574324131012 0.05084678903222084
0.99252015352249146 0.19718626141548157 0.050301600247621536
0.99708497524261475 0.19309377670288086 0.049955554306507111
0.015486848540604115 0.33484324812889099 0.059275876730680466
0.029714187607169151 0.3303474485874176 0.058386649936437607
0.065892778337001801 0.33021202683448792 0.056412011384963989
0.16131682693958282 0.3296700119972229 0.055077884346246719
0.28179016709327698 0.33296748995780945 0.060493588447570801
0.40732356905937195 0.33314618468284607 0.062868423759937286
0.52937406301498413 0.3289068341255188 0.056046206504106522
0.64387869834899902 0.32312926650047302 0.05644703283905983
0.75580358505249023 0.31424573063850403 0.059578254818916321
0.85846078395843506 0.31346774101257324 0.057022709399461746
0.95511370897293091 0.31046068668365479 0.04974721372127533
0.990203857421875 0.30792498588562012 0.049650903791189194
0.99574744701385498 0.30446809530258179 0.049744024872779846
0.0032523809932172298 0.4471777081489563 0.055564939975738525
0.0051234676502645016 0.44469621777534485 0.054067902266979218
0.012567512691020966 0.44666001200675964 0.050105389207601547
0.093455128371715546 0.44653299450874329 0.048931330442428589
0.23739296197891235 0.4474027156829834 0.053513947874307632
0.38159549236297607 0.44585546851158142 0.054445140063762665
0.5143427848815918 0.44061890244483948 0.049050215631723404
0.62654846906661987 0.43681132793426514 0.050904501229524612
0.73603737354278564 0.42972674965858459 0.052811041474342346
0.84218436479568481 0.42852208018302917 0.050329890102148056
0.93980854749679565 0.42631816864013672 0.04614664614200592
0.98963487148284912 0.42248243093490601 0.045924019068479538
0.99617356061935425 0.41816651821136475 0.046034973114728928
0.0027609581593424082 0.56267350912094116 0.046992223709821701
0.0039172903634607792 0.56166887283325195 0.045513242483139038
0.0043775523081421852 0.56245571374893188 0.043603155761957169
0.026970582082867622 0.56236571073532104 0.041400447487831116
0.1844000518321991 0.56061214208602905 0.041752371937036514
0.35178276896476746 0.55750590562820435 0.042992670089006424
0.48599541187286377 0.55434519052505493 0.043398495763540268
0.60357218980789185 0.55071127414703369 0.043964385986328125
0.7182689905166626 0.54666167497634888 0.042780227959156036
0.82470482587814331 0.54397046566009521 0.040840446949005127
0.91888308525085449 0.54381567239761353 0.038445238023996353
0.98662972450256348 0.54011887311935425 0.038496024906635284
0.99785882234573364 0.5372931957244873 0.037701208144426346
0.00042696186574175954 0.6755862832069397 0.034716289490461349
0.001720488304272294 0.67308539152145386 0.034963540732860565
0.0037375804968178272 0.67076212167739868 0.035315793007612228
0.007138226181268692 0.67191356420516968 0.033292807638645172
0.11220592260360718 0.67099440097808838 0.031601745635271072
0.31269940733909607 0.66787803173065186 0.032710429280996323
0.45644643902778625 0.66495376825332642 0.03459785133600235
0.58010900020599365 0.66144394874572754 0.035317886620759964
0.69715601205825806 0.65781360864639282 0.03245876356959343
0.80233108997344971 0.653664231300354 0.031151207163929939
0.895885169506073 0.65388113260269165 0.031500514596700668
0.97237837314605713 0.65078198909759521 0.030099203810095787
0.99642789363861084 0.64555388689041138 0.029372824355959892
0 0.77883923053741455 0.018952552229166031
4.6434590331045911e-05 0.77720648050308228 0.021499035879969597
0.0023476993665099144 0.77502799034118652 0.023054802790284157
0.0068866354413330555 0.7754395604133606 0.021254520863294601
0.054443538188934326 0.77523541450500488 0.018637608736753464
0.26302024722099304 0.77249598503112793 0.019370643422007561
0.42599523067474365 0.76970046758651733 0.021555956453084946
0.55954504013061523 0.76745343208312988 0.022314513102173805
0.67218494415283203 0.7619670033454895 0.022416358813643456
0.78016430139541626 0.7579803466796875 0.021230092272162437
0.87147098779678345 0.75813394784927368 0.023366920650005341
0.94929897785186768 0.75623470544815063 0.021994750946760178
0.99193078279495239 0.75233030319213867 0.02020283043384552
0 0.86995106935501099 0.0046579400077462196
0 0.87041008472442627 0.0067806318402290344
0.00065870099933817983 0.87163776159286499 0.0073848799802362919
0.0052334205247461796 0.86991900205612183 0.0069017000496387482
0.023831656202673912 0.86874765157699585 0.0056788725778460503
0.2154841274023056 0.86642873287200928 0.005514870397746563
0.40020224452018738 0.8599543571472168 0.0075056785717606544
0.53645944595336914 0.85729008913040161 0.0086789149791002274
0.65548884868621826 0.85704058408737183 0.0087308697402477264
0.76077735424041748 0.85354560613632202 0.011530737392604351
0.84921836853027344 0.85469412803649902 0.0096227759495377541
0.92641526460647583 0.85192960500717163 0.0088620800524950027
0.97956132888793945 0.84896981716156006 0.0097788646817207336
0 0.94214159250259399 0.0012481539743021131
0 0.94440585374832153 0.002005348913371563
0 0.94521641731262207 0.00077457801671698689
0.004073034506291151 0.94380295276641846 0.00024239034974016249
0.017789384350180626 0.94633626937866211 0
0.19545401632785797 0.94488859176635742 0.00035045848926529288
0.38890323042869568 0.93779969215393066 0.0034572228323668242
0.53011792898178101 0.93556797504425049 0.0027028999757021666
0.64584183692932129 0.93399876356124878 0.0011625551851466298
0.74625808000564575 0.92810678482055664 0.0043916143476963043
0.83581483364105225 0.92779761552810669 0.0039062947034835815
0.90630364418029785 0.92596501111984253 0.00310490932315588
0.96159100532531738 0.92957180738449097 0.0014576631365343928
0.00078938802471384406 0.98872643709182739 0.0024970259983092546
0.0013698652619495988 0.99451929330825806 0.00097214942798018456
0.0023336522281169891 0.99361240863800049 0.00010235356603516266
0.010495219379663467 0.9939579963684082 0
0.07523924857378006 0.99349045753479004 0
0.26712512969970703 0.9907715916633606 0.00055135093862190843
0.42651906609535217 0.99054974317550659 0.001656700624153018
0.55085283517837524 0.9896245002746582 0.001431887736544013
0.65295273065567017 0.98745214939117432 0.0018267313716933131
0.745647132396698 0.98228418827056885 0.0043438030406832695
0.82692509889602661 0.98113936185836792 0.0045244107022881508
0.89075285196304321 0.98046630620956421 0.0040153954178094864
0.94690382480621338 0.98555207252502441 0.00065535004250705242
0.0039589079096913338 0.99883729219436646 0.0011335634626448154
0.010679402388632298 0.99978601932525635 0.00021642049250658602
0.036668844521045685 1 5.7429893786320463e-05
0.12235620617866516 1 0
0.25889942049980164 1 0
0.39191320538520813 0.9999535083770752 0.00039674347499385476
0.50582331418991089 0.99885100126266479 0.0005283580394461751
0.59986895322799683 0.99688589572906494 0.00099529186263680458
0.68802285194396973 0.99692440032958984 0.0034428914077579975
0.77125287055969238 0.99666810035705566 0.0038963318802416325
0.84037572145462036 0.99746745824813843 0.0032723669428378344
0.89616775512695312 0.9977726936340332 0.0034466763027012348
0.94679468870162964 0.99852567911148071 0.00041517370846122503
0.026512535288929939 0.01715119369328022 0.13343149423599243
0.075798526406288147 0.018733035773038864 0.13279293477535248
0.13923925161361694 0.016621338203549385 0.13199637830257416
0.21704193949699402 0.013693910092115402 0.13107743859291077
0.32200852036476135 0.019457424059510231 0.13012920320034027
0.43519061803817749 0.017333356663584709 0.13034573197364807
0.55283129215240479 0.009947129525244236 0.12873044610023499
0.66735208034515381 0.0093837659806013107 0.13108927011489868
0.78243386745452881 0.0097025549039244652 0.12883631885051727
0.88929951190948486 0.0088582206517457962 0.12584291398525238
0.97326958179473877 0.011035620234906673 0.12618717551231384
0.99565672874450684 0.0095282457768917084 0.12696926295757294
0.99938082695007324 0.0053765987977385521 0.12224002927541733
0.034558538347482681 0.063685983419418335 0.13302212953567505
0.073990762233734131 0.061293896287679672 0.13153049349784851
0.13574877381324768 0.060508143156766891 0.1320359855890274
0.21334083378314972 0.056467317044734955 0.12936384975910187
0.31860250234603882 0.055048685520887375 0.12680533528327942
0.43311992287635803 0.051997359842061996 0.12697488069534302
0.55166018009185791 0.049630783498287201 0.127467080950737
0.66616606712341309 0.046119719743728638 0.12820626795291901
0.77839940786361694 0.041897553950548172 0.12654699385166168
0.88505858182907104 0.036171693354845047 0.12088686227798462
0.97504746913909912 0.033565759658813477 0.11788129806518555
0.99544435739517212 0.035249702632427216 0.11986667662858963
0.99937266111373901 0.032397713512182236 0.11876498907804489
0.050937067717313766 0.13034293055534363 0.12991255521774292
0.08070024847984314 0.12974487245082855 0.13248442113399506
0.13023538887500763 0.12436622381210327 0.12814396619796753
0.21186481416225433 0.12218634039163589 0.125745490193367
0.31750360131263733 0.12113057821989059 0.12424951046705246
0.43267804384231567 0.12016294896602631 0.12409171462059021
0.55022358894348145 0.11444105207920074 0.12220161408185959
0.660910964012146 0.11344495415687561 0.12329132854938507
0.77333635091781616 0.10781326144933701 0.12236794829368591
0.88100391626358032 0.10191740095615387 0.11770031601190567
0.97337073087692261 0.097025401890277863 0.11324237287044525
0.99536091089248657 0.095167286694049835 0.11576163768768311
0.99912166595458984 0.093425661325454712 0.11702194064855576
0.051091901957988739 0.22066600620746613 0.1279032975435257
0.079626969993114471 0.2170708179473877 0.13033436238765717
0.12083408236503601 0.2176004946231842 0.12442050874233246
0.2017800509929657 0.2152600884437561 0.12237364798784256
0.30773976445198059 0.21640686690807343 0.12182823568582535
0.42440271377563477 0.21507175266742706 0.12268386781215668
0.54256951808929443 0.21088144183158875 0.1230454221367836
0.65438413619995117 0.20515060424804688 0.12035427987575531
0.76569420099258423 0.19868148863315582 0.11686725914478302
0.87321954965591431 0.19572465121746063 0.11597984284162521
0.96734142303466797 0.19136819243431091 0.11136278510093689
0.99317127466201782 0.18833810091018677 0.11288756132125854
0.99714404344558716 0.18521837890148163 0.11483918875455856
0.021956784650683403 0.32628354430198669 0.11884602904319763
0.035904183983802795 0.3250274658203125 0.11878567934036255
0.072259731590747833 0.32574576139450073 0.11382320523262024
0.16443026065826416 0.32590147852897644 0.11395423859357834
0.28765091300010681 0.32469728589057922 0.11625876277685165
0.41010200977325439 0.32418128848075867 0.11956683546304703
0.53189367055892944 0.3188779354095459 0.11653836071491241
0.64475280046463013 0.31282815337181091 0.11288370192050934
0.75640702247619629 0.30675169825553894 0.11188584566116333
0.85951650142669678 0.30595728754997253 0.11385186761617661
0.95631885528564453 0.30325144529342651 0.10880479961633682
0.99102771282196045 0.30024811625480652 0.10852727293968201
0.99588024616241455 0.2973514199256897 0.10886187106370926
