luts/colorslide/fuji_astia_100_generic.cube
# Created by: G'MIC (https://gmic.eu)
TITLE "fuji_astia_100_generic"
# LUT size
LUT_3D_SIZE 13
# Data domain
DOMAIN_MIN 0.0 0.0 0.0
DOMAIN_MAX 1.0 1.0 1.0
# LUT data points
0.034153837710618973 0.031374208629131317 0.028303064405918121
0.093623876571655273 0.031496502459049225 0.027193810790777206
0.16033950448036194 0.031073970720171928 0.027056301012635231
0.23253698647022247 0.030596699565649033 0.026629818603396416
0.32005316019058228 0.031656783074140549 0.026715775951743126
0.41382035613059998 0.031628776341676712 0.025191467255353928
0.50207793712615967 0.031208323314785957 0.021035213023424149
0.58833181858062744 0.029519623145461082 0.017164327204227448
0.67409449815750122 0.029632898047566414 0.016963465139269829
0.75499653816223145 0.02880311943590641 0.017417250201106071
0.82654577493667603 0.029776569455862045 0.016633486375212669
0.89992040395736694 0.024918215349316597 0.012713084928691387
0.96787935495376587 0.023036733269691467 0.0083331838250160217
0.052345994859933853 0.093294434249401093 0.034243624657392502
0.10027347505092621 0.095750682055950165 0.037390135228633881
0.16394387185573578 0.09296252578496933 0.035597886890172958
0.23603135347366333 0.090599432587623596 0.031163278967142105
0.32413676381111145 0.091326527297496796 0.031734749674797058
0.41393762826919556 0.091893501579761505 0.0312831811606884
0.50349682569503784 0.091284990310668945 0.026270220056176186
0.58986330032348633 0.090756088495254517 0.022606255486607552
0.67295593023300171 0.091106057167053223 0.021918158978223801
0.75324076414108276 0.090874582529067993 0.020595669746398926
0.82796311378479004 0.088932976126670837 0.01762683317065239
0.89875537157058716 0.087573319673538208 0.015141520649194717
0.96625089645385742 0.084973655641078949 0.011336951516568661
0.083634860813617706 0.16127625107765198 0.045155543833971024
0.11513721197843552 0.16783812642097473 0.050097789615392685
0.16823223233222961 0.16452163457870483 0.045974656939506531
0.24186921119689941 0.16090360283851624 0.039706062525510788
0.32932552695274353 0.16034358739852905 0.037788853049278259
0.41805738210678101 0.16026204824447632 0.037106741219758987
0.50628221035003662 0.15698203444480896 0.030532581731677055
0.5909455418586731 0.15660510957241058 0.026677628979086876
0.67182040214538574 0.1593136340379715 0.027539497241377831
0.75345909595489502 0.1578945517539978 0.023808049038052559
0.83093458414077759 0.15451659262180328 0.019844833761453629
0.89907169342041016 0.15545986592769623 0.019797051325440407
0.96508949995040894 0.15467444062232971 0.01682128943502903
0.079343147575855255 0.24254654347896576 0.056664440780878067
0.11147333681583405 0.24788185954093933 0.057750701904296875
0.15883380174636841 0.24455320835113525 0.053824435919523239
0.24042907357215881 0.24047337472438812 0.049218077212572098
0.33549663424491882 0.24097771942615509 0.047588348388671875
0.42216899991035461 0.24135439097881317 0.047992348670959473
0.50655156373977661 0.24035528302192688 0.043537139892578125
0.59073126316070557 0.2393469512462616 0.038435932248830795
0.67272388935089111 0.24232293665409088 0.036956187337636948
0.75559628009796143 0.23740255832672119 0.030953710898756981
0.83189535140991211 0.2344844788312912 0.030440222471952438
0.90015107393264771 0.23504431545734406 0.030418036505579948
0.96659159660339355 0.23229457437992096 0.024124864488840103
0.036916214972734451 0.33646827936172485 0.069991782307624817
0.068100661039352417 0.33855536580085754 0.069191783666610718
0.13505509495735168 0.33605465292930603 0.065514571964740753
0.2370946854352951 0.33334788680076599 0.06381881982088089
0.33548873662948608 0.33113190531730652 0.061063669621944427
0.42330184578895569 0.33011120557785034 0.060509700328111649
0.50617003440856934 0.33073875308036804 0.056063812226057053
0.58776551485061646 0.33104139566421509 0.050935603678226471
0.67038756608963013 0.33225530385971069 0.047262169420719147
0.75288474559783936 0.33004212379455566 0.043051417917013168
0.83203244209289551 0.327463299036026 0.040699649602174759
0.90192210674285889 0.32683968544006348 0.038975421339273453
0.96596580743789673 0.32628935575485229 0.034698754549026489
0.019814195111393929 0.42819938063621521 0.081375688314437866
0.048077572137117386 0.42779818177223206 0.081399418413639069
0.13800561428070068 0.42494171857833862 0.083547823131084442
0.23406112194061279 0.42258790135383606 0.07867373526096344
0.33129674196243286 0.42157423496246338 0.072696894407272339
0.42293271422386169 0.42057046294212341 0.069134987890720367
0.50603407621383667 0.41979661583900452 0.067718267440795898
0.58744752407073975 0.41971093416213989 0.063930511474609375
0.66963362693786621 0.41979381442070007 0.060210626572370529
0.75084048509597778 0.41638374328613281 0.056085653603076935
0.82954698801040649 0.41478833556175232 0.050497692078351974
0.90126276016235352 0.41511791944503784 0.047593269497156143
0.96474123001098633 0.41643416881561279 0.045059487223625183
0.015730973333120346 0.51369196176528931 0.089577123522758484
0.040895752608776093 0.51329654455184937 0.088908538222312927
0.1275559663772583 0.51259732246398926 0.091291137039661407
0.22834911942481995 0.5112382173538208 0.087588563561439514
0.33022621273994446 0.5075606107711792 0.082156315445899963
0.42439091205596924 0.50470978021621704 0.080281399190425873
0.50693613290786743 0.50446921586990356 0.078109234571456909
0.58933514356613159 0.50577199459075928 0.07399691641330719
0.67072886228561401 0.50673186779022217 0.069279447197914124
0.74782121181488037 0.50133180618286133 0.066495053470134735
0.82544654607772827 0.49949756264686584 0.062110647559165955
0.8964124321937561 0.49988576769828796 0.059462811797857285
0.96117907762527466 0.50143390893936157 0.057666074484586716
0.01905059814453125 0.59699815511703491 0.095431216061115265
0.054519098252058029 0.59605598449707031 0.091616190969944
0.12953691184520721 0.59600049257278442 0.09249608963727951
0.22821515798568726 0.59422343969345093 0.092716202139854431
0.33158093690872192 0.59035664796829224 0.089219830930233002
0.42577990889549255 0.58723002672195435 0.088945202529430389
0.50807946920394897 0.58677071332931519 0.085662141442298889
0.59035032987594604 0.58613508939743042 0.077166840434074402
0.66955751180648804 0.58519607782363892 0.073110722005367279
0.74535948038101196 0.58348369598388672 0.072002723813056946
0.82260340452194214 0.58628779649734497 0.070028014481067657
0.89150798320770264 0.58497512340545654 0.06878313422203064
0.95754557847976685 0.58590936660766602 0.06617235392332077
0.017564572393894196 0.67598038911819458 0.092323154211044312
0.049834664911031723 0.67590856552124023 0.090016096830368042
0.12689302861690521 0.67418193817138672 0.091095566749572754
0.23319129645824432 0.67188596725463867 0.091039575636386871
0.3370412290096283 0.67067337036132812 0.087224818766117096
0.4292483925819397 0.66847199201583862 0.085140958428382874
0.51084882020950317 0.66606545448303223 0.079188749194145203
0.59109556674957275 0.66307348012924194 0.074308373034000397
0.66872316598892212 0.66184544563293457 0.073653198778629303
0.74495667219161987 0.66225165128707886 0.074527665972709656
0.81885451078414917 0.66435211896896362 0.073855362832546234
0.88836479187011719 0.6650768518447876 0.073916412889957428
0.95221966505050659 0.66805565357208252 0.07497107982635498
0.026791516691446304 0.75318628549575806 0.080696910619735718
0.067289702594280243 0.75293159484863281 0.079099498689174652
0.15492582321166992 0.75001394748687744 0.079170480370521545
0.24930930137634277 0.74917352199554443 0.078742638230323792
0.34356957674026489 0.74920570850372314 0.077664382755756378
0.43220654129981995 0.74679315090179443 0.074266828596591949
0.51457220315933228 0.74271106719970703 0.071397386491298676
0.59456318616867065 0.73908382654190063 0.070592395961284637
0.67112851142883301 0.73820418119430542 0.070096902549266815
0.74596548080444336 0.74084013700485229 0.070182725787162781
0.81835258007049561 0.74409204721450806 0.069144904613494873
0.88635843992233276 0.74419063329696655 0.071324728429317474
0.94827383756637573 0.74573689699172974 0.073977574706077576
0.059831131249666214 0.8246038556098938 0.058137886226177216
0.10319148004055023 0.8227887749671936 0.058295350521802902
0.18448866903781891 0.82174539566040039 0.057981036603450775
0.27449291944503784 0.82038837671279907 0.056669872254133224
0.35647979378700256 0.81976503133773804 0.056047402322292328
0.43845310807228088 0.81822025775909424 0.054136015474796295
0.51998209953308105 0.8160395622253418 0.052244491875171661
0.59986931085586548 0.81428360939025879 0.056670349091291428
0.67611032724380493 0.81329119205474854 0.051411136984825134
0.75013816356658936 0.81314527988433838 0.047626450657844543
0.81839734315872192 0.81389075517654419 0.045756470412015915
0.88514119386672974 0.81450808048248291 0.045887831598520279
0.95048564672470093 0.81612253189086914 0.049296107143163681
0.12265678495168686 0.88941472768783569 0.043764583766460419
0.16030792891979218 0.88919699192047119 0.045528724789619446
0.22486592829227448 0.88953012228012085 0.040063101798295975
0.29850050806999207 0.8891482949256897 0.03596007451415062
0.37344983220100403 0.88762104511260986 0.031778298318386078
0.4493001401424408 0.88742482662200928 0.031705819070339203
0.52724909782409668 0.88713109493255615 0.027835816144943237
0.60540080070495605 0.88596248626708984 0.024453960359096527
0.68041396141052246 0.88548958301544189 0.021093929186463356
0.75130760669708252 0.88543921709060669 0.020606126636266708
0.81721562147140503 0.88571244478225708 0.020244672894477844
0.88478785753250122 0.88580179214477539 0.016635430976748466
0.9581180214881897 0.8855597972869873 0.016070840880274773
0.14692781865596771 0.95993131399154663 0.072583518922328949
0.18485179543495178 0.96025937795639038 0.072888650000095367
0.24478186666965485 0.95662480592727661 0.071313939988613129
0.30949479341506958 0.96024900674819946 0.071647480130195618
0.38050466775894165 0.95866584777832031 0.065469540655612946
0.45390403270721436 0.95882493257522583 0.060919247567653656
0.52941179275512695 0.95442831516265869 0.054328050464391708
0.60527008771896362 0.95812058448791504 0.047989595681428909
0.67703574895858765 0.95963490009307861 0.043290439993143082
0.74592757225036621 0.96023893356323242 0.035520888864994049
0.81163114309310913 0.96264266967773438 0.031372100114822388
0.8814079761505127 0.96076929569244385 0.025616500526666641
0.96063196659088135 0.95839661359786987 0.018969576805830002
0.033752605319023132 0.030041474848985672 0.088202759623527527
0.093391180038452148 0.03171437606215477 0.085453242063522339
0.16118648648262024 0.032639537006616592 0.083414472639560699
0.23290042579174042 0.032433677464723587 0.081118956208229065
0.3220369815826416 0.032704927027225494 0.080825597047805786
0.41733291745185852 0.032843660563230515 0.078645922243595123
0.50647753477096558 0.031090680509805679 0.071960657835006714
0.59066551923751831 0.029095608741044998 0.065461672842502594
0.67428135871887207 0.029170989990234375 0.060709770768880844
0.75227397680282593 0.028856091201305389 0.056737653911113739
0.82385683059692383 0.030328487977385521 0.055318541824817657
0.89825636148452759 0.026688773185014725 0.051510769873857498
0.96615880727767944 0.02544504776597023 0.046065866947174072
0.052408255636692047 0.093076102435588837 0.093585237860679626
0.097730748355388641 0.092922434210777283 0.093640364706516266
0.16425836086273193 0.095289073884487152 0.090910769999027252
0.23783747851848602 0.095421209931373596 0.08814963698387146
0.32653146982192993 0.094222277402877808 0.08737221360206604
0.41725590825080872 0.092356644570827484 0.08457019180059433
0.50572746992111206 0.09002983570098877 0.080804504454135895
0.59070628881454468 0.089266665279865265 0.075756072998046875
0.67362397909164429 0.089875258505344391 0.069852955639362335
0.75295758247375488 0.090071722865104675 0.065662398934364319
0.8268396258354187 0.089151687920093536 0.061849106103181839
0.89842712879180908 0.087921440601348877 0.058769196271896362
0.96517848968505859 0.08604741096496582 0.052698202431201935
0.08312494307756424 0.16079767048358917 0.09966558963060379
0.11802643537521362 0.16278745234012604 0.099847160279750824
0.16910324990749359 0.1631673127412796 0.096819646656513214
0.24084246158599854 0.16087730228900909 0.094254359602928162
0.32971993088722229 0.16026142239570618 0.092958800494670868
0.41712209582328796 0.15826989710330963 0.09001033753156662
0.50421518087387085 0.15568357706069946 0.086942248046398163
0.58914065361022949 0.15542736649513245 0.083503574132919312
0.6735529899597168 0.15532885491847992 0.078981272876262665
0.75564455986022949 0.15544760227203369 0.073492489755153656
0.8315919041633606 0.15485024452209473 0.067341916263103485
0.89871323108673096 0.15671338140964508 0.064952895045280457
0.96420401334762573 0.15524289011955261 0.059449408203363419
0.083128504455089569 0.24175058305263519 0.10696369409561157
0.11308427900075912 0.24603554606437683 0.10653045028448105
0.15496091544628143 0.24504198133945465 0.10385964810848236
0.23771151900291443 0.24070051312446594 0.10184836387634277
0.33303463459014893 0.2384360134601593 0.10057453811168671
0.41866013407707214 0.23745884001255035 0.09799029678106308
0.50231921672821045 0.23969076573848724 0.093358464539051056
0.58632028102874756 0.24171507358551025 0.093055278062820435
0.67095661163330078 0.2393728494644165 0.090261243283748627
0.75546491146087646 0.23500050604343414 0.081370890140533447
0.83139258623123169 0.23819300532341003 0.075712434947490692
0.89872157573699951 0.24071437120437622 0.073052860796451569
0.96516543626785278 0.23499247431755066 0.066337451338768005
0.041761837899684906 0.33735397458076477 0.11489798128604889
0.066788598895072937 0.33792680501937866 0.11279237270355225
0.13017052412033081 0.33451610803604126 0.11060186475515366
0.23093479871749878 0.3313845694065094 0.10862081497907639
0.33156874775886536 0.32895836234092712 0.10812974721193314
0.42001926898956299 0.32830479741096497 0.10656505078077316
0.50211864709854126 0.33191391825675964 0.10147339850664139
0.58434373140335083 0.33399838209152222 0.098045408725738525
0.66741371154785156 0.33335632085800171 0.095892660319805145
0.74970161914825439 0.33152073621749878 0.089633047580718994
0.83017683029174805 0.33151695132255554 0.083995148539543152
0.89982616901397705 0.33198660612106323 0.081755496561527252
0.96448022127151489 0.33003520965576172 0.07698822021484375
0.013276567682623863 0.42836585640907288 0.12048497051000595
0.048293933272361755 0.42707833647727966 0.11736381053924561
0.13059486448764801 0.42539024353027344 0.11650220304727554
0.22787243127822876 0.42462703585624695 0.11449387669563293
0.32877826690673828 0.42274433374404907 0.11285924166440964
0.42058506608009338 0.42198607325553894 0.11075466126203537
0.50264108180999756 0.42350435256958008 0.10739828646183014
0.58441066741943359 0.42456498742103577 0.10192170739173889
0.66691547632217407 0.42402535676956177 0.098438441753387451
0.74686408042907715 0.42171424627304077 0.096034899353981018
0.82607144117355347 0.41742375493049622 0.09341924637556076
0.89842170476913452 0.41861775517463684 0.090385735034942627
0.9629853367805481 0.42084676027297974 0.085566878318786621
0.011961215175688267 0.51351869106292725 0.1239619106054306
0.041830655187368393 0.5133742094039917 0.12063620984554291
0.11982771754264832 0.5145990252494812 0.11986341327428818
0.22151754796504974 0.5152822732925415 0.11938706785440445
0.32490658760070801 0.51279056072235107 0.1168501153588295
0.42030015587806702 0.51039808988571167 0.11434102058410645
0.50256001949310303 0.51181358098983765 0.1113908514380455
0.58586931228637695 0.5122869610786438 0.10645684599876404
0.66853314638137817 0.51036345958709717 0.10249508172273636
0.74541854858398438 0.50644761323928833 0.10088115185499191
0.82295262813568115 0.5024406909942627 0.098026901483535767
0.89512848854064941 0.50367647409439087 0.095438919961452484
0.9617619514465332 0.50722247362136841 0.091230697929859161
0.018859563395380974 0.59664344787597656 0.12125680595636368
0.055603131651878357 0.59538382291793823 0.11937975138425827
0.13755500316619873 0.59475207328796387 0.1217791959643364
0.22902853786945343 0.59485292434692383 0.12363938242197037
0.32628658413887024 0.59462743997573853 0.12175210565328598
0.4214954674243927 0.59294480085372925 0.11984312534332275
0.50372540950775146 0.59362715482711792 0.11388298124074936
0.58667373657226562 0.5938345193862915 0.10762613266706467
0.66821074485778809 0.59091812372207642 0.10529223829507828
0.74534314870834351 0.58822834491729736 0.10299926251173019
0.82252591848373413 0.58797162771224976 0.099006563425064087
0.89100724458694458 0.58862090110778809 0.097895272076129913
0.95665508508682251 0.59083592891693115 0.094454973936080933
0.019702238962054253 0.67598038911819458 0.1146533265709877
0.050537288188934326 0.67579656839370728 0.11430662870407104
0.13080523908138275 0.6733735203742981 0.1164410337805748
0.23437966406345367 0.67195504903793335 0.118117555975914
0.33527079224586487 0.67201417684555054 0.11501457542181015
0.42688280344009399 0.67180085182189941 0.11143655329942703
0.50787544250488281 0.67093706130981445 0.10661453753709793
0.58895063400268555 0.66984736919403076 0.10228591412305832
0.66813725233078003 0.66683512926101685 0.10151567310094833
0.74498337507247925 0.66491395235061646 0.10016530007123947
0.81921982765197754 0.66494905948638916 0.098090201616287231
0.88851088285446167 0.66705793142318726 0.096654586493968964
0.95474612712860107 0.67079412937164307 0.093087457120418549
0.028372596949338913 0.75317227840423584 0.10709560662508011
0.06669144332408905 0.75295400619506836 0.10646701604127884
0.15013635158538818 0.75046217441558838 0.10570521652698517
0.25046011805534363 0.74715709686279297 0.10649394243955612
0.34444630146026611 0.74744176864624023 0.10261283069849014
0.43241602182388306 0.74695515632629395 0.099850371479988098
0.51367980241775513 0.74565500020980835 0.097374826669692993
0.59356415271759033 0.7441820502281189 0.093622542917728424
0.67105990648269653 0.74202525615692139 0.094017505645751953
0.74613988399505615 0.74157530069351196 0.094002306461334229
0.81849414110183716 0.74319279193878174 0.091845326125621796
0.8872910737991333 0.74421530961990356 0.091066114604473114
0.95304059982299805 0.74699884653091431 0.086976148188114166
0.059966366738080978 0.82445788383483887 0.09819503128528595
0.10922624170780182 0.82329088449478149 0.10002308338880539
0.18535280227661133 0.8232426643371582 0.098688967525959015
0.27311742305755615 0.82026064395904541 0.099995464086532593
0.35597646236419678 0.82036536931991577 0.095354489982128143
0.43748468160629272 0.81882661581039429 0.094368726015090942
0.51906079053878784 0.81744939088821411 0.091427460312843323
0.59837877750396729 0.81916850805282593 0.081567160785198212
0.67546540498733521 0.81580859422683716 0.081578917801380157
0.75007826089859009 0.81337457895278931 0.079263441264629364
0.81853896379470825 0.81334936618804932 0.073075361549854279
0.88603460788726807 0.8142591118812561 0.069294095039367676
0.95246827602386475 0.81661808490753174 0.071698941290378571
0.11920192837715149 0.89084792137145996 0.10971688479185104
0.15707331895828247 0.8907160758972168 0.11172407865524292
0.22500988841056824 0.89032906293869019 0.10852766036987305
0.29819095134735107 0.88900309801101685 0.10794851183891296
0.37019389867782593 0.88872033357620239 0.10484833270311356
0.44611635804176331 0.88830083608627319 0.10128341615200043
0.52438157796859741 0.88801699876785278 0.09739086776971817
0.60323518514633179 0.88888871669769287 0.083525337278842926
0.67848324775695801 0.88711082935333252 0.076450273394584656
0.75021457672119141 0.88511645793914795 0.071312353014945984
0.81638401746749878 0.88495326042175293 0.06271815299987793
0.88442295789718628 0.88702774047851562 0.05434437096118927
0.95586812496185303 0.88658648729324341 0.057560686022043228
0.14434988796710968 0.96063351631164551 0.129094198346138
0.18229636549949646 0.96191143989562988 0.12730950117111206
0.24291713535785675 0.95934820175170898 0.12744703888893127
0.30886381864547729 0.96122759580612183 0.12686340510845184
0.37898322939872742 0.96185767650604248 0.12448500096797943
0.45228856801986694 0.95742833614349365 0.12123341113328934
0.52854853868484497 0.95535510778427124 0.115655817091465
0.60444873571395874 0.95882946252822876 0.1076236367225647
0.6749039888381958 0.96105813980102539 0.10386280715465546
0.74383997917175293 0.95755088329315186 0.09669988602399826
0.81064432859420776 0.95917654037475586 0.09404735267162323
0.88107991218566895 0.95990276336669922 0.08496895432472229
0.95838969945907593 0.95938766002655029 0.078040823340415955
0.038108959794044495 0.031816013157367706 0.15650692582130432
0.094604074954986572 0.033160414546728134 0.15413551032543182
0.16423076391220093 0.036285132169723511 0.15220765769481659
0.23653440177440643 0.034327875822782516 0.14740407466888428
0.32459783554077148 0.032594762742519379 0.14434143900871277
0.41851335763931274 0.03193977102637291 0.14232397079467773
0.50804024934768677 0.033811740577220917 0.14296405017375946
0.59109389781951904 0.033806130290031433 0.13789564371109009
0.67177832126617432 0.030310433357954025 0.12832184135913849
0.74962151050567627 0.029399901628494263 0.12336349487304688
0.82216352224349976 0.032448548823595047 0.12252577394247055
0.89718937873840332 0.029358014464378357 0.11819536983966827
0.96444785594940186 0.027739297598600388 0.11257508397102356
0.053553979843854904 0.092966921627521515 0.16155312955379486
0.10088571161031723 0.095730617642402649 0.16224157810211182
0.16580432653427124 0.097686901688575745 0.15746966004371643
0.24004532396793365 0.09737783670425415 0.15258286893367767
0.3282531201839447 0.096155278384685516 0.1522843986749649
0.41813260316848755 0.093575045466423035 0.15113665163516998
0.50492012500762939 0.090349383652210236 0.15121923387050629
0.58863735198974609 0.089980438351631165 0.14667874574661255
0.67091840505599976 0.090859673917293549 0.1377871185541153
0.75248759984970093 0.090418994426727295 0.13214880228042603
0.82640892267227173 0.090315274894237518 0.12940086424350739
0.8978273868560791 0.089127078652381897 0.12470855563879013
0.96536457538604736 0.085097260773181915 0.1182502880692482
0.077908746898174286 0.16160331666469574 0.16547633707523346
0.11763156205415726 0.1641598641872406 0.16426737606525421
0.16903260350227356 0.16421982645988464 0.15968574583530426
0.24018064141273499 0.16118510067462921 0.15753777325153351
0.33034208416938782 0.16200503706932068 0.15710712969303131
0.41735345125198364 0.15961726009845734 0.15678907930850983
0.50216066837310791 0.15798722207546234 0.15841606259346008
0.58646929264068604 0.15721254050731659 0.15513573586940765
0.67205691337585449 0.15584275126457214 0.14629004895687103
0.75613582134246826 0.15379741787910461 0.1386161744594574
0.83104169368743896 0.15444406867027283 0.13447389006614685
0.89922678470611572 0.15553125739097595 0.13192719221115112
0.96295428276062012 0.15489138662815094 0.12748748064041138
0.083624385297298431 0.24145178496837616 0.16951905190944672
0.11444544792175293 0.24505408108234406 0.16864599287509918
0.15780387818813324 0.24410051107406616 0.16570049524307251
0.23857963085174561 0.24014489352703094 0.16323800384998322
0.33192655444145203 0.23688474297523499 0.15962845087051392
0.41769719123840332 0.23797228932380676 0.15949144959449768
0.50142550468444824 0.24121902883052826 0.16010153293609619
0.58451586961746216 0.24233797192573547 0.15876947343349457
0.66967666149139404 0.23899097740650177 0.15266205370426178
0.754547119140625 0.23505724966526031 0.14540354907512665
0.8319251537322998 0.23794867098331451 0.13942202925682068
0.89955556392669678 0.23934490978717804 0.13635623455047607
0.96327906847000122 0.23621153831481934 0.13268588483333588
0.04494088888168335 0.33543828129768372 0.17582802474498749
0.065184004604816437 0.3347628116607666 0.17176879942417145
