luts/colorslide/fuji_provia_400f.cube
# Created by: G'MIC (https://gmic.eu)
TITLE "fuji_provia_400f"
# LUT size
LUT_3D_SIZE 5
# Data domain
DOMAIN_MIN 0.0 0.0 0.0
DOMAIN_MAX 1.0 1.0 1.0
# LUT data points
0.010596839711070061 0.011077581904828548 0.010377083905041218
0.16019842028617859 0.016489874571561813 0.0027753643225878477
0.43218126893043518 0.027930136770009995 0
0.6734660267829895 0.051986739039421082 0.00018144494970329106
0.86813056468963623 0.087453834712505341 0.002780974144116044
0.1010604128241539 0.22980290651321411 0.13090336322784424
0.24553129076957703 0.22026289999485016 0.092237867414951324
0.48286175727844238 0.18091939389705658 0.018315169960260391
0.68322229385375977 0.10789651423692703 0.0019081415375694633
0.84805834293365479 0.066718980669975281 0.0019387189531698823
0.22223915159702301 0.52025306224822998 0.30724772810935974
0.35699170827865601 0.51994723081588745 0.28243729472160339
0.56732350587844849 0.51246875524520874 0.23182626068592072
0.75647813081741333 0.45322006940841675 0.17701651155948639
0.88835912942886353 0.26616999506950378 0.08306363970041275
0.40851309895515442 0.75148463249206543 0.47746092081069946
0.48502629995346069 0.75594669580459595 0.46969464421272278
0.64005440473556519 0.76556867361068726 0.44396039843559265
0.81211727857589722 0.75297021865844727 0.41051915287971497
0.96577799320220947 0.68981432914733887 0.36451485753059387
0.58805334568023682 0.9581788182258606 0.64843887090682983
0.63298267126083374 0.9609074592590332 0.64184045791625977
0.72965717315673828 0.96595877408981323 0.6274983286857605
0.87258899211883545 0.96645563840866089 0.6106993556022644
0.99346184730529785 0.96080654859542847 0.58829134702682495
0.0056291916407644749 0.013914310373365879 0.10908947885036469
0.15232913196086884 0.012564805336296558 0.064235925674438477
0.40838208794593811 0.013651410117745399 0.023101836442947388
0.63279491662979126 0.015826072543859482 0.0012448629131540656
0.82617610692977905 0.046764373779296875 0.013760974630713463
0.092074543237686157 0.24105250835418701 0.26628196239471436
0.23134481906890869 0.2300022691488266 0.2259276956319809
0.46185788512229919 0.1880883127450943 0.14973387122154236
0.64934408664703369 0.099866949021816254 0.06820283830165863
0.80676478147506714 0.016628265380859375 0.02098236046731472
0.17624294757843018 0.5155634880065918 0.42693871259689331
0.3364768922328949 0.52251714468002319 0.40756744146347046
0.54668265581130981 0.516582190990448 0.36310705542564392
0.73372620344161987 0.46492063999176025 0.30480042099952698
0.86765110492706299 0.27135902643203735 0.19105799496173859
0.38091221451759338 0.74418342113494873 0.56793618202209473
0.47051885724067688 0.75167214870452881 0.5629696249961853
0.62190771102905273 0.76096069812774658 0.53795474767684937
0.78970050811767578 0.75133925676345825 0.50152409076690674
0.95636457204818726 0.694038987159729 0.44674122333526611
0.56761115789413452 0.94531798362731934 0.70384031534194946
0.61815810203552246 0.94971901178359985 0.70429462194442749
0.71669059991836548 0.95719701051712036 0.68687564134597778
0.85207724571228027 0.96627241373062134 0.66699069738388062
0.98159408569335938 0.96325451135635376 0.6446947455406189
0 0.0087008010596036911 0.2886260449886322
0.11459261178970337 0.010929825715720654 0.24401576817035675
0.36893710494041443 0.0038599800318479538 0.1735413521528244
0.58697879314422607 0 0.1164921447634697
0.78360897302627563 0.015353647992014885 0.10584722459316254
0.068732015788555145 0.25526231527328491 0.44053992629051208
0.20064502954483032 0.23988623917102814 0.40668028593063354
0.42973577976226807 0.20300185680389404 0.33637234568595886
0.61807841062545776 0.11034636944532394 0.23758086562156677
0.770557701587677 0.010300968773663044 0.1567261666059494
0.14515121281147003 0.51286232471466064 0.57245892286300659
0.29339942336082458 0.51835638284683228 0.55622369050979614
0.51332324743270874 0.51683562994003296 0.51519298553466797
0.70305716991424561 0.47729179263114929 0.45698460936546326
0.84365832805633545 0.30011913180351257 0.34373432397842407
0.35623899102210999 0.73284637928009033 0.69203078746795654
0.44034513831138611 0.73810470104217529 0.68249785900115967
0.59239572286605835 0.74628865718841553 0.65664941072463989
0.76016473770141602 0.73877537250518799 0.62185311317443848
0.92884033918380737 0.69452780485153198 0.56434464454650879
0.53941285610198975 0.93332791328430176 0.79918587207794189
0.59453040361404419 0.93690377473831177 0.79644286632537842
0.69446998834609985 0.94732630252838135 0.78154909610748291
0.83024221658706665 0.96213561296463013 0.76262331008911133
0.98085027933120728 0.95892143249511719 0.73467200994491577
0 0.038340009748935699 0.47366493940353394
0.11071296781301498 0.025732766836881638 0.41483137011528015
0.35034322738647461 0.008929113857448101 0.34207499027252197
0.55211341381072998 0.00027277329354546964 0.27470165491104126
0.73141705989837646 0 0.22107994556427002
0.046280805021524429 0.2920985221862793 0.60541313886642456
0.18435382843017578 0.28594636917114258 0.57039070129394531
0.41980907320976257 0.26191669702529907 0.50621765851974487
0.60313975811004639 0.14928442239761353 0.41208118200302124
0.73430383205413818 0.0084586497396230698 0.28997105360031128
0.11931577324867249 0.52842646837234497 0.70997512340545654
0.28267952799797058 0.52979099750518799 0.69078844785690308
0.49237486720085144 0.53386163711547852 0.65416246652603149
0.67884260416030884 0.50034314393997192 0.59873920679092407
0.83107155561447144 0.35977867245674133 0.4977252185344696
0.34445628523826599 0.73116058111190796 0.80660665035247803
0.42400506138801575 0.73521089553833008 0.80037367343902588
0.56834262609481812 0.73930162191390991 0.77593004703521729
0.73588025569915771 0.73721277713775635 0.7382209300994873
0.90922272205352783 0.70049130916595459 0.68135356903076172
0.5280032753944397 0.92675942182540894 0.90025091171264648
0.57831722497940063 0.92918938398361206 0.898792564868927
0.67213749885559082 0.93516463041305542 0.88204151391983032
0.80423605442047119 0.94553512334823608 0.86154425144195557
0.96922010183334351 0.94102871417999268 0.82770675420761108
0.0022813386749476194 0.11297117918729782 0.64428544044494629
0.1406865268945694 0.11088045686483383 0.59032303094863892
0.35947278141975403 0.072885073721408844 0.51691049337387085
0.53786283731460571 0.018308840692043304 0.42464390397071838
0.70618933439254761 0 0.35830983519554138
0.027553454041481018 0.35102400183677673 0.74720585346221924
0.17992205917835236 0.35717594623565674 0.71514111757278442
0.42402079701423645 0.34527677297592163 0.66402405500411987
0.6062501072883606 0.27065250277519226 0.58477425575256348
0.72648739814758301 0.044236008077859879 0.43782323598861694
0.14403574168682098 0.5594632625579834 0.83482354879379272
0.2766444981098175 0.56061255931854248 0.81988519430160522
0.48002713918685913 0.56280297040939331 0.7847282886505127
0.66738086938858032 0.55511724948883057 0.73947262763977051
0.82797956466674805 0.4485173225402832 0.65365523099899292
0.34701311588287354 0.74185633659362793 0.92780500650405884
0.42276149988174438 0.74563580751419067 0.91984474658966064
0.55665385723114014 0.7523009181022644 0.89641010761260986
0.71516174077987671 0.7580675482749939 0.86219966411590576
0.89008575677871704 0.72187650203704834 0.80825412273406982
0.53860986232757568 0.92723572254180908 0.99224007129669189
0.57856529951095581 0.92957329750061035 0.98992890119552612
0.66267716884613037 0.93724912405014038 0.98070555925369263
0.77874642610549927 0.94351625442504883 0.97284996509552002
0.95211893320083618 0.94739526510238647 0.94938397407531738
