luts/colorslide/fuji_astia_100f.cube
# Created by: G'MIC (https://gmic.eu)
TITLE "fuji_astia_100f"
# LUT size
LUT_3D_SIZE 5
# Data domain
DOMAIN_MIN 0.0 0.0 0.0
DOMAIN_MAX 1.0 1.0 1.0
# LUT data points
0.040260672569274902 0.034579511731863022 0.028535252436995506
0.24269552528858185 0.030379321426153183 0.024766614660620689
0.48531720042228699 0.026870144531130791 0.026320153847336769
0.73078137636184692 0.056547306478023529 0.055144172161817551
0.94574844837188721 0.086012177169322968 0.12156163901090622
0.12528842687606812 0.26314294338226318 0.14815725386142731
0.30727845430374146 0.26382744312286377 0.13228181004524231
0.5381014347076416 0.23632320761680603 0.11643293499946594
0.76589179039001465 0.16017766296863556 0.099695675075054169
0.9646146297454834 0.092635601758956909 0.10883252322673798
0.25554090738296509 0.50099211931228638 0.24781611561775208
0.40091544389724731 0.50624048709869385 0.23011654615402222
0.62902045249938965 0.50249624252319336 0.21386332809925079
0.84763199090957642 0.47348117828369141 0.21882523596286774
0.99464142322540283 0.37293195724487305 0.24338275194168091
0.39497077465057373 0.72386115789413452 0.3573034405708313
0.50230962038040161 0.72571134567260742 0.34279850125312805
0.71256613731384277 0.74006330966949463 0.31753674149513245
0.95824038982391357 0.73909151554107666 0.26886826753616333
1 0.71517324447631836 0.29037672281265259
0.55478519201278687 0.89121240377426147 0.4366309642791748
0.62707376480102539 0.90405374765396118 0.43363577127456665
0.79938596487045288 0.91339617967605591 0.41044408082962036
0.99352633953094482 0.93343698978424072 0.38305366039276123
1 0.94164580106735229 0.34361520409584045
0.010013804771006107 0.026334276422858238 0.15566305816173553
0.2044435441493988 0.033081818372011185 0.14715148508548737
0.44348382949829102 0.026990927755832672 0.14030158519744873
0.69126671552658081 0.060501366853713989 0.15624453127384186
0.91688114404678345 0.087725289165973663 0.20199930667877197
0.10390065610408783 0.25905022025108337 0.2596888542175293
0.26165515184402466 0.25583961606025696 0.25261661410331726
0.49149796366691589 0.22306250035762787 0.23053327202796936
0.7235836386680603 0.144537553191185 0.18914131820201874
0.93803536891937256 0.092131838202476501 0.18055158853530884
0.23506183922290802 0.50611257553100586 0.32386067509651184
0.3699042797088623 0.51029908657073975 0.32476732134819031
0.5751616358757019 0.49819555878639221 0.33223995566368103
0.79620587825775146 0.47229999303817749 0.33507177233695984
0.98317247629165649 0.36076265573501587 0.31484559178352356
0.44672325253486633 0.72685056924819946 0.35535475611686707
0.54651707410812378 0.73197722434997559 0.34472239017486572
0.73339951038360596 0.73702752590179443 0.32534724473953247
0.94049161672592163 0.7414432168006897 0.32793915271759033
0.99970358610153198 0.71203923225402832 0.42640602588653564
0.59125387668609619 0.90024226903915405 0.43711075186729431
0.66268032789230347 0.90866005420684814 0.43160423636436462
0.82642537355422974 0.91914820671081543 0.41322973370552063
0.99225896596908569 0.93718165159225464 0.38367766141891479
1 0.94558852910995483 0.34159505367279053
0.0098964469507336617 0.02388184517621994 0.26771610975265503
0.19370581209659576 0.019784649834036827 0.24945348501205444
0.42365193367004395 0.032140035182237625 0.23676802217960358
0.66791814565658569 0.065987862646579742 0.24632160365581512
0.88158011436462402 0.088131941854953766 0.26395124197006226
0.085485704243183136 0.24526150524616241 0.38866853713989258
0.22411267459392548 0.23195965588092804 0.3685930073261261
0.45145887136459351 0.19388055801391602 0.33272692561149597
0.68686306476593018 0.12451335042715073 0.28014498949050903
0.90272122621536255 0.092153675854206085 0.26475334167480469
0.094150334596633911 0.49946913123130798 0.50550729036331177
0.27263292670249939 0.50291746854782104 0.4980722963809967
0.50368952751159668 0.4891209602355957 0.48438811302185059
0.73488700389862061 0.45746314525604248 0.46542248129844666
0.9445003867149353 0.33060002326965332 0.40157335996627808
0.35736224055290222 0.72887730598449707 0.51666128635406494
0.44675552845001221 0.732371985912323 0.52592188119888306
0.6208454966545105 0.73749053478240967 0.53900480270385742
0.82022696733474731 0.7336389422416687 0.55379962921142578
0.9872162938117981 0.70368015766143799 0.58528894186019897
0.65767806768417358 0.91230618953704834 0.43571126461029053
0.72580033540725708 0.91571319103240967 0.42690140008926392
0.87275511026382446 0.92849814891815186 0.41123250126838684
0.99794936180114746 0.94262093305587769 0.38700771331787109
1 0.94716399908065796 0.4099266529083252
0.018413618206977844 0.0098285004496574402 0.36366972327232361
0.2045668363571167 0.015345734544098377 0.3485148549079895
0.41770291328430176 0.03003145195543766 0.33614221215248108
0.64402413368225098 0.062765039503574371 0.33931916952133179
0.87139052152633667 0.090460188686847687 0.33846426010131836
0.10851329565048218 0.208165243268013 0.48402655124664307
0.23026615381240845 0.19393771886825562 0.458181232213974
0.43673315644264221 0.15571597218513489 0.41646444797515869
0.66416513919830322 0.085071101784706116 0.35331767797470093
0.87774324417114258 0.091882757842540741 0.34256508946418762
0.080566272139549255 0.48821219801902771 0.64068567752838135
0.25245833396911621 0.48351293802261353 0.62773382663726807
0.4688037633895874 0.47172731161117554 0.60556799173355103
0.70108222961425781 0.42829498648643494 0.56192600727081299
0.909473717212677 0.28208136558532715 0.46250912547111511
0.19409450888633728 0.72478294372558594 0.74276775121688843
0.32636502385139465 0.72862142324447632 0.73829710483551025
0.52666628360748291 0.73116326332092285 0.73222857713699341
0.73449289798736572 0.72070944309234619 0.72037810087203979
0.93762516975402832 0.68351173400878906 0.69807791709899902
0.63042068481445312 0.92058366537094116 0.57808816432952881
0.68093562126159668 0.92414069175720215 0.5850861668586731
0.78895127773284912 0.93282198905944824 0.60849684476852417
0.91304737329483032 0.94331556558609009 0.65061992406845093
0.99590814113616943 0.94393771886825562 0.73336970806121826
0.066283434629440308 0.006490759551525116 0.43884620070457458
0.2457103431224823 0.016673756763339043 0.42536255717277527
0.43868148326873779 0.036217093467712402 0.41449087858200073
0.65021955966949463 0.062377449125051498 0.4073602557182312
0.86296242475509644 0.090302668511867523 0.39647844433784485
0.18918733298778534 0.14052832126617432 0.52058500051498413
0.29440528154373169 0.12274952232837677 0.49744537472724915
0.465545654296875 0.084593921899795532 0.45170098543167114
0.66926068067550659 0.073067575693130493 0.41528001427650452
0.86768561601638794 0.092646658420562744 0.40289005637168884
0.2317814826965332 0.45407894253730774 0.70707732439041138
0.3295142650604248 0.4452688992023468 0.69428914785385132
0.50762581825256348 0.42780861258506775 0.66324979066848755
0.70530503988265991 0.36821523308753967 0.60293376445770264
0.89280182123184204 0.18034321069717407 0.46593782305717468
0.27922627329826355 0.71855449676513672 0.8578188419342041
0.37482652068138123 0.71800500154495239 0.84974449872970581
0.53747749328613281 0.71497458219528198 0.83293360471725464
0.72330868244171143 0.70581090450286865 0.81324946880340576
0.91494017839431763 0.64455819129943848 0.76122194528579712
0.43424719572067261 0.92019885778427124 0.93969047069549561
0.49056079983711243 0.9227021336555481 0.93883609771728516
0.61377406120300293 0.92993181943893433 0.93455451726913452
0.76595050096511841 0.93622702360153198 0.92865878343582153
0.94796842336654663 0.94183331727981567 0.93018358945846558
