luts/colorslide/fuji_provia_100_generic.cube
# Created by: G'MIC (https://gmic.eu)
TITLE "fuji_provia_100_generic"
# LUT size
LUT_3D_SIZE 13
# Data domain
DOMAIN_MIN 0.0 0.0 0.0
DOMAIN_MAX 1.0 1.0 1.0
# LUT data points
0.03367329016327858 0.027755049988627434 0.030393278226256371
0.093247629702091217 0.028755845502018929 0.030150603502988815
0.16479578614234924 0.028142068535089493 0.030305001884698868
0.2536475658416748 0.030317537486553192 0.030159864574670792
0.36245971918106079 0.032435338944196701 0.033351629972457886
0.47620764374732971 0.02899901382625103 0.031013458967208862
0.58820152282714844 0.030281456187367439 0.03136545792222023
0.68823552131652832 0.032856106758117676 0.03335590660572052
0.78928720951080322 0.032389950007200241 0.033068668097257614
0.88765263557434082 0.0315578393638134 0.031506452709436417
0.97167223691940308 0.03218262642621994 0.029902977868914604
0.99690240621566772 0.034323792904615402 0.031100418418645859
0.99863243103027344 0.032987169921398163 0.031311005353927612
0.042860608547925949 0.082020029425621033 0.031026098877191544
0.088548265397548676 0.083152681589126587 0.031193707138299942
0.15534676611423492 0.082887403666973114 0.030526958405971527
0.24676698446273804 0.084406562149524689 0.030687982216477394
0.3572450578212738 0.085097566246986389 0.033880479633808136
0.47056674957275391 0.086326628923416138 0.032349113374948502
0.57947945594787598 0.089064866304397583 0.033966347575187683
0.67965805530548096 0.089982978999614716 0.036727096885442734
0.7801855206489563 0.089204885065555573 0.034885689616203308
0.87697917222976685 0.09203803539276123 0.03522656112909317
0.96274089813232422 0.093731269240379333 0.032769985496997833
0.99540966749191284 0.094868555665016174 0.033207688480615616
0.9959263801574707 0.095998652279376984 0.035636123269796371
0.061103250831365585 0.15148036181926727 0.034213539212942123
0.094291716814041138 0.1519860178232193 0.034962181001901627
0.14796718955039978 0.15078407526016235 0.033953335136175156
0.24082985520362854 0.15355397760868073 0.034042373299598694
0.35178220272064209 0.15562780201435089 0.034670453518629074
0.46592533588409424 0.15596187114715576 0.03614494577050209
0.57469922304153442 0.15755821764469147 0.037423077970743179
0.67538106441497803 0.15989600121974945 0.03853645920753479
0.77431541681289673 0.15867586433887482 0.036256961524486542
0.86912888288497925 0.16043493151664734 0.036768507212400436
0.95449638366699219 0.1603182852268219 0.037366516888141632
0.99290210008621216 0.16157691180706024 0.03747246041893959
0.99454092979431152 0.16366548836231232 0.039192289113998413
0.058911163359880447 0.23800112307071686 0.037488300353288651
0.083073049783706665 0.23698139190673828 0.038976781070232391
0.13324177265167236 0.23956726491451263 0.039750281721353531
0.23170110583305359 0.24394243955612183 0.042043767869472504
0.34536042809486389 0.24645362794399261 0.042283285409212112
0.46006235480308533 0.2436525970697403 0.041167687624692917
0.56544357538223267 0.2467266172170639 0.04453422874212265
0.66785722970962524 0.24742533266544342 0.044037435203790665
0.76582646369934082 0.2465764582157135 0.042005129158496857
0.85831552743911743 0.24919217824935913 0.043740380555391312
0.94099456071853638 0.24840050935745239 0.043649397790431976
0.98823988437652588 0.24974776804447174 0.042166557163000107
0.99223154783248901 0.25324580073356628 0.042883690446615219
0.019572703167796135 0.33878591656684875 0.043034378439188004
0.032191887497901917 0.33735403418540955 0.043772678822278976
0.077849261462688446 0.33919200301170349 0.045015402138233185
0.20261229574680328 0.34179949760437012 0.048132922500371933
0.32621711492538452 0.34536924958229065 0.049297962337732315
0.44479149580001831 0.34372654557228088 0.048277538269758224
0.55330145359039307 0.34226503968238831 0.048128943890333176
0.65345799922943115 0.34405785799026489 0.050281494855880737
0.74918478727340698 0.3474506139755249 0.049737382680177689
0.84243637323379517 0.34650686383247375 0.048633724451065063
0.92287367582321167 0.34833970665931702 0.047646064311265945
0.9776078462600708 0.35306575894355774 0.048477262258529663
0.99167609214782715 0.35810235142707825 0.048872824758291245
0.0032258126884698868 0.4351995587348938 0.048942446708679199
0.0077784368768334389 0.43618318438529968 0.049345053732395172
0.043453216552734375 0.43794295191764832 0.05007132887840271
0.16825416684150696 0.44081372022628784 0.051260527223348618
0.30505794286727905 0.44305717945098877 0.052000876516103745
0.43034771084785461 0.44194713234901428 0.053231481462717056
0.53983187675476074 0.44097504019737244 0.052313994616270065
0.63813090324401855 0.44255796074867249 0.053834054619073868
0.7332310676574707 0.4450066089630127 0.052643898874521255
0.82180881500244141 0.44657376408576965 0.052181601524353027
0.90185916423797607 0.45003092288970947 0.053163431584835052
0.97120106220245361 0.45195120573043823 0.051196124404668808
0.99266093969345093 0.45596358180046082 0.053342152386903763
0.0036041857674717903 0.52460008859634399 0.053012996912002563
0.0041562844999134541 0.52609658241271973 0.052729260176420212
0.013116290792822838 0.5305100679397583 0.051824755966663361
0.13076406717300415 0.53328776359558105 0.053376410156488419
0.28530776500701904 0.53479504585266113 0.054875779896974564
0.41302266716957092 0.53523904085159302 0.057071700692176819
0.52073711156845093 0.53724539279937744 0.055908713489770889
0.61988037824630737 0.53714370727539062 0.055330194532871246
0.7157745361328125 0.53562623262405396 0.056269209831953049
0.80279117822647095 0.53725916147232056 0.05610371008515358
0.8827279806137085 0.5429149866104126 0.055917374789714813
0.95443087816238403 0.54367417097091675 0.054381024092435837
0.99363917112350464 0.54321950674057007 0.055187314748764038
0.0011463389964774251 0.6094738245010376 0.052873093634843826
0.0034615162294358015 0.61176216602325439 0.053457684814929962
0.0092316716909408569 0.61763280630111694 0.052241053432226181
0.10791753232479095 0.62019181251525879 0.052865929901599884
0.26444131135940552 0.62160581350326538 0.055220436304807663
0.39022541046142578 0.62411051988601685 0.056363571435213089
0.49918612837791443 0.62614375352859497 0.055161315947771072
0.60342389345169067 0.62391328811645508 0.053582657128572464
0.70092803239822388 0.62091243267059326 0.056111909449100494
0.78725939989089966 0.62278914451599121 0.056538630276918411
0.86779189109802246 0.62818121910095215 0.054055921733379364
0.93657475709915161 0.62858045101165771 0.054199531674385071
0.98794126510620117 0.62443310022354126 0.054789911955595016
0 0.69449037313461304 0.049070172011852264
0.0035129622556269169 0.69613450765609741 0.049692563712596893
0.0075008166022598743 0.70141142606735229 0.048310492187738419
0.080816246569156647 0.70499610900878906 0.048252735286951065
0.23966757953166962 0.70375806093215942 0.05004444345831871
0.36965340375900269 0.70674049854278564 0.052632618695497513
0.48007431626319885 0.70732492208480835 0.051242347806692123
0.5858529806137085 0.70634013414382935 0.049945157021284103
0.68685346841812134 0.70574098825454712 0.049836985766887665
0.77238667011260986 0.70663309097290039 0.050588943064212799
0.84924507141113281 0.70735293626785278 0.049674179404973984
0.91624420881271362 0.70730024576187134 0.051418140530586243
0.97235673666000366 0.70481294393539429 0.056081689894199371
0.00046503404155373573 0.77512753009796143 0.038780361413955688
0.003662169212475419 0.77428662776947021 0.039135981351137161
0.0056738611310720444 0.77699905633926392 0.037671782076358795
0.070928402245044708 0.77920389175415039 0.036631025373935699
0.23074385523796082 0.77852451801300049 0.037143692374229431
0.36173605918884277 0.77991259098052979 0.037768717855215073
0.4695335328578949 0.78080707788467407 0.038647908717393875
0.57525551319122314 0.77918499708175659 0.039016079157590866
0.67606467008590698 0.77890044450759888 0.038546707481145859
0.75834578275680542 0.78087419271469116 0.040030252188444138
0.83151853084564209 0.78263270854949951 0.041226658970117569
0.89800232648849487 0.78168624639511108 0.042064845561981201
0.95948326587677002 0.77873033285140991 0.0468917116522789
0.0010723188752308488 0.83453094959259033 0.022735340520739555
0.0046668257564306259 0.83781665563583374 0.022492308169603348
0.0099634062498807907 0.84211629629135132 0.021463939920067787
0.086179278790950775 0.84246617555618286 0.020766733214259148
0.24191038310527802 0.84134888648986816 0.019760880619287491
0.37703543901443481 0.84141260385513306 0.019188361242413521
0.48376056551933289 0.84142154455184937 0.020097335800528526
0.57762974500656128 0.84136581420898438 0.020959712564945221
0.67102211713790894 0.8407701849937439 0.022557232528924942
0.74908852577209473 0.8441198468208313 0.022605461999773979
0.82037645578384399 0.84578341245651245 0.023983510211110115
0.88701105117797852 0.8455045223236084 0.021876795217394829
0.95160335302352905 0.84308433532714844 0.022345030680298805
0.0001662459981162101 0.89482194185256958 0.0093454094603657722
0.0038954641204327345 0.89632487297058105 0.0075053945183753967
0.032745584845542908 0.89949959516525269 0.005218894686549902
0.14714546501636505 0.90093153715133667 0.0071070501580834389
0.27601057291030884 0.90084385871887207 0.0071492064744234085
0.39858996868133545 0.89984101057052612 0.005809364840388298
0.49928370118141174 0.90031874179840088 0.0067244884558022022
0.58474934101104736 0.90173614025115967 0.0072279386222362518
0.66692662239074707 0.90285569429397583 0.0074199005030095577
0.73885989189147949 0.90430152416229248 0.010707495734095573
0.80924159288406372 0.90565013885498047 0.012405260466039181
0.87614750862121582 0.90490877628326416 0.010769309476017952
0.94494134187698364 0.90467441082000732 0.0061323130503296852
0.0025238934904336929 0.959511399269104 0.0040668412111699581
0.009859391488134861 0.96177101135253906 0.0033440084662288427
0.06681409478187561 0.96197694540023804 5.4452932090498507e-05
0.18785585463047028 0.96177947521209717 0.0014546114252880216
0.30236175656318665 0.96115773916244507 0.00360107421875
0.4076974093914032 0.96445322036743164 0.0019592284224927425
0.5012480616569519 0.96538060903549194 0.0012537488946691155
0.5827786922454834 0.96619135141372681 0.0025304756127297878
0.65926057100296021 0.96173673868179321 0.0038579604588449001
0.72905093431472778 0.96194565296173096 0.0044761956669390202
0.79500865936279297 0.96537089347839355 0.0034536474850028753
0.85973870754241943 0.96505910158157349 0.0034762064460664988
0.93381184339523315 0.96463871002197266 0.0040034274570643902
0.033337850123643875 0.028001477941870689 0.087648339569568634
0.092355929315090179 0.02937794104218483 0.086846880614757538
0.16283033788204193 0.026782989501953125 0.084566868841648102
0.25624370574951172 0.030048789456486702 0.085251212120056152
0.36429503560066223 0.032371670007705688 0.088441677391529083
0.47992596030235291 0.031116604804992676 0.089822970330715179
0.58980679512023926 0.032588314265012741 0.09028422087430954
0.69151198863983154 0.033483289182186127 0.090518176555633545
0.79178231954574585 0.032283768057823181 0.089840814471244812
0.88842356204986572 0.031795293092727661 0.08963506668806076
0.9720272421836853 0.031560890376567841 0.089210748672485352
0.99783480167388916 0.033007558435201645 0.089338652789592743
0.99844247102737427 0.033443048596382141 0.089219078421592712
0.043126754462718964 0.082462295889854431 0.086697161197662354
0.089990504086017609 0.084156915545463562 0.088603436946868896
0.15533177554607391 0.083931252360343933 0.085644587874412537
0.25013032555580139 0.087238043546676636 0.085210643708705902
0.36007079482078552 0.085464075207710266 0.086097121238708496
0.47425726056098938 0.087841823697090149 0.088873408734798431
0.58392411470413208 0.090726263821125031 0.09074033796787262
0.68458467721939087 0.091022834181785583 0.092176266014575958
0.78108179569244385 0.091073401272296906 0.092005036771297455
0.8757132887840271 0.0927552729845047 0.089159823954105377
0.9630163311958313 0.093203447759151459 0.088730007410049438
0.9950634241104126 0.094331510365009308 0.088926680386066437
0.99471640586853027 0.096047371625900269 0.08897138386964798
0.061590485274791718 0.1522594541311264 0.085935987532138824
0.094856292009353638 0.15227420628070831 0.088584050536155701
0.15161223709583282 0.15141700208187103 0.086790122091770172
0.24157066643238068 0.15550586581230164 0.085191302001476288
0.35386735200881958 0.15656863152980804 0.085759930312633514
0.46784329414367676 0.15757738053798676 0.089577540755271912
0.5764467716217041 0.15938395261764526 0.091562516987323761
0.67804861068725586 0.16084405779838562 0.092444926500320435
0.77405387163162231 0.16100586950778961 0.092140868306159973
0.8691030740737915 0.16107058525085449 0.089532263576984406
0.95553463697433472 0.16026858985424042 0.088933862745761871
0.99023252725601196 0.1633569747209549 0.088825196027755737
0.99188071489334106 0.16723446547985077 0.088909313082695007
0.060387555509805679 0.23821046948432922 0.084974430501461029
0.080539971590042114 0.2373233288526535 0.086669847369194031
0.13472695648670197 0.23942773044109344 0.08874085545539856
0.22685669362545013 0.24578620493412018 0.087993279099464417
0.34539514780044556 0.24921479821205139 0.087997123599052429
0.46105921268463135 0.24460570514202118 0.091128617525100708
0.56615209579467773 0.24494840204715729 0.094506748020648956
0.66765081882476807 0.24787859618663788 0.094303622841835022
0.76494836807250977 0.24703638255596161 0.093180745840072632
0.85767501592636108 0.24811373651027679 0.093197643756866455
0.94256347417831421 0.24772241711616516 0.093094497919082642
0.98791736364364624 0.25071033835411072 0.090919822454452515
0.99214988946914673 0.25367459654808044 0.08954225480556488
0.020980939269065857 0.33856788277626038 0.086205713450908661
0.032253190875053406 0.33806315064430237 0.086796402931213379
0.080844670534133911 0.33928161859512329 0.087487205862998962
0.20344404876232147 0.34210109710693359 0.089745268225669861
0.32873910665512085 0.34536275267601013 0.088138386607170105
0.44729554653167725 0.34261360764503479 0.089964605867862701
0.55286532640457153 0.34263753890991211 0.096899516880512238
0.65259271860122681 0.34350800514221191 0.096637263894081116
0.7495344877243042 0.34336954355239868 0.094769299030303955
0.84212797880172729 0.34346857666969299 0.094683490693569183
0.9247317910194397 0.34663665294647217 0.093708276748657227
0.98111635446548462 0.35061979293823242 0.091725289821624756
0.99244797229766846 0.35505208373069763 0.089549899101257324
0.0029393513686954975 0.43455645442008972 0.08750876784324646
0.0079134022817015648 0.43747609853744507 0.08724549412727356
0.046983756124973297 0.43878152966499329 0.085271008312702179
0.1684076339006424 0.44143021106719971 0.087754085659980774
0.30581790208816528 0.4427497386932373 0.090960592031478882
0.4313713014125824 0.4426167905330658 0.093079283833503723
0.53773558139801025 0.44320690631866455 0.094943821430206299
0.6374659538269043 0.44270488619804382 0.094690658152103424
0.73408359289169312 0.44246035814285278 0.094498880207538605
0.82329505681991577 0.4443705677986145 0.092203624546527863
0.90599817037582397 0.44879063963890076 0.087859198451042175
0.97199302911758423 0.45075252652168274 0.086971506476402283
0.99567127227783203 0.45507854223251343 0.088365502655506134
0.0035291186068207026 0.52458590269088745 0.086922049522399902
0.0055807824246585369 0.52722001075744629 0.086492292582988739
0.016479402780532837 0.53083944320678711 0.083138652145862579
0.13600048422813416 0.53249871730804443 0.083992138504981995
0.28758186101913452 0.53304374217987061 0.090486906468868256
0.41157805919647217 0.53649640083312988 0.095604702830314636
0.51841264963150024 0.5384211540222168 0.09014497697353363
0.62004119157791138 0.53665649890899658 0.087066784501075745
0.71735167503356934 0.53413850069046021 0.089869432151317596
0.80491292476654053 0.53533035516738892 0.089060254395008087
0.8848918080329895 0.54202938079833984 0.086312644183635712
0.95345252752304077 0.544902503490448 0.086689189076423645
0.99306857585906982 0.54570138454437256 0.087748490273952484
0.0015415117377415299 0.61212044954299927 0.082701936364173889
0.0035280564334243536 0.61313682794570923 0.083628378808498383
0.011813473887741566 0.61767119169235229 0.080597057938575745
0.11337503045797348 0.61904418468475342 0.080008260905742645
0.266519695520401 0.61985397338867188 0.083328098058700562
0.39102256298065186 0.62496578693389893 0.084227405488491058
0.49884992837905884 0.62668049335479736 0.083056747913360596
0.60324525833129883 0.62402975559234619 0.082897946238517761
0.70079946517944336 0.62041640281677246 0.084318123757839203
0.78725498914718628 0.62147682905197144 0.084157757461071014
0.86820828914642334 0.62792587280273438 0.080949209630489349
0.93629127740859985 0.62996029853820801 0.082351073622703552
0.98862022161483765 0.62884414196014404 0.083395354449748993
0 0.69856375455856323 0.075039401650428772
0.0030084946192800999 0.69980961084365845 0.075630486011505127
0.006348972674459219 0.70287328958511353 0.073581650853157043
0.084074623882770538 0.70466750860214233 0.071470566093921661
0.24447816610336304 0.70323473215103149 0.072411432862281799
0.37245088815689087 0.70538270473480225 0.072252742946147919
0.48197492957115173 0.70730352401733398 0.075304977595806122
0.58604258298873901 0.70691633224487305 0.07604033499956131
0.68533635139465332 0.70659035444259644 0.073386445641517639
0.76940464973449707 0.70524823665618896 0.076127476990222931
0.84785658121109009 0.70694833993911743 0.075760245323181152
0.91485023498535156 0.70795458555221558 0.075496450066566467
0.97533220052719116 0.70919257402420044 0.074260219931602478
0.00059329764917492867 0.77686303853988647 0.062278807163238525
0.0040343040600419044 0.77711695432662964 0.061505500227212906
0.0071498644538223743 0.77843016386032104 0.059186823666095734
0.076384089887142181 0.77913796901702881 0.056694120168685913
0.2340138852596283 0.7771146297454834 0.057346928864717484
0.36258783936500549 0.77628934383392334 0.060029033571481705
0.47541642189025879 0.77976566553115845 0.061986390501260757
0.57724833488464355 0.77976411581039429 0.06236615777015686
0.67407935857772827 0.77890574932098389 0.060717325657606125
0.75610774755477905 0.77888977527618408 0.0646195188164711
0.83092188835144043 0.78035116195678711 0.067124038934707642
0.89688569307327271 0.780059814453125 0.063425220549106598
0.961342453956604 0.78067654371261597 0.059133179485797882
0.00017718147137202322 0.83812898397445679 0.036878772079944611
0.0033627827651798725 0.83921390771865845 0.037244714796543121
0.0089365644380450249 0.84236687421798706 0.03430735319852829
0.090886466205120087 0.84174203872680664 0.034605648368597031
0.25353333353996277 0.83853453397750854 0.034556861966848373
0.37954321503639221 0.83945214748382568 0.033649817109107971
0.48784250020980835 0.84122383594512939 0.032860953360795975
0.58242142200469971 0.84198403358459473 0.035165347158908844
0.67193317413330078 0.84338748455047607 0.03676890954375267
0.75089138746261597 0.84339404106140137 0.036666437983512878
0.8209298849105835 0.84323060512542725 0.038842983543872833
0.88521867990493774 0.8433302640914917 0.035908687859773636
0.95050281286239624 0.84329473972320557 0.035263150930404663
6.0317095631035045e-05 0.89764392375946045 0.012765188701450825
0.0050420123152434826 0.89793223142623901 0.014680719934403896
0.034734703600406647 0.89953571557998657 0.011976488865911961
0.15662181377410889 0.89932930469512939 0.01383285503834486
0.28922134637832642 0.89918893575668335 0.012404198758304119
0.40345701575279236 0.8994184136390686 0.014589406549930573
0.50235915184020996 0.89996600151062012 0.014137147925794125
0.5886235237121582 0.90114092826843262 0.016874605789780617
0.6694331169128418 0.90318632125854492 0.017466047778725624
0.7443358302116394 0.90330594778060913 0.015561451204121113
0.81229221820831299 0.90328258275985718 0.015469016507267952
0.87725555896759033 0.90335214138031006 0.014926521107554436
0.94598144292831421 0.90355014801025391 0.016484653577208519
0.0011510960757732391 0.96134299039840698 0.01956837996840477
0.0090906927362084389 0.96168732643127441 0.020441481843590736
0.070174574851989746 0.95898360013961792 0.016178535297513008
0.195179283618927 0.95961898565292358 0.017836626619100571
0.31290403008460999 0.96032726764678955 0.020891092717647552
0.41343101859092712 0.96348470449447632 0.021678430959582329
0.50452238321304321 0.96569216251373291 0.026679335162043571
0.58633983135223389 0.9652056097984314 0.02447478286921978
0.6625484824180603 0.96310949325561523 0.022334424778819084
0.73305952548980713 0.9630124568939209 0.019367232918739319
0.79768091440200806 0.96474355459213257 0.021110609173774719
0.86260879039764404 0.96553701162338257 0.020751878619194031
0.93794220685958862 0.96562254428863525 0.021256016567349434
0.035237375646829605 0.027244327589869499 0.15176035463809967
0.095478922128677368 0.029288064688444138 0.15344081819057465
0.16605792939662933 0.029379362240433693 0.15351349115371704
0.25892990827560425 0.029904009774327278 0.15367528796195984
0.3665822446346283 0.030666051432490349 0.1548563539981842
0.48077264428138733 0.031572766602039337 0.1556708812713623
0.5934637188911438 0.031648419797420502 0.15541195869445801
0.69553691148757935 0.032176028937101364 0.15573602914810181
0.79281699657440186 0.032077997922897339 0.15677258372306824
0.88708186149597168 0.034131396561861038 0.16285920143127441
0.97064918279647827 0.033850964158773422 0.16387417912483215
0.99481570720672607 0.036276739090681076 0.16270679235458374
0.9975970983505249 0.033553645014762878 0.15922987461090088
0.04644298180937767 0.08348497748374939 0.1519768089056015
0.091069161891937256 0.085005171597003937 0.15499213337898254
0.15914002060890198 0.084964141249656677 0.15260906517505646
0.25290006399154663 0.085815116763114929 0.15166373550891876
0.36339223384857178 0.086271040141582489 0.15231779217720032
0.47672945261001587 0.089488580822944641 0.15424531698226929
0.58687025308609009 0.09168580174446106 0.1557735800743103
0.68732482194900513 0.09153805673122406 0.15736372768878937
0.78224009275436401 0.093490839004516602 0.15791487693786621
0.87656468152999878 0.093383938074111938 0.15757268667221069
0.96288567781448364 0.093316338956356049 0.1551566869020462
0.99498939514160156 0.094641998410224915 0.15472429990768433
0.99521774053573608 0.097274988889694214 0.15643714368343353
0.065523944795131683 0.15082351863384247 0.15192423760890961
0.097366750240325928 0.15114706754684448 0.15375171601772308
0.1516091376543045 0.15428049862384796 0.15189045667648315
0.24406249821186066 0.15756331384181976 0.15198923647403717
0.35516470670700073 0.15636256337165833 0.15206074714660645
0.46957865357398987 0.15625891089439392 0.15368956327438354
0.57749265432357788 0.15674898028373718 0.1542273610830307
0.67893117666244507 0.15918007493019104 0.15633974969387054
0.77485030889511108 0.16186553239822388 0.15753805637359619
0.87027502059936523 0.15978911519050598 0.15568073093891144
0.95270407199859619 0.16042421758174896 0.15572044253349304
0.98850727081298828 0.16649967432022095 0.15423856675624847
0.99215686321258545 0.16941842436790466 0.15300247073173523
0.065131768584251404 0.23862360417842865 0.1521303653717041
0.08947097510099411 0.23811046779155731 0.15102826058864594
0.13735994696617126 0.24062389135360718 0.15165849030017853
0.22882886230945587 0.24564483761787415 0.15268166363239288
0.34311312437057495 0.24491359293460846 0.15420247614383698
0.46079516410827637 0.24255959689617157 0.15361762046813965
0.56598412990570068 0.24352045357227325 0.15510602295398712
0.66618174314498901 0.24647575616836548 0.1554669588804245
0.76317894458770752 0.24617251753807068 0.15515826642513275
0.85802531242370605 0.2463432252407074 0.15414819121360779
0.94244945049285889 0.24606379866600037 0.15678553283214569
0.98724907636642456 0.25121617317199707 0.15477120876312256
0.99215686321258545 0.2542872428894043 0.15458977222442627
