luts/colorslide/fuji_provia_100f.cube
# Created by: G'MIC (https://gmic.eu)
TITLE "fuji_provia_100f"
# LUT size
LUT_3D_SIZE 13
# Data domain
DOMAIN_MIN 0.0 0.0 0.0
DOMAIN_MAX 1.0 1.0 1.0
# LUT data points
0.032915603369474411 0.030779505148530006 0.021367540583014488
0.092586174607276917 0.031630139797925949 0.023487120866775513
0.16763144731521606 0.031983304768800735 0.023883700370788574
0.24477946758270264 0.031902074813842773 0.019917221739888191
0.32576417922973633 0.027627158910036087 0.016473881900310516
0.41223412752151489 0.023268517106771469 0.013862116262316704
0.50107532739639282 0.02010689489543438 0.011201147921383381
0.59658527374267578 0.019395148381590843 0.0092752939090132713
0.70189577341079712 0.015892881900072098 0.006313743069767952
0.80785363912582397 0.014477868564426899 0.0042071323841810226
0.91326093673706055 0.014241252094507217 0.0031510298140347004
0.9893377423286438 0.011056996881961823 0
0.99846816062927246 0.005451875738799572 0
0.058128491044044495 0.10028032958507538 0.05082416906952858
0.10785827785730362 0.098748452961444855 0.049900669604539871
0.17846864461898804 0.099470146000385284 0.050711166113615036
0.25545752048492432 0.098645322024822235 0.04523690789937973
0.33443477749824524 0.094764262437820435 0.039241969585418701
0.41652178764343262 0.088707536458969116 0.039791002869606018
0.50220406055450439 0.08170192688703537 0.037139773368835449
0.59754806756973267 0.077449768781661987 0.031384188681840897
0.70282912254333496 0.0701780766248703 0.019464336335659027
0.80754655599594116 0.063904844224452972 0.012674099765717983
0.9120064377784729 0.055551700294017792 0.009535561315715313
0.98831582069396973 0.041608966886997223 0.0043249991722404957
0.9977143406867981 0.029008828103542328 0.0010993060423061252
0.086579971015453339 0.1779906153678894 0.091759428381919861
0.12306056171655655 0.17703147232532501 0.090309947729110718
0.18952231109142303 0.17427434027194977 0.087892986834049225
0.26424220204353333 0.17445024847984314 0.084064602851867676
0.34141361713409424 0.17165735363960266 0.078125104308128357
0.42119723558425903 0.16557396948337555 0.073790378868579865
0.50601208209991455 0.16010454297065735 0.067368544638156891
0.60194450616836548 0.15531113743782043 0.057040795683860779
0.7077556848526001 0.14836938679218292 0.042054854333400726
0.81102502346038818 0.14123401045799255 0.031852498650550842
0.91321796178817749 0.13107801973819733 0.022635262459516525
0.98717939853668213 0.11575376987457275 0.014203718863427639
0.99792748689651489 0.094623073935508728 0.0047302846796810627
0.10582628101110458 0.25696578621864319 0.13207666575908661
0.13507996499538422 0.25528624653816223 0.12976163625717163
0.20260725915431976 0.25370398163795471 0.12791864573955536
0.27282068133354187 0.25297731161117554 0.1237160786986351
0.34923943877220154 0.24974986910820007 0.11884739995002747
0.42962515354156494 0.24484135210514069 0.11280926316976547
0.51391273736953735 0.24281570315361023 0.10310797393321991
0.60947424173355103 0.23835602402687073 0.091669656336307526
0.71228533983230591 0.23240557312965393 0.082032158970832825
0.81650394201278687 0.22337040305137634 0.068996250629425049
0.91764092445373535 0.2115747481584549 0.050853371620178223
0.98861968517303467 0.20131932199001312 0.032488293945789337
0.99839651584625244 0.18434858322143555 0.017384203150868416
0.099583074450492859 0.33665373921394348 0.17175537347793579
0.14526282250881195 0.33740216493606567 0.17018653452396393
0.21146269142627716 0.33600315451622009 0.16955609619617462
0.28061947226524353 0.33514350652694702 0.16704301536083221
0.35699230432510376 0.3342759907245636 0.16467398405075073
0.43807068467140198 0.33218353986740112 0.15983673930168152
0.52313840389251709 0.33083376288414001 0.15093061327934265
0.61945420503616333 0.32720193266868591 0.13836702704429626
0.72081869840621948 0.31977167725563049 0.12591269612312317
0.8224596381187439 0.31094363331794739 0.1112038865685463
0.91834002733230591 0.30175957083702087 0.093050040304660797
0.98113751411437988 0.29410865902900696 0.072247736155986786
0.99679321050643921 0.28299692273139954 0.044952049851417542
0.12608252465724945 0.41998523473739624 0.21448600292205811
0.16175192594528198 0.42200994491577148 0.21396733820438385
0.2175271064043045 0.42141756415367126 0.21317373216152191
0.2870604395866394 0.42161116003990173 0.21419531106948853
0.36260345578193665 0.42104253172874451 0.21261340379714966
0.44750103354454041 0.4207967221736908 0.20713205635547638
0.53609871864318848 0.4200013279914856 0.19775906205177307
0.63059318065643311 0.41671285033226013 0.18480278551578522
0.7298087477684021 0.41108405590057373 0.17082004249095917
0.82511669397354126 0.40486127138137817 0.15503610670566559
0.9198189377784729 0.39743801951408386 0.1370118260383606
0.9812239408493042 0.38898813724517822 0.11473849415779114
0.99608927965164185 0.37988778948783875 0.086038105189800262
0.13880795240402222 0.50978708267211914 0.26008310914039612
0.17452484369277954 0.51216048002243042 0.2597413957118988
0.22672355175018311 0.51279658079147339 0.25862348079681396
0.29461133480072021 0.51206123828887939 0.26023995876312256
0.36839255690574646 0.51061928272247314 0.25894209742546082
0.45492938160896301 0.51003587245941162 0.25211983919143677
0.54648715257644653 0.50929051637649536 0.24122495949268341
0.63723582029342651 0.50739675760269165 0.22872765362262726
0.73224908113479614 0.50692516565322876 0.21663652360439301
0.82648509740829468 0.50329756736755371 0.20106272399425507
0.92115813493728638 0.49600192904472351 0.18109029531478882
0.98906677961349487 0.48725724220275879 0.15684133768081665
0.99814528226852417 0.47825312614440918 0.12806670367717743
0.14621822535991669 0.60494178533554077 0.30776679515838623
0.18480224907398224 0.6092299222946167 0.30854994058609009
0.2375175952911377 0.61027437448501587 0.30740734934806824
0.30470430850982666 0.60650312900543213 0.30611538887023926
0.37732520699501038 0.60343742370605469 0.30258664488792419
0.46356090903282166 0.6020350456237793 0.29585403203964233
0.55362910032272339 0.60169142484664917 0.28724688291549683
0.64326155185699463 0.60273128747940063 0.2787075936794281
0.73502862453460693 0.60293126106262207 0.26755112409591675
0.82736718654632568 0.59947556257247925 0.25140297412872314
0.92129433155059814 0.59452921152114868 0.23208153247833252
0.9907640814781189 0.58890509605407715 0.20851190388202667
0.99845552444458008 0.58130449056625366 0.1757645457983017
0.1696438193321228 0.70021837949752808 0.35570213198661804
0.20709384977817535 0.70154881477355957 0.35598850250244141
0.26083859801292419 0.70278269052505493 0.35562524199485779
0.32552191615104675 0.69899702072143555 0.35274824500083923
0.39530974626541138 0.69715893268585205 0.34818226099014282
0.47644150257110596 0.69541686773300171 0.34328314661979675
0.56317019462585449 0.69521170854568481 0.33689713478088379
0.65280765295028687 0.6967461109161377 0.32871350646018982
0.7421720027923584 0.69724112749099731 0.31816819310188293
0.83034181594848633 0.69479978084564209 0.3054499626159668
0.92262780666351318 0.69123047590255737 0.28958567976951599
0.98800677061080933 0.68562722206115723 0.26708203554153442
0.99749714136123657 0.67959272861480713 0.23505064845085144
0.22643411159515381 0.78985106945037842 0.40736991167068481
0.25463145971298218 0.79129499197006226 0.40821576118469238
0.30364668369293213 0.7928118109703064 0.40904995799064636
0.36034798622131348 0.78879374265670776 0.4037480354309082
0.42849433422088623 0.7863202691078186 0.39918452501296997
0.50593799352645874 0.78776013851165771 0.39742311835289001
0.58821886777877808 0.78988134860992432 0.39337775111198425
0.67153322696685791 0.79116374254226685 0.38526239991188049
0.75270366668701172 0.7929384708404541 0.37636083364486694
0.83704781532287598 0.79176491498947144 0.36736884713172913
0.92417252063751221 0.78695899248123169 0.35307216644287109
0.98310625553131104 0.77953696250915527 0.32911545038223267
0.99643844366073608 0.77708196640014648 0.29976144433021545
0.29263940453529358 0.88257020711898804 0.46227926015853882
0.31322750449180603 0.88421154022216797 0.46204546093940735
0.35551866888999939 0.88019609451293945 0.46045568585395813
0.40618476271629333 0.87846654653549194 0.45622202754020691
0.46823152899742126 0.87892162799835205 0.45281398296356201
0.54342472553253174 0.87753909826278687 0.45363894104957581
0.61758881807327271 0.87820601463317871 0.45231986045837402
0.69308686256408691 0.88029205799102783 0.44464591145515442
0.76926034688949585 0.88263821601867676 0.4369165301322937
0.85135900974273682 0.88033246994018555 0.427846759557724
0.93364399671554565 0.87851732969284058 0.41542240977287292
0.98600763082504272 0.87373232841491699 0.39204174280166626
0.99730169773101807 0.87043619155883789 0.36317262053489685
0.38364490866661072 0.96192091703414917 0.51966720819473267
0.40296733379364014 0.95992493629455566 0.5190882682800293
0.43408694863319397 0.95739132165908813 0.51682871580123901
0.47713065147399902 0.95520138740539551 0.51503545045852661
0.52776914834976196 0.95606106519699097 0.51339560747146606
0.59003424644470215 0.95530474185943604 0.51291871070861816
0.65391981601715088 0.95634055137634277 0.5096975564956665
0.72188067436218262 0.95802640914916992 0.50203251838684082
0.79731523990631104 0.95730596780776978 0.49495089054107666
0.87537211179733276 0.95763671398162842 0.48606657981872559
0.95073848962783813 0.9583815336227417 0.47398430109024048
0.99558919668197632 0.95648825168609619 0.45472556352615356
0.99899554252624512 0.9536970853805542 0.43114206194877625
0.52008038759231567 0.99846720695495605 0.58666110038757324
0.53107070922851562 0.99767982959747314 0.58423465490341187
0.55185794830322266 0.99600273370742798 0.58341634273529053
0.5814521312713623 0.99853503704071045 0.58250075578689575
0.62136411666870117 0.99693089723587036 0.58157116174697876
0.66788232326507568 0.99740481376647949 0.57891041040420532
0.72260427474975586 0.99418544769287109 0.57506316900253296
0.77976369857788086 0.99482554197311401 0.56703251600265503
0.84859931468963623 0.99722057580947876 0.56334805488586426
0.91794943809509277 0.99695748090744019 0.55503731966018677
0.97795850038528442 0.99724274873733521 0.54410994052886963
0.99812412261962891 0.9948614239692688 0.53012549877166748
1 0.9957466721534729 0.50778299570083618
0.026323162019252777 0.024489114060997963 0.055778354406356812
0.081774860620498657 0.026814060285687447 0.057080034166574478
0.15589302778244019 0.028597200289368629 0.055628292262554169
0.23270578682422638 0.025192784145474434 0.045610271394252777
0.31453198194503784 0.021545484662055969 0.041300065815448761
0.40034735202789307 0.019426532089710236 0.03737499937415123
0.49092090129852295 0.015693934634327888 0.030816620215773582
0.58817851543426514 0.01634540967643261 0.02904854528605938
0.69426095485687256 0.016595743596553802 0.024629974737763405
0.8011900782585144 0.013304632157087326 0.013342315331101418
0.90433627367019653 0.011531081981956959 0.006043123546987772
0.984893798828125 0.0082163345068693161 0.0031885183416306973
0.99845719337463379 0.0026248258072882891 0.0012506372295320034
0.049699295312166214 0.091306515038013458 0.093196198344230652
0.099479779601097107 0.091219581663608551 0.090871445834636688
0.16716897487640381 0.09029679000377655 0.086650893092155457
0.24419598281383514 0.08877970278263092 0.082145467400550842
0.32390198111534119 0.08531641960144043 0.076859675347805023
0.40690997242927551 0.079705394804477692 0.071186304092407227
0.49470257759094238 0.074329778552055359 0.064412958920001984
0.59112048149108887 0.070666328072547913 0.057216957211494446
0.69512617588043213 0.063830368220806122 0.046248029917478561
0.80187022686004639 0.057509671896696091 0.03346874937415123
0.90358465909957886 0.048566330224275589 0.020661208778619766
0.98651564121246338 0.035921432077884674 0.0084359264001250267
0.99923354387283325 0.023941623046994209 0.0039982516318559647
0.079211518168449402 0.17335644364356995 0.12824168801307678
0.11518723517656326 0.17249006032943726 0.12641899287700653
0.17880918085575104 0.17105187475681305 0.12268905341625214
0.253856360912323 0.17058983445167542 0.1181301474571228
0.3325229287147522 0.16695496439933777 0.11227816343307495
0.41486135125160217 0.16030131280422211 0.10695769637823105
0.50162941217422485 0.15543310344219208 0.10044953227043152
0.598358154296875 0.1497567892074585 0.089599445462226868
0.70233631134033203 0.14288844168186188 0.076871387660503387
0.80784410238265991 0.13506139814853668 0.062606930732727051
0.91007345914840698 0.12369730323553085 0.044016968458890915
0.98745214939117432 0.10757461190223694 0.025311863049864769
0.9984588623046875 0.090907573699951172 0.015085168182849884
0.10030683875083923 0.25340595841407776 0.16318058967590332
0.12479794025421143 0.25401395559310913 0.16237279772758484
0.19000807404518127 0.25286999344825745 0.15982656180858612
0.26319760084152222 0.25069642066955566 0.15487934648990631
0.34082701802253723 0.24720744788646698 0.14980743825435638
0.42306530475616455 0.24281416833400726 0.14481928944587708
0.50904923677444458 0.23912076652050018 0.138475701212883
0.6081007719039917 0.23310381174087524 0.1257917732000351
0.71127277612686157 0.22675500810146332 0.11192780733108521
0.8137703537940979 0.21824933588504791 0.096624545753002167
0.91135841608047485 0.20770129561424255 0.078402653336524963
0.98634511232376099 0.19747132062911987 0.058419067412614822
0.99816441535949707 0.1824495792388916 0.035643693059682846
0.093437418341636658 0.33413317799568176 0.19966582953929901
0.1317303329706192 0.33452960848808289 0.20026932656764984
0.19843494892120361 0.33424079418182373 0.1994800865650177
0.27036410570144653 0.33277612924575806 0.19614672660827637
0.3478427529335022 0.33182308077812195 0.19344142079353333
0.4309537410736084 0.3297545313835144 0.19048886001110077
0.51825171709060669 0.32767528295516968 0.18342460691928864
0.6178925633430481 0.32328411936759949 0.16932028532028198
0.71928006410598755 0.31500053405761719 0.15302985906600952
0.81688219308853149 0.30671200156211853 0.13693012297153473
0.91065347194671631 0.29822215437889099 0.11945368349552155
0.98394286632537842 0.28963357210159302 0.098965950310230255
0.99853003025054932 0.27842116355895996 0.071242660284042358
0.11560837924480438 0.41791185736656189 0.24000030755996704
0.14812071621417999 0.42026767134666443 0.24283254146575928
0.20690129697322845 0.41785579919815063 0.2418396919965744
0.27681830525398254 0.41825979948043823 0.23981620371341705
0.35437041521072388 0.41837725043296814 0.23794181644916534
0.43997874855995178 0.41764435172080994 0.2345833033323288
0.53028661012649536 0.41796159744262695 0.22802266478538513
0.62771248817443848 0.41640138626098633 0.21612058579921722
0.72720891237258911 0.40990287065505981 0.19908769428730011
0.82341265678405762 0.40110719203948975 0.17960332334041595
0.91780394315719604 0.39224734902381897 0.16068769991397858
0.98669517040252686 0.38415622711181641 0.14071458578109741
0.99872523546218872 0.3758394718170166 0.11491388082504272
0.1175578236579895 0.50967741012573242 0.28347527980804443
0.15947116911411285 0.51126730442047119 0.28630745410919189
0.21744602918624878 0.50831538438796997 0.28439640998840332
0.28484579920768738 0.50731277465820312 0.28265872597694397
0.36175245046615601 0.5060390830039978 0.28101503849029541
0.44871649146080017 0.506172776222229 0.27670058608055115
0.54009467363357544 0.50752097368240356 0.26883202791213989
0.63222956657409668 0.50814378261566162 0.26066523790359497
0.72905606031417847 0.50551033020019531 0.24547508358955383
0.82480901479721069 0.49803608655929565 0.22626002132892609
0.92053699493408203 0.48974552750587463 0.20607949793338776
0.98949873447418213 0.48247262835502625 0.1841282993555069
0.99844670295715332 0.4744383692741394 0.15622015297412872
0.1291477233171463 0.60582393407821655 0.33011835813522339
0.17233960330486298 0.60743016004562378 0.33116316795349121
0.2287561446428299 0.60488802194595337 0.32979312539100647
0.2946317195892334 0.60093897581100464 0.32717445492744446
0.37247756123542786 0.59723764657974243 0.32397878170013428
0.45810097455978394 0.59723669290542603 0.3203125
0.54750055074691772 0.59834486246109009 0.31243759393692017
0.63732248544692993 0.59979301691055298 0.30406662821769714
0.73184633255004883 0.59885960817337036 0.29110324382781982
0.82520169019699097 0.59304243326187134 0.27423596382141113
0.91921901702880859 0.588539719581604 0.25766035914421082
0.9856148362159729 0.58307033777236938 0.23634351789951324
0.99745267629623413 0.57958751916885376 0.20398434996604919
0.15344937145709991 0.69990187883377075 0.37607493996620178
0.19221717119216919 0.70015180110931396 0.37594902515411377
0.25006046891212463 0.698738694190979 0.37539917230606079
0.31453350186347961 0.69402140378952026 0.37301996350288391
0.39109161496162415 0.6905321478843689 0.36974522471427917
0.47483158111572266 0.69109117984771729 0.36648541688919067
0.56054842472076416 0.69063800573348999 0.35804048180580139
0.64871895313262939 0.6930728554725647 0.34884291887283325
0.738200843334198 0.69379973411560059 0.33826839923858643
0.82733571529388428 0.68888753652572632 0.32584095001220703
0.92096692323684692 0.68618243932723999 0.31147173047065735
0.98785948753356934 0.68197333812713623 0.29110658168792725
0.99759292602539062 0.67941933870315552 0.26346668601036072
0.20960339903831482 0.79261583089828491 0.42567437887191772
0.23932667076587677 0.79067456722259521 0.4243200421333313
0.28802084922790527 0.78881144523620605 0.4229438304901123
0.35283944010734558 0.78309249877929688 0.42074170708656311
0.42426261305809021 0.78199863433837891 0.41870486736297607
0.5025443434715271 0.78505933284759521 0.41663539409637451
0.58459323644638062 0.78574669361114502 0.41051346063613892
0.66680032014846802 0.78725379705429077 0.40188902616500854
0.74828553199768066 0.78771489858627319 0.39365419745445251
0.83488982915878296 0.784820556640625 0.38286307454109192
0.92499256134033203 0.78221225738525391 0.36911362409591675
0.98775297403335571 0.77814853191375732 0.34922942519187927
0.99721688032150269 0.77717500925064087 0.32501843571662903
0.27711242437362671 0.88344860076904297 0.47653210163116455
0.30144533514976501 0.88149631023406982 0.47633516788482666
0.34418490529060364 0.87519538402557373 0.47481948137283325
0.39952972531318665 0.87422853708267212 0.47244304418563843
0.46315222978591919 0.87466037273406982 0.47001686692237854
0.53683650493621826 0.8772817850112915 0.4689725935459137
0.61205369234085083 0.87915033102035522 0.46586111187934875
0.68859589099884033 0.87992066144943237 0.45891094207763672
0.76532071828842163 0.88036161661148071 0.45081046223640442
0.84913897514343262 0.87823140621185303 0.44129005074501038
0.93544411659240723 0.87732243537902832 0.4264523983001709
0.99144935607910156 0.87405818700790405 0.40774345397949219
0.99793952703475952 0.86668449640274048 0.38916909694671631
0.3779354989528656 0.95940423011779785 0.53406399488449097
0.39693921804428101 0.95704233646392822 0.534229576587677
0.42607593536376953 0.95525813102722168 0.53147822618484497
0.46838578581809998 0.95550072193145752 0.52986997365951538
0.52247816324234009 0.95555400848388672 0.52821749448776245
0.58228790760040283 0.95730876922607422 0.52669054269790649
0.64720958471298218 0.95872718095779419 0.52320915460586548
0.71843516826629639 0.95799928903579712 0.51743388175964355
0.79295206069946289 0.95731151103973389 0.51054161787033081
0.87238365411758423 0.95713567733764648 0.50231856107711792
0.95097810029983521 0.95928800106048584 0.48963683843612671
0.99603354930877686 0.95676243305206299 0.47323644161224365
0.99954819679260254 0.95027536153793335 0.45364582538604736
0.51408588886260986 0.99719786643981934 0.5993841290473938
0.52367681264877319 0.99717831611633301 0.59741312265396118
0.54668760299682617 0.99481171369552612 0.59681135416030884
0.57678848505020142 0.9974326491355896 0.5953708291053772
0.62031060457229614 0.9959101676940918 0.59470397233963013
0.66402769088745117 0.99753254652023315 0.59266901016235352
0.71808332204818726 0.99720579385757446 0.58916169404983521
0.779075026512146 0.99626642465591431 0.58379411697387695
0.84539246559143066 0.99651229381561279 0.57803285121917725
0.91489380598068237 0.99675804376602173 0.57079482078552246
0.97704142332077026 0.99619311094284058 0.56111222505569458
0.99739599227905273 0.99610680341720581 0.54652339220046997
1 0.99833148717880249 0.52368736267089844
0.018821297213435173 0.020481811836361885 0.098474137485027313
0.069792762398719788 0.020516518503427505 0.098043881356716156
0.1408747136592865 0.021100407466292381 0.091064944863319397
0.22010080516338348 0.021707227453589439 0.086008124053478241
0.30360507965087891 0.020653070881962776 0.079718373715877533
0.3914356529712677 0.017113106325268745 0.07494894415140152
0.4835321307182312 0.01361377164721489 0.068253777921199799
0.58258765935897827 0.011257934384047985 0.054505500942468643
0.68643510341644287 0.012329027056694031 0.042637843638658524
0.79299521446228027 0.012074878439307213 0.031979832798242569
0.89927548170089722 0.0094027947634458542 0.02117360383272171
0.98377573490142822 0.0021700540091842413 0.0085566351190209389
0.99904048442840576 0.00026373768923804164 0.0043109669350087643
0.040006659924983978 0.085369288921356201 0.1368461549282074
0.089858070015907288 0.0833267942070961 0.13327768445014954
0.1543283611536026 0.080990716814994812 0.12854230403900146
0.23198619484901428 0.080911435186862946 0.12374977022409439
0.31516033411026001 0.078992225229740143 0.11893627792596817
0.40097939968109131 0.074368543922901154 0.11289086192846298
0.49025428295135498 0.069547854363918304 0.10510922968387604
0.58635228872299194 0.063470251858234406 0.092279337346553802
0.68931353092193604 0.054528478533029556 0.077324464917182922
0.79108560085296631 0.049565393477678299 0.063092492520809174
0.89314860105514526 0.04278227686882019 0.046132165938615799
0.98459666967391968 0.029825815930962563 0.02501271478831768
0.9998587965965271 0.0206769909709692 0.012156004086136818
0.068637862801551819 0.16722753643989563 0.17030853033065796
0.1072143092751503 0.16595752537250519 0.16646736860275269
0.1659051924943924 0.16392387449741364 0.16234596073627472
0.24215272068977356 0.16301468014717102 0.15837471187114716
0.32499128580093384 0.16049528121948242 0.15320093929767609
0.40979209542274475 0.15595939755439758 0.14792795479297638
0.49800127744674683 0.15210947394371033 0.14074979722499847
0.59424340724945068 0.1444065272808075 0.12853917479515076
0.695778489112854 0.1342414915561676 0.11411178857088089
0.79777050018310547 0.12614397704601288 0.097875960171222687
0.89815515279769897 0.11627165973186493 0.078723356127738953
0.9836348295211792 0.10134785622358322 0.056235577911138535
0.99917721748352051 0.087008126080036163 0.036019418388605118
0.093463093042373657 0.24838115274906158 0.20265018939971924
0.11990733444690704 0.24762201309204102 0.20007392764091492
0.17450258135795593 0.24656057357788086 0.19599965214729309
0.25057852268218994 0.2450467050075531 0.19190710783004761
0.33233863115310669 0.2427331954240799 0.18742503225803375
0.41653895378112793 0.23979420959949493 0.18372303247451782
0.50341928005218506 0.23515842854976654 0.17664654552936554
0.60423552989959717 0.22850142419338226 0.16429415345191956
0.70626747608184814 0.21972037851810455 0.14972998201847076
0.80608218908309937 0.21137325465679169 0.13323570787906647
0.90234696865081787 0.202631875872612 0.11602219194173813
0.98353356122970581 0.19064584374427795 0.094962134957313538
0.99886679649353027 0.1744115799665451 0.066573202610015869
0.084436200559139252 0.32847541570663452 0.23640263080596924
0.11867900192737579 0.32850539684295654 0.23614239692687988
0.18265010416507721 0.32845625281333923 0.23388722538948059
0.25793212652206421 0.32856813073158264 0.22885483503341675
0.33914580941200256 0.32775911688804626 0.22511041164398193
0.42257964611053467 0.32490497827529907 0.22348481416702271
0.51009988784790039 0.3218686580657959 0.21699018776416779
