luts/colorslide/fuji_superia_200_xpro.cube
# Created by: G'MIC (https://gmic.eu)
TITLE "fuji_superia_200_xpro"
# LUT size
LUT_3D_SIZE 7
# Data domain
DOMAIN_MIN 0.0 0.0 0.0
DOMAIN_MAX 1.0 1.0 1.0
# LUT data points
0.00063476560171693563 0.032536152750253677 0.17710365355014801
0.00027323703397996724 0.044682864099740982 0.21023531258106232
0.0039497674442827702 0.060203135013580322 0.23720474541187286
0.018978133797645569 0.070375911891460419 0.25897333025932312
0.074189253151416779 0.053130563348531723 0.26241770386695862
0.18746021389961243 0.050998702645301819 0.26297995448112488
0.33860832452774048 0.087782964110374451 0.28134605288505554
0.0094539420679211617 0.21808710694313049 0.3431423008441925
0.0077479495666921139 0.225931316614151 0.35188806056976318
0.0260772705078125 0.23236671090126038 0.36328735947608948
0.065236978232860565 0.22313679754734039 0.36885648965835571
0.13334929943084717 0.2034216970205307 0.35967019200325012
0.24954161047935486 0.18557596206665039 0.34675925970077515
0.37921592593193054 0.19663514196872711 0.35402634739875793
0.0046118940226733685 0.39965766668319702 0.46678152680397034
0.0050043142400681973 0.40403991937637329 0.47316759824752808
0.0055352603085339069 0.39463719725608826 0.47385495901107788
0.02920907735824585 0.38214817643165588 0.46246403455734253
0.17050847411155701 0.34950381517410278 0.44815519452095032
0.30739912390708923 0.31637382507324219 0.42873665690422058
0.43673700094223022 0.29675915837287903 0.41173994541168213
0.0062921112403273582 0.62942206859588623 0.58886808156967163
0.0062298793345689774 0.62902075052261353 0.59181809425354004
0.0061583723872900009 0.61450356245040894 0.58169281482696533
0.050611324608325958 0.59665000438690186 0.57114791870117188
0.23177993297576904 0.54632860422134399 0.54801875352859497
0.39166587591171265 0.48458445072174072 0.5113486647605896
0.51675939559936523 0.43443334102630615 0.48195511102676392
0.0074922451749444008 0.88753038644790649 0.70952838659286499
0.0059225494042038918 0.89552575349807739 0.71402472257614136
0.0081152822822332382 0.88540095090866089 0.70680993795394897
0.11894139647483826 0.85540032386779785 0.69167846441268921
0.32758203148841858 0.79504686594009399 0.66172647476196289
0.49115762114524841 0.70015013217926025 0.60922682285308838
0.62073212862014771 0.62021398544311523 0.5709235668182373
0.40119665861129761 1 0.8301461935043335
0.41764909029006958 1 0.83665692806243896
0.44401794672012329 1 0.84735637903213501
0.48006096482276917 0.99985271692276001 0.8412434458732605
0.52436584234237671 0.98994719982147217 0.81081885099411011
0.61736959218978882 0.95635348558425903 0.74371123313903809
0.74613469839096069 0.8523516058921814 0.67536485195159912
0.89199048280715942 1 0.96781712770462036
0.90415006875991821 1 0.97434836626052856
0.90911012887954712 1 0.97912847995758057
0.92293184995651245 1 0.98514145612716675
0.9349486231803894 1 0.99023276567459106
0.95014667510986328 0.99912315607070923 0.96554982662200928
0.96497738361358643 0.99814611673355103 0.83465611934661865
0 0.042724162340164185 0.35833683609962463
0 0.061122115701436996 0.36584410071372986
0.00018525964696891606 0.07452043890953064 0.37924116849899292
0.0062562529928982258 0.064979404211044312 0.37129610776901245
0.033103927969932556 0.046954121440649033 0.35251781344413757
0.15002408623695374 0.057345014065504074 0.35237881541252136
0.31311950087547302 0.10125763714313507 0.35888996720314026
0 0.22931148111820221 0.45172193646430969
0.0033829184249043465 0.23192867636680603 0.44980201125144958
0.0076661501079797745 0.23251503705978394 0.45198303461074829
0.034171354025602341 0.22056926786899567 0.44855666160583496
0.10380678623914719 0.20165453851222992 0.42877781391143799
0.22535000741481781 0.19179427623748779 0.41713470220565796
0.36214616894721985 0.19712759554386139 0.40813237428665161
0 0.40962052345275879 0.54088586568832397
0.0025438496377319098 0.40440133213996887 0.53698796033859253
0.0051820790395140648 0.39739841222763062 0.53083759546279907
0.014663082547485828 0.38080844283103943 0.52207893133163452
0.14338488876819611 0.34637686610221863 0.4991399347782135
0.29307574033737183 0.32298639416694641 0.48145601153373718
0.42424783110618591 0.30914357304573059 0.46199685335159302
0.0036904728040099144 0.63410991430282593 0.64708918333053589
0.0052922717295587063 0.62980419397354126 0.64258688688278198
0.0078354179859161377 0.61121374368667603 0.62958067655563354
0.031050140038132668 0.58853733539581299 0.61337029933929443
0.21805016696453094 0.53958761692047119 0.58615124225616455
0.37107130885124207 0.47779136896133423 0.55271905660629272
0.49684014916419983 0.43601423501968384 0.52538150548934937
0.0033063851296901703 0.89558392763137817 0.76274138689041138
0.0050691640935838223 0.89127457141876221 0.75843226909637451
0.007777494378387928 0.8771979808807373 0.74700534343719482
0.071641318500041962 0.84379643201828003 0.72676330804824829
0.30720421671867371 0.78109550476074219 0.69727843999862671
0.46738943457603455 0.69326436519622803 0.64992666244506836
0.6003955602645874 0.61265867948532104 0.60456889867782593
0.35762932896614075 1 0.88274788856506348
0.37052488327026367 1 0.88894683122634888
0.40174049139022827 1 0.89232683181762695
0.43274316191673279 0.99894171953201294 0.87594246864318848
0.48890995979309082 0.98965650796890259 0.83722484111785889
0.59243297576904297 0.9443855881690979 0.77000606060028076
0.72867292165756226 0.843697190284729 0.70010006427764893
0.87611931562423706 1 0.99026066064834595
0.87932789325714111 1 0.99022507667541504
0.88865065574645996 1 0.99419069290161133
0.89856255054473877 1 0.99339228868484497
0.91738754510879517 1 0.99513477087020874
0.93408393859863281 0.99898487329483032 0.96965736150741577
0.94929677248001099 0.99716496467590332 0.85544973611831665
0 0.076303236186504364 0.46525299549102783
0 0.087980441749095917 0.46589624881744385
0.0011495702201500535 0.080083839595317841 0.45918849110603333
0.0055101430043578148 0.068889066576957703 0.44816163182258606
0.030694654211401939 0.057676952332258224 0.42815312743186951
0.14656831324100494 0.081938169896602631 0.42373472452163696
0.2966335117816925 0.11730455607175827 0.42375805974006653
0 0.25540900230407715 0.54270344972610474
0.0037434895057231188 0.24735064804553986 0.53454053401947021
0.007753454614430666 0.23301218450069427 0.52813816070556641
0.031211255118250847 0.21876406669616699 0.5169183611869812
0.097719706594944 0.21201620995998383 0.50014477968215942
0.20950253307819366 0.20150989294052124 0.48509466648101807
0.33803501725196838 0.2068159431219101 0.4719822108745575
0 0.4123363196849823 0.61481618881225586
0.0039215688593685627 0.40760007500648499 0.60650777816772461
0.0074356077238917351 0.39597383141517639 0.59760200977325439
0.018158199265599251 0.37409645318984985 0.58290892839431763
0.12218067049980164 0.34477168321609497 0.56297707557678223
0.26518437266349792 0.31971395015716553 0.54175311326980591
0.40254580974578857 0.31038567423820496 0.52130794525146484
0 0.62830030918121338 0.70913785696029663
0.0039215688593685627 0.62314307689666748 0.70614796876907349
0.0075344759970903397 0.60398048162460327 0.69201463460922241
0.021709142252802849 0.56720101833343506 0.6692163348197937
0.18913844227790833 0.51613026857376099 0.63837134838104248
0.34152317047119141 0.46963211894035339 0.60865980386734009
0.4817538857460022 0.43965634703636169 0.57944214344024658
0.00055024388711899519 0.88693565130233765 0.82697784900665283
0.0031832826789468527 0.87793916463851929 0.82223165035247803
0.0052427253685891628 0.85593068599700928 0.80995863676071167
0.037688445299863815 0.80979615449905396 0.77934175729751587
0.27247911691665649 0.74327439069747925 0.74144089221954346
0.4493107795715332 0.66928869485855103 0.69515419006347656
0.58178901672363281 0.60915911197662354 0.65332025289535522
0.26805734634399414 1 0.96157413721084595
0.28246974945068359 1 0.95950525999069214
0.31393590569496155 1 0.9479067325592041
0.35786664485931396 0.99911218881607056 0.92210286855697632
0.44457349181175232 0.98008215427398682 0.86892127990722656
0.57416635751724243 0.92267400026321411 0.80752694606781006
0.71517932415008545 0.82251840829849243 0.73901909589767456
0.84024679660797119 1 0.99772989749908447
0.84595674276351929 1 0.99839156866073608
0.85462522506713867 1 0.99867463111877441
0.87365239858627319 1 0.996052086353302
0.88668501377105713 1 0.99543255567550659
0.90396773815155029 0.99859696626663208 0.97280734777450562
0.92885875701904297 0.99539399147033691 0.88430511951446533
0 0.1085340604186058 0.55197656154632568
0 0.097907856106758118 0.54261171817779541
0.0011205485789105296 0.085577435791492462 0.53177595138549805
0.0076380413956940174 0.075361214578151703 0.5176091194152832
0.035498823970556259 0.082796700298786163 0.5059436559677124
0.14026440680027008 0.10023396462202072 0.49736130237579346
0.28771895170211792 0.13688331842422485 0.49482542276382446
0 0.2622046172618866 0.61868757009506226
0.00458501186221838 0.25097796320915222 0.60915344953536987
0.015393290668725967 0.23696602880954742 0.59713476896286011
0.044378526508808136 0.22429898381233215 0.5829584002494812
0.09491623193025589 0.22423666715621948 0.57090061902999878
0.19719476997852325 0.2120344489812851 0.55340027809143066
0.33272027969360352 0.22598792612552643 0.53887283802032471
0 0.41133835911750793 0.68155944347381592
0.0051617939025163651 0.39810970425605774 0.6719435453414917
0.010880099609494209 0.38344389200210571 0.66121011972427368
0.021832006052136421 0.36243268847465515 0.64787083864212036
0.11528037488460541 0.34210371971130371 0.62940472364425659
0.25617295503616333 0.32652997970581055 0.60732424259185791
0.39559319615364075 0.32240292429924011 0.58364450931549072
0 0.60906189680099487 0.76635134220123291
0.0050266492180526257 0.59631240367889404 0.75853210687637329
0.0098013784736394882 0.56600856781005859 0.74130427837371826
0.028803491964936256 0.53683650493621826 0.72486120462417603
0.19648304581642151 0.50320935249328613 0.69797122478485107
0.33851546049118042 0.47081285715103149 0.66928243637084961
0.47484377026557922 0.44924944639205933 0.63968110084533691
0 0.85058420896530151 0.87531751394271851
0.0032488505821675062 0.84822463989257812 0.87165999412536621
0.010366118513047695 0.81576502323150635 0.85170555114746094
0.093442387878894806 0.76226210594177246 0.82008880376815796
0.30230158567428589 0.70740813016891479 0.78169733285903931
0.44492459297180176 0.65957832336425781 0.74833393096923828
0.57958984375 0.60786312818527222 0.70721304416656494
0.21876166760921478 0.99998831748962402 0.99105274677276611
0.23420640826225281 0.99996310472488403 0.98768079280853271
0.26020205020904541 0.99971997737884521 0.97708863019943237
0.32190144062042236 0.992706298828125 0.94825607538223267
0.4322955310344696 0.96005964279174805 0.89864200353622437
0.56806796789169312 0.89259999990463257 0.85095751285552979
0.69712072610855103 0.80446469783782959 0.79027974605560303
0.80583411455154419 1 1
0.80894213914871216 1 1
0.82167553901672363 1 0.99994939565658569
0.83872121572494507 1 0.99897509813308716
0.85880488157272339 1 0.99795156717300415
0.8664429783821106 0.99985992908477783 0.98779314756393433
0.90106713771820068 0.99526500701904297 0.91797751188278198
0 0.12649556994438171 0.63046574592590332
0 0.11709652841091156 0.62037920951843262
0.0016889085527509451 0.11343903094530106 0.61108690500259399
0.010830463841557503 0.11716993898153305 0.59979230165481567
0.056580085307359695 0.1260451078414917 0.5870392918586731
0.15459547936916351 0.13614434003829956 0.57422542572021484
0.29854956269264221 0.17275026440620422 0.56460416316986084
0.00071028165984898806 0.27428951859474182 0.69123220443725586
0.0044484157115221024 0.25981646776199341 0.67930251359939575
0.016873497515916824 0.24948552250862122 0.66810059547424316
0.053290527313947678 0.24485082924365997 0.6560978889465332
0.11052887886762619 0.24475553631782532 0.64333289861679077
0.21697978675365448 0.24088223278522491 0.62592333555221558
0.34290874004364014 0.26159796118736267 0.61182469129562378
0.0025784212630242109 0.40678003430366516 0.74529010057449341
0.0064625907689332962 0.39155462384223938 0.73317313194274902
0.014355618506669998 0.38139283657073975 0.72392618656158447
0.026418603956699371 0.36613768339157104 0.70927631855010986
0.13792988657951355 0.35768210887908936 0.69436866044998169
0.27486267685890198 0.34711119532585144 0.67425066232681274
0.39926904439926147 0.35192853212356567 0.65512925386428833
0.0041223266161978245 0.57222080230712891 0.81276792287826538
0.0079876622185111046 0.56019198894500732 0.80512815713882446
0.0092532588168978691 0.54207569360733032 0.79343479871749878
0.076330654323101044 0.52105545997619629 0.77526521682739258
0.21636985242366791 0.50936388969421387 0.75538134574890137
0.35182446241378784 0.47957512736320496 0.73063826560974121
0.47780364751815796 0.46464419364929199 0.70412611961364746
0.008592972531914711 0.79155468940734863 0.90434175729751587
0.0074247620068490505 0.78408622741699219 0.89939773082733154
0.042274564504623413 0.75376719236373901 0.88156431913375854
0.19840438663959503 0.72234755754470825 0.85905921459197998
0.3269818127155304 0.69437623023986816 0.83269214630126953
0.45442533493041992 0.650287926197052 0.801990807056427
0.57808202505111694 0.61213862895965576 0.76721572875976562
0.18142656981945038 0.99789184331893921 0.99858295917510986
0.19135056436061859 0.99675846099853516 0.99732828140258789
0.24141702055931091 0.98628330230712891 0.98623502254486084
0.34727376699447632 0.96619272232055664 0.96372693777084351
0.45405715703964233 0.92986518144607544 0.93604618310928345
0.57230055332183838 0.86629533767700195 0.89325952529907227
0.68955028057098389 0.79020071029663086 0.83969837427139282
0.77483570575714111 1 1
0.78204125165939331 1 1
0.78772717714309692 1 0.99998492002487183
0.80365759134292603 0.99899935722351074 0.99711328744888306
0.81035113334655762 0.99998492002487183 0.99816370010375977
0.82683205604553223 0.99854212999343872 0.99142032861709595
0.86964905261993408 0.98869448900222778 0.94796091318130493
0.0063891243189573288 0.16431131958961487 0.69698125123977661
0.00093285058392211795 0.16109080612659454 0.68810820579528809
0.0089506711810827255 0.15742386877536774 0.68052083253860474
0.037038031965494156 0.16371630132198334 0.67282915115356445
0.092193320393562317 0.16561144590377808 0.65777194499969482
0.18643084168434143 0.17844326794147491 0.645893394947052
0.31960588693618774 0.22077514231204987 0.64289891719818115
0.013180497102439404 0.28561010956764221 0.74727064371109009
0.0081360163167119026 0.27741068601608276 0.73860466480255127
0.022672824561595917 0.27056095004081726 0.7303345799446106
0.077048838138580322 0.27042385935783386 0.72018331289291382
0.13014523684978485 0.26951417326927185 0.70812278985977173
0.2470545619726181 0.27758568525314331 0.69472897052764893
0.36735132336616516 0.30212610960006714 0.68410980701446533
0.0048038559034466743 0.40116092562675476 0.79446142911911011
0.0055064479820430279 0.39334344863891602 0.78977072238922119
0.0097123542800545692 0.38514688611030579 0.78176581859588623
0.070502258837223053 0.3813818097114563 0.77105700969696045
0.18577602505683899 0.3758108913898468 0.75687110424041748
0.30189353227615356 0.36989784240722656 0.73940151929855347
0.42599305510520935 0.38635522127151489 0.72364085912704468
0.0088677350431680679 0.54717302322387695 0.85700613260269165
0.016824625432491302 0.54187840223312378 0.85214555263519287
0.057286668568849564 0.5310744047164917 0.84422916173934937
0.16873002052307129 0.5240408182144165 0.82960337400436401
0.27581918239593506 0.51428103446960449 0.8110421895980835
0.38836151361465454 0.49810835719108582 0.79313772916793823
0.50171452760696411 0.49486568570137024 0.77195650339126587
0.085553005337715149 0.73541724681854248 0.93201833963394165
0.12085848301649094 0.72689545154571533 0.92431449890136719
0.19758866727352142 0.7176896333694458 0.91575491428375244
0.29210004210472107 0.70511186122894287 0.89774066209793091
0.3877672553062439 0.67373085021972656 0.87571299076080322
0.48886021971702576 0.65050947666168213 0.8561815619468689
0.5945475697517395 0.62849420309066772 0.82940024137496948
0.27218183875083923 0.96200108528137207 0.99554800987243652
0.2943153977394104 0.95646888017654419 0.99300318956375122
0.35664248466491699 0.9449763298034668 0.98589277267456055
0.4322085976600647 0.9225456714630127 0.97642874717712402
0.51237016916275024 0.88256007432937622 0.958484947681427
0.59986823797225952 0.83190947771072388 0.92937189340591431
0.70148938894271851 0.7834588885307312 0.89135479927062988
0.75062143802642822 0.9997481107711792 1
0.75229650735855103 0.999400794506073 1
0.75754565000534058 0.99966239929199219 1
0.76523435115814209 0.99976325035095215 1
0.7812192440032959 0.99771511554718018 1
0.80191904306411743 0.99632817506790161 0.99752390384674072
0.85756170749664307 0.97424030303955078 0.97961717844009399
0.012513014487922192 0.20851363241672516 0.7592921257019043
0.02342916838824749 0.20928817987442017 0.7530977725982666
0.043120663613080978 0.20998296141624451 0.74947601556777954
0.083346210420131683 0.21166305243968964 0.73592793941497803
0.14776560664176941 0.22269010543823242 0.73094159364700317
0.23850911855697632 0.24199774861335754 0.72364109754562378
0.35923191905021667 0.27955973148345947 0.71541023254394531
0.028658982366323471 0.31494560837745667 0.80268305540084839
0.043047558516263962 0.3123740553855896 0.79799163341522217
0.06093018501996994 0.3064197301864624 0.79126489162445068
0.11607141047716141 0.30566388368606567 0.78382819890975952
0.19919787347316742 0.31314703822135925 0.77166992425918579
0.302032470703125 0.33109530806541443 0.7635154128074646
0.40923410654067993 0.35737645626068115 0.75477391481399536
0.036702442914247513 0.41372942924499512 0.84556180238723755
0.055040862411260605 0.41191813349723816 0.8433302640914917
0.10937543213367462 0.40743178129196167 0.83803629875183105
0.17703185975551605 0.40919762849807739 0.82742989063262939
0.26438838243484497 0.4105525016784668 0.81623721122741699
0.36362004280090332 0.41877272725105286 0.8051801323890686
0.46651759743690491 0.4357265830039978 0.79326701164245605
0.14510335028171539 0.54623723030090332 0.89949780702590942
0.16724567115306854 0.54255813360214233 0.8956107497215271
0.22092430293560028 0.53748774528503418 0.88857972621917725
0.28180798888206482 0.53138655424118042 0.87771952152252197
0.355476975440979 0.52706915140151978 0.8655470609664917
0.44281339645385742 0.52512979507446289 0.85066550970077515
0.53781545162200928 0.53150570392608643 0.83535325527191162
0.30088207125663757 0.70509058237075806 0.96010428667068481
0.31574341654777527 0.69984680414199829 0.95616048574447632
0.35788705945014954 0.69463574886322021 0.94981545209884644
0.40320172905921936 0.68204057216644287 0.93229705095291138
0.46521613001823425 0.67329776287078857 0.91870337724685669
0.54314136505126953 0.6587100625038147 0.90218454599380493
0.62993156909942627 0.6452755331993103 0.88530689477920532
0.45325353741645813 0.89042764902114868 0.99921596050262451
0.45984962582588196 0.89195710420608521 0.99320292472839355
0.497976154088974 0.87578392028808594 0.98969405889511108
0.53739756345748901 0.8565065860748291 0.991965651512146
0.59101647138595581 0.83643734455108643 0.97850078344345093
0.66096317768096924 0.81492483615875244 0.96263211965560913
0.734108567237854 0.78272122144699097 0.9396553635597229
0.7448393702507019 0.9986274242401123 1
0.74861115217208862 0.99860227108001709 1
0.75717782974243164 0.99805742502212524 1
0.76951342821121216 0.99709582328796387 1
0.78598201274871826 0.9944034218788147 1
0.8214225172996521 0.98600804805755615 0.9986417293548584
0.88897097110748291 0.9578443169593811 0.99200248718261719
