luts/colorslide/fuji_provia_100f.cube
# Created by: G'MIC (https://gmic.eu)
TITLE "fuji_provia_100f"
# LUT size
LUT_3D_SIZE 7
# Data domain
DOMAIN_MIN 0.0 0.0 0.0
DOMAIN_MAX 1.0 1.0 1.0
# LUT data points
0.032915603369474411 0.030779505148530006 0.021367540583014488
0.16763144731521606 0.031983304768800735 0.023883700370788574
0.32576417922973633 0.027627158910036087 0.016473881900310516
0.50107532739639282 0.02010689489543438 0.011201147921383381
0.70189577341079712 0.015892881900072098 0.006313743069767952
0.91326093673706055 0.014241252094507217 0.0031510298140347004
0.99846816062927246 0.005451875738799572 0
0.086579971015453339 0.1779906153678894 0.091759428381919861
0.18952231109142303 0.17427434027194977 0.087892986834049225
0.34141361713409424 0.17165735363960266 0.078125104308128357
0.50601208209991455 0.16010454297065735 0.067368544638156891
0.7077556848526001 0.14836938679218292 0.042054854333400726
0.91321796178817749 0.13107801973819733 0.022635262459516525
0.99792748689651489 0.094623073935508728 0.0047302846796810627
0.099583074450492859 0.33665373921394348 0.17175537347793579
0.21146269142627716 0.33600315451622009 0.16955609619617462
0.35699230432510376 0.3342759907245636 0.16467398405075073
0.52313840389251709 0.33083376288414001 0.15093061327934265
0.72081869840621948 0.31977167725563049 0.12591269612312317
0.91834002733230591 0.30175957083702087 0.093050040304660797
0.99679321050643921 0.28299692273139954 0.044952049851417542
0.13880795240402222 0.50978708267211914 0.26008310914039612
0.22672355175018311 0.51279658079147339 0.25862348079681396
0.36839255690574646 0.51061928272247314 0.25894209742546082
0.54648715257644653 0.50929051637649536 0.24122495949268341
0.73224908113479614 0.50692516565322876 0.21663652360439301
0.92115813493728638 0.49600192904472351 0.18109029531478882
0.99814528226852417 0.47825312614440918 0.12806670367717743
0.1696438193321228 0.70021837949752808 0.35570213198661804
0.26083859801292419 0.70278269052505493 0.35562524199485779
0.39530974626541138 0.69715893268585205 0.34818226099014282
0.56317019462585449 0.69521170854568481 0.33689713478088379
0.7421720027923584 0.69724112749099731 0.31816819310188293
0.92262780666351318 0.69123047590255737 0.28958567976951599
0.99749714136123657 0.67959272861480713 0.23505064845085144
0.29263940453529358 0.88257020711898804 0.46227926015853882
0.35551866888999939 0.88019609451293945 0.46045568585395813
0.46823152899742126 0.87892162799835205 0.45281398296356201
0.61758881807327271 0.87820601463317871 0.45231986045837402
0.76926034688949585 0.88263821601867676 0.4369165301322937
0.93364399671554565 0.87851732969284058 0.41542240977287292
0.99730169773101807 0.87043619155883789 0.36317262053489685
0.52008038759231567 0.99846720695495605 0.58666110038757324
0.55185794830322266 0.99600273370742798 0.58341634273529053
0.62136411666870117 0.99693089723587036 0.58157116174697876
0.72260427474975586 0.99418544769287109 0.57506316900253296
0.84859931468963623 0.99722057580947876 0.56334805488586426
0.97795850038528442 0.99724274873733521 0.54410994052886963
1 0.9957466721534729 0.50778299570083618
0.018821297213435173 0.020481811836361885 0.098474137485027313
0.1408747136592865 0.021100407466292381 0.091064944863319397
0.30360507965087891 0.020653070881962776 0.079718373715877533
0.4835321307182312 0.01361377164721489 0.068253777921199799
0.68643510341644287 0.012329027056694031 0.042637843638658524
0.89927548170089722 0.0094027947634458542 0.02117360383272171
0.99904048442840576 0.00026373768923804164 0.0043109669350087643
0.068637862801551819 0.16722753643989563 0.17030853033065796
0.1659051924943924 0.16392387449741364 0.16234596073627472
0.32499128580093384 0.16049528121948242 0.15320093929767609
0.49800127744674683 0.15210947394371033 0.14074979722499847
0.695778489112854 0.1342414915561676 0.11411178857088089
0.89815515279769897 0.11627165973186493 0.078723356127738953
0.99917721748352051 0.087008126080036163 0.036019418388605118
0.084436200559139252 0.32847541570663452 0.23640263080596924
0.18265010416507721 0.32845625281333923 0.23388722538948059
0.33914580941200256 0.32775911688804626 0.22511041164398193
0.51009988784790039 0.3218686580657959 0.21699018776416779
0.71571880578994751 0.31128078699111938 0.18801535665988922
0.90509200096130371 0.29280418157577515 0.15691956877708435
0.99873387813568115 0.26959130167961121 0.10803807526826859
0.095436379313468933 0.50615763664245605 0.31429284811019897
0.20430853962898254 0.50357222557067871 0.31484556198120117
0.35680535435676575 0.50262951850891113 0.30730748176574707
0.53064960241317749 0.50402712821960449 0.30168643593788147
0.72291779518127441 0.50219994783401489 0.27822181582450867
0.91235113143920898 0.48767119646072388 0.24430906772613525
0.99844115972518921 0.46921983361244202 0.19850330054759979
0.13281950354576111 0.70009690523147583 0.40418383479118347
0.23197361826896667 0.69568538665771484 0.40074703097343445
0.38636308908462524 0.68864911794662476 0.3957732617855072
0.55583280324935913 0.68820047378540039 0.38924112915992737
0.72821927070617676 0.68654608726501465 0.37148129940032959
0.91643208265304565 0.68393623828887939 0.34513592720031738
0.99786978960037231 0.68027597665786743 0.30751046538352966
0.26041209697723389 0.88200420141220093 0.50248038768768311
0.33082583546638489 0.87583976984024048 0.4984479546546936
0.4566141664981842 0.87473481893539429 0.4954991340637207
0.60376608371734619 0.8786698579788208 0.49004969000816345
0.75963383913040161 0.87740552425384521 0.48033344745635986
0.93122333288192749 0.87246346473693848 0.45360934734344482
0.99977463483810425 0.86751061677932739 0.4198741614818573
0.50624918937683105 0.9944348931312561 0.62076681852340698
0.53926509618759155 0.99616736173629761 0.61865091323852539
0.60908794403076172 0.99691277742385864 0.61547648906707764
0.7092706561088562 0.99691200256347656 0.61115062236785889
0.83958178758621216 0.99584299325942993 0.60152506828308105
0.97526359558105469 0.99303686618804932 0.5865364670753479
1 0.99687796831130981 0.55137622356414795
0.0072237052954733372 0.014259697869420052 0.18584589660167694
0.11408668756484985 0.014563631266355515 0.17920152842998505
0.27953538298606873 0.012120295315980911 0.1716231107711792
0.46386083960533142 0.009985337033867836 0.15874277055263519
0.66929739713668823 0.0045824088156223297 0.13409408926963806
0.88135403394699097 0.0047698975540697575 0.099727779626846313
0.9965817928314209 9.2629823484458029e-05 0.051764439791440964
0.054181747138500214 0.15192663669586182 0.25276482105255127
0.13919165730476379 0.1441427618265152 0.24693317711353302
0.29788735508918762 0.1397244930267334 0.24027599394321442
0.48068326711654663 0.1322372704744339 0.22659076750278473
0.6722409725189209 0.1128513440489769 0.20593152940273285
0.87774956226348877 0.094636835157871246 0.17109039425849915
0.99598145484924316 0.05871124193072319 0.1227552518248558
0.068185143172740936 0.31454414129257202 0.318023681640625
0.15209947526454926 0.31073471903800964 0.31418663263320923
0.31245094537734985 0.30744808912277222 0.30743509531021118
0.49522614479064941 0.30417397618293762 0.30054548382759094
0.6941370964050293 0.29926878213882446 0.28008699417114258
0.88860839605331421 0.28119093179702759 0.25335472822189331
0.99761652946472168 0.25105476379394531 0.21138067543506622
0.052274052053689957 0.49673986434936523 0.39225572347640991
0.15828268229961395 0.49541625380516052 0.39125588536262512
0.32601499557495117 0.49232140183448792 0.3862149715423584
0.50678724050521851 0.49003902077674866 0.37910670042037964
0.70466232299804688 0.48514103889465332 0.36025127768516541
0.89288824796676636 0.47523194551467896 0.33512765169143677
0.99717777967453003 0.46103718876838684 0.30786606669425964
0.060670770704746246 0.69098001718521118 0.47497814893722534
0.17682823538780212 0.68283069133758545 0.47713193297386169
0.34520962834358215 0.67653918266296387 0.47384229302406311
0.52657312154769897 0.67858874797821045 0.46464294195175171
0.7088356614112854 0.67663061618804932 0.45072296261787415
0.89628881216049194 0.67433583736419678 0.43115198612213135
0.99767756462097168 0.670268714427948 0.4042782187461853
0.2024322897195816 0.87014275789260864 0.5731620192527771
0.2880493700504303 0.86924630403518677 0.57202333211898804
0.42811644077301025 0.86972790956497192 0.56965595483779907
0.57404136657714844 0.86353945732116699 0.56259095668792725
0.73923128843307495 0.87153178453445435 0.55301237106323242
0.91442912817001343 0.86495089530944824 0.53429949283599854
0.99680447578430176 0.86615514755249023 0.50549483299255371
0.48008242249488831 0.99386322498321533 0.68089312314987183
0.51429945230484009 0.9915163516998291 0.68072760105133057
0.58732527494430542 0.99451470375061035 0.67904084920883179
0.69057321548461914 0.99309694766998291 0.67487591505050659
0.81963545083999634 0.99274539947509766 0.66503119468688965
0.9575837254524231 0.99460244178771973 0.65312069654464722
1 0.99505347013473511 0.62662243843078613
0.0048308130353689194 0.00980351772159338 0.28242146968841553
0.078041508793830872 0.0056220409460365772 0.27263569831848145
0.24543662369251251 0.0036161534953862429 0.26743611693382263
0.43435311317443848 0.0060866260901093483 0.25808152556419373
0.64116007089614868 0.0057679270394146442 0.23984938859939575
0.85300856828689575 0.0032046898268163204 0.21190382540225983
0.99751859903335571 2.8004365958622657e-05 0.17468513548374176
0.033639766275882721 0.12764765322208405 0.34505993127822876
0.11021371185779572 0.12370119243860245 0.34120664000511169
0.26541036367416382 0.1149049773812294 0.33561179041862488
0.45445472002029419 0.10426469892263412 0.32268351316452026
0.65038198232650757 0.091240108013153076 0.3069855272769928
0.85625827312469482 0.069401383399963379 0.28009539842605591
0.99628269672393799 0.034987818449735641 0.24135065078735352
0.057172723114490509 0.29621732234954834 0.41125068068504333
0.11076353490352631 0.29275315999984741 0.40725028514862061
0.28039300441741943 0.28815755248069763 0.40390539169311523
0.4677707850933075 0.27713146805763245 0.39403620362281799
0.66673463582992554 0.27080443501472473 0.38183203339576721
0.86146146059036255 0.2539554238319397 0.35887482762336731
0.99137645959854126 0.22599630057811737 0.32765549421310425
0.025612534955143929 0.48145538568496704 0.48553311824798584
0.10719046741724014 0.48036009073257446 0.48530164361000061
0.27700290083885193 0.47796022891998291 0.48151996731758118
0.47255924344062805 0.4686439037322998 0.47311431169509888
0.67429029941558838 0.46249192953109741 0.4641244113445282
0.86911541223526001 0.45278450846672058 0.44016656279563904
0.99531406164169312 0.44076132774353027 0.41930574178695679
0.014907402917742729 0.67718422412872314 0.57063716650009155
0.09854000061750412 0.67576867341995239 0.57022786140441895
0.29654958844184875 0.67308157682418823 0.56814718246459961
0.48958322405815125 0.66734904050827026 0.56174618005752563
0.6845206618309021 0.66618156433105469 0.54997354745864868
0.87253093719482422 0.65851390361785889 0.53277301788330078
0.99477648735046387 0.65275454521179199 0.5105394721031189
0.10211598873138428 0.86370199918746948 0.65977782011032104
0.21763423085212708 0.86321806907653809 0.65860629081726074
0.38786956667900085 0.86473292112350464 0.65796846151351929
0.54151445627212524 0.85974323749542236 0.6550910472869873
0.71319758892059326 0.86194491386413574 0.64414536952972412
0.89006471633911133 0.85231947898864746 0.62768393754959106
0.99339580535888672 0.85256558656692505 0.61367452144622803
0.44188219308853149 0.99253350496292114 0.75528877973556519
0.48236849904060364 0.98737537860870361 0.75324326753616333
0.5574374794960022 0.98877876996994019 0.75069218873977661
0.66522830724716187 0.99195867776870728 0.74917328357696533
0.799144446849823 0.98790234327316284 0.74268937110900879
0.93416297435760498 0.99036705493927002 0.72926276922225952
0.99915987253189087 0.99125891923904419 0.71149748563766479
0.00015103208716027439 0.0024825751315802336 0.37888023257255554
0.040326647460460663 0.0035655901301652193 0.37329691648483276
0.20460571348667145 0.001842438941821456 0.37295538187026978
0.39219790697097778 0.00041746252099983394 0.37172695994377136
0.60468614101409912 0.0019428328378126025 0.34838429093360901
0.82647979259490967 0.0049979416653513908 0.33371570706367493
0.99218040704727173 0 0.30044057965278625
0.0088207023218274117 0.090943232178688049 0.44375264644622803
0.069338701665401459 0.088947176933288574 0.44139331579208374
0.221387580037117 0.075741186738014221 0.43737372756004333
0.40794837474822998 0.067766301333904266 0.42939597368240356
0.61310070753097534 0.055831655859947205 0.4131074845790863
0.8277965784072876 0.036070264875888824 0.39383545517921448
0.99137985706329346 0.013151385821402073 0.36514508724212646
0.043526742607355118 0.26511785387992859 0.51307862997055054
0.091034278273582458 0.26573631167411804 0.51033234596252441
0.2317071408033371 0.25844547152519226 0.50798481702804565
0.42234858870506287 0.24579150974750519 0.5005028247833252
0.62851321697235107 0.23716217279434204 0.49178987741470337
0.83660620450973511 0.21924968063831329 0.47252872586250305
0.99459445476531982 0.18826596438884735 0.44669431447982788
0.0038493138272315264 0.45998230576515198 0.58758234977722168
0.048790350556373596 0.45834982395172119 0.58770740032196045
0.23102009296417236 0.45241260528564453 0.58318370580673218
0.43867436051368713 0.44350862503051758 0.57741385698318481
0.64264655113220215 0.44001561403274536 0.57025647163391113
0.84170514345169067 0.43065533041954041 0.553813636302948
0.99433577060699463 0.41427302360534668 0.53555744886398315
0.0038875804748386145 0.66416120529174805 0.66624146699905396
0.0220464076846838 0.66233891248703003 0.66880232095718384
0.23666130006313324 0.65654599666595459 0.66526830196380615
0.46461832523345947 0.65205901861190796 0.66146165132522583
0.6591067910194397 0.64788931608200073 0.65201276540756226
0.84722244739532471 0.64181220531463623 0.63888239860534668
0.99087834358215332 0.63288259506225586 0.62888473272323608
0.022138843312859535 0.8573758602142334 0.75029772520065308
0.11456430703401566 0.85206055641174316 0.74875068664550781
0.32648634910583496 0.84806036949157715 0.74693727493286133
0.50705772638320923 0.84818834066390991 0.7469448447227478
0.68684172630310059 0.84888970851898193 0.7407410740852356
0.86611294746398926 0.84795987606048584 0.72951710224151611
0.98757839202880859 0.8340802788734436 0.71506506204605103
0.39152789115905762 0.98497623205184937 0.83867543935775757
0.43583858013153076 0.985648512840271 0.83731573820114136
0.51819980144500732 0.98467272520065308 0.83541411161422729
0.63306063413619995 0.98475807905197144 0.83350223302841187
0.77286577224731445 0.98584997653961182 0.82979142665863037
0.91185653209686279 0.98423171043395996 0.8206026554107666
0.99577176570892334 0.98701494932174683 0.80694454908370972
0.0010534249013289809 0.0017333385767415166 0.48886340856552124
0.013788783922791481 0.00011877920042024925 0.48661062121391296
0.1533440500497818 0.0015199249610304832 0.48283150792121887
0.35132867097854614 0.0015124152414500713 0.47952902317047119
0.56685096025466919 0.00068395276321098208 0.46942806243896484
0.78703492879867554 0.0014733857242390513 0.45874902606010437
0.98495543003082275 0 0.43497982621192932
0.0036233339924365282 0.049646519124507904 0.54863148927688599
0.025069337338209152 0.043853640556335449 0.54684442281723022
0.17200140655040741 0.038841966539621353 0.54433172941207886
0.36282500624656677 0.03097260370850563 0.53614801168441772
0.57010668516159058 0.021374167874455452 0.52636557817459106
0.79136151075363159 0.014928825199604034 0.51117736101150513
0.98399931192398071 0.0039862240664660931 0.48802894353866577
0.016696272417902946 0.22845897078514099 0.61662977933883667
0.064167439937591553 0.22421644628047943 0.61455029249191284
0.19114084541797638 0.22039215266704559 0.61537116765975952
0.37826940417289734 0.20470038056373596 0.60830986499786377
0.5847821831703186 0.19016332924365997 0.59754252433776855
0.80597406625747681 0.16712313890457153 0.58117014169692993
0.98856186866760254 0.13626191020011902 0.56368529796600342
0.00059427000815048814 0.43399059772491455 0.69035118818283081
0.014898068271577358 0.42992553114891052 0.68969237804412842
0.17012926936149597 0.4255414605140686 0.68832486867904663
0.38761630654335022 0.41091132164001465 0.68205863237380981
0.602164626121521 0.40240997076034546 0.6761048436164856
0.81540048122406006 0.38766920566558838 0.66318416595458984
0.98613649606704712 0.37691023945808411 0.6503608226776123
0.0037282607518136501 0.64206326007843018 0.76994830369949341
0.0072023579850792885 0.64086860418319702 0.76683467626571655
0.16430217027664185 0.6376308798789978 0.76659476757049561
0.41515842080116272 0.6293448805809021 0.76195597648620605
0.62512743473052979 0.62248808145523071 0.75223344564437866
0.82624238729476929 0.61807709932327271 0.74648505449295044
0.98805457353591919 0.61059516668319702 0.73937904834747314
0.0040757721289992332 0.84042710065841675 0.84750986099243164
0.019474074244499207 0.84082424640655518 0.84776347875595093
0.24024862051010132 0.83452075719833374 0.84478962421417236
0.45680609345436096 0.83350622653961182 0.84075987339019775
0.65685421228408813 0.83102649450302124 0.83523225784301758
0.84154868125915527 0.82689434289932251 0.83104956150054932
0.98707622289657593 0.82165908813476562 0.82042801380157471
0.31952524185180664 0.98295712471008301 0.92346423864364624
0.3744693398475647 0.97914814949035645 0.92289549112319946
0.47099843621253967 0.97891771793365479 0.92177987098693848
0.59425419569015503 0.98111498355865479 0.92010760307312012
0.73683369159698486 0.979259192943573 0.91413170099258423
0.88117110729217529 0.9757697582244873 0.90922641754150391
0.9875110387802124 0.97538560628890991 0.90414386987686157
0 8.4192615759093314e-05 0.59573268890380859
0.0042275520972907543 8.9757586465566419e-06 0.59697234630584717
0.086791694164276123 0.00010124655091203749 0.60076147317886353
0.29754149913787842 6.8933826696593314e-05 0.59636366367340088
0.52211254835128784 0 0.58934378623962402
0.75395053625106812 0 0.57494080066680908
0.97163724899291992 0 0.55892926454544067
0 0.015692528337240219 0.64444464445114136
0.0030923581216484308 0.0091014634817838669 0.64966648817062378
0.11227802932262421 0.011719169095158577 0.64483696222305298
0.31175553798675537 0.0059074549935758114 0.64239668846130371
0.52939713001251221 0.0033440683037042618 0.63309645652770996
0.75147920846939087 0.00018131031538359821 0.62096714973449707
0.96611964702606201 0 0.60503298044204712
0.00021579218446277082 0.17388047277927399 0.71932965517044067
0.021456310525536537 0.17026509344577789 0.71724182367324829
0.13663376867771149 0.16295857727527618 0.71741622686386108
0.33208027482032776 0.15428696572780609 0.70974642038345337
0.54347127676010132 0.12875834107398987 0.70113742351531982
0.76368647813796997 0.10369745641946793 0.69080150127410889
0.97396230697631836 0.064378254115581512 0.67408043146133423
0 0.39170369505882263 0.79440581798553467
0.0074870241805911064 0.38990110158920288 0.79370105266571045
0.10762792825698853 0.38625043630599976 0.79285681247711182
0.34315183758735657 0.3746064305305481 0.78698498010635376
0.56281810998916626 0.36273348331451416 0.78105872869491577
0.77620142698287964 0.34769976139068604 0.77411580085754395
0.97458541393280029 0.32046741247177124 0.7624666690826416
0 0.61577993631362915 0.86175006628036499
0.0013588998699560761 0.61203593015670776 0.86569571495056152
0.070653386414051056 0.60661035776138306 0.86718636751174927
0.35755771398544312 0.60028278827667236 0.85363703966140747
0.58225291967391968 0.5962175726890564 0.85941511392593384
0.79127079248428345 0.58721363544464111 0.85133856534957886
0.97878420352935791 0.57137680053710938 0.84474867582321167
0.00082888134056702256 0.82204550504684448 0.93314135074615479
0.0015960992313921452 0.81986254453659058 0.93303030729293823
0.10556076467037201 0.81852263212203979 0.93531620502471924
0.39302289485931396 0.81564009189605713 0.92966008186340332
0.60611486434936523 0.80880570411682129 0.92689573764801025
0.81120193004608154 0.80430322885513306 0.91954374313354492
0.97977316379547119 0.79747796058654785 0.91876626014709473
0.20126228034496307 0.97791391611099243 0.98574262857437134
0.27142965793609619 0.97666501998901367 0.98440539836883545
0.40533447265625 0.97334969043731689 0.98226350545883179
0.54790353775024414 0.97320562601089478 0.98137915134429932
0.70170176029205322 0.97444766759872437 0.97986108064651489
0.85778683423995972 0.97133088111877441 0.9757763147354126
0.9748569130897522 0.96997153759002686 0.97205102443695068
