luts/colorslide/fuji_velvia_100_generic.cube
# Created by: G'MIC (https://gmic.eu)
TITLE "fuji_velvia_100_generic"
# LUT size
LUT_3D_SIZE 7
# Data domain
DOMAIN_MIN 0.0 0.0 0.0
DOMAIN_MAX 1.0 1.0 1.0
# LUT data points
0.023519223555922508 0.019244309514760971 0.01931743323802948
0.13445365428924561 0.021005712449550629 0.020479807630181313
0.32154840230941772 0.021320642903447151 0.025022275745868683
0.55016094446182251 0.015122357755899429 0.017873950302600861
0.77856910228729248 0.013347042724490166 0.016819359734654427
0.97978043556213379 0.012055804952979088 0.016507871448993683
1 0.014081483706831932 0.02106424979865551
0.049754615873098373 0.14039885997772217 0.022836318239569664
0.12694475054740906 0.13516056537628174 0.021066434681415558
0.31725877523422241 0.13038575649261475 0.021385477855801582
0.54878526926040649 0.12376855313777924 0.017605889588594437
0.77270340919494629 0.11561319977045059 0.018697760999202728
0.96799808740615845 0.10775735974311829 0.021092627197504044
0.99978941679000854 0.10515217483043671 0.015985915437340736
0.017117355018854141 0.33993852138519287 0.028502281755208969
0.057427246123552322 0.33287328481674194 0.022376639768481255
0.28260162472724915 0.33377596735954285 0.022598415613174438
0.53329211473464966 0.3277306854724884 0.020364530384540558
0.75833845138549805 0.31754115223884583 0.018077371641993523
0.95291948318481445 0.31232079863548279 0.017244091257452965
0.99740338325500488 0.30767625570297241 0.017785778269171715
0.0039215688593685627 0.56374627351760864 0.027525164186954498
0.005131949670612812 0.56190007925033569 0.01932087354362011
0.17889510095119476 0.56306535005569458 0.018132183700799942
0.47988036274909973 0.55817997455596924 0.020982511341571808
0.71972823143005371 0.55190956592559814 0.017374958842992783
0.91455662250518799 0.5429375171661377 0.016719084233045578
0.99615740776062012 0.53869444131851196 0.015948306769132614
0 0.78051167726516724 0.010475906543433666
0.0040420680306851864 0.77473533153533936 0.0097113214433193207
0.053431730717420578 0.7767174243927002 0.0076725082471966743
0.42113012075424194 0.77282679080963135 0.010128065943717957
0.67298579216003418 0.76379132270812988 0.010427811183035374
0.87201523780822754 0.75440490245819092 0.0090405484661459923
0.99102818965911865 0.75443756580352783 0.0083958795294165611
0 0.94316542148590088 0.0017025816487148404
0 0.94800066947937012 7.7789909482817166e-06
0.0097049335017800331 0.94851863384246826 0
0.39327734708786011 0.93815112113952637 0.00087910069851204753
0.64458394050598145 0.93361371755599976 0.00072479248046875
0.8347470760345459 0.93068969249725342 0.00032175102387554944
0.96022021770477295 0.93256902694702148 0
0.0055053709074854851 1 0
0.037956446409225464 0.99993932247161865 0
0.25590053200721741 1 0
0.49615487456321716 0.99838554859161377 0
0.68964892625808716 0.99698245525360107 0.00013697007670998573
0.83977019786834717 0.99880343675613403 0.00019567152776289731
0.94419550895690918 0.99991816282272339 0
0.026512535288929939 0.01715119369328022 0.13343149423599243
0.13923925161361694 0.016621338203549385 0.13199637830257416
0.32200852036476135 0.019457424059510231 0.13012920320034027
0.55283129215240479 0.009947129525244236 0.12873044610023499
0.78243386745452881 0.0097025549039244652 0.12883631885051727
0.97326958179473877 0.011035620234906673 0.12618717551231384
0.99938082695007324 0.0053765987977385521 0.12224002927541733
0.050937067717313766 0.13034293055534363 0.12991255521774292
0.13023538887500763 0.12436622381210327 0.12814396619796753
0.31750360131263733 0.12113057821989059 0.12424951046705246
0.55022358894348145 0.11444105207920074 0.12220161408185959
0.77333635091781616 0.10781326144933701 0.12236794829368591
0.97337073087692261 0.097025401890277863 0.11324237287044525
0.99912166595458984 0.093425661325454712 0.11702194064855576
0.021956784650683403 0.32628354430198669 0.11884602904319763
0.072259731590747833 0.32574576139450073 0.11382320523262024
0.28765091300010681 0.32469728589057922 0.11625876277685165
0.53189367055892944 0.3188779354095459 0.11653836071491241
0.75640702247619629 0.30675169825553894 0.11188584566116333
0.95631885528564453 0.30325144529342651 0.10880479961633682
0.99588024616241455 0.2973514199256897 0.10886187106370926
0.00044376149890013039 0.55610346794128418 0.10132723301649094
0.0060079237446188927 0.55965244770050049 0.092232555150985718
0.18684937059879303 0.55574125051498413 0.090503737330436707
0.49064117670059204 0.54775518178939819 0.093194477260112762
0.7196846604347229 0.53882420063018799 0.095974847674369812
0.91984504461288452 0.53864896297454834 0.088925771415233612
0.99806743860244751 0.53488612174987793 0.087759517133235931
0 0.77411568164825439 0.050205156207084656
0.0020075181964784861 0.77137702703475952 0.056108303368091583
0.063561007380485535 0.77067548036575317 0.050985150039196014
0.43248257040977478 0.76405447721481323 0.055829409509897232
0.67832702398300171 0.75837618112564087 0.053520604968070984
0.87280631065368652 0.75617837905883789 0.050699092447757721
0.99307763576507568 0.74817812442779541 0.05170503631234169
0 0.94209760427474976 0.0061561283655464649
0 0.94152545928955078 0.0060044978745281696
0.020118877291679382 0.9426388144493103 0.0022137959022074938
0.39626550674438477 0.93626981973648071 0.0071130492724478245
0.64981538057327271 0.93375217914581299 0.0043749040924012661
0.83871662616729736 0.92819023132324219 0.0055142571218311787
0.9642522931098938 0.92703044414520264 0.004724554717540741
0.0038319607265293598 0.99724996089935303 0.012049611657857895
0.037978976964950562 1 0.0092412317171692848
0.2614348828792572 1 0.0074957455508410931
0.50735604763031006 0.99950748682022095 0.0090631823986768723
0.69359970092773438 0.99916142225265503 0.013159089721739292
0.84421348571777344 0.99736988544464111 0.010279128327965736
0.95224261283874512 0.99885731935501099 0.0074453167617321014
0.030709061771631241 0.017905740067362785 0.32394701242446899
0.14378060400485992 0.012672589160501957 0.33077540993690491
0.32355040311813354 0.015413306653499603 0.32442536950111389
0.55936956405639648 0.0091266408562660217 0.32529628276824951
0.78679466247558594 0.010800664313137531 0.32168465852737427
0.98120260238647461 0.0067965039052069187 0.31811493635177612
1 0.003565619932487607 0.31607496738433838
0.054441668093204498 0.11467262357473373 0.32126554846763611
0.13795997202396393 0.11103744804859161 0.3196679949760437
0.32015219330787659 0.1078156977891922 0.31654384732246399
0.55401819944381714 0.10024494677782059 0.31560051441192627
0.78141665458679199 0.091340802609920502 0.31575381755828857
0.96985924243927002 0.090302333235740662 0.31320339441299438
0.99976110458374023 0.078322723507881165 0.30535289645195007
0.029081081971526146 0.31006523966789246 0.31141352653503418
0.085008420050144196 0.31183657050132751 0.30714991688728333
0.30010378360748291 0.30670586228370667 0.30911314487457275
0.54165685176849365 0.29994231462478638 0.31157878041267395
0.75709295272827148 0.2980322539806366 0.3063112199306488
0.95911252498626709 0.28850263357162476 0.3032071590423584
0.99697458744049072 0.28376507759094238 0.2925071120262146
0.0012263428652659059 0.54180705547332764 0.28412896394729614
0.0092981969937682152 0.5470849871635437 0.28352949023246765
0.21129304170608521 0.54349768161773682 0.28414982557296753
0.49880033731460571 0.532814621925354 0.28847074508666992
0.72170734405517578 0.53020185232162476 0.28543061017990112
0.92298018932342529 0.5234106183052063 0.2793985903263092
0.99614894390106201 0.51835447549819946 0.27497309446334839
0 0.75930118560791016 0.25001817941665649
0.0035772735718637705 0.75910967588424683 0.24949759244918823
0.091609373688697815 0.75731778144836426 0.25922223925590515
0.44785335659980774 0.74821621179580688 0.26064896583557129
0.6841314435005188 0.74608415365219116 0.25120812654495239
0.87969374656677246 0.74004334211349487 0.2482219934463501
0.99337023496627808 0.73750025033950806 0.25612732768058777
0 0.92875146865844727 0.2352442592382431
0.00068004830973222852 0.92296105623245239 0.23542596399784088
0.038492061197757721 0.93101346492767334 0.23696106672286987
0.41897407174110413 0.9220244288444519 0.23484505712985992
0.66587960720062256 0.92071390151977539 0.22732450067996979
0.84544616937637329 0.91715270280838013 0.22583450376987457
0.96860963106155396 0.91429120302200317 0.2263903021812439
0.0072064418345689774 0.99993681907653809 0.25219690799713135
0.04797014594078064 0.99901527166366577 0.25020843744277954
0.27269208431243896 0.99973255395889282 0.24822923541069031
0.51019531488418579 0.99744582176208496 0.24399259686470032
0.70070064067840576 0.99769765138626099 0.24357506632804871
0.84685134887695312 0.99607181549072266 0.24372307956218719
0.95507097244262695 0.99765723943710327 0.23748397827148438
0.036677043884992599 0.0072519192472100258 0.55942732095718384
0.14621460437774658 0.0026535931974649429 0.55622559785842896
0.32671010494232178 0.014336036518216133 0.54782140254974365
0.56458395719528198 0.0067176520824432373 0.54885303974151611
0.78865545988082886 0.011086901649832726 0.54707556962966919
0.97852766513824463 0.0065796049311757088 0.54345852136611938
0.99957990646362305 0.0041457829065620899 0.53548872470855713
0.060490820556879044 0.094667889177799225 0.54691809415817261
0.14494054019451141 0.09031803160905838 0.5447162389755249
0.32878926396369934 0.088978707790374756 0.53815436363220215
0.55294579267501831 0.083527103066444397 0.53724032640457153
0.7852211594581604 0.068776480853557587 0.54197037220001221
0.97906315326690674 0.060445569455623627 0.53798979520797729
0.99992996454238892 0.059789873659610748 0.53207647800445557
0.046792034059762955 0.29799661040306091 0.5362439751625061
0.10941816121339798 0.2921680212020874 0.53539758920669556
0.30530133843421936 0.2890923023223877 0.52990043163299561
0.54467606544494629 0.28481641411781311 0.53140866756439209
0.76677650213241577 0.28069385886192322 0.52922910451889038
0.95854562520980835 0.26775985956192017 0.52721881866455078
0.99787420034408569 0.26171958446502686 0.52491492033004761
0.0039215688593685627 0.52968311309814453 0.51564681529998779
0.010362258180975914 0.52658754587173462 0.52245217561721802
0.23814690113067627 0.52548134326934814 0.51929682493209839
0.51114380359649658 0.5189979076385498 0.52132338285446167
0.73301082849502563 0.51721310615539551 0.51706886291503906
0.93208461999893188 0.50977098941802979 0.51236802339553833
0.992972731590271 0.50753730535507202 0.51262819766998291
0.00023660098668187857 0.74414026737213135 0.49972057342529297
0.0043932897970080376 0.73674052953720093 0.50316286087036133
0.13242778182029724 0.74046754837036133 0.505390465259552
0.46244865655899048 0.73561781644821167 0.50609409809112549
0.69455397129058838 0.7318122386932373 0.50211143493652344
0.88850659132003784 0.7266039252281189 0.49635782837867737
0.99456477165222168 0.71991550922393799 0.50106394290924072
0 0.90778475999832153 0.48505011200904846
0.0018348244484513998 0.91382592916488647 0.49014630913734436
0.075008615851402283 0.91581082344055176 0.49406066536903381
0.44467657804489136 0.90438640117645264 0.49153771996498108
0.67477947473526001 0.90043491125106812 0.48993188142776489
0.85291731357574463 0.89853155612945557 0.48592695593833923
0.97162598371505737 0.89345121383666992 0.48858988285064697
0.0028538124170154333 0.99619400501251221 0.49770084023475647
0.054163329303264618 0.99891245365142822 0.4970862865447998
0.28373488783836365 0.99741768836975098 0.49653887748718262
0.51535981893539429 0.99687862396240234 0.49256783723831177
0.70309299230575562 0.99209088087081909 0.49477812647819519
0.84799385070800781 0.99566888809204102 0.48939204216003418
0.95753616094589233 0.99498444795608521 0.48956093192100525
0.036869198083877563 0.0071546817198395729 0.76710474491119385
0.154197096824646 0.010521682910621166 0.75702035427093506
0.33255884051322937 0.0062605766579508781 0.75954729318618774
0.56781101226806641 0.0036127427592873573 0.75922954082489014
0.79237562417984009 0.0038922477979212999 0.75500810146331787
0.98221135139465332 0.0030775631312280893 0.75118106603622437
0.99949359893798828 0.0060742548666894436 0.74135392904281616
0.063980698585510254 0.073043107986450195 0.75706595182418823
0.15949203073978424 0.070672683417797089 0.75482118129730225
0.33724486827850342 0.067225560545921326 0.75283747911453247
0.55899864435195923 0.063979387283325195 0.74955654144287109
0.78716737031936646 0.054084509611129761 0.75218379497528076
0.97961902618408203 0.04539896547794342 0.74679309129714966
1 0.04369870200753212 0.74259793758392334
0.058555018156766891 0.27686965465545654 0.74436002969741821
0.12692993879318237 0.27251729369163513 0.74719738960266113
0.32719436287879944 0.26862812042236328 0.74512630701065063
0.55052047967910767 0.26537945866584778 0.74083828926086426
0.77396386861801147 0.2587483823299408 0.73734402656555176
0.96425139904022217 0.25071784853935242 0.7388719916343689
0.99460655450820923 0.24955824017524719 0.73270058631896973
0.0039215688593685627 0.50857257843017578 0.72887009382247925
0.016015535220503807 0.51086020469665527 0.73327481746673584
0.25721907615661621 0.50901538133621216 0.72949326038360596
0.52331745624542236 0.49913963675498962 0.72453099489212036
0.74168229103088379 0.49645346403121948 0.72162765264511108
0.93753081560134888 0.49292832612991333 0.7265666127204895
0.99215686321258545 0.48700255155563354 0.7242085337638855
0 0.72957700490951538 0.71268105506896973
0.0039615258574485779 0.72196310758590698 0.71314150094985962
0.17229641973972321 0.72561889886856079 0.71816760301589966
0.47670695185661316 0.71772944927215576 0.71030288934707642
0.71136075258255005 0.70986652374267578 0.71367228031158447
0.89246809482574463 0.70854294300079346 0.71254706382751465
0.99092936515808105 0.70798277854919434 0.70554888248443604
0 0.89493566751480103 0.70075720548629761
0.0035961524117738008 0.89524024724960327 0.70269787311553955
0.12456391006708145 0.89837586879730225 0.7081599235534668
0.46739932894706726 0.8866126537322998 0.7035752534866333
0.6898459792137146 0.88281232118606567 0.70218265056610107
0.86430013179779053 0.88379955291748047 0.70306819677352905
0.9766918420791626 0.88022828102111816 0.69760215282440186
0.011679436080157757 0.99268466234207153 0.70402193069458008
0.06118793785572052 0.99715685844421387 0.70568788051605225
0.30311524868011475 0.98963147401809692 0.70602059364318848
0.52906519174575806 0.99295514822006226 0.70110738277435303
0.71174061298370361 0.9919050931930542 0.70277506113052368
0.85611259937286377 0.9902719259262085 0.69712120294570923
0.96400934457778931 0.9888494610786438 0.6954534649848938
0.043408799916505814 0.0057561835274100304 0.93473190069198608
0.16145786643028259 0.0048067132011055946 0.9285094141960144
0.34528699517250061 0.0039660884067416191 0.93028336763381958
0.57061475515365601 0.0039330576546490192 0.92940330505371094
0.79775136709213257 0.0023169573396444321 0.93103605508804321
0.98417240381240845 0.0017893473850563169 0.92724967002868652
0.99988096952438354 0.0010468426626175642 0.91335999965667725
0.070587381720542908 0.061559401452541351 0.93023967742919922
0.16266785562038422 0.059417471289634705 0.92790144681930542
0.34164756536483765 0.050477571785449982 0.93076950311660767
0.56637251377105713 0.048857461661100388 0.92696702480316162
0.79382956027984619 0.038292154669761658 0.92706894874572754
0.98229467868804932 0.034371498972177505 0.92291736602783203
1 0.028252501040697098 0.92013454437255859
0.068718746304512024 0.26195356249809265 0.92061257362365723
0.13696028292179108 0.2598872184753418 0.92013299465179443
0.33342313766479492 0.25568109750747681 0.91491639614105225
0.55849730968475342 0.2510455846786499 0.91871100664138794
0.77806770801544189 0.24334873259067535 0.91352856159210205
0.96983122825622559 0.23719826340675354 0.91356807947158813
0.99414420127868652 0.2367190420627594 0.9098096489906311
0.0028609032742679119 0.49687933921813965 0.90301042795181274
0.025392854586243629 0.49686342477798462 0.91042780876159668
0.28397122025489807 0.49137797951698303 0.90795505046844482
0.53166341781616211 0.48389151692390442 0.9027104377746582
0.75479423999786377 0.48124212026596069 0.89729213714599609
0.94584417343139648 0.47905752062797546 0.89675062894821167
0.99215686321258545 0.47446292638778687 0.89681100845336914
0.00017245423805434257 0.71365976333618164 0.88828366994857788
0.0044401879422366619 0.71470093727111816 0.88825130462646484
0.20701010525226593 0.71194040775299072 0.89285337924957275
0.49537539482116699 0.70200157165527344 0.88755744695663452
0.72532600164413452 0.69284629821777344 0.88380247354507446
0.90791159868240356 0.69161689281463623 0.88306105136871338
0.98888498544692993 0.69173210859298706 0.88361883163452148
0 0.88307136297225952 0.87396860122680664
0.0028019025921821594 0.8836742639541626 0.87306588888168335
0.17188099026679993 0.88723945617675781 0.87995940446853638
0.48335027694702148 0.8760371208190918 0.87821066379547119
0.70449215173721313 0.87192672491073608 0.87424099445343018
0.8723452091217041 0.86618709564208984 0.8723609447479248
0.98240751028060913 0.86882364749908447 0.86962437629699707
0.016737993806600571 0.98888939619064331 0.86739826202392578
0.07088470458984375 0.99392181634902954 0.8744928240776062
0.322124183177948 0.98589235544204712 0.87262958288192749
0.54037153720855713 0.9865419864654541 0.86823499202728271
0.7206534743309021 0.97975146770477295 0.86582463979721069
0.86384016275405884 0.98188775777816772 0.86625659465789795
0.96831423044204712 0.98046588897705078 0.8607170581817627
0.04014982283115387 0.00095563405193388462 0.99866276979446411
0.16020847856998444 0.0033194748684763908 0.99957835674285889
0.33837363123893738 0.0039215688593685627 0.99731272459030151
0.57100504636764526 0.0069133532233536243 0.99523645639419556
0.80341488122940063 0.00050692091463133693 0.99454933404922485
0.98196989297866821 0 0.99642616510391235
0.99960774183273315 5.834242983837612e-05 0.99953544139862061
0.07662537693977356 0.058352049440145493 0.99973613023757935
0.16359958052635193 0.051110360771417618 0.99560970067977905
0.34183195233345032 0.044591747224330902 0.99690419435501099
0.56750583648681641 0.035813245922327042 0.99691987037658691
0.79557430744171143 0.02912476472556591 0.99950402975082397
0.98386740684509277 0.025337817147374153 0.99835872650146484
1 0.024836791679263115 0.99826639890670776
0.073481887578964233 0.25496309995651245 0.99867624044418335
0.14458635449409485 0.24972394108772278 0.99921315908432007
0.33350542187690735 0.24805258214473724 0.99606692790985107
0.5635223388671875 0.24185952544212341 0.99728256464004517
0.78248828649520874 0.23458550870418549 0.99507057666778564
0.97372162342071533 0.22617429494857788 0.99800676107406616
0.99543637037277222 0.22331133484840393 0.9943053126335144
0.002444039098918438 0.48941671848297119 0.99816298484802246
0.036135189235210419 0.48786848783493042 0.99789726734161377
0.29222556948661804 0.48306348919868469 0.99507683515548706
0.53705769777297974 0.4826866090297699 0.99495643377304077
0.75699102878570557 0.48003613948822021 0.99537444114685059
0.9502372145652771 0.46830457448959351 0.9961133599281311
0.99215686321258545 0.46273031830787659 0.993000328540802
0.00027782964752987027 0.70505934953689575 0.99356257915496826
0.0058557698503136635 0.70151042938232422 0.99063074588775635
0.22809121012687683 0.69883149862289429 0.99277347326278687
0.50707381963729858 0.69150656461715698 0.98925244808197021
0.72269421815872192 0.68916076421737671 0.98581486940383911
0.91305994987487793 0.68058276176452637 0.98684066534042358
0.99247282743453979 0.67552918195724487 0.98822790384292603
5.3316005505621433e-05 0.87088388204574585 0.9763493537902832
0.0030503217130899429 0.8779023289680481 0.98607581853866577
0.19941571354866028 0.87486875057220459 0.98416733741760254
0.49856728315353394 0.86441099643707275 0.98200517892837524
0.70860975980758667 0.86569541692733765 0.98355823755264282
0.88150036334991455 0.86281824111938477 0.98209792375564575
0.99190843105316162 0.86073893308639526 0.98279058933258057
0.014194503426551819 0.98930978775024414 0.98074108362197876
0.080663971602916718 0.98842412233352661 0.98277157545089722
0.33110937476158142 0.98340648412704468 0.97832459211349487
0.54897457361221313 0.98004186153411865 0.97917383909225464
0.72648996114730835 0.97600477933883667 0.97824776172637939
0.86966061592102051 0.97738349437713623 0.97772926092147827
0.97631293535232544 0.97380399703979492 0.97569781541824341
