luts/colorslide/fuji_fp_100c.cube
# Created by: G'MIC (https://gmic.eu)
TITLE "fuji_fp_100c"
# LUT size
LUT_3D_SIZE 5
# Data domain
DOMAIN_MIN 0.0 0.0 0.0
DOMAIN_MAX 1.0 1.0 1.0
# LUT data points
0.020522966980934143 0.023210803046822548 0.016879497095942497
0.12562374770641327 0.021802252158522606 0.013054029084742069
0.29578942060470581 0.0048050377517938614 0.0028982274234294891
0.58655720949172974 0.015738783404231071 0.0039215688593685627
0.78915423154830933 0.0046918680891394615 0
0.11739901453256607 0.19440865516662598 0.075137794017791748
0.20025922358036041 0.17929612100124359 0.05930124968290329
0.38998055458068848 0.15469364821910858 0.031685877591371536
0.63803970813751221 0.08594048023223877 0.0099647818133234978
0.82457000017166138 0.023283969610929489 0.0011702743358910084
0.19628714025020599 0.48555457592010498 0.13693243265151978
0.30898106098175049 0.4715944230556488 0.12504276633262634
0.51166045665740967 0.45146456360816956 0.088704816997051239
0.73621892929077148 0.38733485341072083 0.043947525322437286
0.90046989917755127 0.33068594336509705 0.018082054331898689
0.47535011172294617 0.73266506195068359 0.10034703463315964
0.54452997446060181 0.72184401750564575 0.092282883822917938
0.69232118129730225 0.71193838119506836 0.076536424458026886
0.84545391798019409 0.69001328945159912 0.062492579221725464
0.96106290817260742 0.65553891658782959 0.056116439402103424
0.80622392892837524 0.85631740093231201 0.014931084588170052
0.82866066694259644 0.84969371557235718 0.012638106942176819
0.88990843296051025 0.84866839647293091 0.0121981306001544
0.95265185832977295 0.83466517925262451 0.012090870179235935
0.99697494506835938 0.83261644840240479 0.0098230252042412758
0.026743436232209206 0.03353220596909523 0.15284179151058197
0.12824176251888275 0.024228369817137718 0.13884389400482178
0.31499674916267395 0.010801562108099461 0.094731546938419342
0.57628613710403442 0.0029526504222303629 0.030779968947172165
0.79547500610351562 7.880715565988794e-05 0.0097775924950838089
0.11649750173091888 0.2150304913520813 0.21490389108657837
0.19613416492938995 0.20202480256557465 0.19477169215679169
0.39218929409980774 0.16437064111232758 0.15429291129112244
0.63859385251998901 0.10310504585504532 0.09580664336681366
0.8269350528717041 0.027984842658042908 0.047945600003004074
0.18924726545810699 0.50828039646148682 0.27671268582344055
0.30012285709381104 0.4938596785068512 0.26003667712211609
0.51319879293441772 0.46292316913604736 0.22768253087997437
0.73607105016708374 0.41249024868011475 0.18015573918819427
0.89870733022689819 0.33737045526504517 0.15551866590976715
0.46523892879486084 0.74750387668609619 0.25911059975624084
0.54098391532897949 0.74187016487121582 0.25426444411277771
0.68529313802719116 0.72876763343811035 0.23050637543201447
0.83044886589050293 0.70989072322845459 0.22020922601222992
0.95823389291763306 0.68090987205505371 0.22010670602321625
0.801383376121521 0.87163639068603516 0.056337796151638031
0.82530730962753296 0.86911153793334961 0.051377046853303909
0.87668031454086304 0.86365485191345215 0.049770578742027283
0.95038706064224243 0.85957658290863037 0.058747880160808563
0.99697649478912354 0.85022550821304321 0.085197195410728455
0.022320780903100967 0.049611590802669525 0.35145583748817444
0.11907954514026642 0.034903150051832199 0.33737769722938538
0.31070733070373535 0.017986657097935677 0.30291604995727539
0.57581639289855957 0.0070190280675888062 0.24069021642208099
0.78417259454727173 0.00018561868637334555 0.20894983410835266
0.093420036137104034 0.24589520692825317 0.43991735577583313
0.1936098039150238 0.22207504510879517 0.42233055830001831
0.39576992392539978 0.18575996160507202 0.38933867216110229
0.63717049360275269 0.12364845722913742 0.33282613754272461
0.81189155578613281 0.039645310491323471 0.29064330458641052
0.14091953635215759 0.53599590063095093 0.53840261697769165
0.28662264347076416 0.52479547262191772 0.52475166320800781
0.50959044694900513 0.50477480888366699 0.50009059906005859
0.71836882829666138 0.4492645263671875 0.45547652244567871
0.8752979040145874 0.37203758955001831 0.43077442049980164
0.43427321314811707 0.77862107753753662 0.57616394758224487
0.5159420371055603 0.77381688356399536 0.57443368434906006
0.65526384115219116 0.76521974802017212 0.5571560263633728
0.79856854677200317 0.7450873851776123 0.5430106520652771
0.9262043833732605 0.70961999893188477 0.53476488590240479
0.75690841674804688 0.90845876932144165 0.47032681107521057
0.78520387411117554 0.90871363878250122 0.47491297125816345
0.83489859104156494 0.90484505891799927 0.47893407940864563
0.90411221981048584 0.89989566802978516 0.49156463146209717
0.98573321104049683 0.89474868774414062 0.5038570761680603
0.021038908511400223 0.071636423468589783 0.60433399677276611
0.12260344624519348 0.055143170058727264 0.58757936954498291
0.3137393593788147 0.028973732143640518 0.54962849617004395
0.5770149827003479 0.0095218131318688393 0.4897734522819519
0.7635951042175293 0.0038533080369234085 0.4521823525428772
0.091256417334079742 0.26714435219764709 0.68342918157577515
0.18483410775661469 0.24927383661270142 0.67232775688171387
0.40392252802848816 0.21833649277687073 0.63097250461578369
0.63884717226028442 0.15332649648189545 0.56976777315139771
0.80052006244659424 0.068165123462677002 0.52022486925125122
0.14151480793952942 0.56259530782699585 0.77612847089767456
0.29957398772239685 0.54890233278274536 0.75815147161483765
0.5119207501411438 0.52630829811096191 0.72318792343139648
0.71188902854919434 0.48504555225372314 0.68493431806564331
0.86335545778274536 0.40134268999099731 0.63917046785354614
0.44328868389129639 0.80914950370788574 0.82139229774475098
0.51610511541366577 0.80441713333129883 0.8140149712562561
0.6473536491394043 0.79318392276763916 0.79479819536209106
0.78453171253204346 0.77602827548980713 0.77187305688858032
0.89773917198181152 0.74836605787277222 0.75566869974136353
0.72612488269805908 0.94939839839935303 0.80356353521347046
0.75103682279586792 0.94850659370422363 0.79778337478637695
0.80056583881378174 0.94538527727127075 0.79807013273239136
0.8708917498588562 0.94289815425872803 0.79560679197311401
0.96395730972290039 0.92914783954620361 0.78201234340667725
0.03346870094537735 0.093967646360397339 0.77854317426681519
0.15353192389011383 0.069165535271167755 0.7491755485534668
0.35209771990776062 0.04213155061006546 0.70056724548339844
0.59446585178375244 0.0068764630705118179 0.63910126686096191
0.77449536323547363 0.0057772318832576275 0.58936178684234619
0.12344134598970413 0.27215543389320374 0.82954639196395874
0.23525799810886383 0.25930085778236389 0.81198805570602417
0.44135567545890808 0.21966910362243652 0.76010257005691528
0.64802843332290649 0.15980292856693268 0.70548194646835327
0.79948502779006958 0.070095822215080261 0.65248382091522217
0.25264501571655273 0.58103257417678833 0.90162724256515503
0.36077892780303955 0.56335228681564331 0.88837552070617676
0.54613566398620605 0.52827757596969604 0.85238087177276611
0.72898262739181519 0.48758101463317871 0.80884581804275513
0.8634955883026123 0.40993174910545349 0.7629590630531311
0.50379621982574463 0.82191956043243408 0.95233595371246338
0.55379700660705566 0.81168222427368164 0.93856728076934814
0.66991281509399414 0.80370581150054932 0.92171412706375122
0.78589445352554321 0.78985464572906494 0.90128225088119507
0.90387850999832153 0.75246387720108032 0.86533915996551514
0.73972046375274658 0.97287541627883911 0.97009289264678955
0.75519877672195435 0.97048008441925049 0.96633350849151611
0.80330759286880493 0.97127914428710938 0.96566319465637207
0.86538183689117432 0.96217668056488037 0.95858770608901978
0.94244933128356934 0.95263862609863281 0.93941336870193481
