luts/colorslide/fuji_fp_100c.cube
# Created by: G'MIC (https://gmic.eu)
TITLE "fuji_fp_100c"
# LUT size
LUT_3D_SIZE 13
# Data domain
DOMAIN_MIN 0.0 0.0 0.0
DOMAIN_MAX 1.0 1.0 1.0
# LUT data points
0.020522966980934143 0.023210803046822548 0.016879497095942497
0.044103015214204788 0.020159134641289711 0.015383237972855568
0.083912625908851624 0.023119458928704262 0.012437603436410427
0.12562374770641327 0.021802252158522606 0.013054029084742069
0.16808544099330902 0.015572013333439827 0.011705615557730198
0.22926631569862366 0.010435022413730621 0.0067993314005434513
0.29578942060470581 0.0048050377517938614 0.0028982274234294891
0.37810716032981873 0.0045771282166242599 0.0011713065905496478
0.48261240124702454 0.01102447509765625 0.0039215688593685627
0.58655720949172974 0.015738783404231071 0.0039215688593685627
0.66427600383758545 0.01341400109231472 0.0028089485131204128
0.72937285900115967 0.0085684983059763908 0.00021897858823649585
0.78915423154830933 0.0046918680891394615 0
0.048210293054580688 0.066314771771430969 0.030703002586960793
0.071362756192684174 0.064037501811981201 0.027883207425475121
0.10376615077257156 0.057395245879888535 0.0222817063331604
0.14750680327415466 0.056801799684762955 0.020716423168778419
0.19591669738292694 0.048515200614929199 0.016264552250504494
0.25386017560958862 0.036904878914356232 0.0094460733234882355
0.3236941397190094 0.029106125235557556 0.0078102112747728825
0.40427449345588684 0.019387025386095047 0.004906762856990099
0.50216513872146606 0.01715373620390892 0.0040244907140731812
0.59797513484954834 0.017346775159239769 0.0029679690487682819
0.66932898759841919 0.014227937906980515 0.00024144789495039731
0.73486220836639404 0.012600543908774853 0.00027301264344714582
0.79490947723388672 0.010677157901227474 7.5037336500827223e-05
0.083535619080066681 0.1254829615354538 0.049753405153751373
0.10064201802015305 0.12162013351917267 0.048166073858737946
0.13144309818744659 0.11788560450077057 0.046968884766101837
0.17055591940879822 0.11016915738582611 0.036825649440288544
0.22301089763641357 0.10247226804494858 0.030075132846832275
0.28473237156867981 0.093007348477840424 0.022609366104006767
0.35618555545806885 0.08364570140838623 0.01876475103199482
0.43601703643798828 0.067590139806270599 0.015351000241935253
0.52645516395568848 0.042961567640304565 0.0082165440544486046
0.61109691858291626 0.025544693693518639 0.0023441091179847717
0.67967528104782104 0.023591523990035057 0.0016554589383304119
0.74567490816116333 0.020335746929049492 0.0021652670111507177
0.8059806227684021 0.016544835641980171 0.00099705718457698822
0.11739901453256607 0.19440865516662598 0.075137794017791748
0.13429951667785645 0.19193457067012787 0.072567060589790344
0.16088710725307465 0.18621069192886353 0.067529283463954926
0.20025922358036041 0.17929612100124359 0.05930124968290329
0.25121939182281494 0.17236144840717316 0.051271907985210419
0.31923344731330872 0.1659429669380188 0.041956465691328049
0.38998055458068848 0.15469364821910858 0.031685877591371536
0.47203129529953003 0.13491879403591156 0.026636803522706032
0.55891114473342896 0.10995881259441376 0.020942702889442444
0.63803970813751221 0.08594048023223877 0.0099647818133234978
0.70568555593490601 0.071642965078353882 0.0047785742208361626
0.7662273645401001 0.047323413193225861 0.0039320103824138641
0.82457000017166138 0.023283969610929489 0.0011702743358910084
0.14390556514263153 0.28019577264785767 0.099054314196109772
0.16018128395080566 0.27568334341049194 0.09594465047121048
0.18799257278442383 0.27084848284721375 0.090753458440303802
0.23062588274478912 0.26327884197235107 0.083870559930801392
0.28170314431190491 0.25556507706642151 0.074105910956859589
0.35032379627227783 0.2464069128036499 0.061360705643892288
0.42141842842102051 0.23083055019378662 0.045911300927400589
0.50642073154449463 0.21456149220466614 0.041454240679740906
0.59092390537261963 0.19726267457008362 0.032968290150165558
0.66951805353164673 0.17134031653404236 0.017708886414766312
0.73949766159057617 0.14472828805446625 0.0072801327332854271
0.79754889011383057 0.1130521148443222 0.0061544831842184067
0.85106575489044189 0.078638367354869843 0.0040933946147561073
0.16584694385528564 0.38262706995010376 0.12145499140024185
0.18427370488643646 0.37274256348609924 0.11901478469371796
0.21449746191501617 0.3682151734828949 0.11414285004138947
0.26268553733825684 0.36515730619430542 0.11038273572921753
0.31997108459472656 0.36120852828025818 0.10189096629619598
0.38808512687683105 0.35172522068023682 0.085953809320926666
0.46346011757850647 0.33539977669715881 0.067764848470687866
0.54556232690811157 0.31561887264251709 0.056233186274766922
0.62684094905853271 0.29482704401016235 0.041893992573022842
0.70303601026535034 0.26942577958106995 0.027186119928956032
0.77267765998840332 0.24564899504184723 0.01812400110065937
0.83105641603469849 0.22232197225093842 0.011254807934165001
0.87499713897705078 0.20147371292114258 0.0088621852919459343
0.19628714025020599 0.48555457592010498 0.13693243265151978
0.22740538418292999 0.47761750221252441 0.13131684064865112
0.26152157783508301 0.47381889820098877 0.1268589049577713
0.30898106098175049 0.4715944230556488 0.12504276633262634
0.36724323034286499 0.46808087825775146 0.11717741936445236
0.43261992931365967 0.46011430025100708 0.10420084744691849
0.51166045665740967 0.45146456360816956 0.088704816997051239
0.59144538640975952 0.43291345238685608 0.072728611528873444
0.66700899600982666 0.40786781907081604 0.056982900947332382
0.73621892929077148 0.38733485341072083 0.043947525322437286
0.80394816398620605 0.3721085786819458 0.035438895225524902
0.86245608329772949 0.34882807731628418 0.024300698190927505
0.90046989917755127 0.33068594336509705 0.018082054331898689
0.26886409521102905 0.58272379636764526 0.13800221681594849
0.29064351320266724 0.58396846055984497 0.13558000326156616
0.32367908954620361 0.5807989239692688 0.13157925009727478
0.37027928233146667 0.57796847820281982 0.12782584130764008
0.42687216401100159 0.57196521759033203 0.11769666522741318
0.49449285864830017 0.56494104862213135 0.1074199303984642
0.56861156225204468 0.55602365732192993 0.095403723418712616
0.63829851150512695 0.54379194974899292 0.084551088511943817
0.70761227607727051 0.52264142036437988 0.072275795042514801
0.77322208881378174 0.50618618726730347 0.060834802687168121
0.83415216207504272 0.49770969152450562 0.051683031022548676
0.8864704966545105 0.47660595178604126 0.046095471829175949
0.93049919605255127 0.45864662528038025 0.041035640984773636
0.36201348900794983 0.67026859521865845 0.12500758469104767
0.37990742921829224 0.66907912492752075 0.12523075938224792
0.40937310457229614 0.66334843635559082 0.12034875899553299
0.45390403270721436 0.65974223613739014 0.1139506921172142
0.50034528970718384 0.6556861400604248 0.10725266486406326
0.56199043989181519 0.65030360221862793 0.10053297877311707
0.63109374046325684 0.63977742195129395 0.089292414486408234
0.69391453266143799 0.63108152151107788 0.080767087638378143
0.75396168231964111 0.62397164106369019 0.076345302164554596
0.81149137020111084 0.61185705661773682 0.069274157285690308
0.86166006326675415 0.5996057391166687 0.062571503221988678
0.90936285257339478 0.58569103479385376 0.060196340084075928
0.95468652248382568 0.57312840223312378 0.058237936347723007
0.47535011172294617 0.73266506195068359 0.10034703463315964
0.49083244800567627 0.73009592294692993 0.099728390574455261
0.51087504625320435 0.72696971893310547 0.096598789095878601
0.54452997446060181 0.72184401750564575 0.092282883822917938
0.58857142925262451 0.71630430221557617 0.085221566259860992
0.64031553268432617 0.71618866920471191 0.081044681370258331
0.69232118129730225 0.71193838119506836 0.076536424458026886
0.74730974435806274 0.70440143346786499 0.071101725101470947
0.79985702037811279 0.69689393043518066 0.065843351185321808
0.84545391798019409 0.69001328945159912 0.062492579221725464
0.88927197456359863 0.68341618776321411 0.060932084918022156
0.92683762311935425 0.67394250631332397 0.060918994247913361
0.96106290817260742 0.65553891658782959 0.056116439402103424
0.59318298101425171 0.77924942970275879 0.076807625591754913
0.60171294212341309 0.77797669172286987 0.074574247002601624
0.61266118288040161 0.77519047260284424 0.068874403834342957
0.63962173461914062 0.77267539501190186 0.064759045839309692
0.67671185731887817 0.76999801397323608 0.058050461113452911
0.71800136566162109 0.76763993501663208 0.057596497237682343
0.75717121362686157 0.76341480016708374 0.0571567602455616
0.79916477203369141 0.75874090194702148 0.053178973495960236
0.84075242280960083 0.75376909971237183 0.047720186412334442
0.87902891635894775 0.74817430973052979 0.046481560915708542
0.91600370407104492 0.74350768327713013 0.045568458735942841
0.94468367099761963 0.73579102754592896 0.046247787773609161
0.97002649307250977 0.72490322589874268 0.044594619423151016
0.70355683565139771 0.81981593370437622 0.046226054430007935
0.70848590135574341 0.81811064481735229 0.045491281896829605
0.71716970205307007 0.81447780132293701 0.041372142732143402
0.74022656679153442 0.81316781044006348 0.036920659244060516
0.76194876432418823 0.81250870227813721 0.032352343201637268
0.79021865129470825 0.81070035696029663 0.034806344658136368
0.82437330484390259 0.80655020475387573 0.035400152206420898
0.85790163278579712 0.80276519060134888 0.031454302370548248
0.88753139972686768 0.79985970258712769 0.026952451094985008
0.91455590724945068 0.79615074396133423 0.027908863499760628
0.94429898262023926 0.79472851753234863 0.028770925477147102
0.96535056829452515 0.79127275943756104 0.029186787083745003
0.98502898216247559 0.78572684526443481 0.028640059754252434
0.80622392892837524 0.85631740093231201 0.014931084588170052
0.81110024452209473 0.85489416122436523 0.015182899311184883
0.81723219156265259 0.8523830771446228 0.013974731788039207
0.82866066694259644 0.84969371557235718 0.012638106942176819
0.84140664339065552 0.84751355648040771 0.013062720187008381
0.86401283740997314 0.84915840625762939 0.012683658860623837
0.88990843296051025 0.84866839647293091 0.0121981306001544
0.91402983665466309 0.84425193071365356 0.0098314173519611359
0.93324762582778931 0.83808672428131104 0.010440243408083916
0.95265185832977295 0.83466517925262451 0.012090870179235935
0.97319638729095459 0.83476537466049194 0.012036970816552639
0.98917418718338013 0.83472633361816406 0.011771856807172298
0.99697494506835938 0.83261644840240479 0.0098230252042412758
0.022891474887728691 0.024917677044868469 0.054182540625333786
0.043987050652503967 0.023022295907139778 0.047738708555698395
0.079002201557159424 0.02110016718506813 0.041417934000492096
0.1232212707400322 0.018360810354351997 0.038372054696083069
0.1741660088300705 0.016134433448314667 0.035311412066221237
0.23406302928924561 0.014872951433062553 0.026799893006682396
0.29801592230796814 0.010729457251727581 0.01396388653665781
0.37668132781982422 0.006477775052189827 0.006070110946893692
0.47811618447303772 0.0085561564192175865 0.0057169743813574314
0.58154034614562988 0.011492875404655933 0.0061840582638978958
0.66054725646972656 0.0097770541906356812 0.0049168304540216923
0.72848665714263916 0.0063297348096966743 0.0031615463085472584
0.79372870922088623 0.0031172360759228468 0.00052213482558727264
0.048512894660234451 0.073341444134712219 0.073006182909011841
0.071586072444915771 0.070921294391155243 0.06747029721736908
0.1034424901008606 0.066678814589977264 0.059667937457561493
0.14737546443939209 0.061263050884008408 0.052718847990036011
0.19961237907409668 0.051270414143800735 0.04304230585694313
0.25497680902481079 0.038930032402276993 0.031270492821931839
0.32596656680107117 0.034985680133104324 0.023804549127817154
0.40519317984580994 0.028008988127112389 0.016475317999720573
0.49817678332328796 0.017028778791427612 0.0075901406817138195
0.59417504072189331 0.013336719945073128 0.0038594563957303762
0.66714322566986084 0.010557735338807106 0.0027937048580497503
0.73526668548583984 0.010108768008649349 0.0039864783175289631
0.79796797037124634 0.0090327095240354538 0.0029835719615221024
0.082476027309894562 0.13387992978096008 0.092709437012672424
0.10196415334939957 0.12771275639533997 0.086985029280185699
0.12791268527507782 0.12138670682907104 0.079072169959545135
0.17074000835418701 0.11511604487895966 0.071952998638153076
0.22471721470355988 0.10895092785358429 0.062759354710578918
0.28634285926818848 0.10095033794641495 0.051947202533483505
0.35535386204719543 0.082382217049598694 0.034086160361766815
0.43492978811264038 0.067555412650108337 0.02208220586180687
0.525401771068573 0.050059538334608078 0.014828281477093697
0.61105817556381226 0.029642531648278236 0.0057639777660369873
0.67911148071289062 0.022081876173615456 0.0051965001039206982
0.74667811393737793 0.019087368622422218 0.0080690421164035797
0.80672550201416016 0.014824646525084972 0.0053535611368715763
0.11629538238048553 0.20159171521663666 0.11163388192653656
0.13198724389076233 0.20048476755619049 0.10811704397201538
0.15781736373901367 0.19628837704658508 0.10281214863061905
0.20014730095863342 0.18896357715129852 0.095650553703308105
0.25127384066581726 0.18070241808891296 0.086611054837703705
0.31592869758605957 0.17145565152168274 0.074967309832572937
0.38749450445175171 0.15472275018692017 0.055444065481424332
0.46835795044898987 0.13580696284770966 0.040026675909757614
0.55602079629898071 0.1145794615149498 0.032100841403007507
0.63696092367172241 0.092962212860584259 0.02124418318271637
0.70469915866851807 0.074549354612827301 0.014544902369379997
0.76709330081939697 0.04875660315155983 0.014222657307982445
0.82423287630081177 0.026011897251009941 0.010359685868024826
0.14008411765098572 0.28609487414360046 0.1320434957742691
0.15289001166820526 0.28199982643127441 0.12790612876415253
0.18437954783439636 0.27765387296676636 0.12392161041498184
0.2315509170293808 0.27359336614608765 0.11999743431806564
0.2820354700088501 0.26326677203178406 0.1099993959069252
0.34851709008216858 0.2524682879447937 0.096832767128944397
0.42471146583557129 0.23635846376419067 0.077629163861274719
0.50612020492553711 0.21620559692382812 0.059859991073608398
0.58894103765487671 0.1967938095331192 0.046873789280653
0.66804677248001099 0.17506924271583557 0.032837212085723877
0.73759216070175171 0.14860755205154419 0.024102723225951195
0.79780334234237671 0.11724597960710526 0.021106360480189323
0.84959059953689575 0.084623537957668304 0.018730463460087776
0.16024342179298401 0.38713556528091431 0.15175154805183411
0.1759006679058075 0.37428373098373413 0.14626657962799072
0.21393425762653351 0.37184646725654602 0.1435026228427887
0.2639763355255127 0.37215235829353333 0.13995973765850067
0.31973892450332642 0.36568593978881836 0.13130588829517365
0.3885878324508667 0.35604020953178406 0.12001365423202515
0.46408912539482117 0.33778232336044312 0.10015983134508133
0.54494696855545044 0.31474673748016357 0.078281179070472717
0.62628626823425293 0.29504844546318054 0.060798436403274536
0.70271998643875122 0.27483311295509338 0.046374991536140442
0.77098459005355835 0.25042828917503357 0.038682810962200165
0.83159488439559937 0.22635838389396667 0.033102430403232574
0.87775397300720215 0.19953611493110657 0.029340064153075218
0.19574341177940369 0.489156574010849 0.16599507629871368
0.22720436751842499 0.48375663161277771 0.16061177849769592
0.26044455170631409 0.48033183813095093 0.15443128347396851
0.3077581524848938 0.47839313745498657 0.15073156356811523
0.36914494633674622 0.46929201483726501 0.14399144053459167
0.43591961264610291 0.46206659078598022 0.13546890020370483
0.50969833135604858 0.45166283845901489 0.12050729244947433
0.58892333507537842 0.43193250894546509 0.10016349703073502
0.6673772931098938 0.40887898206710815 0.081143520772457123
0.73620051145553589 0.3909294605255127 0.071716815233230591
0.80247694253921509 0.37662789225578308 0.062406666576862335
0.86285185813903809 0.35782331228256226 0.051116239279508591
0.90762186050415039 0.33109137415885925 0.044206403195858002
0.26713389158248901 0.58857840299606323 0.1712985634803772
0.29302671551704407 0.5894961953163147 0.16941763460636139
0.32189479470252991 0.58770513534545898 0.16020721197128296
0.36563080549240112 0.58278495073318481 0.15048032999038696
0.42998316884040833 0.57218188047409058 0.1449413001537323
0.49526384472846985 0.56507688760757446 0.13455533981323242
0.56537449359893799 0.55601698160171509 0.12426161020994186
0.63723015785217285 0.54481762647628784 0.11357662826776505
0.70813643932342529 0.52733433246612549 0.10023734718561172
0.77184492349624634 0.50831663608551025 0.091868363320827484
0.83385688066482544 0.49382725358009338 0.080844342708587646
0.88770407438278198 0.4786372184753418 0.07161317765712738
0.93179619312286377 0.45832440257072449 0.067171789705753326
0.35858571529388428 0.67481160163879395 0.16052007675170898
0.38004505634307861 0.67377513647079468 0.16189751029014587
0.40936678647994995 0.66883409023284912 0.15499496459960938
0.44938650727272034 0.664317786693573 0.13924615085124969
0.50286203622817993 0.65809863805770874 0.13304251432418823
0.56236249208450317 0.65338003635406494 0.12516061961650848
0.62428736686706543 0.64386081695556641 0.11741737276315689
0.68955636024475098 0.63203996419906616 0.10821380466222763
0.75249302387237549 0.62409293651580811 0.10259273648262024
0.8074420690536499 0.61334794759750366 0.096624873578548431
0.86108988523483276 0.59917336702346802 0.087298452854156494
0.90898966789245605 0.58611410856246948 0.086372107267379761
0.95080810785293579 0.57523149251937866 0.088531002402305603
0.47625851631164551 0.73586010932922363 0.12556499242782593
0.49057188630104065 0.73434245586395264 0.12830094993114471
0.51055186986923218 0.73239332437515259 0.13018991053104401
0.54200237989425659 0.72921210527420044 0.11638083308935165
0.58620244264602661 0.7241370677947998 0.10826993733644485
0.63884001970291138 0.71839994192123413 0.10293792933225632
0.68953996896743774 0.71212983131408691 0.10059022903442383
0.74299973249435425 0.70646142959594727 0.093582600355148315
0.7963598370552063 0.69956099987030029 0.088280156254768372
0.84438443183898926 0.69306808710098267 0.086524695158004761
0.88693046569824219 0.68682193756103516 0.084761254489421844
0.92550241947174072 0.67589128017425537 0.08873729407787323
0.96256101131439209 0.6630176305770874 0.090232104063034058
0.59454089403152466 0.78536510467529297 0.091352649033069611
0.60057103633880615 0.78363442420959473 0.090436540544033051
0.6165655255317688 0.78093808889389038 0.090749077498912811
0.6414911150932312 0.77780425548553467 0.086742013692855835
0.67649537324905396 0.77491390705108643 0.078811302781105042
0.71340924501419067 0.77125835418701172 0.078043513000011444
0.7551274299621582 0.765938401222229 0.078954614698886871
0.79915040731430054 0.76106739044189453 0.072195522487163544
0.83682149648666382 0.75835150480270386 0.068906284868717194
0.87610143423080444 0.75216817855834961 0.06791418045759201
0.9141114354133606 0.74713814258575439 0.066530488431453705
0.94488561153411865 0.7383882999420166 0.070696614682674408
0.97362536191940308 0.73030465841293335 0.077885903418064117
0.70447415113449097 0.82459449768066406 0.054850172251462936
0.70870113372802734 0.82323390245437622 0.054798096418380737
0.71996432542800903 0.82076257467269897 0.054033122956752777
0.73948138952255249 0.81865411996841431 0.05207844078540802
0.76262456178665161 0.8163180947303772 0.045397005975246429
0.78739422559738159 0.81319892406463623 0.049330320209264755
0.81958103179931641 0.80989360809326172 0.052682016044855118
0.8544466495513916 0.80488818883895874 0.046034839004278183
0.88556510210037231 0.80412644147872925 0.041927158832550049
0.91541856527328491 0.80188983678817749 0.042670216411352158
0.94558036327362061 0.79817861318588257 0.043061349540948868
0.96368855237960815 0.79424053430557251 0.048089556396007538
0.98588401079177856 0.78988790512084961 0.055527780205011368
0.80877327919006348 0.8598332405090332 0.017367597669363022
0.80973684787750244 0.85841751098632812 0.019270174205303192
0.81831437349319458 0.85668790340423584 0.018359450623393059
0.83294820785522461 0.85459601879119873 0.016019050031900406
0.84662014245986938 0.8517494797706604 0.015226506628096104
0.86276888847351074 0.85037350654602051 0.01649627648293972
0.88741648197174072 0.84981131553649902 0.016179358586668968
0.91222059726715088 0.84663403034210205 0.015021110884845257
0.93736797571182251 0.8443102240562439 0.012553001753985882
0.96143811941146851 0.84158200025558472 0.014448950998485088
0.97579371929168701 0.83601170778274536 0.023522978648543358
0.98579567670822144 0.83474785089492798 0.02860838919878006
0.99344384670257568 0.83459436893463135 0.025656009092926979
0.023761166259646416 0.026159368455410004 0.097349144518375397
0.044424843043088913 0.024383515119552612 0.093098476529121399
0.079241827130317688 0.023224445059895515 0.086381487548351288
0.12380139529705048 0.019492369145154953 0.08058764785528183
0.17298392951488495 0.017239963635802269 0.072048038244247437
0.23068563640117645 0.013198987580835819 0.05884552001953125
0.30658426880836487 0.0096144136041402817 0.045961685478687286
0.38821089267730713 0.0055239507928490639 0.032957699149847031
0.48204657435417175 0.005164681002497673 0.020849984139204025
0.57803690433502197 0.0062333201058208942 0.012115688063204288
0.65677279233932495 0.0050921421498060226 0.0093972599133849144
0.72938817739486694 0.0037781060673296452 0.0075680301524698734
0.79486483335494995 0.00094999425346031785 0.0042982213199138641
0.048924017697572708 0.078369975090026855 0.11805152148008347
0.073657214641571045 0.075440183281898499 0.11374171823263168
0.10490022599697113 0.070826031267642975 0.1069972887635231
0.14675077795982361 0.0626678466796875 0.098051615059375763
0.19883126020431519 0.054552625864744186 0.087927453219890594
0.25760594010353088 0.045795172452926636 0.074139192700386047
0.33331164717674255 0.035670097917318344 0.057908225804567337
0.4115661084651947 0.025334646925330162 0.045151069760322571
0.5013088583946228 0.013393431901931763 0.029020123183727264
0.59314996004104614 0.0088547803461551666 0.013300443068146706
0.66787475347518921 0.0079113384708762169 0.010447124019265175
0.73754870891571045 0.0077143949456512928 0.010666596703231335
0.7993619441986084 0.0050888359546661377 0.005728747695684433
0.084698200225830078 0.13810968399047852 0.13800115883350372
0.10421071946620941 0.13244156539440155 0.13246938586235046
0.13283808529376984 0.12595722079277039 0.12543858587741852
0.17081117630004883 0.11784407496452332 0.11623808741569519
0.22309400141239166 0.1108115091919899 0.10640560835599899
0.28470656275749207 0.10418768227100372 0.095706135034561157
0.35864004492759705 0.089349992573261261 0.078805230557918549
0.44128942489624023 0.074876196682453156 0.059904523193836212
0.52871561050415039 0.054117597639560699 0.04025718942284584
0.61277276277542114 0.029458751901984215 0.020697979256510735
0.68335258960723877 0.021475654095411301 0.020076662302017212
0.75096029043197632 0.017634402960538864 0.020795665681362152
0.80815583467483521 0.0098195243626832962 0.0084728766232728958
0.11700756847858429 0.20646394789218903 0.15776191651821136
0.13180965185165405 0.20516258478164673 0.15305106341838837
0.15908488631248474 0.20157609879970551 0.14728617668151855
0.19834259152412415 0.19473700225353241 0.13944375514984131
0.24948219954967499 0.18473951518535614 0.12949022650718689
0.31370165944099426 0.17533183097839355 0.11785625666379929
0.39033856987953186 0.16057342290878296 0.10103961825370789
0.47190698981285095 0.14226272702217102 0.080369956791400909
0.55817180871963501 0.11859283596277237 0.057330906391143799
0.63759011030197144 0.094967924058437347 0.04084261879324913
0.70705997943878174 0.075009830296039581 0.03417636826634407
0.77123546600341797 0.050704356282949448 0.031074943020939827
0.82450151443481445 0.029254628345370293 0.022314079105854034
