luts/colorslide/fuji_velvia_50.cube
# Created by: G'MIC (https://gmic.eu)
TITLE "fuji_velvia_50"
# LUT size
LUT_3D_SIZE 5
# Data domain
DOMAIN_MIN 0.0 0.0 0.0
DOMAIN_MAX 1.0 1.0 1.0
# LUT data points
0.02319997176527977 0.011263723485171795 0.0092625785619020462
0.18571458756923676 0.0032811930868774652 0.0092890122905373573
0.45656773447990417 0.002153987530618906 0.011783046647906303
0.71036690473556519 0 0.011558308266103268
0.95030558109283447 0 0.002648521913215518
0.034583237022161484 0.22361977398395538 0.035810403525829315
0.19195529818534851 0.1924482136964798 0.035468891263008118
0.45758739113807678 0.1507389098405838 0.034107312560081482
0.70957088470458984 0.093589678406715393 0.02499237097799778
0.95373260974884033 0.048057466745376587 0.0097935842350125313
0.0024944229517132044 0.50218969583511353 0.078078359365463257
0.1341303288936615 0.48677760362625122 0.077695704996585846
0.44550088047981262 0.46047961711883545 0.07657400518655777
0.70863825082778931 0.41700902581214905 0.064151212573051453
0.9573664665222168 0.37502589821815491 0.035212676972150803
4.0390910726273432e-05 0.76108437776565552 0.11290770769119263
0.027811147272586823 0.75193965435028076 0.11297914385795593
0.4158417284488678 0.73320013284683228 0.11691936105489731
0.6901627779006958 0.70253944396972656 0.10706106573343277
0.95515495538711548 0.6633870005607605 0.067071937024593353
0 0.99037235975265503 0.16590127348899841
0.011790960095822811 0.99135738611221313 0.16630953550338745
0.37308213114738464 0.98476231098175049 0.15981753170490265
0.67100363969802856 0.96515297889709473 0.139522984623909
0.94201362133026123 0.94603043794631958 0.024617886170744896
0.012639034539461136 0.01281814556568861 0.12572434544563293
0.18190032243728638 0.0046619637869298458 0.12819354236125946
0.4569566547870636 0.0019061518833041191 0.12445017695426941
0.71441191434860229 0.0002830954035744071 0.10941191762685776
0.95802289247512817 0 0.067907296121120453
0.040082983672618866 0.21334899961948395 0.18952013552188873
0.19089508056640625 0.19094473123550415 0.19283434748649597
0.46366998553276062 0.14896722137928009 0.19133250415325165
0.71733993291854858 0.09251122921705246 0.17224198579788208
0.9594075083732605 0.04419829323887825 0.13419798016548157
0.0028992148581892252 0.50788277387619019 0.2473611980676651
0.12494119256734848 0.48855376243591309 0.24938894808292389
0.44695433974266052 0.4542994499206543 0.24912142753601074
0.71062725782394409 0.41472041606903076 0.23834395408630371
0.9580923318862915 0.37700507044792175 0.20386715233325958
0.00023063211119733751 0.76830708980560303 0.29789134860038757
0.024447048082947731 0.75583475828170776 0.30114266276359558
0.42380836606025696 0.73083871603012085 0.30018967390060425
0.69287091493606567 0.70167744159698486 0.28768399357795715
0.95406264066696167 0.66553270816802979 0.2630707323551178
0 0.98762631416320801 0.34073546528816223
0.012077555991709232 0.99245548248291016 0.33841001987457275
0.3765900731086731 0.98139762878417969 0.33699440956115723
0.67178225517272949 0.97102081775665283 0.326314777135849
0.94534599781036377 0.94671809673309326 0.28767728805541992
0.010588686913251877 0.010017619468271732 0.3372783362865448
0.17835135757923126 0.0047248541377484798 0.34438607096672058
0.45957642793655396 0.001211951719596982 0.34233981370925903
0.71721863746643066 0 0.33666568994522095
0.96127551794052124 0 0.31567174196243286
0.032276634126901627 0.2083398848772049 0.39440265297889709
0.18572965264320374 0.18281599879264832 0.40082809329032898
0.46301692724227905 0.13039647042751312 0.40106725692749023
0.7234075665473938 0.08170095831155777 0.39597341418266296
0.96255052089691162 0.037910565733909607 0.38186648488044739
0.0011564367450773716 0.50305891036987305 0.45509916543960571
0.11284659802913666 0.48731595277786255 0.45369035005569458
0.44903433322906494 0.44940313696861267 0.45369908213615417
0.71836978197097778 0.41657930612564087 0.45148500800132751
0.95918565988540649 0.37116765975952148 0.4400942325592041
0 0.7635807991027832 0.50356364250183105
0.014044518582522869 0.75880199670791626 0.50792187452316284
0.41657912731170654 0.73557019233703613 0.50373470783233643
0.69993656873703003 0.70948106050491333 0.49947932362556458
0.95882630348205566 0.67113852500915527 0.49594086408615112
0 0.99137145280838013 0.54452192783355713
0.014149250462651253 0.9949224591255188 0.5477287769317627
0.37045514583587646 0.98767995834350586 0.54974210262298584
0.67071688175201416 0.97691315412521362 0.54588323831558228
0.95183968544006348 0.94862264394760132 0.52628439664840698
0.01199041586369276 0.0079544968903064728 0.52980953454971313
0.1567588597536087 0.0004828658711630851 0.54259884357452393
0.45285877585411072 0.0030467761680483818 0.55660486221313477
0.72407996654510498 0.0001382266782457009 0.54390454292297363
0.96409595012664795 0 0.53827536106109619
0.019475869834423065 0.18491366505622864 0.58879154920578003
0.16997011005878448 0.15753741562366486 0.59475255012512207
0.46115487813949585 0.10981262475252151 0.59568649530410767
0.72571355104446411 0.062729135155677795 0.59775388240814209
0.9690672755241394 0.020119581371545792 0.59610849618911743
0.0026244968175888062 0.4976082444190979 0.64240843057632446
0.082369953393936157 0.48413762450218201 0.64586055278778076
0.4461369514465332 0.44104832410812378 0.64895868301391602
0.72107833623886108 0.40522238612174988 0.65061438083648682
0.96495038270950317 0.35875996947288513 0.65089398622512817
0 0.76397824287414551 0.69361019134521484
0.0094962622970342636 0.75997453927993774 0.69751882553100586
0.41393360495567322 0.73317527770996094 0.69928246736526489
0.70198965072631836 0.69741183519363403 0.69817912578582764
0.96493315696716309 0.66465938091278076 0.70081418752670288
0 0.99424350261688232 0.74049395322799683
0.0080152172595262527 0.99603950977325439 0.74389630556106567
0.35417917370796204 0.99006408452987671 0.74761724472045898
0.67550647258758545 0.97548460960388184 0.74806159734725952
0.95501589775085449 0.95485877990722656 0.73979049921035767
0.0035003062803298235 0.0041177785024046898 0.72020137310028076
0.12460172921419144 0.00033259671181440353 0.7193979024887085
0.44005414843559265 0 0.73041528463363647
0.71820634603500366 0 0.72903376817703247
0.96452397108078003 0 0.73788297176361084
0.016219837591052055 0.13994823396205902 0.76815283298492432
0.13103777170181274 0.12274054437875748 0.77304273843765259
0.44652834534645081 0.062569081783294678 0.77918499708175659
0.72464829683303833 0.025443566963076591 0.7847711443901062
0.97154510021209717 0.0069583370350301266 0.78643321990966797
0.00018328498117625713 0.48153749108314514 0.82283347845077515
0.045968297868967056 0.46814751625061035 0.830810546875
0.42541107535362244 0.42425233125686646 0.82532209157943726
0.72262489795684814 0.38371840119361877 0.83984106779098511
0.97236526012420654 0.33179184794425964 0.84547621011734009
0 0.76708239316940308 0.88595414161682129
0.0035514084156602621 0.75742703676223755 0.88507604598999023
0.38109400868415833 0.72808068990707397 0.8917505145072937
0.69417655467987061 0.69046741724014282 0.89727491140365601
0.96957087516784668 0.65407395362854004 0.90466928482055664
0 0.99206781387329102 0.93783515691757202
2.1003274014219642e-05 0.99431902170181274 0.94357407093048096
0.28738859295845032 0.9931601881980896 0.95051461458206177
0.65548348426818848 0.98060399293899536 0.95527464151382446
0.95858281850814819 0.95620930194854736 0.95919501781463623
