luts/colorslide/fuji_fp_100c.cube
# Created by: G'MIC (https://gmic.eu)
TITLE "fuji_fp_100c"
# LUT size
LUT_3D_SIZE 7
# Data domain
DOMAIN_MIN 0.0 0.0 0.0
DOMAIN_MAX 1.0 1.0 1.0
# LUT data points
0.020522966980934143 0.023210803046822548 0.016879497095942497
0.083912625908851624 0.023119458928704262 0.012437603436410427
0.16808544099330902 0.015572013333439827 0.011705615557730198
0.29578942060470581 0.0048050377517938614 0.0028982274234294891
0.48261240124702454 0.01102447509765625 0.0039215688593685627
0.66427600383758545 0.01341400109231472 0.0028089485131204128
0.78915423154830933 0.0046918680891394615 0
0.083535619080066681 0.1254829615354538 0.049753405153751373
0.13144309818744659 0.11788560450077057 0.046968884766101837
0.22301089763641357 0.10247226804494858 0.030075132846832275
0.35618555545806885 0.08364570140838623 0.01876475103199482
0.52645516395568848 0.042961567640304565 0.0082165440544486046
0.67967528104782104 0.023591523990035057 0.0016554589383304119
0.8059806227684021 0.016544835641980171 0.00099705718457698822
0.14390556514263153 0.28019577264785767 0.099054314196109772
0.18799257278442383 0.27084848284721375 0.090753458440303802
0.28170314431190491 0.25556507706642151 0.074105910956859589
0.42141842842102051 0.23083055019378662 0.045911300927400589
0.59092390537261963 0.19726267457008362 0.032968290150165558
0.73949766159057617 0.14472828805446625 0.0072801327332854271
0.85106575489044189 0.078638367354869843 0.0040933946147561073
0.19628714025020599 0.48555457592010498 0.13693243265151978
0.26152157783508301 0.47381889820098877 0.1268589049577713
0.36724323034286499 0.46808087825775146 0.11717741936445236
0.51166045665740967 0.45146456360816956 0.088704816997051239
0.66700899600982666 0.40786781907081604 0.056982900947332382
0.80394816398620605 0.3721085786819458 0.035438895225524902
0.90046989917755127 0.33068594336509705 0.018082054331898689
0.36201348900794983 0.67026859521865845 0.12500758469104767
0.40937310457229614 0.66334843635559082 0.12034875899553299
0.50034528970718384 0.6556861400604248 0.10725266486406326
0.63109374046325684 0.63977742195129395 0.089292414486408234
0.75396168231964111 0.62397164106369019 0.076345302164554596
0.86166006326675415 0.5996057391166687 0.062571503221988678
0.95468652248382568 0.57312840223312378 0.058237936347723007
0.59318298101425171 0.77924942970275879 0.076807625591754913
0.61266118288040161 0.77519047260284424 0.068874403834342957
0.67671185731887817 0.76999801397323608 0.058050461113452911
0.75717121362686157 0.76341480016708374 0.0571567602455616
0.84075242280960083 0.75376909971237183 0.047720186412334442
0.91600370407104492 0.74350768327713013 0.045568458735942841
0.97002649307250977 0.72490322589874268 0.044594619423151016
0.80622392892837524 0.85631740093231201 0.014931084588170052
0.81723219156265259 0.8523830771446228 0.013974731788039207
0.84140664339065552 0.84751355648040771 0.013062720187008381
0.88990843296051025 0.84866839647293091 0.0121981306001544
0.93324762582778931 0.83808672428131104 0.010440243408083916
0.97319638729095459 0.83476537466049194 0.012036970816552639
0.99697494506835938 0.83261644840240479 0.0098230252042412758
0.023761166259646416 0.026159368455410004 0.097349144518375397
0.079241827130317688 0.023224445059895515 0.086381487548351288
0.17298392951488495 0.017239963635802269 0.072048038244247437
0.30658426880836487 0.0096144136041402817 0.045961685478687286
0.48204657435417175 0.005164681002497673 0.020849984139204025
0.65677279233932495 0.0050921421498060226 0.0093972599133849144
0.79486483335494995 0.00094999425346031785 0.0042982213199138641
0.084698200225830078 0.13810968399047852 0.13800115883350372
0.13283808529376984 0.12595722079277039 0.12543858587741852
0.22309400141239166 0.1108115091919899 0.10640560835599899
0.35864004492759705 0.089349992573261261 0.078805230557918549
0.52871561050415039 0.054117597639560699 0.04025718942284584
0.68335258960723877 0.021475654095411301 0.020076662302017212
0.80815583467483521 0.0098195243626832962 0.0084728766232728958
0.13418196141719818 0.29155927896499634 0.18022054433822632
0.18226809799671173 0.2842194139957428 0.17008073627948761
0.28033974766731262 0.26880067586898804 0.15248177945613861
0.42700543999671936 0.24310207366943359 0.1217225044965744
0.59126615524291992 0.20014776289463043 0.078774683177471161
0.73817223310470581 0.15268199145793915 0.047574494034051895
0.84883826971054077 0.094763465225696564 0.036299567669630051
0.19086036086082458 0.49873673915863037 0.21231742203235626
0.25527358055114746 0.49233809113502502 0.20436854660511017
0.37009081244468689 0.47762307524681091 0.19027574360370636
0.50968462228775024 0.45219799876213074 0.16029444336891174
0.66655701398849487 0.41426268219947815 0.12882313132286072
0.80038660764694214 0.38400763273239136 0.10731184482574463
0.90440613031387329 0.33089420199394226 0.088717199862003326
0.35381487011909485 0.68108272552490234 0.20811654627323151
0.40505591034889221 0.67610126733779907 0.20576974749565125
0.50252866744995117 0.66533464193344116 0.1877623051404953
0.6237979531288147 0.65143156051635742 0.16859760880470276
0.74880635738372803 0.63096499443054199 0.15029743313789368
0.85667312145233154 0.60474556684494019 0.13427139818668365
0.94643580913543701 0.5798153281211853 0.13438250124454498
0.59124106168746948 0.79037052392959595 0.13166767358779907
0.61734169721603394 0.78711950778961182 0.12928378582000732
0.67821574211120605 0.7810167670249939 0.11780662089586258
0.75137805938720703 0.77128320932388306 0.11527930200099945
0.83193057775497437 0.76421564817428589 0.11339546740055084
0.90971261262893677 0.75426328182220459 0.10812114924192429
0.97856855392456055 0.74040704965591431 0.12543243169784546
0.80804669857025146 0.86392319202423096 0.025834744796156883
0.8165053129196167 0.8626212477684021 0.023049073293805122
0.84464156627655029 0.8581550121307373 0.021473200991749763
0.88600915670394897 0.85529893636703491 0.025470195338129997
0.93265193700790405 0.85151439905166626 0.02237173356115818
0.97653865814208984 0.84259253740310669 0.036816690117120743
0.99439328908920288 0.84033584594726562 0.041341967880725861
0.026347486302256584 0.035950515419244766 0.20922346413135529
0.075947359204292297 0.025626327842473984 0.1990874707698822
0.18331253528594971 0.025940105319023132 0.18594358861446381
0.30719256401062012 0.012854976579546928 0.15088237822055817
0.49192157387733459 0.0058301440440118313 0.1158953532576561
0.65736585855484009 0.0018122205510735512 0.07931964099407196
0.79197382926940918 0 0.058194030076265335
0.084291301667690277 0.15240994095802307 0.25127151608467102
0.12767617404460907 0.14394131302833557 0.24521483480930328
0.22048757970333099 0.12490098178386688 0.22454749047756195
0.36272743344306946 0.09994429349899292 0.19687791168689728
0.5306517481803894 0.063662268221378326 0.15820986032485962
0.68705147504806519 0.023678962141275406 0.11632496118545532
0.80605709552764893 0.017112476751208305 0.094449244439601898
0.11990179866552353 0.30786103010177612 0.30370202660560608
0.17279821634292603 0.29665106534957886 0.29247903823852539
0.28441932797431946 0.29216888546943665 0.27958616614341736
0.43016096949577332 0.26277634501457214 0.2543025016784668
0.59563243389129639 0.21962644159793854 0.21318989992141724
0.73719781637191772 0.17395077645778656 0.17879171669483185
0.8408052921295166 0.11075723916292191 0.15579599142074585
0.17965196073055267 0.51819062232971191 0.35243237018585205
0.24406872689723969 0.50763618946075439 0.34317448735237122
0.3585415780544281 0.49783051013946533 0.33138382434844971
0.51668083667755127 0.47931995987892151 0.30789363384246826
0.66527366638183594 0.43457207083702087 0.27413102984428406
0.79035103321075439 0.40052339434623718 0.25057145953178406
0.891002357006073 0.34991791844367981 0.23921819031238556
0.34678897261619568 0.69384407997131348 0.36952221393585205
0.39088639616966248 0.69265556335449219 0.36552232503890991
0.49116253852844238 0.68652588129043579 0.35606580972671509
0.61992502212524414 0.67137825489044189 0.33632829785346985
0.73723345994949341 0.65154033899307251 0.3196069598197937
0.84049594402313232 0.630501389503479 0.31051820516586304
0.92878830432891846 0.60080647468566895 0.3102242648601532
0.57247120141983032 0.80336833000183105 0.32495942711830139
0.59901332855224609 0.80313819646835327 0.32935264706611633
0.66120463609695435 0.80057311058044434 0.32302090525627136
0.73983752727508545 0.79343634843826294 0.31827348470687866
0.81579679250717163 0.78638571500778198 0.31596392393112183
0.89072209596633911 0.77501362562179565 0.32431414723396301
0.96687877178192139 0.76173269748687744 0.32917734980583191
0.7911679744720459 0.88109004497528076 0.16601170599460602
0.80239182710647583 0.88111728429794312 0.16639086604118347
0.83008235692977905 0.87904101610183716 0.16745233535766602
0.86649411916732788 0.87567651271820068 0.15230326354503632
0.91518187522888184 0.87424236536026001 0.16681797802448273
0.96422803401947021 0.86925625801086426 0.18611834943294525
0.99710297584533691 0.86118757724761963 0.21976996958255768
0.022320780903100967 0.049611590802669525 0.35145583748817444
0.077976018190383911 0.042492840439081192 0.34352841973304749
0.1768302321434021 0.030776320025324821 0.32951131463050842
0.31070733070373535 0.017986657097935677 0.30291604995727539
0.48842725157737732 0.0090659046545624733 0.26452368497848511
0.65316218137741089 0.0025397804565727711 0.22861681878566742
0.78417259454727173 0.00018561868637334555 0.20894983410835266
0.082992628216743469 0.17316411435604095 0.40716660022735596
0.12427584826946259 0.1594817042350769 0.3987443745136261
0.22120648622512817 0.14189846813678741 0.3810122013092041
0.36173734068870544 0.11368089914321899 0.35506701469421387
0.53033804893493652 0.073854349553585052 0.31610956788063049
0.68561643362045288 0.03828762099146843 0.28429624438285828
0.7972487211227417 0.0099145183339715004 0.25867927074432373
0.094757571816444397 0.32726690173149109 0.47013938426971436
0.16453066468238831 0.31990039348602295 0.46632194519042969
0.27660402655601501 0.30141562223434448 0.44924995303153992
0.43273746967315674 0.28032085299491882 0.42781898379325867
0.59249973297119141 0.24299398064613342 0.39049354195594788
0.72632503509521484 0.18909972906112671 0.35697051882743835
0.82941675186157227 0.12489739060401917 0.33469307422637939
0.14091953635215759 0.53599590063095093 0.53840261697769165
0.24239805340766907 0.52611696720123291 0.52555406093597412
0.35132583975791931 0.52084207534790039 0.52088314294815063
0.50959044694900513 0.50477480888366699 0.50009059906005859
0.6526605486869812 0.47127950191497803 0.4699680507183075
0.77786415815353394 0.42877241969108582 0.44470751285552979
0.8752979040145874 0.37203758955001831 0.43077442049980164
0.32380968332290649 0.71729350090026855 0.57733404636383057
0.37448650598526001 0.71588790416717529 0.57446008920669556
0.48012307286262512 0.70545965433120728 0.56284081935882568
0.60162961483001709 0.7003675103187561 0.55107808113098145
0.71896803379058838 0.67672896385192871 0.52861905097961426
0.82190591096878052 0.65780115127563477 0.52140671014785767
0.91090536117553711 0.62016963958740234 0.51166427135467529
0.55082350969314575 0.83084648847579956 0.5717393159866333
0.58527612686157227 0.8263012170791626 0.55416297912597656
0.63700443506240845 0.82229948043823242 0.55530446767807007
0.71500450372695923 0.82136797904968262 0.55074089765548706
0.79458105564117432 0.81103730201721191 0.54296344518661499
0.86754852533340454 0.80023491382598877 0.54872137308120728
0.94543612003326416 0.78528416156768799 0.54973322153091431
0.75690841674804688 0.90845876932144165 0.47032681107521057
0.77386349439620972 0.91120237112045288 0.47555705904960632
0.79702270030975342 0.90756070613861084 0.47982102632522583
0.83489859104156494 0.90484505891799927 0.47893407940864563
0.88176530599594116 0.90252935886383057 0.48213332891464233
0.93296986818313599 0.89831119775772095 0.49103257060050964
0.98573321104049683 0.89474868774414062 0.5038570761680603
0.022661022841930389 0.07041969895362854 0.52283710241317749
0.074824512004852295 0.051228810101747513 0.51464450359344482
0.17129169404506683 0.043198797851800919 0.50134098529815674
0.30767327547073364 0.025977969169616699 0.47601819038391113
0.48909473419189453 0.01664917916059494 0.44689473509788513
0.64841806888580322 0.0039715636521577835 0.39828526973724365
0.77054715156555176 0.00060721003683283925 0.38350865244865417
0.07591121643781662 0.18914511799812317 0.58439570665359497
0.12088999897241592 0.17837387323379517 0.57536345720291138
0.21586678922176361 0.16139881312847137 0.55801177024841309
0.36519452929496765 0.13348549604415894 0.52972054481506348
0.53312629461288452 0.093934796750545502 0.49134504795074463
0.68198996782302856 0.052900619804859161 0.45100420713424683
0.78797727823257446 0.010709874331951141 0.42508843541145325
0.085968151688575745 0.34424576163291931 0.64659780263900757
0.15461644530296326 0.33451434969902039 0.63800561428070068
0.27032634615898132 0.31954723596572876 0.62307482957839966
0.4366295337677002 0.30128464102745056 0.59603720903396606
0.59237414598464966 0.263100266456604 0.56095385551452637
0.7229381799697876 0.21103638410568237 0.52230757474899292
0.82239323854446411 0.14415456354618073 0.49436101317405701
0.13004611432552338 0.55209040641784668 0.7109183669090271
0.225261390209198 0.54710620641708374 0.70108354091644287
0.36006259918212891 0.53301280736923218 0.68256014585494995
0.51169919967651367 0.51650792360305786 0.66052442789077759
0.65058267116546631 0.49808067083358765 0.63626539707183838
0.76905256509780884 0.4518606960773468 0.60668206214904785
0.86721450090408325 0.39785957336425781 0.58479321002960205
0.32235684990882874 0.73800718784332275 0.751262366771698
0.383323073387146 0.73247545957565308 0.74355417490005493
0.47386038303375244 0.73008972406387329 0.73689854145050049
0.59753793478012085 0.71754974126815796 0.7166561484336853
0.71003127098083496 0.70069539546966553 0.69711369276046753
0.80862504243850708 0.67928010225296021 0.68266642093658447
0.89480453729629517 0.64773017168045044 0.66773349046707153
0.54458004236221313 0.85510772466659546 0.75594741106033325
0.57394707202911377 0.85070431232452393 0.75277078151702881
0.6256105899810791 0.84382343292236328 0.74425160884857178
0.69715249538421631 0.8415524959564209 0.73628765344619751
0.77621370553970337 0.83620250225067139 0.73009955883026123
0.84997296333312988 0.82141488790512085 0.72358518838882446
0.92410933971405029 0.80647522211074829 0.71164548397064209
0.72954434156417847 0.93898111581802368 0.73064768314361572
0.74227219820022583 0.93878942728042603 0.72335827350616455
0.77027833461761475 0.93788814544677734 0.71715682744979858
0.80593979358673096 0.93122494220733643 0.71790117025375366
0.85380011796951294 0.93162602186203003 0.71422326564788818
0.90613430738449097 0.92775988578796387 0.71366971731185913
0.96903324127197266 0.91856247186660767 0.70890641212463379
0.022572595626115799 0.075220979750156403 0.672962486743927
0.080926589667797089 0.067304171621799469 0.66313040256500244
0.18001113831996918 0.052415944635868073 0.64325833320617676
0.32666394114494324 0.037319347262382507 0.60860079526901245
0.50109612941741943 0.016342237591743469 0.5754629373550415
0.65371859073638916 0.0062506133690476418 0.53434616327285767
0.76251846551895142 0.0040262257680296898 0.51044964790344238
0.081116773188114166 0.19981788098812103 0.71831691265106201
0.12992970645427704 0.19139106571674347 0.7134825587272644
0.23201186954975128 0.17665767669677734 0.6943170428276062
0.38092505931854248 0.14706297218799591 0.65829557180404663
0.54147648811340332 0.10533162951469421 0.61646562814712524
0.6831592321395874 0.061343606561422348 0.57733631134033203
0.78383862972259521 0.019947905093431473 0.54308855533599854
0.096571706235408783 0.3556370735168457 0.77221667766571045
0.17099787294864655 0.34554922580718994 0.76591974496841431
0.2938569188117981 0.33123758435249329 0.74738472700119019
0.4478449821472168 0.31086605787277222 0.71536439657211304
0.5984308123588562 0.26887544989585876 0.67676299810409546
0.72255963087081909 0.23261700570583344 0.63913911581039429
0.81722050905227661 0.17109300196170807 0.60619461536407471
0.1713995486497879 0.57278037071228027 0.8295552134513855
0.25058090686798096 0.56622546911239624 0.8217969536781311
0.37210547924041748 0.55083799362182617 0.80450010299682617
0.51883953809738159 0.53031975030899048 0.77483421564102173
0.65840703248977661 0.50637173652648926 0.74841171503067017
0.76930707693099976 0.4671764075756073 0.71564501523971558
0.86297452449798584 0.40064126253128052 0.6855701208114624
0.35142937302589417 0.74705386161804199 0.86441057920455933
0.40936374664306641 0.74730271100997925 0.86270129680633545
0.49738708138465881 0.7396734356880188 0.8490261435508728
0.60453677177429199 0.72603118419647217 0.82667690515518188
0.71003115177154541 0.71309888362884521 0.81010919809341431
0.80771821737289429 0.69317138195037842 0.79029804468154907
0.88869172334671021 0.66439664363861084 0.77318304777145386
0.5514150857925415 0.86886501312255859 0.8751714825630188
0.58378893136978149 0.86318707466125488 0.86824691295623779
0.63138818740844727 0.85981553792953491 0.86556720733642578
0.69946205615997314 0.85711812973022461 0.85783547163009644
0.77455538511276245 0.85011130571365356 0.84528285264968872
0.84555977582931519 0.83531588315963745 0.83133268356323242
0.91706424951553345 0.8218996524810791 0.82268339395523071
0.72499734163284302 0.95863574743270874 0.86991578340530396
0.73624807596206665 0.95806741714477539 0.86674880981445312
0.76170045137405396 0.95831000804901123 0.86625367403030396
0.79736411571502686 0.95615172386169434 0.86418050527572632
0.84232163429260254 0.95346748828887939 0.85792332887649536
0.89386618137359619 0.94711899757385254 0.85351377725601196
0.96149533987045288 0.93743515014648438 0.84240293502807617
0.03346870094537735 0.093967646360397339 0.77854317426681519
0.10467381030321121 0.075871452689170837 0.75954031944274902
0.20766110718250275 0.059324346482753754 0.73522341251373291
0.35209771990776062 0.04213155061006546 0.70056724548339844
0.51694226264953613 0.01653340645134449 0.65873414278030396
0.66682016849517822 0.011087126098573208 0.62592965364456177
0.77449536323547363 0.0057772318832576275 0.58936178684234619
0.10503873974084854 0.20326071977615356 0.80930691957473755
0.15871946513652802 0.19693483412265778 0.79922246932983398
0.26220616698265076 0.17468622326850891 0.77691066265106201
0.41058030724525452 0.14706812798976898 0.7386554479598999
0.56172508001327515 0.10801324248313904 0.69978994131088257
0.6874576210975647 0.064911067485809326 0.66093617677688599
0.78482437133789062 0.029742775484919548 0.62870699167251587
0.14555114507675171 0.36862805485725403 0.84493398666381836
0.22295311093330383 0.35187193751335144 0.840545654296875
0.33398586511611938 0.32877519726753235 0.82262659072875977
0.47271847724914551 0.31360989809036255 0.78360646963119507
0.61321645975112915 0.28520891070365906 0.75521171092987061
0.72845768928527832 0.2310640811920166 0.71954244375228882
0.81870031356811523 0.1761201024055481 0.68733221292495728
0.25264501571655273 0.58103257417678833 0.90162724256515503
0.31593796610832214 0.569774329662323 0.89784747362136841
0.41864588856697083 0.55239248275756836 0.87720650434494019
0.54613566398620605 0.52827757596969604 0.85238087177276611
0.67449015378952026 0.50677859783172607 0.82496881484985352
0.77663624286651611 0.47339966893196106 0.79575657844543457
0.8634955883026123 0.40993174910545349 0.7629590630531311
0.41658416390419006 0.75993239879608154 0.94322186708450317
0.4551580548286438 0.74895006418228149 0.93577080965042114
0.53002029657363892 0.73904240131378174 0.92225462198257446
0.62601912021636963 0.72981089353561401 0.89969098567962646
0.72214096784591675 0.72108513116836548 0.88363796472549438
0.81099879741668701 0.69904607534408569 0.86558502912521362
0.89185720682144165 0.66790127754211426 0.83248037099838257
0.58861863613128662 0.87668240070343018 0.96033716201782227
0.60755389928817749 0.87288624048233032 0.9553409218788147
0.65359121561050415 0.86866855621337891 0.9482918381690979
0.71285098791122437 0.86750954389572144 0.93925672769546509
0.77421015501022339 0.85549473762512207 0.92158019542694092
0.84514743089675903 0.84291183948516846 0.91368782520294189
0.91616398096084595 0.82553219795227051 0.90077418088912964
0.73972046375274658 0.97287541627883911 0.97009289264678955
0.7467048168182373 0.97135508060455322 0.96948301792144775
0.76733529567718506 0.97019845247268677 0.95703023672103882
0.80330759286880493 0.97127914428710938 0.96566319465637207
0.84119504690170288 0.9660758376121521 0.95823687314987183
0.89085692167282104 0.95542782545089722 0.95048075914382935
0.94244933128356934 0.95263862609863281 0.93941336870193481
