luts/colorslide/fuji_velvia_100_generic.cube
# Created by: G'MIC (https://gmic.eu)
TITLE "fuji_velvia_100_generic"
# LUT size
LUT_3D_SIZE 5
# Data domain
DOMAIN_MIN 0.0 0.0 0.0
DOMAIN_MAX 1.0 1.0 1.0
# LUT data points
0.023519223555922508 0.019244309514760971 0.01931743323802948
0.21474027633666992 0.019253017380833626 0.020621581003069878
0.55016094446182251 0.015122357755899429 0.017873950302600861
0.89130926132202148 0.01129443570971489 0.015929952263832092
1 0.014081483706831932 0.02106424979865551
0.044953692704439163 0.23095400631427765 0.022612806409597397
0.19333843886852264 0.22520710527896881 0.021714543923735619
0.54614150524139404 0.21736899018287659 0.019389178603887558
0.86749988794326782 0.20499803125858307 0.020408585667610168
0.99854123592376709 0.19878929853439331 0.01671072281897068
0.0039215688593685627 0.56374627351760864 0.027525164186954498
0.023526076227426529 0.56482630968093872 0.016618900001049042
0.47988036274909973 0.55817997455596924 0.020982511341571808
0.82473939657211304 0.54707354307174683 0.017017977312207222
0.99615740776062012 0.53869444131851196 0.015948306769132614
0 0.86621963977813721 0.0043400186114013195
0.0050917533226311207 0.8711317777633667 0.0022221584804356098
0.40017205476760864 0.86178141832351685 0.003899802453815937
0.76146703958511353 0.85535585880279541 0.0048817652277648449
0.97975414991378784 0.85349398851394653 0.0030574125703424215
0.0055053709074854851 1 0
0.11765431612730026 1 0
0.49615487456321716 0.99838554859161377 0
0.77297878265380859 0.99805313348770142 0.00030876608798280358
0.94419550895690918 0.99991816282272339 0
0.028055138885974884 0.016122736036777496 0.22033947706222534
0.21824799478054047 0.012176812626421452 0.21800777316093445
0.55555754899978638 0.0070356931537389755 0.21842505037784576
0.8917464017868042 0.0095200184732675552 0.21644201874732971
0.99978351593017578 0.0086646433919668198 0.21349729597568512
0.0571163110435009 0.21283157169818878 0.21661421656608582
0.20278295874595642 0.20867107808589935 0.21103848516941071
0.54670780897140503 0.19778290390968323 0.2071995884180069
0.8753666877746582 0.19197434186935425 0.20276044309139252
0.99814432859420776 0.17739200592041016 0.19611883163452148
0.0007457957835868001 0.54894471168518066 0.18291470408439636
0.039848685264587402 0.55181336402893066 0.17095869779586792
0.49543517827987671 0.54047781229019165 0.17618466913700104
0.82454776763916016 0.53330874443054199 0.17149743437767029
0.99716556072235107 0.52690482139587402 0.17069828510284424
0 0.86105096340179443 0.09295094758272171
0.0037968803662806749 0.85753327608108521 0.09058622270822525
0.4176270067691803 0.85327053070068359 0.091805323958396912
0.77003735303878784 0.8486742377281189 0.089982993900775909
0.98299992084503174 0.84196645021438599 0.091499954462051392
0.0065652136690914631 0.99788099527359009 0.11255832761526108
0.12921580672264099 0.9999881386756897 0.10914261639118195
0.50438421964645386 0.99929845333099365 0.10229961574077606
0.77787691354751587 0.99731588363647461 0.10191138833761215
0.95182633399963379 0.99897736310958862 0.095750801265239716
0.036677043884992599 0.0072519192472100258 0.55942732095718384
0.22482579946517944 0.0092430412769317627 0.55165350437164307
0.56458395719528198 0.0067176520824432373 0.54885303974151611
0.89457070827484131 0.0080623552203178406 0.54654383659362793
0.99957990646362305 0.0041457829065620899 0.53548872470855713
0.065770752727985382 0.18724243342876434 0.54101300239562988
0.21802361309528351 0.18085895478725433 0.53759986162185669
0.55185449123382568 0.1758263111114502 0.53641247749328613
0.88054162263870239 0.16065683960914612 0.53723454475402832
0.99860084056854248 0.14987768232822418 0.52860647439956665
0.0039215688593685627 0.52968311309814453 0.51564681529998779
0.068149834871292114 0.52677804231643677 0.52222418785095215
0.51114380359649658 0.5189979076385498 0.52132338285446167
0.83411860466003418 0.51445889472961426 0.51416432857513428
0.992972731590271 0.50753730535507202 0.51262819766998291
0 0.83124148845672607 0.49003416299819946
0.0079274196177721024 0.83316296339035034 0.4955776035785675
0.44215911626815796 0.82865756750106812 0.4969724714756012
0.78154450654983521 0.82207739353179932 0.49167841672897339
0.98636966943740845 0.81516784429550171 0.49145051836967468
0.0028538124170154333 0.99619400501251221 0.49770084023475647
0.14614149928092957 0.99947333335876465 0.49793514609336853
0.51535981893539429 0.99687862396240234 0.49256783723831177
0.78441506624221802 0.99194574356079102 0.49340766668319702
0.95753616094589233 0.99498444795608521 0.48956093192100525
0.043970339000225067 0.0066931932233273983 0.855660080909729
0.23774869740009308 0.010430638678371906 0.84840488433837891
0.56873238086700439 0.0039215688593685627 0.85175025463104248
0.89986133575439453 0.0033555871341377497 0.84512549638748169
0.99942827224731445 0.0021123699843883514 0.83251625299453735
0.075353078544139862 0.16156609356403351 0.84148234128952026
0.2356250137090683 0.1523410826921463 0.84384763240814209
0.55901271104812622 0.14718922972679138 0.84177619218826294
0.88474071025848389 0.13408422470092773 0.83491981029510498
0.99782681465148926 0.12322447448968887 0.83577513694763184
0.0040405872277915478 0.50152522325515747 0.82103121280670166
0.11366090923547745 0.50192481279373169 0.82883918285369873
0.52729135751724243 0.49164238572120667 0.82081812620162964
0.85229623317718506 0.48622035980224609 0.82008856534957886
0.99215686321258545 0.47622323036193848 0.81599295139312744
0 0.81140732765197754 0.79753750562667847
0.012107026763260365 0.81320685148239136 0.80467826128005981
0.47112983465194702 0.80212944746017456 0.80098265409469604
0.80057227611541748 0.79346549510955811 0.79809451103210449
0.98880094289779663 0.79645395278930664 0.79999625682830811
0.013719640672206879 0.98982357978820801 0.79317665100097656
0.16689397394657135 0.99534469842910767 0.79708194732666016
0.53590232133865356 0.99025535583496094 0.7921406626701355
0.79620057344436646 0.9826972484588623 0.79178780317306519
0.96307528018951416 0.98219561576843262 0.78087985515594482
0.04014982283115387 0.00095563405193388462 0.99866276979446411
0.2381228506565094 0.0039005654398351908 0.9973299503326416
0.57100504636764526 0.0069133532233536243 0.99523645639419556
0.90425729751586914 0 0.99615746736526489
0.99960774183273315 5.834242983837612e-05 0.99953544139862061
0.081295162439346313 0.1441778689622879 0.99910324811935425
0.24351413547992706 0.13758723437786102 0.99646025896072388
0.56606113910675049 0.12813504040241241 0.99756747484207153
0.89414256811141968 0.11773131042718887 0.99690979719161987
0.99865198135375977 0.10771180689334869 0.99564892053604126
0.002444039098918438 0.48941671848297119 0.99816298484802246
0.14741288125514984 0.48562431335449219 0.99682247638702393
0.53705769777297974 0.4826866090297699 0.99495643377304077
0.86050039529800415 0.4742533266544342 0.99510651826858521
0.99215686321258545 0.46273031830787659 0.993000328540802
0 0.7921445369720459 0.98461431264877319
0.023619648069143295 0.79930645227432251 0.99079000949859619
0.49398300051689148 0.78953629732131958 0.98518580198287964
0.81156307458877563 0.78209424018859863 0.98366850614547729
0.99376547336578369 0.77676761150360107 0.98680394887924194
0.014194503426551819 0.98930978775024414 0.98074108362197876
0.206944540143013 0.98541402816772461 0.98192739486694336
0.54897457361221313 0.98004186153411865 0.97917383909225464
0.80103963613510132 0.97457790374755859 0.97751766443252563
0.97631293535232544 0.97380399703979492 0.97569781541824341
