luts/colorslide/fuji_astia_100_generic.cube
# Created by: G'MIC (https://gmic.eu)
TITLE "fuji_astia_100_generic"
# LUT size
LUT_3D_SIZE 7
# Data domain
DOMAIN_MIN 0.0 0.0 0.0
DOMAIN_MAX 1.0 1.0 1.0
# LUT data points
0.034153837710618973 0.031374208629131317 0.028303064405918121
0.16033950448036194 0.031073970720171928 0.027056301012635231
0.32005316019058228 0.031656783074140549 0.026715775951743126
0.50207793712615967 0.031208323314785957 0.021035213023424149
0.67409449815750122 0.029632898047566414 0.016963465139269829
0.82654577493667603 0.029776569455862045 0.016633486375212669
0.96787935495376587 0.023036733269691467 0.0083331838250160217
0.083634860813617706 0.16127625107765198 0.045155543833971024
0.16823223233222961 0.16452163457870483 0.045974656939506531
0.32932552695274353 0.16034358739852905 0.037788853049278259
0.50628221035003662 0.15698203444480896 0.030532581731677055
0.67182040214538574 0.1593136340379715 0.027539497241377831
0.83093458414077759 0.15451659262180328 0.019844833761453629
0.96508949995040894 0.15467444062232971 0.01682128943502903
0.036916214972734451 0.33646827936172485 0.069991782307624817
0.13505509495735168 0.33605465292930603 0.065514571964740753
0.33548873662948608 0.33113190531730652 0.061063669621944427
0.50617003440856934 0.33073875308036804 0.056063812226057053
0.67038756608963013 0.33225530385971069 0.047262169420719147
0.83203244209289551 0.327463299036026 0.040699649602174759
0.96596580743789673 0.32628935575485229 0.034698754549026489
0.015730973333120346 0.51369196176528931 0.089577123522758484
0.1275559663772583 0.51259732246398926 0.091291137039661407
0.33022621273994446 0.5075606107711792 0.082156315445899963
0.50693613290786743 0.50446921586990356 0.078109234571456909
0.67072886228561401 0.50673186779022217 0.069279447197914124
0.82544654607772827 0.49949756264686584 0.062110647559165955
0.96117907762527466 0.50143390893936157 0.057666074484586716
0.017564572393894196 0.67598038911819458 0.092323154211044312
0.12689302861690521 0.67418193817138672 0.091095566749572754
0.3370412290096283 0.67067337036132812 0.087224818766117096
0.51084882020950317 0.66606545448303223 0.079188749194145203
0.66872316598892212 0.66184544563293457 0.073653198778629303
0.81885451078414917 0.66435211896896362 0.073855362832546234
0.95221966505050659 0.66805565357208252 0.07497107982635498
0.059831131249666214 0.8246038556098938 0.058137886226177216
0.18448866903781891 0.82174539566040039 0.057981036603450775
0.35647979378700256 0.81976503133773804 0.056047402322292328
0.51998209953308105 0.8160395622253418 0.052244491875171661
0.67611032724380493 0.81329119205474854 0.051411136984825134
0.81839734315872192 0.81389075517654419 0.045756470412015915
0.95048564672470093 0.81612253189086914 0.049296107143163681
0.14692781865596771 0.95993131399154663 0.072583518922328949
0.24478186666965485 0.95662480592727661 0.071313939988613129
0.38050466775894165 0.95866584777832031 0.065469540655612946
0.52941179275512695 0.95442831516265869 0.054328050464391708
0.67703574895858765 0.95963490009307861 0.043290439993143082
0.81163114309310913 0.96264266967773438 0.031372100114822388
0.96063196659088135 0.95839661359786987 0.018969576805830002
0.038108959794044495 0.031816013157367706 0.15650692582130432
0.16423076391220093 0.036285132169723511 0.15220765769481659
0.32459783554077148 0.032594762742519379 0.14434143900871277
0.50804024934768677 0.033811740577220917 0.14296405017375946
0.67177832126617432 0.030310433357954025 0.12832184135913849
0.82216352224349976 0.032448548823595047 0.12252577394247055
0.96444785594940186 0.027739297598600388 0.11257508397102356
0.077908746898174286 0.16160331666469574 0.16547633707523346
0.16903260350227356 0.16421982645988464 0.15968574583530426
0.33034208416938782 0.16200503706932068 0.15710712969303131
0.50216066837310791 0.15798722207546234 0.15841606259346008
0.67205691337585449 0.15584275126457214 0.14629004895687103
0.83104169368743896 0.15444406867027283 0.13447389006614685
0.96295428276062012 0.15489138662815094 0.12748748064041138
0.04494088888168335 0.33543828129768372 0.17582802474498749
0.13344018161296844 0.33293953537940979 0.17145606875419617
0.32959109544754028 0.32802277803421021 0.16383305191993713
0.50013619661331177 0.33246561884880066 0.16038675606250763
0.66639262437820435 0.33356058597564697 0.15504415333271027
0.83090800046920776 0.33130949735641479 0.14239279925823212
0.96530818939208984 0.33182629942893982 0.13663916289806366
0.021237915381789207 0.51503616571426392 0.17825393378734589
0.1320585310459137 0.51217526197433472 0.1724018007516861
0.32511290907859802 0.51390081644058228 0.16482269763946533
0.50073504447937012 0.51533883810043335 0.16067908704280853
0.66849160194396973 0.51146924495697021 0.15697282552719116
0.82338488101959229 0.50536632537841797 0.15248659253120422
0.96024626493453979 0.50877934694290161 0.14712338149547577
0.021902285516262054 0.67598038911819458 0.1746019572019577
0.13959412276744843 0.67315787076950073 0.17388094961643219
0.33508780598640442 0.67015582323074341 0.17048023641109467
0.50625145435333252 0.67429786920547485 0.16240277886390686
0.66831481456756592 0.66896027326583862 0.16368822753429413
0.82086718082427979 0.66818088293075562 0.14980955421924591
0.95451444387435913 0.67199903726577759 0.14025872945785522
0.062485039234161377 0.82440185546875 0.18264301121234894
0.18233540654182434 0.82119029760360718 0.1858060210943222
0.35566714406013489 0.81645327806472778 0.18177452683448792
0.51581323146820068 0.81674498319625854 0.17055799067020416
0.67429280281066895 0.81585526466369629 0.16317731142044067
0.81814175844192505 0.81488668918609619 0.15468214452266693
0.95307266712188721 0.81827449798583984 0.1408340185880661
0.14443758130073547 0.96258872747421265 0.20528477430343628
0.24233484268188477 0.9588615894317627 0.20690475404262543
0.37809404730796814 0.96173191070556641 0.20332552492618561
0.52658116817474365 0.9594225287437439 0.19663050770759583
0.67392545938491821 0.96054649353027344 0.18689292669296265
0.81063389778137207 0.95885258913040161 0.17882354557514191
0.95819920301437378 0.9618263840675354 0.1699209064245224
0.037028998136520386 0.033295486122369766 0.32566565275192261
0.16381099820137024 0.034758325666189194 0.32008835673332214
0.32480385899543762 0.034549862146377563 0.31209969520568848
0.50140702724456787 0.029633766040205956 0.30494499206542969
0.66538375616073608 0.032848045229911804 0.29874026775360107
0.82900583744049072 0.029558397829532623 0.29189878702163696
0.96693617105484009 0.025471527129411697 0.28247907757759094
0.082866176962852478 0.15970957279205322 0.33717808127403259
0.16176742315292358 0.16055695712566376 0.3290877640247345
0.33294516801834106 0.16066667437553406 0.32218104600906372
0.50386577844619751 0.15613523125648499 0.31597959995269775
0.67036610841751099 0.15508316457271576 0.3058837354183197
0.83169639110565186 0.15661880373954773 0.29657050967216492
0.96712571382522583 0.14981803297996521 0.29176098108291626
0.044116690754890442 0.33551254868507385 0.3409276008605957
0.13025815784931183 0.33357962965965271 0.34203338623046875
0.32702991366386414 0.33205360174179077 0.32803571224212646
0.50791418552398682 0.33323273062705994 0.31960982084274292
0.66814929246902466 0.32905828952789307 0.31245511770248413
0.82957565784454346 0.32763484120368958 0.30464246869087219
0.96549570560455322 0.33206495642662048 0.30651155114173889
0.010967374779284 0.51239770650863647 0.3515666127204895
0.13451868295669556 0.5087515115737915 0.3443266749382019
0.32587102055549622 0.5084415078163147 0.3328557014465332
0.50823682546615601 0.51262640953063965 0.32682904601097107
0.67269480228424072 0.51152235269546509 0.32630988955497742
0.82867246866226196 0.50448501110076904 0.31728833913803101
0.95855915546417236 0.50776225328445435 0.3115694522857666
0.021738253533840179 0.67593139410018921 0.35755273699760437
0.13810323178768158 0.67168712615966797 0.35728192329406738
0.32542997598648071 0.66512966156005859 0.35135799646377563
0.50858199596405029 0.67326349020004272 0.33843687176704407
0.67483091354370117 0.6714552640914917 0.33466258645057678
0.8251502513885498 0.67195302248001099 0.33106637001037598
0.95642751455307007 0.6692466139793396 0.32638412714004517
0.063510119915008545 0.82226455211639404 0.36726605892181396
0.1857457160949707 0.81937772035598755 0.36809009313583374
0.35575222969055176 0.81192481517791748 0.36407008767127991
0.50996696949005127 0.81278175115585327 0.3538917601108551
0.67522549629211426 0.81558632850646973 0.34702536463737488
0.81812530755996704 0.81947785615921021 0.34372428059577942
0.95323777198791504 0.81879478693008423 0.33848175406455994
0.14647416770458221 0.96099972724914551 0.37877053022384644
0.24131157994270325 0.96026051044464111 0.37726590037345886
0.37910771369934082 0.95857030153274536 0.37653246521949768
0.52480214834213257 0.96055138111114502 0.36911830306053162
0.67162245512008667 0.96025264263153076 0.36054328083992004
0.8089221715927124 0.96016210317611694 0.36022698879241943
0.95440447330474854 0.95966804027557373 0.35243397951126099
0.036437239497900009 0.030793417245149612 0.49904581904411316
0.16565757989883423 0.03312351182103157 0.49227842688560486
0.3227556049823761 0.036648575216531754 0.48702791333198547
0.49905672669410706 0.031979653984308243 0.47917449474334717
0.66594189405441284 0.033327125012874603 0.47040069103240967
0.82913148403167725 0.031394660472869873 0.46499237418174744
0.96726948022842407 0.024680223315954208 0.45413076877593994
0.073779940605163574 0.16961736977100372 0.50795227289199829
0.16906143724918365 0.16257472336292267 0.50296789407730103
0.33498689532279968 0.16033659875392914 0.49015691876411438
0.50397855043411255 0.15923409163951874 0.48047083616256714
0.668282151222229 0.15465070307254791 0.47861817479133606
0.830524742603302 0.15536412596702576 0.46853017807006836
0.9676089882850647 0.1491645872592926 0.46387290954589844
0.054242212325334549 0.3360864520072937 0.51421773433685303
0.13956668972969055 0.33196079730987549 0.51294553279876709
0.33117258548736572 0.32834735512733459 0.49932286143302917
0.51147544384002686 0.32538613677024841 0.49383077025413513
0.6739192008972168 0.32212802767753601 0.48877137899398804
0.82718867063522339 0.32768955826759338 0.47870251536369324
0.9656255841255188 0.33019709587097168 0.47403073310852051
0.016859825700521469 0.51040393114089966 0.5212094783782959
0.13344012200832367 0.50885099172592163 0.51473492383956909
0.32925909757614136 0.50475597381591797 0.50489985942840576
0.51176470518112183 0.50391459465026855 0.50521606206893921
0.67934292554855347 0.50162613391876221 0.50200456380844116
0.82859355211257935 0.50267285108566284 0.49187746644020081
0.95801401138305664 0.50717371702194214 0.48180669546127319
0.02130553312599659 0.67328488826751709 0.52842122316360474
0.13838435709476471 0.67193472385406494 0.52682197093963623
0.32879537343978882 0.66861188411712646 0.52386492490768433
0.50824815034866333 0.67208760976791382 0.5195852518081665
0.67450731992721558 0.67192298173904419 0.51069968938827515
0.82177746295928955 0.6714930534362793 0.50572830438613892
0.95042651891708374 0.66784989833831787 0.49739724397659302
0.064223706722259521 0.82191812992095947 0.53489190340042114
0.18462297320365906 0.81790953874588013 0.53378963470458984
0.36026543378829956 0.81387805938720703 0.52871596813201904
0.51773655414581299 0.82031542062759399 0.52580755949020386
0.6720084547996521 0.81876230239868164 0.52087438106536865
0.81680464744567871 0.8208429217338562 0.51605045795440674
0.95357328653335571 0.81532710790634155 0.50888001918792725
0.14626075327396393 0.96195501089096069 0.54484802484512329
0.24116764962673187 0.95898556709289551 0.53866302967071533
0.37733310461044312 0.9582221508026123 0.53420329093933105
0.52550959587097168 0.96349513530731201 0.53298026323318481
0.67175734043121338 0.96178746223449707 0.52910888195037842
0.8077513575553894 0.95901477336883545 0.5236896276473999
0.95918464660644531 0.96028727293014526 0.51947712898254395
0.035418044775724411 0.030086023733019829 0.66031491756439209
0.16501517593860626 0.034401778131723404 0.65004891157150269
0.32787391543388367 0.031916555017232895 0.64694654941558838
0.50520163774490356 0.036612804979085922 0.63818639516830444
0.67199772596359253 0.031265467405319214 0.62916946411132812
0.83217626810073853 0.026368444785475731 0.62570649385452271
0.96621239185333252 0.024031201377511024 0.61525124311447144
0.081184357404708862 0.16042923927307129 0.6680026650428772
0.1647455245256424 0.15865543484687805 0.66466951370239258
0.32965487241744995 0.15732237696647644 0.65400457382202148
0.50892186164855957 0.15589684247970581 0.64788496494293213
0.67253965139389038 0.15548788011074066 0.6436735987663269
0.83002138137817383 0.15586559474468231 0.63347190618515015
0.96752035617828369 0.14832580089569092 0.62351757287979126
0.048368312418460846 0.3358663022518158 0.67701727151870728
0.13303077220916748 0.33075860142707825 0.67182737588882446
0.33351403474807739 0.32452607154846191 0.66055953502655029
0.51131922006607056 0.32583001255989075 0.65723627805709839
0.6772613525390625 0.32462069392204285 0.65283709764480591
0.83078247308731079 0.33132511377334595 0.64278244972229004
0.96667623519897461 0.33088698983192444 0.63827639818191528
0.012500748038291931 0.51334518194198608 0.68005365133285522
0.13237334787845612 0.50616544485092163 0.6755225658416748
0.33484834432601929 0.5015377402305603 0.67080980539321899
0.5130995512008667 0.49994105100631714 0.67095077037811279
0.67925763130187988 0.50060749053955078 0.66701370477676392
0.82922786474227905 0.50343573093414307 0.65459555387496948
0.95639133453369141 0.50223314762115479 0.6458362340927124
0.016718292608857155 0.67436420917510986 0.68649756908416748
0.13802115619182587 0.67331171035766602 0.68206584453582764
0.33522099256515503 0.67019426822662354 0.67968034744262695
0.51181954145431519 0.67116212844848633 0.68072938919067383
0.67267954349517822 0.66914176940917969 0.67519664764404297
0.81936967372894287 0.6675114631652832 0.66493946313858032
0.95533037185668945 0.66429883241653442 0.65418994426727295
0.064697504043579102 0.8217194676399231 0.69309812784194946
0.18824963271617889 0.81798464059829712 0.68592506647109985
0.36438843607902527 0.81881129741668701 0.68585759401321411
0.52542322874069214 0.82467555999755859 0.68701320886611938
0.675273597240448 0.82031506299972534 0.68180489540100098
0.81595218181610107 0.82120460271835327 0.67633509635925293
0.95547008514404297 0.81396305561065674 0.66684156656265259
0.14717511832714081 0.96099072694778442 0.69949299097061157
0.24286717176437378 0.95778053998947144 0.69427371025085449
0.37889775633811951 0.9612923264503479 0.69131433963775635
0.52975732088088989 0.96439093351364136 0.69284909963607788
0.6774672269821167 0.96019595861434937 0.6842041015625
0.80885392427444458 0.96374350786209106 0.6835293173789978
0.95963788032531738 0.96028769016265869 0.67596173286437988
0.036175776273012161 0.031661417335271835 0.80869299173355103
0.16419374942779541 0.03646482527256012 0.80037176609039307
0.32767817378044128 0.034219719469547272 0.7941707968711853
0.50483036041259766 0.02897714264690876 0.78884303569793701
0.67513513565063477 0.02828897163271904 0.78003013134002686
0.83264535665512085 0.024201126769185066 0.77111804485321045
0.96750545501708984 0.022743852809071541 0.7653578519821167
0.084389537572860718 0.15834327042102814 0.81380766630172729
0.16426612436771393 0.15876671671867371 0.80942970514297485
0.32829722762107849 0.15907861292362213 0.80096566677093506
0.50883543491363525 0.15741999447345734 0.79440152645111084
0.67566299438476562 0.15718775987625122 0.78779357671737671
0.83111172914505005 0.15545335412025452 0.78299164772033691
0.96580594778060913 0.14956741034984589 0.77361506223678589
0.048781421035528183 0.33609640598297119 0.81820452213287354
0.13131220638751984 0.33025699853897095 0.81764423847198486
0.32664275169372559 0.32347577810287476 0.81173282861709595
0.51275515556335449 0.32637876272201538 0.80417060852050781
0.67898565530776978 0.32680639624595642 0.80015665292739868
0.83204513788223267 0.33136728405952454 0.79283851385116577
0.96523880958557129 0.33258357644081116 0.78451931476593018
0.013391861692070961 0.51173138618469238 0.826091468334198
0.13554161787033081 0.50501972436904907 0.82395684719085693
0.32523179054260254 0.50278395414352417 0.82283645868301392
0.50922060012817383 0.50374972820281982 0.81705904006958008
0.67892682552337646 0.50125139951705933 0.81275069713592529
0.82873392105102539 0.50429266691207886 0.80275338888168335
0.95958912372589111 0.50123178958892822 0.79367053508758545
0.023172760382294655 0.67319995164871216 0.83171433210372925
0.13600440323352814 0.67138206958770752 0.8299717903137207
0.33192363381385803 0.66872847080230713 0.82856661081314087
0.51105248928070068 0.67223900556564331 0.8252793550491333
0.67607039213180542 0.67112821340560913 0.82054305076599121
0.82370519638061523 0.66826611757278442 0.81243032217025757
0.95412439107894897 0.66211414337158203 0.80256229639053345
0.065145097672939301 0.82025867700576782 0.83408862352371216
0.18909110128879547 0.81793057918548584 0.83095782995223999
0.36113819479942322 0.81877684593200684 0.83011668920516968
0.52234268188476562 0.823982834815979 0.82895845174789429
0.67580842971801758 0.81957018375396729 0.82728177309036255
0.81947427988052368 0.81979787349700928 0.82135903835296631
0.95485049486160278 0.81211769580841064 0.80880701541900635
0.15279263257980347 0.9608272910118103 0.84017020463943481
0.24413588643074036 0.95728558301925659 0.83663648366928101
0.37780523300170898 0.96263015270233154 0.83604681491851807
0.53086352348327637 0.96049922704696655 0.83120381832122803
0.67542892694473267 0.95813894271850586 0.82773888111114502
0.81197655200958252 0.96016138792037964 0.82153242826461792
0.95929121971130371 0.9585304856300354 0.8154558539390564
0.03953121230006218 0.030144935473799706 0.94719088077545166
0.16122610867023468 0.027091724798083305 0.93934172391891479
0.32479435205459595 0.028586234897375107 0.93448328971862793
0.49828231334686279 0.029008634388446808 0.92466717958450317
0.67151534557342529 0.023360906168818474 0.9214179515838623
0.83053505420684814 0.02202313020825386 0.91319131851196289
0.96811586618423462 0.022722849622368813 0.90741604566574097
0.083456762135028839 0.16142500936985016 0.95197463035583496
0.16910108923912048 0.15787278115749359 0.94922542572021484
0.33058205246925354 0.15491326153278351 0.93963170051574707
0.50575441122055054 0.16103515028953552 0.93276679515838623
0.67555755376815796 0.15564790368080139 0.92548185586929321
0.83394849300384521 0.14987790584564209 0.91961610317230225
0.96799367666244507 0.14989209175109863 0.91704702377319336
0.050004471093416214 0.33589351177215576 0.95888817310333252
0.1347271054983139 0.32791921496391296 0.95461159944534302
0.32533982396125793 0.32586947083473206 0.94806599617004395
0.51037222146987915 0.3303409218788147 0.94572478532791138
0.67955023050308228 0.32760751247406006 0.93280291557312012
0.83220815658569336 0.32019773125648499 0.92699450254440308
0.96592170000076294 0.32949367165565491 0.9269479513168335
0.016322042793035507 0.50910347700119019 0.96209514141082764
0.13759267330169678 0.50502479076385498 0.96230530738830566
0.3248538076877594 0.50540143251419067 0.95919221639633179
0.50573688745498657 0.50896388292312622 0.94933450222015381
0.67681354284286499 0.50121670961380005 0.94184905290603638
0.82552939653396606 0.50355029106140137 0.93917590379714966
0.96195852756500244 0.50359934568405151 0.93601197004318237
0.020268622785806656 0.6720588207244873 0.9661639928817749
0.13779422640800476 0.67012953758239746 0.96469742059707642
0.3319811224937439 0.66986572742462158 0.9607158899307251
0.50959640741348267 0.67048734426498413 0.95476263761520386
0.67170757055282593 0.66520994901657104 0.94984930753707886
0.82065552473068237 0.66479158401489258 0.95249289274215698
0.95466691255569458 0.66656267642974854 0.94476962089538574
0.062462780624628067 0.82061606645584106 0.96977263689041138
0.18834267556667328 0.81691300868988037 0.96679019927978516
0.35844650864601135 0.81733912229537964 0.96799534559249878
0.5181884765625 0.81707102060317993 0.96441102027893066
0.67224442958831787 0.8151124119758606 0.96109402179718018
0.81870317459106445 0.81288701295852661 0.95691961050033569
0.95493662357330322 0.81337696313858032 0.95253545045852661
0.14996626973152161 0.96056324243545532 0.97516018152236938
0.24601057171821594 0.95874476432800293 0.96816509962081909
0.38155624270439148 0.95990282297134399 0.97302663326263428
0.5321924090385437 0.95544850826263428 0.96148777008056641
0.67663580179214478 0.95939081907272339 0.96830493211746216
0.80917650461196899 0.96207201480865479 0.95919787883758545
0.95822334289550781 0.95895999670028687 0.959328293800354
