luts/colorslide/fuji_superia_200_xpro.cube
# Created by: G'MIC (https://gmic.eu)
TITLE "fuji_superia_200_xpro"
# LUT size
LUT_3D_SIZE 13
# Data domain
DOMAIN_MIN 0.0 0.0 0.0
DOMAIN_MAX 1.0 1.0 1.0
# LUT data points
0.00063476560171693563 0.032536152750253677 0.17710365355014801
0.00063476560171693563 0.036863904446363449 0.19110438227653503
0.00027323703397996724 0.044682864099740982 0.21023531258106232
0.00077939499169588089 0.054733425378799438 0.22269044816493988
0.0039497674442827702 0.060203135013580322 0.23720474541187286
0.0070631289854645729 0.069395162165164948 0.25266790390014648
0.018978133797645569 0.070375911891460419 0.25897333025932312
0.042310424149036407 0.062993757426738739 0.26132011413574219
0.074189253151416779 0.053130563348531723 0.26241770386695862
0.1235133484005928 0.045356616377830505 0.26037171483039856
0.18746021389961243 0.050998702645301819 0.26297995448112488
0.26060861349105835 0.067852169275283813 0.27448382973670959
0.33860832452774048 0.087782964110374451 0.28134605288505554
0.0018717896891757846 0.11955741792917252 0.26318350434303284
0.0021510554943233728 0.12650953233242035 0.2741456925868988
0.0031905230134725571 0.13681547343730927 0.28760117292404175
0.0078162401914596558 0.14718528091907501 0.29710724949836731
0.018326373770833015 0.15496623516082764 0.30448749661445618
0.026905927807092667 0.15994782745838165 0.31432512402534485
0.049069587141275406 0.15531960129737854 0.31698054075241089
0.074095875024795532 0.14293120801448822 0.3204350471496582
0.1095794215798378 0.13127692043781281 0.31302729249000549
0.15895307064056396 0.12251982092857361 0.30843955278396606
0.22099827229976654 0.12298201024532318 0.30734223127365112
0.29385262727737427 0.13115452229976654 0.30770763754844666
0.3648073673248291 0.1466313898563385 0.31643939018249512
0.0094539420679211617 0.21808710694313049 0.3431423008441925
0.0092935003340244293 0.2199694961309433 0.34552508592605591
0.0077479495666921139 0.225931316614151 0.35188806056976318
0.013097052462399006 0.22995768487453461 0.35746333003044128
0.0260772705078125 0.23236671090126038 0.36328735947608948
0.041418727487325668 0.22924640774726868 0.36754760146141052
0.065236978232860565 0.22313679754734039 0.36885648965835571
0.097591966390609741 0.21457910537719727 0.3641020655632019
0.13334929943084717 0.2034216970205307 0.35967019200325012
0.18712273240089417 0.1916688084602356 0.35255682468414307
0.24954161047935486 0.18557596206665039 0.34675925970077515
0.31614145636558533 0.18928517401218414 0.34801831841468811
0.37921592593193054 0.19663514196872711 0.35402634739875793
0.011627811007201672 0.31103432178497314 0.40653979778289795
0.011785918846726418 0.31067571043968201 0.40694516897201538
0.0079894270747900009 0.31164664030075073 0.41395372152328491
0.0099481018260121346 0.31072735786437988 0.41745981574058533
0.02322070486843586 0.31050810217857361 0.41571033000946045
0.034707475453615189 0.3056967556476593 0.41485393047332764
0.061533462256193161 0.2969869077205658 0.41583269834518433
0.10174225270748138 0.28466552495956421 0.41017347574234009
0.15242283046245575 0.2709096372127533 0.40097752213478088
0.21512661874294281 0.25960829854011536 0.39300799369812012
0.2793327271938324 0.24822817742824554 0.38350394368171692
0.34201043844223022 0.24458920955657959 0.38282325863838196
0.40151792764663696 0.24460674822330475 0.38564082980155945
0.0046118940226733685 0.39965766668319702 0.46678152680397034
0.0061340932734310627 0.40425023436546326 0.47213736176490784
0.0050043142400681973 0.40403991937637329 0.47316759824752808
0.002098143333569169 0.39823806285858154 0.4754565954208374
0.0055352603085339069 0.39463719725608826 0.47385495901107788
0.010967344045639038 0.39057666063308716 0.46803316473960876
0.02920907735824585 0.38214817643165588 0.46246403455734253
0.088124863803386688 0.36746147274971008 0.4566403329372406
0.17050847411155701 0.34950381517410278 0.44815519452095032
0.24247285723686218 0.3311561644077301 0.43898531794548035
0.30739912390708923 0.31637382507324219 0.42873665690422058
0.37375602126121521 0.30473357439041138 0.41845846176147461
0.43673700094223022 0.29675915837287903 0.41173994541168213
0.0023874768521636724 0.50173264741897583 0.52531981468200684
0.0036882737185806036 0.50671869516372681 0.53346359729766846
0.0031239977106451988 0.50435352325439453 0.53089594841003418
0.0017143100267276168 0.49841064214706421 0.52485322952270508
0.0038798763416707516 0.49690905213356018 0.52395641803741455
0.0096946414560079575 0.49253228306770325 0.51946854591369629
0.043205142021179199 0.48255592584609985 0.51392674446105957
0.11029843986034393 0.46385502815246582 0.50749427080154419
0.1893080472946167 0.43952140212059021 0.49886327981948853
0.26943162083625793 0.41229170560836792 0.48786044120788574
0.34303942322731018 0.39206799864768982 0.47360721230506897
0.41127032041549683 0.37743678689002991 0.45828408002853394
0.47369503974914551 0.36167973279953003 0.44530916213989258
0.0062921112403273582 0.62942206859588623 0.58886808156967163
0.0074402904137969017 0.63023126125335693 0.59360170364379883
0.0062298793345689774 0.62902075052261353 0.59181809425354004
0.0051270131953060627 0.62430286407470703 0.58678442239761353
0.0061583723872900009 0.61450356245040894 0.58169281482696533
0.010513155721127987 0.60720264911651611 0.57635581493377686
0.050611324608325958 0.59665000438690186 0.57114791870117188
0.14582549035549164 0.57528650760650635 0.56142711639404297
0.23177993297576904 0.54632860422134399 0.54801875352859497
0.31535351276397705 0.51489728689193726 0.53044337034225464
0.39166587591171265 0.48458445072174072 0.5113486647605896
0.45762825012207031 0.45996105670928955 0.49642938375473022
0.51675939559936523 0.43443334102630615 0.48195511102676392
0.0078431377187371254 0.75900763273239136 0.65031397342681885
0.0078431377187371254 0.75964921712875366 0.65406244993209839
0.0078341616317629814 0.76240938901901245 0.65432870388031006
0.0078287757933139801 0.76180201768875122 0.65164417028427124
0.0078417612239718437 0.74605989456176758 0.64495760202407837
0.013541756197810173 0.73303681612014771 0.63787764310836792
0.070659801363945007 0.72163981199264526 0.63133466243743896
0.18167860805988312 0.699504554271698 0.62147688865661621
0.27927228808403015 0.66359210014343262 0.60221183300018311
0.36625379323959351 0.62560760974884033 0.57947671413421631
0.44093096256256104 0.58712583780288696 0.55673873424530029
0.50722694396972656 0.55472660064697266 0.54101395606994629
0.5665287971496582 0.52366906404495239 0.5249403715133667
0.0074922451749444008 0.88753038644790649 0.70952838659286499
0.0073165595531463623 0.89075076580047607 0.71213489770889282
0.0059225494042038918 0.89552575349807739 0.71402472257614136
0.0054578143171966076 0.89704841375350952 0.71240335702896118
0.0081152822822332382 0.88540095090866089 0.70680993795394897
0.025035558268427849 0.87059974670410156 0.69888097047805786
0.11894139647483826 0.85540032386779785 0.69167846441268921
0.22900794446468353 0.83449423313140869 0.68176192045211792
0.32758203148841858 0.79504686594009399 0.66172647476196289
0.41554960608482361 0.74561160802841187 0.63490474224090576
0.49115762114524841 0.70015013217926025 0.60922682285308838
0.5590742826461792 0.66135692596435547 0.59108299016952515
0.62073212862014771 0.62021398544311523 0.5709235668182373
0.068148605525493622 0.98783624172210693 0.76590812206268311
0.071576483547687531 0.98964160680770874 0.76796203851699829
0.081517159938812256 0.99195116758346558 0.7715790867805481
0.095305636525154114 0.99391847848892212 0.77397805452346802
0.11430912464857101 0.99116486310958862 0.7718813419342041
0.1508917510509491 0.98413240909576416 0.76549386978149414
0.22003287076950073 0.97629863023757935 0.75691145658493042
0.30095061659812927 0.96159929037094116 0.7440679669380188
0.37986475229263306 0.93083566427230835 0.72508805990219116
0.46537426114082336 0.88354498147964478 0.69881993532180786
0.54607182741165161 0.82900190353393555 0.67130106687545776
0.61651426553726196 0.78081917762756348 0.64892750978469849
0.68009978532791138 0.73347765207290649 0.62311822175979614
0.40119665861129761 1 0.8301461935043335
0.40657514333724976 1 0.83188790082931519
0.41764909029006958 1 0.83665692806243896
0.42762210965156555 1 0.84306150674819946
0.44401794672012329 1 0.84735637903213501
0.46561518311500549 1 0.84804588556289673
0.48006096482276917 0.99985271692276001 0.8412434458732605
0.49995774030685425 0.99732106924057007 0.82935386896133423
0.52436584234237671 0.98994719982147217 0.81081885099411011
0.5676770806312561 0.98022902011871338 0.77859240770339966
0.61736959218978882 0.95635348558425903 0.74371123313903809
0.67994779348373413 0.91131216287612915 0.71149241924285889
0.74613469839096069 0.8523516058921814 0.67536485195159912
0.65940713882446289 1 0.89815723896026611
0.65605586767196655 1 0.90045821666717529
0.6690858006477356 1 0.9057963490486145
0.6764373779296875 1 0.91259288787841797
0.68194299936294556 1 0.91541868448257446
0.69165891408920288 1 0.91841620206832886
0.70830768346786499 1 0.92771029472351074
0.72050386667251587 0.9996451735496521 0.92907601594924927
0.73781174421310425 0.99586445093154907 0.91909712553024292
0.75828319787979126 0.99322736263275146 0.89220637083053589
0.77560943365097046 0.99400448799133301 0.85014081001281738
0.7926558256149292 0.98950648307800293 0.79372948408126831
0.82846635580062866 0.96570062637329102 0.73763883113861084
0.89199048280715942 1 0.96781712770462036
0.89663302898406982 1 0.97015029191970825
0.90415006875991821 1 0.97434836626052856
0.90812516212463379 1 0.97764092683792114
0.90911012887954712 1 0.97912847995758057
0.91356998682022095 1 0.98110872507095337
0.92293184995651245 1 0.98514145612716675
0.92671489715576172 1 0.98850089311599731
0.9349486231803894 1 0.99023276567459106
0.94450944662094116 0.99954545497894287 0.98641222715377808
0.95014667510986328 0.99912315607070923 0.96554982662200928
0.95322304964065552 0.99900448322296143 0.91547304391860962
0.96497738361358643 0.99814611673355103 0.83465611934661865
0 0.038169607520103455 0.29194661974906921
0 0.045412264764308929 0.28931915760040283
0 0.053871873766183853 0.30031111836433411
2.2618911316385493e-05 0.063807561993598938 0.31430718302726746
0.00093412213027477264 0.066590115427970886 0.32367026805877686
0.0025075427256524563 0.070780001580715179 0.32875317335128784
0.0079343607649207115 0.066979460418224335 0.32686278223991394
0.020069345831871033 0.056752927601337433 0.31904888153076172
0.046143833547830582 0.047458305954933167 0.31194934248924255
0.097666360437870026 0.044198442250490189 0.30836573243141174
0.16472016274929047 0.053006984293460846 0.31278052926063538
0.23937532305717468 0.067432746291160583 0.31867986917495728
0.32267317175865173 0.093680210411548615 0.32444092631340027
4.1138891901937313e-06 0.12683656811714172 0.34698227047920227
1.0531556654314045e-05 0.13265582919120789 0.34816482663154602
0.001454521669074893 0.143654465675354 0.3525250256061554
0.0030330582521855831 0.15279437601566315 0.36431360244750977
0.0066457260400056839 0.15656721591949463 0.37308916449546814
0.013678636401891708 0.15634448826313019 0.37255263328552246
0.028957158327102661 0.14962267875671387 0.36985564231872559
0.050197452306747437 0.13719350099563599 0.36175352334976196
0.08603186160326004 0.12668010592460632 0.35264641046524048
0.13732242584228516 0.11914521455764771 0.34695339202880859
0.20261460542678833 0.12128274887800217 0.3470795750617981
0.27698323130607605 0.13058796525001526 0.34753480553627014
0.35088250041007996 0.14857126772403717 0.35136693716049194
0.0022104599047452211 0.22197984158992767 0.40422728657722473
0.0022691914346069098 0.22338275611400604 0.40350979566574097
0.0038910810835659504 0.22676758468151093 0.40113502740859985
0.0053735771216452122 0.23206368088722229 0.40602195262908936
0.0096379444003105164 0.23355597257614136 0.41292682290077209
0.023149378597736359 0.22998417913913727 0.41213774681091309
0.048937223851680756 0.22126568853855133 0.40894696116447449
0.075754918158054352 0.21052998304367065 0.4021490216255188
0.11866129189729691 0.20227663218975067 0.39422768354415894
0.17310675978660583 0.19292193651199341 0.38676369190216064
0.23705005645751953 0.18845109641551971 0.38207122683525085
0.30789580941200256 0.18952730298042297 0.37659242749214172
0.37412095069885254 0.19468203186988831 0.375282883644104
0.003261566162109375 0.31374189257621765 0.4530823826789856
0.0033088235650211573 0.31317439675331116 0.45256873965263367
0.0034088133834302425 0.31212958693504333 0.45259422063827515
0.003614148823544383 0.31237992644309998 0.45419958233833313
0.0082557229325175285 0.31304836273193359 0.45451962947845459
0.01751353032886982 0.30884051322937012 0.45223328471183777
0.047206055372953415 0.29818809032440186 0.44839087128639221
0.093974173069000244 0.28264299035072327 0.4393254816532135
0.1466892808675766 0.2737070620059967 0.43262597918510437
0.20467722415924072 0.26376044750213623 0.42434823513031006
0.2702949047088623 0.25496676564216614 0.41663029789924622
0.33751481771469116 0.24966147541999817 0.40943729877471924
0.40009832382202148 0.2446771115064621 0.40441551804542542
0.0013553694589063525 0.40525853633880615 0.50242036581039429
0.0023238088469952345 0.40328866243362427 0.5000227689743042
0.0014901105314493179 0.40255868434906006 0.5019303560256958
0.001576591981574893 0.39945524930953979 0.50095969438552856
0.0050511825829744339 0.3958091139793396 0.49781292676925659
0.0089687276631593704 0.39262515306472778 0.49532249569892883
0.02008838951587677 0.38298961520195007 0.49024489521980286
0.079478032886981964 0.36633309721946716 0.48158749938011169
0.16290087997913361 0.347493976354599 0.47071161866188049
0.23590187728404999 0.33146458864212036 0.45928892493247986
0.30244088172912598 0.32067146897315979 0.45085823535919189
0.36879271268844604 0.31211176514625549 0.44310900568962097
0.42986714839935303 0.30339983105659485 0.43548783659934998
0.0020243925973773003 0.50994431972503662 0.55694210529327393
0.0021784615237265825 0.50595933198928833 0.55548012256622314
0.0026300018653273582 0.50517326593399048 0.55479180812835693
0.0038237178232520819 0.50419920682907104 0.55282413959503174
0.0056247035972774029 0.49974480271339417 0.54823017120361328
0.010752943344414234 0.49219372868537903 0.54352909326553345
0.026296772062778473 0.48056480288505554 0.53741294145584106
0.10567767918109894 0.46308633685112 0.52831476926803589
0.18819206953048706 0.43919259309768677 0.51526933908462524
0.26818665862083435 0.41067564487457275 0.49845209717750549
0.33848097920417786 0.3889305591583252 0.48485726118087769
0.40249693393707275 0.37598124146461487 0.47597691416740417
0.46254643797874451 0.36567977070808411 0.46782851219177246
0.0048718620091676712 0.63365906476974487 0.61627340316772461
0.0060974420048296452 0.63368260860443115 0.61727333068847656
0.0060416278429329395 0.63114833831787109 0.61507320404052734
0.0061820386908948421 0.62315267324447632 0.60977649688720703
0.0074926638044416904 0.61339914798736572 0.60328298807144165
0.010772855021059513 0.60617613792419434 0.5972975492477417
0.037760220468044281 0.59425759315490723 0.59009140729904175
0.13441435992717743 0.57270282506942749 0.5786934494972229
0.22825607657432556 0.54663878679275513 0.56500411033630371
0.30970486998558044 0.51661199331283569 0.54791367053985596
0.3827936053276062 0.48235419392585754 0.52980375289916992
0.44701898097991943 0.45511248707771301 0.514576256275177
0.50402200222015381 0.43490767478942871 0.50267428159713745
0.0060977712273597717 0.76393246650695801 0.67531520128250122
0.0078343413770198822 0.76295644044876099 0.67638039588928223
0.0078423889353871346 0.76204317808151245 0.6751447319984436
0.0078166583552956581 0.75681674480438232 0.67008090019226074
0.0081058880314230919 0.7432062029838562 0.66279065608978271
0.010424625128507614 0.7316468358039856 0.65512150526046753
0.056188292801380157 0.71754777431488037 0.64541137218475342
0.17330659925937653 0.69318538904190063 0.63331145048141479
0.27475735545158386 0.66001778841018677 0.61554610729217529
0.35870179533958435 0.62485510110855103 0.59660214185714722
0.43073049187660217 0.59020721912384033 0.57938027381896973
0.49740874767303467 0.55541712045669556 0.56077003479003906
0.55397570133209229 0.52170097827911377 0.54379594326019287
0.0034874561242759228 0.89556300640106201 0.73256999254226685
0.0062287873588502407 0.89411687850952148 0.73307806253433228
0.0068489820696413517 0.89351195096969604 0.73307454586029053
0.0056284586898982525 0.89136785268783569 0.72903740406036377
0.008260105736553669 0.88221508264541626 0.72288542985916138
0.017716994509100914 0.86861127614974976 0.71421003341674805
0.092788964509963989 0.84975069761276245 0.70479989051818848
0.21994397044181824 0.824471116065979 0.69248056411743164
0.32356837391853333 0.78747344017028809 0.67374807596206665
0.40802371501922607 0.7434077262878418 0.65096062421798706
0.48014381527900696 0.70079284906387329 0.62836372852325439
0.54823273420333862 0.66056233644485474 0.60678410530090332
0.61033779382705688 0.61828821897506714 0.58640837669372559
0.057186637073755264 0.99107933044433594 0.78842216730117798
0.062178891152143478 0.99056339263916016 0.7895432710647583
0.070083543658256531 0.99080091714859009 0.79180455207824707
0.07909432053565979 0.99093353748321533 0.79140889644622803
0.093281827867031097 0.98896509408950806 0.78715163469314575
0.12216493487358093 0.98442351818084717 0.77967578172683716
0.19038911163806915 0.97314518690109253 0.77082496881484985
0.28446727991104126 0.95509737730026245 0.75777661800384521
0.37481150031089783 0.9256899356842041 0.73911809921264648
0.45792406797409058 0.88083374500274658 0.71526056528091431
0.53478199243545532 0.82575905323028564 0.68593353033065796
0.60501706600189209 0.77343404293060303 0.65785807371139526
0.67040127515792847 0.72701472043991089 0.63364654779434204
0.38571923971176147 1 0.84997075796127319
0.38895472884178162 1 0.85280007123947144
0.40036273002624512 1 0.85728490352630615
0.41397285461425781 1 0.86300456523895264
0.42762774229049683 1 0.86448734998703003
0.44736814498901367 1 0.86316365003585815
0.46424925327301025 0.99958008527755737 0.85544270277023315
0.48448798060417175 0.99553447961807251 0.8417021632194519
0.51271134614944458 0.99108946323394775 0.82224470376968384
0.55367791652679443 0.98045748472213745 0.7915453314781189
0.60548627376556396 0.95348459482192993 0.7546883225440979
0.66822206974029541 0.90797364711761475 0.7202458381652832
0.73870682716369629 0.84645891189575195 0.68428373336791992
0.64433205127716064 1 0.91379475593566895
0.64477366209030151 1 0.91751784086227417
0.65861916542053223 1 0.92116421461105347
0.66746240854263306 1 0.92886066436767578
0.67397332191467285 1 0.93564051389694214
0.68258976936340332 1 0.9400753378868103
0.69834238290786743 1 0.94434022903442383
0.70820552110671997 0.99940073490142822 0.94122028350830078
0.72217154502868652 0.99686986207962036 0.92859804630279541
0.74513351917266846 0.99523055553436279 0.90218251943588257
0.76052474975585938 0.99556118249893188 0.85383415222167969
0.78304851055145264 0.98789536952972412 0.79895150661468506
0.82414650917053223 0.9635690450668335 0.74588698148727417
0.88469535112380981 1 0.97455263137817383
0.88594657182693481 1 0.97691106796264648
0.889923095703125 1 0.97734206914901733
0.89318263530731201 1 0.98168623447418213
0.89817893505096436 1 0.98678386211395264
0.90332114696502686 1 0.99027013778686523
0.91345149278640747 1 0.9892469048500061
0.92150211334228516 1 0.99261569976806641
0.92830663919448853 1 0.99168086051940918
0.9374086856842041 0.9999271035194397 0.98962879180908203
0.94276237487792969 0.9998134970664978 0.9668007493019104
0.94770699739456177 0.9994431734085083 0.91993141174316406
0.95936769247055054 0.99837768077850342 0.84197258949279785
0 0.042724162340164185 0.35833683609962463
0 0.050594255328178406 0.3586084246635437
0 0.061122115701436996 0.36584410071372986
0 0.071196958422660828 0.37598329782485962
0.00018525964696891606 0.07452043890953064 0.37924116849899292
0.0019347994821146131 0.072256661951541901 0.37728720903396606
0.0062562529928982258 0.064979404211044312 0.37129610776901245
0.013841681182384491 0.058254122734069824 0.36309987306594849
0.033103927969932556 0.046954121440649033 0.35251781344413757
0.081371322274208069 0.045202024281024933 0.34855380654335022
0.15002408623695374 0.057345014065504074 0.35237881541252136
0.22647145390510559 0.073568500578403473 0.35568702220916748
0.31311950087547302 0.10125763714313507 0.35888996720314026
0 0.13491839170455933 0.40783652663230896
0 0.14395211637020111 0.40900346636772156
0.00069515750510618091 0.15510836243629456 0.41118067502975464
0.0017860262887552381 0.15807759761810303 0.41567865014076233
0.0038265751209110022 0.15683597326278687 0.41702020168304443
0.0085064154118299484 0.15434440970420837 0.41701415181159973
0.018039733171463013 0.14576885104179382 0.41113609075546265
0.035279694944620132 0.13432721793651581 0.40028327703475952
0.06842002272605896 0.12401414662599564 0.39016905426979065
0.12000347673892975 0.11903990060091019 0.38424402475357056
0.18710178136825562 0.12245622277259827 0.38387280702590942
0.26212882995605469 0.13524362444877625 0.38565254211425781
0.3380872905254364 0.15358045697212219 0.38613992929458618
0 0.22931148111820221 0.45172193646430969
4.6404671593336388e-05 0.22958958148956299 0.45112577080726624
0.0033829184249043465 0.23192867636680603 0.44980201125144958
0.0041648712940514088 0.23453715443611145 0.45130017399787903
0.0076661501079797745 0.23251503705978394 0.45198303461074829
0.013695152476429939 0.22880719602108002 0.45200741291046143
0.034171354025602341 0.22056926786899567 0.44855666160583496
0.062008548527956009 0.2096080482006073 0.43774944543838501
0.10380678623914719 0.20165453851222992 0.42877781391143799
0.15759444236755371 0.1949249655008316 0.42186558246612549
0.22535000741481781 0.19179427623748779 0.41713470220565796
0.2956024706363678 0.19227945804595947 0.41248255968093872
0.36214616894721985 0.19712759554386139 0.40813237428665161
0 0.31797438859939575 0.49548941850662231
0.00012473312381189317 0.31648015975952148 0.49374231696128845
0.0034839257132261992 0.31603389978408813 0.49305722117424011
0.0039868671447038651 0.31485757231712341 0.49280297756195068
0.007223046850413084 0.31176862120628357 0.49104082584381104
0.011889409273862839 0.30793589353561401 0.48983654379844666
0.034813344478607178 0.29860895872116089 0.48416385054588318
0.079634815454483032 0.28412798047065735 0.47338879108428955
0.12464128434658051 0.27521404623985291 0.46472182869911194
0.18951679766178131 0.2672494649887085 0.45734989643096924
0.26026558876037598 0.25965619087219238 0.4502597451210022
0.32892793416976929 0.2536156177520752 0.44164919853210449
0.39304250478744507 0.24731366336345673 0.43202909827232361
0 0.40962052345275879 0.54088586568832397
0 0.40686160326004028 0.53826582431793213
0.0025438496377319098 0.40440133213996887 0.53698796033859253
0.0039177089929580688 0.40168306231498718 0.53471851348876953
0.0051820790395140648 0.39739841222763062 0.53083759546279907
0.0090902885422110558 0.39197877049446106 0.52713131904602051
0.014663082547485828 0.38080844283103943 0.52207893133163452
0.065287120640277863 0.36379197239875793 0.51128202676773071
0.14338488876819611 0.34637686610221863 0.4991399347782135
0.22125086188316345 0.33327341079711914 0.48941436409950256
0.29307574033737183 0.32298639416694641 0.48145601153373718
0.36184436082839966 0.31542941927909851 0.47109267115592957
0.42424783110618591 0.30914357304573059 0.46199685335159302
0.00058243697276338935 0.51525324583053589 0.59084266424179077
0.0012423347216099501 0.50917595624923706 0.58683687448501587
0.0034083048813045025 0.50506401062011719 0.58385276794433594
0.0039677489548921585 0.50282365083694458 0.58174741268157959
0.0060542086139321327 0.49750193953514099 0.57687413692474365
0.0087390821427106857 0.48972412943840027 0.57107418775558472
0.021972551941871643 0.47685971856117249 0.56423485279083252
