luts/colorslide/fuji_velvia_50.cube
# Created by: G'MIC (https://gmic.eu)
TITLE "fuji_velvia_50"
# LUT size
LUT_3D_SIZE 13
# Data domain
DOMAIN_MIN 0.0 0.0 0.0
DOMAIN_MAX 1.0 1.0 1.0
# LUT data points
0.02319997176527977 0.011263723485171795 0.0092625785619020462
0.039354719221591949 0.0076196556910872459 0.0081450967118144035
0.096163190901279449 0.0050872503779828548 0.0085208369418978691
0.18571458756923676 0.0032811930868774652 0.0092890122905373573
0.28230854868888855 0.003275897353887558 0.010617588646709919
0.37219339609146118 0.002448108047246933 0.01268355455249548
0.45656773447990417 0.002153987530618906 0.011783046647906303
0.53917592763900757 0.00097345089307054877 0.0087315728887915611
0.62424421310424805 0 0.0082857320085167885
0.71036690473556519 0 0.011558308266103268
0.79160976409912109 0 0.011734756641089916
0.8721081018447876 0 0.0085758883506059647
0.95030558109283447 0 0.002648521913215518
0.021966777741909027 0.044576473534107208 0.012952483259141445
0.04086926206946373 0.038147840648889542 0.012085873633623123
0.099736832082271576 0.034658156335353851 0.01411698292940855
0.19007973372936249 0.024813020601868629 0.014051953330636024
0.28600937128067017 0.015629608184099197 0.013512271456420422
0.37558558583259583 0.012947635725140572 0.016312273219227791
0.45917192101478577 0.0079657910391688347 0.016768570989370346
0.5409044623374939 0.0041243010200560093 0.013970109634101391
0.62704980373382568 0.0018027510959655046 0.011485978960990906
0.71258920431137085 0.0012169932015240192 0.012273840606212616
0.79021656513214111 0.00079284369712695479 0.011404224671423435
0.87011492252349854 0.0026212953962385654 0.0097024505957961082
0.9488750696182251 0.0013581818202510476 0.0054341484792530537
0.028051190078258514 0.11693050712347031 0.022690895944833755
0.052756022661924362 0.11258580535650253 0.023081177845597267
0.10467294603586197 0.099686533212661743 0.023558821529150009
0.19213472306728363 0.086745016276836395 0.023345168679952621
0.28864744305610657 0.071900054812431335 0.020726492628455162
0.37676244974136353 0.062866285443305969 0.023039305582642555
0.46084204316139221 0.051157530397176743 0.022926883772015572
0.5454062819480896 0.031985368579626083 0.018436850979924202
0.63020926713943481 0.021217435598373413 0.01602243073284626
0.71326059103012085 0.012724887579679489 0.01336593646556139
0.79024434089660645 0.010357307270169258 0.012429510243237019
0.8703913688659668 0.0086278282105922699 0.010512946173548698
0.95066457986831665 0.0033820506650954485 0.0072596981190145016
0.034583237022161484 0.22361977398395538 0.035810403525829315
0.060793228447437286 0.21636506915092468 0.03375263512134552
0.10964907705783844 0.20326243340969086 0.034938167780637741
0.19195529818534851 0.1924482136964798 0.035468891263008118
0.28596168756484985 0.1808076947927475 0.034536160528659821
0.37274608016014099 0.16835199296474457 0.035702843219041824
0.45758739113807678 0.1507389098405838 0.034107312560081482
0.54288989305496216 0.12911875545978546 0.031270541250705719
0.62753605842590332 0.11042845249176025 0.029033062979578972
0.70957088470458984 0.093589678406715393 0.02499237097799778
0.78907305002212524 0.079768449068069458 0.021277064457535744
0.87186324596405029 0.063759326934814453 0.014868537895381451
0.95373260974884033 0.048057466745376587 0.0097935842350125313
0.02091490849852562 0.32242235541343689 0.046800248324871063
0.039061706513166428 0.31544098258018494 0.046859052032232285
0.085174977779388428 0.30729925632476807 0.047018162906169891
0.17321549355983734 0.29896131157875061 0.048417452722787857
0.27883318066596985 0.2865394651889801 0.048591345548629761
0.36757823824882507 0.27485129237174988 0.048460748046636581
0.45606300234794617 0.2609560489654541 0.044354859739542007
0.54062461853027344 0.24295955896377563 0.045525837689638138
0.62397110462188721 0.2248886376619339 0.044881902635097504
0.70803570747375488 0.21042716503143311 0.039531275629997253
0.79126769304275513 0.19641274213790894 0.033091016113758087
0.87249010801315308 0.17924828827381134 0.02502543106675148
0.95192360877990723 0.16127118468284607 0.018471691757440567
0.0059402915649116039 0.41320526599884033 0.062496185302734375
0.0054685254581272602 0.40763011574745178 0.061443135142326355
0.051871266216039658 0.40119215846061707 0.060248102992773056
0.15798817574977875 0.39554700255393982 0.062740668654441833
0.26824387907981873 0.38382416963577271 0.06337081640958786
0.35985863208770752 0.37506952881813049 0.063672967255115509
0.45034340023994446 0.36328747868537903 0.060230657458305359
0.54088258743286133 0.34604856371879578 0.060156863182783127
0.62537074089050293 0.3302302360534668 0.058507852256298065
0.70813173055648804 0.31685939431190491 0.051943372935056686
0.78991442918777466 0.30464863777160645 0.046064548194408417
0.87347203493118286 0.28983184695243835 0.036219920963048935
0.95442909002304077 0.27209144830703735 0.025072269141674042
0.0024944229517132044 0.50218969583511353 0.078078359365463257
0.003629347775131464 0.49754977226257324 0.078082844614982605
0.033191140741109848 0.49289199709892273 0.07722899317741394
0.1341303288936615 0.48677760362625122 0.077695704996585846
0.25255581736564636 0.47942438721656799 0.078657560050487518
0.3502689003944397 0.4724026620388031 0.079478122293949127
0.44550088047981262 0.46047961711883545 0.07657400518655777
0.54101431369781494 0.44490823149681091 0.073454990983009338
0.6276545524597168 0.43048980832099915 0.070097558200359344
0.70863825082778931 0.41700902581214905 0.064151212573051453
0.79000651836395264 0.40723249316215515 0.059275936335325241
0.87383735179901123 0.39337587356567383 0.049531344324350357
0.9573664665222168 0.37502589821815491 0.035212676972150803
0.00016479492478538305 0.59041208028793335 0.091858714818954468
0.0032141292467713356 0.5865403413772583 0.093152366578578949
0.01558475848287344 0.58581733703613281 0.095174513757228851
0.099288389086723328 0.58166319131851196 0.094455435872077942
0.22473859786987305 0.57383733987808228 0.093476422131061554
0.3332962691783905 0.56577980518341064 0.094317898154258728
0.43874248862266541 0.55447083711624146 0.09128272533416748
0.5304298996925354 0.54120206832885742 0.091218523681163788
0.61813420057296753 0.52675974369049072 0.088961675763130188
0.7011638879776001 0.51530051231384277 0.081640176475048065
0.78644376993179321 0.50368583202362061 0.071339383721351624
0.87253153324127197 0.4906315803527832 0.061291459947824478
0.95687025785446167 0.47661834955215454 0.048263087868690491
0.00056726793991401792 0.67573529481887817 0.10285881161689758
0.0039828731678426266 0.67408263683319092 0.10523743182420731
0.0073915966786444187 0.67260491847991943 0.10639671236276627
0.048218071460723877 0.66856235265731812 0.10453207045793533
0.19050449132919312 0.6615670919418335 0.10514365136623383
0.31796666979789734 0.65439420938491821 0.10591095685958862
0.4291236400604248 0.64646130800247192 0.10796105116605759
0.52174472808837891 0.63558351993560791 0.10859037190675735
0.61073732376098633 0.62277555465698242 0.10686911642551422
0.69541054964065552 0.61159199476242065 0.09754449874162674
0.78171944618225098 0.59891378879547119 0.084788843989372253
0.8705030083656311 0.58370131254196167 0.072478935122489929
0.95701879262924194 0.57007628679275513 0.05893218144774437
4.0390910726273432e-05 0.76108437776565552 0.11290770769119263
0.00071093987207859755 0.76089346408843994 0.1145160123705864
0.0019049700349569321 0.75728362798690796 0.11402170360088348
0.027811147272586823 0.75193965435028076 0.11297914385795593
0.16341055929660797 0.74672281742095947 0.11212635785341263
0.31043323874473572 0.73994821310043335 0.11142022907733917
0.4158417284488678 0.73320013284683228 0.11691936105489731
0.51016557216644287 0.72503989934921265 0.11945550888776779
0.60517996549606323 0.71412861347198486 0.11620130389928818
0.6901627779006958 0.70253944396972656 0.10706106573343277
0.77750134468078613 0.69176489114761353 0.096345819532871246
0.86725020408630371 0.6777724027633667 0.082326315343379974
0.95515495538711548 0.6633870005607605 0.067071937024593353
0 0.84819477796554565 0.13178440928459167
0 0.84906935691833496 0.13328562676906586
0.0016197353834286332 0.84537798166275024 0.13183136284351349
0.01087264996021986 0.83942383527755737 0.13049450516700745
0.12093076854944229 0.83473360538482666 0.12947101891040802
0.28648358583450317 0.82734096050262451 0.12896130979061127
0.40122771263122559 0.81913745403289795 0.13065992295742035
0.49775427579879761 0.81016498804092407 0.12819257378578186
0.59541326761245728 0.80131161212921143 0.12006440758705139
0.68449878692626953 0.78912222385406494 0.11245058476924896
0.77404642105102539 0.78029555082321167 0.10277964174747467
0.86577820777893066 0.77079260349273682 0.083391420543193817
0.95229935646057129 0.75777238607406616 0.066782020032405853
0 0.93769454956054688 0.15444371104240417
0 0.93713980913162231 0.15603679418563843
0.00062320183496922255 0.93295520544052124 0.1534564346075058
0.0068198409862816334 0.92854666709899902 0.15159732103347778
0.077717438340187073 0.92392849922180176 0.15111701190471649
0.24986179172992706 0.91682010889053345 0.15097582340240479
0.37828198075294495 0.90849125385284424 0.14796887338161469
0.48371127247810364 0.90003877878189087 0.14388063549995422
0.58091002702713013 0.89136266708374023 0.13679274916648865
0.6765558123588562 0.87961304187774658 0.12681755423545837
0.77069669961929321 0.87054795026779175 0.10889734327793121
0.86126202344894409 0.86379629373550415 0.073675908148288727
0.94740748405456543 0.85367399454116821 0.039861403405666351
0 0.99037235975265503 0.16590127348899841
0 0.99084782600402832 0.16639503836631775
4.8618690925650299e-05 0.99131697416305542 0.16522625088691711
0.011790960095822811 0.99135738611221313 0.16630953550338745
0.085933759808540344 0.991371750831604 0.1636057049036026
0.24225245416164398 0.9889264702796936 0.16283403337001801
0.37308213114738464 0.98476231098175049 0.15981753170490265
0.47386026382446289 0.98072546720504761 0.15551112592220306
0.57300162315368652 0.97539031505584717 0.14924409985542297
0.67100363969802856 0.96515297889709473 0.139522984623909
0.76724058389663696 0.95820993185043335 0.1180545911192894
0.85673415660858154 0.9538457989692688 0.080790981650352478
0.94201362133026123 0.94603043794631958 0.024617886170744896
0.013601699844002724 0.011305117048323154 0.026685528457164764
0.038580682128667831 0.0082367537543177605 0.026999633759260178
0.096170775592327118 0.0067640119232237339 0.027308445423841476
0.18217234313488007 0.0048546884208917618 0.029093019664287567
0.28068554401397705 0.0045979367569088936 0.035775728523731232
0.37068969011306763 0.003873234149068594 0.03797830268740654
0.45509245991706848 0.002671664347872138 0.035116683691740036
0.53864723443984985 0.00063623167807236314 0.029327018186450005
0.62445402145385742 0.00027394015341997147 0.02546996995806694
0.71039468050003052 0.00065535004250705242 0.022372376173734665
0.79265409708023071 0.0003176820173393935 0.019608516246080399
0.87374645471572876 0 0.017199303954839706
0.95258170366287231 0 0.01015707291662693
0.019357284530997276 0.043490555137395859 0.036532830446958542
0.041102975606918335 0.03735027089715004 0.037347637116909027
0.097493641078472137 0.032424446195363998 0.038193166255950928
0.1894000768661499 0.024138161912560463 0.039190717041492462
0.28332772850990295 0.015498352237045765 0.039229553192853928
0.37328845262527466 0.013847022317349911 0.043984297662973404
0.45731118321418762 0.0081126643344759941 0.041889593005180359
0.54059076309204102 0.0030801661778241396 0.036037668585777283
0.62614631652832031 0.0033916847314685583 0.034274037927389145
0.71267020702362061 0.0042480765841901302 0.032611384987831116
0.79144966602325439 0.0041480418294668198 0.029461011290550232
0.87272840738296509 0.0014913371996954083 0.023168811574578285
0.95206129550933838 6.4475862018298358e-06 0.015468088909983635
0.027884330600500107 0.11547300964593887 0.050620328634977341
0.051890473812818527 0.10958223789930344 0.050856512039899826
0.10347168892621994 0.099627986550331116 0.050867520272731781
0.19351723790168762 0.087497055530548096 0.051510680466890335
0.29017606377601624 0.070526108145713806 0.04986075684428215
0.3758598268032074 0.06079571321606636 0.052421599626541138
0.46111270785331726 0.048711873590946198 0.050860714167356491
0.54655683040618896 0.03188781812787056 0.044025182723999023
0.62985849380493164 0.023255607113242149 0.042046774178743362
0.71352881193161011 0.014988798648118973 0.03898804634809494
0.79124355316162109 0.011794654652476311 0.034946218132972717
0.8733636736869812 0.0046450146473944187 0.026859402656555176
0.95446580648422241 0.0020922492258250713 0.018999705091118813
0.036556888371706009 0.22247044742107391 0.066303908824920654
0.06093800812959671 0.21441914141178131 0.066977463662624359
0.10924153029918671 0.20274201035499573 0.066906660795211792
0.19404034316539764 0.19236509501934052 0.067024454474449158
0.28944090008735657 0.17960454523563385 0.065789856016635895
0.37548056244850159 0.1655564159154892 0.068190164864063263
0.46106511354446411 0.14952763915061951 0.066071905195713043
0.54673010110855103 0.133254274725914 0.062561273574829102
0.6295202374458313 0.11343871802091599 0.058101877570152283
0.71048665046691895 0.093705885112285614 0.050765212625265121
0.7901800274848938 0.079540267586708069 0.043622169643640518
0.87365686893463135 0.063597872853279114 0.034038156270980835
0.95464038848876953 0.045928459614515305 0.027611646801233292
0.022114308550953865 0.31945332884788513 0.079177394509315491
0.038902357220649719 0.315042644739151 0.080479174852371216
0.083202779293060303 0.3072451651096344 0.082544513046741486
0.17420169711112976 0.29815882444381714 0.083906807005405426
0.28096100687980652 0.28556385636329651 0.083196230232715607
0.3710058331489563 0.27190461754798889 0.084478072822093964
0.45908340811729431 0.25825157761573792 0.080832071602344513
0.54555314779281616 0.24420291185379028 0.078097261488437653
0.62761253118515015 0.22775499522686005 0.076577730476856232
0.70931750535964966 0.21213939785957336 0.069005526602268219
0.79298436641693115 0.19757828116416931 0.057246055454015732
0.87354099750518799 0.18106043338775635 0.047849498689174652
0.95454204082489014 0.1613471508026123 0.036125406622886658
0.0049375793896615505 0.41212436556816101 0.096418343484401703
0.0061338236555457115 0.40812736749649048 0.096639923751354218
0.048067159950733185 0.40132907032966614 0.096956752240657806
0.16006126999855042 0.39445814490318298 0.10063689202070236
0.26971122622489929 0.38354486227035522 0.10057505965232849
0.36183956265449524 0.37149962782859802 0.10180846601724625
0.45384892821311951 0.35848268866539001 0.098649851977825165
0.5473027229309082 0.34454482793807983 0.094051063060760498
0.62948757410049438 0.32894301414489746 0.092173829674720764
0.70965456962585449 0.31567969918251038 0.084921009838581085
0.79222440719604492 0.3031163215637207 0.074132122099399567
0.87404894828796387 0.28915083408355713 0.06354629248380661
0.95583218336105347 0.27202993631362915 0.049954477697610855
0.0017124400474131107 0.50565463304519653 0.11551106721162796
0.0021169176325201988 0.4997885525226593 0.11551302671432495
0.028640178963541985 0.49340271949768066 0.11352267116308212
0.12876412272453308 0.48864400386810303 0.11763843894004822
0.25182303786277771 0.47927090525627136 0.11714834719896317
0.35316100716590881 0.46888303756713867 0.11822843551635742
0.45025089383125305 0.45595848560333252 0.11642304807901382
0.54440039396286011 0.44277909398078918 0.11192019283771515
0.62851047515869141 0.42928221821784973 0.1075437068939209
0.70728540420532227 0.41439932584762573 0.1013600081205368
0.79116743803024292 0.40280508995056152 0.091680161654949188
0.87324148416519165 0.38854005932807922 0.080077752470970154
0.95717388391494751 0.37299695611000061 0.064703665673732758
0.00084312289254739881 0.59531337022781372 0.13193117082118988
0.0037216036580502987 0.58929097652435303 0.13195173442363739
0.012995222583413124 0.5856022834777832 0.12942588329315186
0.091352619230747223 0.58183896541595459 0.1315731406211853
0.22308000922203064 0.57389199733734131 0.13204328715801239
0.33753496408462524 0.56360214948654175 0.13290750980377197
0.44289574027061462 0.55262690782546997 0.13104289770126343
0.53371572494506836 0.54072278738021851 0.13147227466106415
0.62069010734558105 0.52726113796234131 0.12729479372501373
0.70108950138092041 0.51137471199035645 0.11959540843963623
0.78493964672088623 0.49846360087394714 0.10860263556241989
0.87112200260162354 0.48930490016937256 0.096242897212505341
0.95698398351669312 0.47798186540603638 0.079654261469841003
0.00094202079344540834 0.6809992790222168 0.15163989365100861
0.0039228852838277817 0.67591756582260132 0.14901995658874512
0.0089796623215079308 0.67317885160446167 0.14740099012851715
0.052919499576091766 0.66930407285690308 0.14466296136379242
0.19297793507575989 0.66077953577041626 0.1472821831703186
0.32166984677314758 0.65256357192993164 0.14702342450618744
0.43319827318191528 0.64433687925338745 0.14622238278388977
0.52467191219329834 0.6338617205619812 0.14639972150325775
0.61308157444000244 0.62116086483001709 0.14179480075836182
0.69600182771682739 0.60750800371170044 0.13524109125137329
0.78150779008865356 0.59415692090988159 0.12510503828525543
0.86944049596786499 0.58294582366943359 0.111594557762146
0.95614874362945557 0.57225894927978516 0.094636149704456329
0.0002200855960836634 0.76362913846969604 0.16991731524467468
0.0016090243589133024 0.76233357191085815 0.170291468501091
0.0050704656168818474 0.75836986303329468 0.16920994222164154
0.029502000659704208 0.75251030921936035 0.16447700560092926
0.1624237447977066 0.74658787250518799 0.16352099180221558
0.30721971392631531 0.74040383100509644 0.16459003090858459
0.41967913508415222 0.7330554723739624 0.16429568827152252
0.51491045951843262 0.72386902570724487 0.16228869557380676
0.60703039169311523 0.71332037448883057 0.15626983344554901
0.69121319055557251 0.70120847225189209 0.15058007836341858
0.77875572443008423 0.68859958648681641 0.13829927146434784
0.86785590648651123 0.67500585317611694 0.12240892648696899
0.95605975389480591 0.66253149509429932 0.10473643243312836
0 0.8492397665977478 0.18788912892341614
0 0.85086292028427124 0.18926908075809479
0.0031413058750331402 0.84611248970031738 0.18834275007247925
0.012396090663969517 0.83994543552398682 0.18479003012180328
0.11782240122556686 0.8342328667640686 0.18319897353649139
0.28688332438468933 0.82718455791473389 0.18261043727397919
0.40549585223197937 0.81949800252914429 0.18298782408237457
0.50036555528640747 0.81151491403579712 0.1805979311466217
0.59388405084609985 0.80220681428909302 0.17593666911125183
0.68262714147567749 0.7916838526725769 0.16855326294898987
0.77364158630371094 0.78176963329315186 0.150968998670578
0.8657078742980957 0.77033829689025879 0.13065715134143829
0.95330840349197388 0.75656825304031372 0.10766927897930145
0 0.93493562936782837 0.20206910371780396
0 0.93794649839401245 0.20211681723594666
0.0011119169648736715 0.93433600664138794 0.20130389928817749
0.0070123709738254547 0.92921656370162964 0.19971545040607452
0.078467771410942078 0.924355149269104 0.19746768474578857
0.252544105052948 0.91637742519378662 0.19737297296524048
0.38101392984390259 0.90840059518814087 0.19649200141429901
0.48574230074882507 0.90132439136505127 0.19289849698543549
0.5810546875 0.89254909753799438 0.18956151604652405
0.67442387342453003 0.88313919305801392 0.18461798131465912
0.76922279596328735 0.87369638681411743 0.16611219942569733
0.86212307214736938 0.86503905057907104 0.1433839350938797
0.95046895742416382 0.85430055856704712 0.10456261783838272
0 0.99167251586914062 0.21133013069629669
0 0.98980379104614258 0.21014228463172913
0.00061726290732622147 0.98906958103179932 0.21038098633289337
0.014307702891528606 0.99050402641296387 0.21100124716758728
0.091242142021656036 0.99069666862487793 0.20823293924331665
0.24922142922878265 0.98578351736068726 0.20798031985759735
0.37048545479774475 0.98498153686523438 0.2062123566865921
0.47249075770378113 0.98184597492218018 0.20050089061260223
0.57324886322021484 0.97515952587127686 0.19558422267436981
0.6710132360458374 0.96596711874008179 0.19071266055107117
0.76689571142196655 0.95853704214096069 0.17385384440422058
0.8569149374961853 0.95380866527557373 0.15038619935512543
0.94449138641357422 0.94613683223724365 0.10680356621742249
0.01164118479937315 0.012352767400443554 0.066176667809486389
0.03858458623290062 0.0088602248579263687 0.070204824209213257
0.095575429499149323 0.0067317290231585503 0.068739645183086395
0.1815362274646759 0.0046950248070061207 0.069408759474754333
0.28000614047050476 0.0040539908222854137 0.068918205797672272
0.369331955909729 0.0041914847679436207 0.068919435143470764
0.45569375157356262 0.0027526705525815487 0.065450690686702728
0.539928138256073 0.0010438807075843215 0.062466491013765335
0.62695431709289551 0.00067174574360251427 0.057160485535860062
0.71252697706222534 0.00058521941537037492 0.052656419575214386
0.79319655895233154 0.00017628389468882233 0.046999465674161911
0.87488377094268799 0 0.038511972874403
0.95560282468795776 0 0.027912948280572891
0.017844285815954208 0.04504108801484108 0.081625662744045258
0.04149964451789856 0.038137130439281464 0.085101589560508728
0.098782524466514587 0.03250528872013092 0.085172094404697418
0.18829244375228882 0.024423711001873016 0.08566003292798996
0.28338724374771118 0.016627442091703415 0.083680294454097748
0.37257656455039978 0.012362162582576275 0.082289271056652069
0.45710363984107971 0.0099041955545544624 0.080692097544670105
0.543434739112854 0.0052573857828974724 0.076771393418312073
0.62876397371292114 0.0037145428359508514 0.073645435273647308
0.71273601055145264 0.0043480219319462776 0.070294082164764404
0.79133647680282593 0.0033411362674087286 0.065340034663677216
0.87329769134521484 0.0008760340278968215 0.05292961373925209
0.95414787530899048 0 0.039324201643466949
0.02927112951874733 0.11486575752496719 0.10128197818994522
0.051218010485172272 0.10748413950204849 0.1022036075592041
0.10110554099082947 0.098966650664806366 0.09964066743850708
0.19300031661987305 0.085165835916996002 0.099096603691577911
0.2906956672668457 0.068506307899951935 0.098013617098331451
0.37684738636016846 0.05825183168053627 0.099456563591957092
0.4619547426700592 0.045385263860225677 0.096038222312927246
0.54850310087203979 0.032144747674465179 0.093111924827098846
0.6321331262588501 0.021542388945817947 0.089318260550498962
0.714435875415802 0.014601449482142925 0.081305563449859619
0.79207789897918701 0.0089257033541798592 0.075020730495452881
0.87376135587692261 0.0039611668325960636 0.062886767089366913
0.95608460903167725 0.0030930163338780403 0.049208428710699081
0.036379661411046982 0.21647423505783081 0.12323683500289917
0.056915119290351868 0.20975698530673981 0.12130361795425415
0.10264617204666138 0.203656405210495 0.12025047838687897
0.18890060484409332 0.19201913475990295 0.12012068927288055
0.29109987616539001 0.17821355164051056 0.12031745165586472
0.37795788049697876 0.16577009856700897 0.12298163771629333
0.46282073855400085 0.15096859633922577 0.1188216432929039
0.54933905601501465 0.1335221529006958 0.11257258057594299
0.63162374496459961 0.11343143135309219 0.10749679058790207
0.713115394115448 0.093144752085208893 0.098847001791000366
0.79309296607971191 0.079193279147148132 0.089887611567974091
0.87517279386520386 0.062326796352863312 0.078278049826622009
0.95610415935516357 0.045658320188522339 0.063857913017272949
0.020186929032206535 0.3157113790512085 0.13945333659648895
0.035675108432769775 0.31315144896507263 0.13967634737491608
0.077624209225177765 0.30693191289901733 0.13857266306877136
0.17302548885345459 0.29856956005096436 0.14040400087833405
0.28194966912269592 0.28727972507476807 0.14252641797065735
0.37406584620475769 0.27356550097465515 0.14511600136756897
0.46067127585411072 0.2608494758605957 0.13986442983150482
