luts/colorslide/fuji_sensia_100.cube
# Created by: G'MIC (https://gmic.eu)
TITLE "fuji_sensia_100"
# LUT size
LUT_3D_SIZE 5
# Data domain
DOMAIN_MIN 0.0 0.0 0.0
DOMAIN_MAX 1.0 1.0 1.0
# LUT data points
0.047599911689758301 0.045878630131483078 0.039406150579452515
0.22920812666416168 0.043380092829465866 0.024750653654336929
0.44761118292808533 0.038380596786737442 0.0093347588554024696
0.72097790241241455 0.033920451998710632 0.0053455280140042305
0.89645004272460938 0.030490515753626823 0.013842803426086903
0.14077092707157135 0.30052593350410461 0.1583520919084549
0.29817190766334534 0.30185040831565857 0.14328669011592865
0.52107447385787964 0.2885957658290863 0.1100284531712532
0.79678529500961304 0.27759242057800293 0.081134974956512451
0.96188688278198242 0.2864164412021637 0.12622556090354919
0.19918034970760345 0.60540115833282471 0.26744005084037781
0.35509461164474487 0.59755069017410278 0.25104010105133057
0.61150485277175903 0.58816802501678467 0.21763096749782562
0.8874969482421875 0.58497804403305054 0.18974827229976654
0.99954891204833984 0.58717805147171021 0.24562069773674011
0.30377405881881714 0.8326076865196228 0.2973807156085968
0.44627994298934937 0.83045053482055664 0.28398469090461731
0.71378999948501587 0.82632642984390259 0.25227349996566772
0.9689558744430542 0.82015085220336914 0.23665924370288849
1 0.81725746393203735 0.31205043196678162
0.4027823805809021 0.96035671234130859 0.13733476400375366
0.54608154296875 0.95691049098968506 0.097945541143417358
0.8263738751411438 0.94380044937133789 0.023608697578310966
0.99995958805084229 0.939583420753479 0.022896172478795052
1 0.94108688831329346 0.16399586200714111
0.03446260467171669 0.0280583705753088 0.19311413168907166
0.21045428514480591 0.024893263354897499 0.16364060342311859
0.42965105175971985 0.02011343277990818 0.1284785270690918
0.6858828067779541 0.016131412237882614 0.093864485621452332
0.84436714649200439 0.014256047084927559 0.13617183268070221
0.1330714225769043 0.27816370129585266 0.29114145040512085
0.27950629591941833 0.27180647850036621 0.26988679170608521
0.50547581911087036 0.26240471005439758 0.24087534844875336
0.7618899941444397 0.25571918487548828 0.21103441715240479
0.9204598069190979 0.26102727651596069 0.25376880168914795
0.16713087260723114 0.59544283151626587 0.39958688616752625
0.33249205350875854 0.59613579511642456 0.38859033584594727
0.60145813226699829 0.58519011735916138 0.35262501239776611
0.8545953631401062 0.58047676086425781 0.33213669061660767
0.9902384877204895 0.57917040586471558 0.37690591812133789
0.25838631391525269 0.84174537658691406 0.4539223313331604
0.41870895028114319 0.83394956588745117 0.44102627038955688
0.68764084577560425 0.82536661624908447 0.41051784157752991
0.92922943830490112 0.82004827260971069 0.39905154705047607
0.99908322095870972 0.8187793493270874 0.46074578166007996
0.38827371597290039 0.96663600206375122 0.30159875750541687
0.52709299325942993 0.96351438760757446 0.29159295558929443
0.7905309796333313 0.95661753416061401 0.25792673230171204
0.99592870473861694 0.94954091310501099 0.25892698764801025
1 0.95006179809570312 0.38312909007072449
0.03050149604678154 0.0074808904901146889 0.35209214687347412
0.19148042798042297 0.0061272266320884228 0.32920029759407043
0.40166285634040833 0.0044600395485758781 0.29568767547607422
0.63889592885971069 0.0039439932443201542 0.27349475026130676
0.78436768054962158 0.003477373393252492 0.2947881817817688
0.13132630288600922 0.23443134129047394 0.46217682957649231
0.26181301474571228 0.23204657435417175 0.44951814413070679
0.47471460700035095 0.2251773476600647 0.41437298059463501
0.70415467023849487 0.21373665332794189 0.39497879147529602
0.84830230474472046 0.21098607778549194 0.40565195679664612
0.1462138295173645 0.56682121753692627 0.60836672782897949
0.31227752566337585 0.56879031658172607 0.58927768468856812
0.56572526693344116 0.56620019674301147 0.56089264154434204
0.78823208808898926 0.55565047264099121 0.53817057609558105
0.93436771631240845 0.55145210027694702 0.55956721305847168
0.20066441595554352 0.84568482637405396 0.70299422740936279
0.38115552067756653 0.84055042266845703 0.6889757513999939
0.63581293821334839 0.82971131801605225 0.66138869524002075
0.85620510578155518 0.82266420125961304 0.64455771446228027
0.98672527074813843 0.82317906618118286 0.66965293884277344
0.28258016705513 0.98094266653060913 0.65348297357559204
0.44709795713424683 0.97809439897537231 0.64187896251678467
0.7102581262588501 0.96989244222640991 0.61959803104400635
0.93138772249221802 0.9660344123840332 0.61405253410339355
1 0.96214109659194946 0.67141175270080566
0.037861857563257217 0.0039215688593685627 0.55372321605682373
0.20314197242259979 0.00087673711823299527 0.52679735422134399
0.40107294917106628 0 0.48527240753173828
0.59987074136734009 0.00039044549339450896 0.45649978518486023
0.73029667139053345 1.9387638531043194e-05 0.43891662359237671
0.14579287171363831 0.14043955504894257 0.63038653135299683
0.25535163283348083 0.13368363678455353 0.6088147759437561
0.4509282112121582 0.11997122317552567 0.56733411550521851
0.64235526323318481 0.10995009541511536 0.53158992528915405
0.7732919454574585 0.10066191852092743 0.52004718780517578
0.23814141750335693 0.50631886720657349 0.77048772573471069
0.36362364888191223 0.50262993574142456 0.75406235456466675
0.56269341707229614 0.49451157450675964 0.71336740255355835
0.74277061223983765 0.48154088854789734 0.68401896953582764
0.87542366981506348 0.48033687472343445 0.67168891429901123
0.32380327582359314 0.83015447854995728 0.88658392429351807
0.44894924759864807 0.82559686899185181 0.8705328106880188
0.64986145496368408 0.81716114282608032 0.83920836448669434
0.81948882341384888 0.81089675426483154 0.8135758638381958
0.94831877946853638 0.80403465032577515 0.80444049835205078
0.34370163083076477 0.98738831281661987 0.93004238605499268
0.47024828195571899 0.98524183034896851 0.91370022296905518
0.68066561222076416 0.97870588302612305 0.88743686676025391
0.85687816143035889 0.97547030448913574 0.85790157318115234
0.98486423492431641 0.96599805355072021 0.84693259000778198
0.13040550053119659 0.0039215688593685627 0.6783326268196106
0.27947518229484558 0 0.6431918740272522
0.4463634192943573 0 0.60501599311828613
0.59384745359420776 0 0.56990635395050049
0.71045017242431641 0 0.54789227247238159
0.23068693280220032 0.0080497888848185539 0.68659162521362305
0.31766381859779358 0.0049791820347309113 0.66386687755584717
0.4624144434928894 0.00308990478515625 0.62785851955413818
0.60098224878311157 0.0035882836673408747 0.5942760705947876
0.71190124750137329 0.0032400691416114569 0.57810908555984497
0.41387191414833069 0.3501000702381134 0.80378645658493042
0.47736769914627075 0.34431809186935425 0.79036277532577515
0.5999295711517334 0.33251264691352844 0.76110422611236572
0.71793705224990845 0.31952682137489319 0.73196768760681152
0.81859952211380005 0.30916330218315125 0.71070289611816406
0.55371516942977905 0.7764667272567749 0.95284456014633179
0.60961389541625977 0.76961338520050049 0.94091415405273438
0.70928835868835449 0.77524375915527344 0.92031413316726685
0.82296639680862427 0.75758761167526245 0.8992762565612793
0.92585200071334839 0.75742930173873901 0.88130658864974976
0.62165677547454834 0.97426599264144897 0.9987940788269043
0.66732442378997803 0.97643566131591797 0.99839812517166138
0.75754278898239136 0.97419440746307373 0.99495035409927368
0.86701691150665283 0.97133409976959229 0.97934120893478394
0.97384822368621826 0.97119969129562378 0.97012418508529663
