luts/colorslide/fuji_provia_100_generic.cube
# Created by: G'MIC (https://gmic.eu)
TITLE "fuji_provia_100_generic"
# LUT size
LUT_3D_SIZE 5
# Data domain
DOMAIN_MIN 0.0 0.0 0.0
DOMAIN_MAX 1.0 1.0 1.0
# LUT data points
0.03367329016327858 0.027755049988627434 0.030393278226256371
0.2536475658416748 0.030317537486553192 0.030159864574670792
0.58820152282714844 0.030281456187367439 0.03136545792222023
0.88765263557434082 0.0315578393638134 0.031506452709436417
0.99863243103027344 0.032987169921398163 0.031311005353927612
0.058911163359880447 0.23800112307071686 0.037488300353288651
0.23170110583305359 0.24394243955612183 0.042043767869472504
0.56544357538223267 0.2467266172170639 0.04453422874212265
0.85831552743911743 0.24919217824935913 0.043740380555391312
0.99223154783248901 0.25324580073356628 0.042883690446615219
0.0036041857674717903 0.52460008859634399 0.053012996912002563
0.13076406717300415 0.53328776359558105 0.053376410156488419
0.52073711156845093 0.53724539279937744 0.055908713489770889
0.80279117822647095 0.53725916147232056 0.05610371008515358
0.99363917112350464 0.54321950674057007 0.055187314748764038
0.00046503404155373573 0.77512753009796143 0.038780361413955688
0.070928402245044708 0.77920389175415039 0.036631025373935699
0.4695335328578949 0.78080707788467407 0.038647908717393875
0.75834578275680542 0.78087419271469116 0.040030252188444138
0.95948326587677002 0.77873033285140991 0.0468917116522789
0.0025238934904336929 0.959511399269104 0.0040668412111699581
0.18785585463047028 0.96177947521209717 0.0014546114252880216
0.5012480616569519 0.96538060903549194 0.0012537488946691155
0.72905093431472778 0.96194565296173096 0.0044761956669390202
0.93381184339523315 0.96463871002197266 0.0040034274570643902
0.038653578609228134 0.028719449415802956 0.24181513488292694
0.26561155915260315 0.03218473494052887 0.24608315527439117
0.59087163209915161 0.035208608955144882 0.24528688192367554
0.8896484375 0.033402550965547562 0.24684250354766846
0.99788767099380493 0.037086695432662964 0.25586158037185669
0.063713178038597107 0.23993094265460968 0.24197007715702057
0.23584376275539398 0.24323894083499908 0.24060864746570587
0.56522262096405029 0.2422567754983902 0.24327817559242249
0.86110180616378784 0.24364978075027466 0.24433577060699463
0.99412959814071655 0.25302115082740784 0.24202731251716614
0.0039215688593685627 0.52553534507751465 0.23547954857349396
0.14611963927745819 0.53006380796432495 0.2285822331905365
0.51927775144577026 0.53209936618804932 0.23407948017120361
0.8121221661567688 0.53439223766326904 0.23295976221561432
0.98739290237426758 0.54614317417144775 0.23338888585567474
0 0.77593499422073364 0.22158360481262207
0.090335637331008911 0.7782549262046814 0.22050443291664124
0.48169121146202087 0.77698779106140137 0.21400856971740723
0.75971418619155884 0.7750818133354187 0.22184658050537109
0.96481812000274658 0.78093427419662476 0.21929045021533966
0.0047959270887076855 0.9624139666557312 0.23562221229076385
0.20804522931575775 0.96095997095108032 0.23587851226329803
0.50647449493408203 0.96261894702911377 0.23362481594085693
0.73470628261566162 0.96482813358306885 0.23260636627674103
0.94485765695571899 0.96526217460632324 0.23279884457588196
0.044796500355005264 0.026526940986514091 0.54350566864013672
0.27014511823654175 0.030307276174426079 0.54414457082748413
0.59670388698577881 0.036810062825679779 0.54151207208633423
0.90223747491836548 0.032811615616083145 0.54267460107803345
1 0.032661721110343933 0.54590356349945068
0.071355216205120087 0.23832593858242035 0.53903234004974365
0.24481627345085144 0.24235787987709045 0.53743529319763184
0.5723412036895752 0.24209211766719818 0.53724223375320435
0.86924892663955688 0.24754162132740021 0.53693079948425293
0.99742162227630615 0.25035443902015686 0.53365814685821533
0.0039215688593685627 0.53204655647277832 0.53187865018844604
0.16713631153106689 0.53131842613220215 0.53267031908035278
0.53135222196578979 0.52664697170257568 0.52872228622436523
0.82038396596908569 0.53051948547363281 0.53793072700500488
0.99253791570663452 0.54363512992858887 0.52724629640579224
0.0026481479872018099 0.77421659231185913 0.52860236167907715
0.11533979326486588 0.77781802415847778 0.52959179878234863
0.49696201086044312 0.77836567163467407 0.525970458984375
0.77125364542007446 0.77446311712265015 0.53020763397216797
0.97169941663742065 0.78234869241714478 0.53213405609130859
0.012973770499229431 0.9615519642829895 0.5336189866065979
0.23513714969158173 0.95945030450820923 0.53148263692855835
0.51934254169464111 0.9615362286567688 0.53288334608078003
0.74204665422439575 0.96379697322845459 0.53277832269668579
0.95282953977584839 0.96677261590957642 0.53756141662597656
0.051410213112831116 0.028112299740314484 0.79749590158462524
0.27714425325393677 0.029477108269929886 0.79483771324157715
0.6115298867225647 0.03194071352481842 0.796733558177948
0.90857177972793579 0.032800279557704926 0.79721593856811523
1 0.033378258347511292 0.79919570684432983
0.082069233059883118 0.2356988787651062 0.79284864664077759
0.25695216655731201 0.24183157086372375 0.7909812331199646
0.58911186456680298 0.24743443727493286 0.79315465688705444
0.87877017259597778 0.24518279731273651 0.7900315523147583
0.9971279501914978 0.25098994374275208 0.79054480791091919
0.002718697302043438 0.52819943428039551 0.78551149368286133
0.18501205742359161 0.53028744459152222 0.78543269634246826
0.53950434923171997 0.53493845462799072 0.78522586822509766
0.82729995250701904 0.53681653738021851 0.78462320566177368
0.99190706014633179 0.54166328907012939 0.78423583507537842
0.0034223520196974277 0.77305614948272705 0.78120988607406616
0.15026095509529114 0.77731204032897949 0.78132623434066772
0.51057857275009155 0.77346491813659668 0.78279846906661987
0.78123563528060913 0.77967941761016846 0.77976083755493164
0.9774288535118103 0.77762138843536377 0.78162240982055664
0.031354539096355438 0.96031725406646729 0.77747905254364014
0.25776699185371399 0.96048009395599365 0.77636414766311646
0.53152036666870117 0.96244513988494873 0.77884584665298462
0.75513583421707153 0.959614098072052 0.77729886770248413
0.95790314674377441 0.96633034944534302 0.77757948637008667
0.054056864231824875 0.028977906331419945 0.97770500183105469
0.28818538784980774 0.029601586982607841 0.97612488269805908
0.61563640832901001 0.030814316123723984 0.97825479507446289
0.91072088479995728 0.035346537828445435 0.97601407766342163
1 0.032666884362697601 0.97807854413986206
0.085655286908149719 0.24090559780597687 0.97296428680419922
0.26432815194129944 0.23848821222782135 0.97327446937561035
0.59585762023925781 0.24485056102275848 0.97463583946228027
0.88427501916885376 0.24278455972671509 0.97311055660247803
0.99748623371124268 0.25187632441520691 0.97125464677810669
0.0017280877800658345 0.53111058473587036 0.96921271085739136
0.19613894820213318 0.5332300066947937 0.96931242942810059
0.55168777704238892 0.53564417362213135 0.96743500232696533
0.83306980133056641 0.53856313228607178 0.97080510854721069
0.99686187505722046 0.53283298015594482 0.9699895977973938
0.00093443627702072263 0.77376949787139893 0.96731233596801758
0.1665973961353302 0.7771422266960144 0.9674568772315979
0.51976990699768066 0.7768438458442688 0.96806025505065918
0.77984058856964111 0.77772825956344604 0.96249634027481079
0.97821509838104248 0.77438420057296753 0.96363705396652222
0.049587711691856384 0.96115231513977051 0.96563577651977539
0.27745482325553894 0.96255373954772949 0.9643169641494751
0.54404580593109131 0.96543550491333008 0.96628177165985107
0.76261693239212036 0.96523475646972656 0.96566897630691528
0.96552431583404541 0.96820944547653198 0.96429252624511719
