luts/colorslide/fuji_provia_400f.cube
# Created by: G'MIC (https://gmic.eu)
TITLE "fuji_provia_400f"
# LUT size
LUT_3D_SIZE 7
# Data domain
DOMAIN_MIN 0.0 0.0 0.0
DOMAIN_MAX 1.0 1.0 1.0
# LUT data points
0.010596839711070061 0.011077581904828548 0.010377083905041218
0.089506097137928009 0.011002080515027046 0.0051171993836760521
0.24668076634407043 0.021412704139947891 0.00028016333817504346
0.43218126893043518 0.027930136770009995 0
0.59900814294815063 0.041016791015863419 0
0.74160069227218628 0.063920296728610992 0.00078314985148608685
0.86813056468963623 0.087453834712505341 0.002780974144116044
0.074782080948352814 0.13066507875919342 0.074462622404098511
0.14218913018703461 0.12523934245109558 0.052391562610864639
0.29070618748664856 0.12685205042362213 0.029916247352957726
0.45959541201591492 0.1034172922372818 0.00071693869540467858
0.60728317499160767 0.068902112543582916 0
0.7343602180480957 0.056707017123699188 5.834242983837612e-06
0.85361623764038086 0.071723625063896179 0.0058914483524858952
0.11364355683326721 0.33235394954681396 0.18794617056846619
0.21378789842128754 0.32730618119239807 0.16948458552360535
0.35673558712005615 0.31458717584609985 0.12887002527713776
0.51092660427093506 0.28476360440254211 0.072913438081741333
0.64790737628936768 0.23762567341327667 0.044673606753349304
0.75253665447235107 0.14908386766910553 0.0073781330138444901
0.84625244140625 0.067893475294113159 1.0112687959917821e-05
0.22223915159702301 0.52025306224822998 0.30724772810935974
0.29675197601318359 0.52144342660903931 0.29503485560417175
0.42414861917495728 0.51761400699615479 0.26577681303024292
0.56732350587844849 0.51246875524520874 0.23182626068592072
0.70125329494476318 0.48917296528816223 0.20245890319347382
0.80604267120361328 0.40657225251197815 0.14764505624771118
0.88835912942886353 0.26616999506950378 0.08306363970041275
0.34895065426826477 0.68067729473114014 0.41988956928253174
0.39798098802566528 0.68271338939666748 0.41538971662521362
0.49396184086799622 0.68724280595779419 0.39982697367668152
0.6155732274055481 0.69260209798812866 0.37884145975112915
0.73863518238067627 0.68566417694091797 0.35563910007476807
0.85261416435241699 0.65598708391189575 0.32684853672981262
0.95087802410125732 0.58105325698852539 0.28433477878570557
0.46818429231643677 0.81995701789855957 0.53504538536071777
0.50135219097137451 0.82152926921844482 0.53183609247207642
0.5711977481842041 0.82790094614028931 0.52209568023681641
0.66664749383926392 0.8329351544380188 0.50602883100509644
0.77374559640884399 0.82977914810180664 0.48723521828651428
0.88336431980133057 0.8155784010887146 0.46538066864013672
0.97520995140075684 0.78473043441772461 0.44041132926940918
0.58805334568023682 0.9581788182258606 0.64843887090682983
0.61304587125778198 0.95910614728927612 0.64465177059173584
0.65969181060791016 0.96305078268051147 0.63778120279312134
0.72965717315673828 0.96595877408981323 0.6274983286857605
0.81860119104385376 0.96641582250595093 0.61736917495727539
0.92729997634887695 0.96537536382675171 0.60323882102966309
0.99346184730529785 0.96080654859542847 0.58829134702682495
0.0043131811544299126 0.01076170988380909 0.0657004714012146
0.085392341017723083 0.012179415673017502 0.040004130452871323
0.2398671954870224 0.017415707930922508 0.016867559403181076
0.41734510660171509 0.018401427194476128 0.0025445227511227131
0.57741111516952515 0.022447399795055389 0
0.71442282199859619 0.036804873496294022 0
0.84118425846099854 0.061120830476284027 0.0033869275357574224
0.066714510321617126 0.14158259332180023 0.15364828705787659
0.13739818334579468 0.13721100986003876 0.1284652054309845
0.28413635492324829 0.1291126012802124 0.092505723237991333
0.44687554240226746 0.10163590312004089 0.045370109379291534
0.58815121650695801 0.063812509179115295 0.014092599041759968
0.70805263519287109 0.035208217799663544 0.00040764902951195836
0.82606816291809082 0.040617804974317551 0.0019835976418107748
0.094637729227542877 0.33551561832427979 0.26785415410995483
0.19573450088500977 0.33298251032829285 0.25021910667419434
0.34663301706314087 0.32152199745178223 0.21203188598155975
0.49919232726097107 0.29134407639503479 0.15929684042930603
0.63192206621170044 0.2396107017993927 0.11499127000570297
0.73276710510253906 0.1442299485206604 0.052084531635046005
0.82252556085586548 0.041989747434854507 0.0090974243357777596
0.19321122765541077 0.52052444219589233 0.38111501932144165
0.28656098246574402 0.52272671461105347 0.37048441171646118
0.41432538628578186 0.52320981025695801 0.34566459059715271
0.55584466457366943 0.51657873392105103 0.31310558319091797
0.68773996829986572 0.49212741851806641 0.2815951406955719
0.79304015636444092 0.41806399822235107 0.22377660870552063
0.87504869699478149 0.26738449931144714 0.14514242112636566
0.33002418279647827 0.67898380756378174 0.48258024454116821
0.38883182406425476 0.68255615234375 0.47965171933174133
0.48509135842323303 0.68866097927093506 0.46662271022796631
0.60452795028686523 0.6939813494682312 0.44584023952484131
0.72560513019561768 0.68786120414733887 0.42152521014213562
0.83861804008483887 0.65961629152297974 0.38855093717575073
0.94408845901489258 0.58403909206390381 0.33936318755149841
0.45663067698478699 0.81536877155303955 0.58036154508590698
0.49541622400283813 0.81862390041351318 0.58113354444503784
0.56329846382141113 0.82479798793792725 0.57312679290771484
0.65723592042922974 0.82972389459609985 0.55532622337341309
0.76228529214859009 0.82729047536849976 0.53362816572189331
0.87013524770736694 0.81587117910385132 0.51075464487075806
0.97696244716644287 0.79103285074234009 0.48496967554092407
0.57721126079559326 0.94965195655822754 0.6793750524520874
0.60419970750808716 0.9517027735710144 0.68118458986282349
0.65104275941848755 0.95619827508926392 0.67606121301651001
0.72196656465530396 0.95974290370941162 0.66198569536209106
0.81133764982223511 0.96257728338241577 0.6467248797416687
0.90854477882385254 0.96804779767990112 0.63692569732666016
0.98709887266159058 0.96274375915527344 0.62216681241989136
0.005771382711827755 0.016199821606278419 0.16206943988800049
0.068611100316047668 0.0081417309120297432 0.1374565064907074
0.22830380499362946 0.0068023083731532097 0.10509759932756424
0.3963463306427002 0.0074409632943570614 0.063717968761920929
0.54946720600128174 0.0072356578893959522 0.02997455932199955
0.68283510208129883 0.01179377268999815 0.023760687559843063
0.81195878982543945 0.035279951989650726 0.035660553723573685
0.064137585461139679 0.15132306516170502 0.26990950107574463
0.1294962614774704 0.1400287002325058 0.24520115554332733
0.27359458804130554 0.12750978767871857 0.2075180858373642
0.42527616024017334 0.099121227860450745 0.15232793986797333
0.56130766868591309 0.059390619397163391 0.094353936612606049
0.67810297012329102 0.015846028923988342 0.051342923194169998
0.79861688613891602 0.019821915775537491 0.047222450375556946
0.064729578793048859 0.33666026592254639 0.37712624669075012
0.171510249376297 0.3363090455532074 0.36012735962867737
0.33037373423576355 0.32920381426811218 0.32964357733726501
0.48004412651062012 0.2993604838848114 0.27927795052528381
0.60989391803741455 0.248392254114151 0.22172142565250397
0.7115594744682312 0.15219207108020782 0.15129463374614716
0.7995108962059021 0.030725995078682899 0.085221804678440094
0.16891340911388397 0.50927239656448364 0.4735012948513031
0.25854107737541199 0.5172763466835022 0.46600067615509033
0.39279595017433167 0.52216309309005737 0.44602203369140625
0.53570789098739624 0.51595026254653931 0.41473263502120972
0.66584312915802002 0.49241840839385986 0.37819388508796692
0.77430045604705811 0.42757546901702881 0.32336223125457764
0.8596835732460022 0.2793298065662384 0.23758098483085632
0.30095705389976501 0.66926240921020508 0.56614750623703003
0.36675629019737244 0.67411869764328003 0.56183713674545288
0.46647825837135315 0.68162888288497925 0.54864007234573364
0.5857129693031311 0.68577402830123901 0.5278657078742981
0.70494610071182251 0.67841452360153198 0.50245392322540283
0.81830340623855591 0.65462929010391235 0.46879810094833374
0.92476284503936768 0.5838465690612793 0.4144836962223053
0.43407610058784485 0.80662161111831665 0.64976257085800171
0.47753500938415527 0.80957913398742676 0.64829593896865845
0.54847913980484009 0.81663960218429565 0.6395384669303894
0.64217299222946167 0.82219582796096802 0.62262177467346191
0.74592214822769165 0.82243341207504272 0.60218209028244019
0.85405451059341431 0.81772845983505249 0.58020776510238647
0.9595598578453064 0.78890323638916016 0.54799211025238037
0.55673253536224365 0.94100320339202881 0.73384392261505127
0.58829140663146973 0.94294154644012451 0.73404127359390259
0.6382145881652832 0.94820725917816162 0.72897505760192871
0.709922194480896 0.95451587438583374 0.71648573875427246
0.79747432470321655 0.96204483509063721 0.70264172554016113
0.89131873846054077 0.96930217742919922 0.69073712825775146
0.97998881340026855 0.96238726377487183 0.67214703559875488
0 0.0087008010596036911 0.2886260449886322
0.039866939187049866 0.012083569541573524 0.26113268733024597
0.2024911642074585 0.0074551752768456936 0.22293590009212494
0.36893710494041443 0.0038599800318479538 0.1735413521528244
0.51828485727310181 0.00039924171869643033 0.13097073137760162
0.6534883975982666 0.00031991099240258336 0.10835509747266769
0.78360897302627563 0.015353647992014885 0.10584722459316254
0.038065996021032333 0.16120688617229462 0.39278176426887512
0.11163612455129623 0.14811260998249054 0.36989027261734009
0.25340133905410767 0.13372275233268738 0.33253017067909241
0.40378808975219727 0.10703258216381073 0.2768758237361908
0.53927063941955566 0.064468130469322205 0.21324723958969116
0.65543752908706665 0.011940809898078442 0.15849980711936951
0.77231669425964355 0.0092209912836551666 0.135745570063591
0.050949066877365112 0.34327971935272217 0.48491409420967102
0.13858382403850555 0.342448890209198 0.47118300199508667
0.30464228987693787 0.33384498953819275 0.44311016798019409
0.45878830552101135 0.31232357025146484 0.39810472726821899
0.5910412073135376 0.2649533748626709 0.34089294075965881
0.69284749031066895 0.1656334400177002 0.26893806457519531
0.77777731418609619 0.03573920950293541 0.18949143588542938
0.14515121281147003 0.51286232471466064 0.57245892286300659
0.2265687882900238 0.51593875885009766 0.56477147340774536
0.36809054017066956 0.51989549398422241 0.54517930746078491
0.51332324743270874 0.51683562994003296 0.51519298553466797
0.64447700977325439 0.4979337751865387 0.4788021445274353
0.75701165199279785 0.44548153877258301 0.43086311221122742
0.84365832805633545 0.30011913180351257 0.34373432397842407
0.29198417067527771 0.66512864828109741 0.65540754795074463
0.34510353207588196 0.66793900728225708 0.64923268556594849
0.44453918933868408 0.67371934652328491 0.63458812236785889
0.56422120332717896 0.67715871334075928 0.61322343349456787
0.68374001979827881 0.67014998197555542 0.58799564838409424
0.79946106672286987 0.65244209766387939 0.55725580453872681
0.90833687782287598 0.59085148572921753 0.50294715166091919
0.41889089345932007 0.79894238710403442 0.72663813829421997
0.4596869945526123 0.8007504940032959 0.72411900758743286
0.53047257661819458 0.80731958150863647 0.71425575017929077
0.62375617027282715 0.81286358833312988 0.69830071926116943
0.72730886936187744 0.81468135118484497 0.67892593145370483
0.83775556087493896 0.81387317180633545 0.65678137540817261
0.94653970003128052 0.7871432900428772 0.6217339038848877
0.53941285610198975 0.93332791328430176 0.79918587207794189
0.57161241769790649 0.9347226619720459 0.79847025871276855
0.62272614240646362 0.93984806537628174 0.79274755716323853
0.69446998834609985 0.94732630252838135 0.78154909610748291
0.78204381465911865 0.95683586597442627 0.76890403032302856
0.8803713321685791 0.96641027927398682 0.7555118203163147
0.98085027933120728 0.95892143249511719 0.73467200994491577
0 0.021308749914169312 0.41308054327964783
0.034932468086481094 0.015131887048482895 0.37694290280342102
0.19479231536388397 0.011416491121053696 0.33485269546508789
0.35410588979721069 0.0076706530526280403 0.28702151775360107
0.49680978059768677 0.0019583608955144882 0.24440601468086243
0.62544399499893188 0 0.20646609365940094
0.74877655506134033 0.00025884591741487384 0.18264284729957581
0.043922379612922668 0.1878715306520462 0.51105421781539917
0.11157805472612381 0.17640239000320435 0.48699259757995605
0.24685639142990112 0.16140338778495789 0.44748020172119141
0.39627641439437866 0.13805519044399261 0.39524823427200317
0.52767324447631836 0.08008681982755661 0.33277943730354309
0.63642036914825439 0.013340759091079235 0.26811829209327698
0.74152296781539917 1.4361213288793806e-05 0.22059926390647888
0.025367466732859612 0.35886895656585693 0.59155648946762085
0.12792450189590454 0.35784366726875305 0.57648324966430664
0.2965700626373291 0.355479896068573 0.54652565717697144
0.44794455170631409 0.34410247206687927 0.50764697790145874
0.58029836416244507 0.29709348082542419 0.45673659443855286
0.67931407690048218 0.18859529495239258 0.38281264901161194
0.75893771648406982 0.045273199677467346 0.28874510526657104
0.13005176186561584 0.52126336097717285 0.66835427284240723
0.21795220673084259 0.52219408750534058 0.65662962198257446
0.35822328925132751 0.52551192045211792 0.63642704486846924
0.4978482723236084 0.52645045518875122 0.60914802551269531
0.62721848487854004 0.5100712776184082 0.57489770650863647
0.74124550819396973 0.46246713399887085 0.52872663736343384
0.83477741479873657 0.33579972386360168 0.44753152132034302
0.28658702969551086 0.66593945026397705 0.73674511909484863
0.33253636956214905 0.66835302114486694 0.73095983266830444
0.43008977174758911 0.67127931118011475 0.71745061874389648
0.54697626829147339 0.67420774698257446 0.69644904136657715
0.66608035564422607 0.67119067907333374 0.67106801271438599
0.78536713123321533 0.66184192895889282 0.64126932621002197
0.89650064706802368 0.60601240396499634 0.58997583389282227
0.41262242197990417 0.79580652713775635 0.79969906806945801
0.450571209192276 0.79763561487197876 0.79835397005081177
0.51696324348449707 0.80128180980682373 0.79049968719482422
0.60695803165435791 0.80538260936737061 0.77445787191390991
0.70969843864440918 0.8079298734664917 0.75381475687026978
0.82265841960906982 0.80872774124145508 0.73046082258224487
0.93543654680252075 0.78439235687255859 0.69414550065994263
0.53009551763534546 0.92851585149765015 0.86610662937164307
0.56059545278549194 0.92959660291671753 0.86622387170791626
0.60949814319610596 0.93295484781265259 0.86038494110107422
0.67878639698028564 0.93876302242279053 0.84863954782485962
0.76508080959320068 0.94696080684661865 0.83535623550415039
0.8664553165435791 0.95489233732223511 0.82030165195465088
0.97491693496704102 0.9476969838142395 0.79657924175262451
0.00095920934109017253 0.060907237231731415 0.53441566228866577
0.044977061450481415 0.048546750098466873 0.49285101890563965
0.20099224150180817 0.042503912001848221 0.4526556134223938
0.34998622536659241 0.016654908657073975 0.39707514643669128
0.48274540901184082 0.0043040108866989613 0.34746679663658142
0.60168862342834473 7.4797985689656343e-06 0.30048033595085144
0.71782243251800537 0 0.26253288984298706
0.034341130405664444 0.23360012471675873 0.61999177932739258
0.096092715859413147 0.22954657673835754 0.59595876932144165
0.24717383086681366 0.21712172031402588 0.55805927515029907
0.39721325039863586 0.18330886960029602 0.5072290301322937
0.52395683526992798 0.12067585438489914 0.446454256772995
0.62441408634185791 0.031423158943653107 0.37042722105979919
0.71755886077880859 0.00011267568334005773 0.30113863945007324
0.022227179259061813 0.38409054279327393 0.68722045421600342
0.11824940890073776 0.38656586408615112 0.67145520448684692
0.29006305336952209 0.38806092739105225 0.64306378364562988
0.44389522075653076 0.37883403897285461 0.60777556896209717
0.5745246410369873 0.33861285448074341 0.56208509206771851
0.67555195093154907 0.24234811961650848 0.49276319146156311
0.75276422500610352 0.083639569580554962 0.39049968123435974
0.12421056628227234 0.53724974393844604 0.75115311145782471
0.21331056952476501 0.53719377517700195 0.74219125509262085
0.34989577531814575 0.54013121128082275 0.72371447086334229
0.48733097314834595 0.54151433706283569 0.69801837205886841
0.61461299657821655 0.52907049655914307 0.66482985019683838
0.72939968109130859 0.49119314551353455 0.62069284915924072
0.82723379135131836 0.38138929009437561 0.54689443111419678
0.2691006064414978 0.66967511177062988 0.81618845462799072
0.32461264729499817 0.67322880029678345 0.81034725904464722
0.42139029502868652 0.67530101537704468 0.79937028884887695
0.53456515073776245 0.67803418636322021 0.77886676788330078
0.65033793449401855 0.67613214254379272 0.75153487920761108
0.7679944634437561 0.66580092906951904 0.71938377618789673
0.88154679536819458 0.61662989854812622 0.67098879814147949
0.40847840905189514 0.79538130760192871 0.87497448921203613
0.44576159119606018 0.79779767990112305 0.8747069239616394
0.50870931148529053 0.79993778467178345 0.86862951517105103
0.5940278172492981 0.80330288410186768 0.85075908899307251
0.69235903024673462 0.80482810735702515 0.82847243547439575
0.80323362350463867 0.8033287525177002 0.80377554893493652
0.92100077867507935 0.78188061714172363 0.76601672172546387
0.52849233150482178 0.92682361602783203 0.9366145133972168
0.55534207820892334 0.92904055118560791 0.93643629550933838
0.60149943828582764 0.92906200885772705 0.92863404750823975
0.66637688875198364 0.9333573579788208 0.91498434543609619
0.747303307056427 0.93875646591186523 0.90209966897964478
0.84625512361526489 0.94286823272705078 0.88837635517120361
0.96305364370346069 0.93656104803085327 0.86162471771240234
0.0022813386749476194 0.11297117918729782 0.64428544044494629
0.069518148899078369 0.11878841370344162 0.61186099052429199
0.21642124652862549 0.10012707859277725 0.56482541561126709
0.35947278141975403 0.072885073721408844 0.51691049337387085
0.4819645881652832 0.027915161103010178 0.45097556710243225
0.59231024980545044 0.0069329952821135521 0.40001997351646423
0.70618933439254761 0 0.35830983519554138
0.038226813077926636 0.29009634256362915 0.72116529941558838
0.089842028915882111 0.28860762715339661 0.69584369659423828
0.25468677282333374 0.28701746463775635 0.66360241174697876
0.40423467755317688 0.2620394229888916 0.61988621950149536
0.52860093116760254 0.20502357184886932 0.56236261129379272
0.62611234188079834 0.10400842130184174 0.48575511574745178
0.70981103181838989 0.0056643467396497726 0.39806100726127625
0.032559368759393692 0.41933086514472961 0.77447652816772461
0.13392612338066101 0.42277035117149353 0.76109236478805542
0.29385119676589966 0.42763808369636536 0.73638910055160522
0.44230341911315918 0.42157366871833801 0.70494538545608521
0.57126593589782715 0.39660808444023132 0.66458475589752197
0.67909866571426392 0.3302060067653656 0.60678410530090332
0.75986754894256592 0.16343690454959869 0.5073125958442688
0.14403574168682098 0.5594632625579834 0.83482354879379272
0.21113879978656769 0.5591425895690918 0.82758188247680664
0.34564188122749329 0.56255185604095459 0.81030464172363281
0.48002713918685913 0.56280297040939331 0.7847282886505127
0.60669416189193726 0.56011843681335449 0.75530236959457397
0.72552448511123657 0.54001486301422119 0.71909880638122559
0.82797956466674805 0.4485173225402832 0.65365523099899292
0.27823266386985779 0.6829950213432312 0.89629173278808594
0.32886847853660583 0.68541032075881958 0.89166301488876343
0.41925221681594849 0.68781453371047974 0.88148039579391479
0.5278775691986084 0.69224029779434204 0.86152797937393188
0.64091789722442627 0.69673168659210205 0.83705419301986694
0.75784796476364136 0.69132667779922485 0.80840349197387695
0.87193179130554199 0.64364457130432129 0.76157605648040771
0.4158109724521637 0.80078232288360596 0.95678198337554932
0.4496285617351532 0.80361247062683105 0.95011937618255615
0.50823497772216797 0.80583006143569946 0.94702720642089844
0.58873045444488525 0.8117486834526062 0.92810827493667603
0.68168556690216064 0.81693285703659058 0.9079514741897583
0.78765058517456055 0.81551778316497803 0.88824748992919922
0.90840142965316772 0.79548907279968262 0.85351932048797607
0.53860986232757568 0.92723572254180908 0.99224007129669189
0.56025367975234985 0.92952954769134521 0.98850733041763306
0.60213136672973633 0.93071424961090088 0.99232202768325806
0.66267716884613037 0.93724912405014038 0.98070555925369263
0.73667669296264648 0.94253051280975342 0.97309476137161255
0.8268972635269165 0.9438706636428833 0.97031813859939575
0.95211893320083618 0.94739526510238647 0.94938397407531738
