luts/colorslide/fuji_velvia_50.cube
# Created by: G'MIC (https://gmic.eu)
TITLE "fuji_velvia_50"
# LUT size
LUT_3D_SIZE 7
# Data domain
DOMAIN_MIN 0.0 0.0 0.0
DOMAIN_MAX 1.0 1.0 1.0
# LUT data points
0.02319997176527977 0.011263723485171795 0.0092625785619020462
0.096163190901279449 0.0050872503779828548 0.0085208369418978691
0.28230854868888855 0.003275897353887558 0.010617588646709919
0.45656773447990417 0.002153987530618906 0.011783046647906303
0.62424421310424805 0 0.0082857320085167885
0.79160976409912109 0 0.011734756641089916
0.95030558109283447 0 0.002648521913215518
0.028051190078258514 0.11693050712347031 0.022690895944833755
0.10467294603586197 0.099686533212661743 0.023558821529150009
0.28864744305610657 0.071900054812431335 0.020726492628455162
0.46084204316139221 0.051157530397176743 0.022926883772015572
0.63020926713943481 0.021217435598373413 0.01602243073284626
0.79024434089660645 0.010357307270169258 0.012429510243237019
0.95066457986831665 0.0033820506650954485 0.0072596981190145016
0.02091490849852562 0.32242235541343689 0.046800248324871063
0.085174977779388428 0.30729925632476807 0.047018162906169891
0.27883318066596985 0.2865394651889801 0.048591345548629761
0.45606300234794617 0.2609560489654541 0.044354859739542007
0.62397110462188721 0.2248886376619339 0.044881902635097504
0.79126769304275513 0.19641274213790894 0.033091016113758087
0.95192360877990723 0.16127118468284607 0.018471691757440567
0.0024944229517132044 0.50218969583511353 0.078078359365463257
0.033191140741109848 0.49289199709892273 0.07722899317741394
0.25255581736564636 0.47942438721656799 0.078657560050487518
0.44550088047981262 0.46047961711883545 0.07657400518655777
0.6276545524597168 0.43048980832099915 0.070097558200359344
0.79000651836395264 0.40723249316215515 0.059275936335325241
0.9573664665222168 0.37502589821815491 0.035212676972150803
0.00056726793991401792 0.67573529481887817 0.10285881161689758
0.0073915966786444187 0.67260491847991943 0.10639671236276627
0.19050449132919312 0.6615670919418335 0.10514365136623383
0.4291236400604248 0.64646130800247192 0.10796105116605759
0.61073732376098633 0.62277555465698242 0.10686911642551422
0.78171944618225098 0.59891378879547119 0.084788843989372253
0.95701879262924194 0.57007628679275513 0.05893218144774437
0 0.84819477796554565 0.13178440928459167
0.0016197353834286332 0.84537798166275024 0.13183136284351349
0.12093076854944229 0.83473360538482666 0.12947101891040802
0.40122771263122559 0.81913745403289795 0.13065992295742035
0.59541326761245728 0.80131161212921143 0.12006440758705139
0.77404642105102539 0.78029555082321167 0.10277964174747467
0.95229935646057129 0.75777238607406616 0.066782020032405853
0 0.99037235975265503 0.16590127348899841
4.8618690925650299e-05 0.99131697416305542 0.16522625088691711
0.085933759808540344 0.991371750831604 0.1636057049036026
0.37308213114738464 0.98476231098175049 0.15981753170490265
0.57300162315368652 0.97539031505584717 0.14924409985542297
0.76724058389663696 0.95820993185043335 0.1180545911192894
0.94201362133026123 0.94603043794631958 0.024617886170744896
0.01164118479937315 0.012352767400443554 0.066176667809486389
0.095575429499149323 0.0067317290231585503 0.068739645183086395
0.28000614047050476 0.0040539908222854137 0.068918205797672272
0.45569375157356262 0.0027526705525815487 0.065450690686702728
0.62695431709289551 0.00067174574360251427 0.057160485535860062
0.79319655895233154 0.00017628389468882233 0.046999465674161911
0.95560282468795776 0 0.027912948280572891
0.02927112951874733 0.11486575752496719 0.10128197818994522
0.10110554099082947 0.098966650664806366 0.09964066743850708
0.2906956672668457 0.068506307899951935 0.098013617098331451
0.4619547426700592 0.045385263860225677 0.096038222312927246
0.6321331262588501 0.021542388945817947 0.089318260550498962
0.79207789897918701 0.0089257033541798592 0.075020730495452881
0.95608460903167725 0.0030930163338780403 0.049208428710699081
0.020186929032206535 0.3157113790512085 0.13945333659648895
0.077624209225177765 0.30693191289901733 0.13857266306877136
0.28194966912269592 0.28727972507476807 0.14252641797065735
0.46067127585411072 0.2608494758605957 0.13986442983150482
0.62947714328765869 0.22916345298290253 0.13023976981639862
0.7949516773223877 0.19788220524787903 0.11097893863916397
0.95668083429336548 0.15974405407905579 0.081847295165061951
0.002423709025606513 0.50757426023483276 0.17854097485542297
0.028740856796503067 0.49449625611305237 0.17499403655529022
0.24840480089187622 0.47849711775779724 0.17915214598178864
0.45187470316886902 0.45395228266716003 0.17748257517814636
0.62747007608413696 0.4264390766620636 0.16999444365501404
0.79229646921157837 0.40160197019577026 0.15417350828647614
0.95815324783325195 0.37416395545005798 0.12357061356306076
0.0014519336400553584 0.68287849426269531 0.2145465612411499
0.0062952376902103424 0.67410480976104736 0.21392650902271271
0.19186460971832275 0.66179352998733521 0.21326300501823425
0.43405729532241821 0.64128750562667847 0.21138463914394379
0.61383861303329468 0.61932843923568726 0.20583894848823547
0.78477805852890015 0.59449774026870728 0.19020302593708038
0.95667892694473267 0.57384699583053589 0.15791964530944824
0 0.85024380683898926 0.24942551553249359
0.0022434159182012081 0.84725487232208252 0.25070604681968689
0.12549157440662384 0.83546918630599976 0.2481992095708847
0.40368583798408508 0.81769818067550659 0.2499459981918335
0.59510844945907593 0.80188465118408203 0.24054871499538422
0.77145975828170776 0.78214305639266968 0.22279086709022522
0.95301640033721924 0.75663226842880249 0.19100008904933929
0 0.99027097225189209 0.27281787991523743
0.00075514550553634763 0.99109810590744019 0.27163422107696533
0.094162866473197937 0.99118649959564209 0.27125954627990723
0.37265971302986145 0.98507988452911377 0.26833227276802063
0.57381612062454224 0.97634822130203247 0.26012471318244934
0.76422470808029175 0.96126371622085571 0.24318858981132507
0.9450145959854126 0.94739222526550293 0.20077259838581085
0.012223636731505394 0.012773880735039711 0.1996535062789917
0.092698134481906891 0.0060958713293075562 0.20326684415340424
0.28374400734901428 0.0029836618341505527 0.20510813593864441
0.45737567543983459 0.0015705033438280225 0.20256568491458893
0.63129997253417969 0.0011246325448155403 0.19227036833763123
0.79639703035354614 0 0.1786806732416153
0.95971310138702393 0 0.13893827795982361
0.028560368344187737 0.10981478542089462 0.24080845713615417
0.10219596326351166 0.098737962543964386 0.24525654315948486
0.29050010442733765 0.068329751491546631 0.24694916605949402
0.46564140915870667 0.040459111332893372 0.24509921669960022
0.64217519760131836 0.022510962560772896 0.23760141432285309
0.80110639333724976 0.010434528812766075 0.22125054895877838
0.95954066514968872 0.0062951180152595043 0.1963471919298172
0.014867790043354034 0.31840395927429199 0.28190606832504272
0.082109503448009491 0.3057396411895752 0.2850075364112854
0.27867236733436584 0.28599298000335693 0.28444340825080872
0.46069067716598511 0.25327304005622864 0.28521609306335449
0.63930559158325195 0.22221274673938751 0.28175994753837585
0.80450314283370972 0.19287599623203278 0.26829105615615845
0.96156537532806396 0.15663789212703705 0.2465713769197464
0.0012148688547313213 0.50726306438446045 0.31486973166465759
0.025749566033482552 0.49584084749221802 0.31850108504295349
0.24754545092582703 0.48069766163825989 0.32171589136123657
0.44447788596153259 0.45439669489860535 0.32058125734329224
0.62916916608810425 0.42882275581359863 0.31303808093070984
0.79813230037689209 0.40184482932090759 0.30417376756668091
0.95855623483657837 0.37478640675544739 0.28935983777046204
9.2091278929729015e-05 0.68584722280502319 0.3481408953666687
0.0042988797649741173 0.67782872915267944 0.35168081521987915
0.18333877623081207 0.66588705778121948 0.35553237795829773
0.43232563138008118 0.64179867506027222 0.35133394598960876
0.61595636606216431 0.62320160865783691 0.34478414058685303
0.78967487812042236 0.59944665431976318 0.33833765983581543
0.95841848850250244 0.57284873723983765 0.32830595970153809
0 0.85655468702316284 0.38021239638328552
0.0037965811789035797 0.84940522909164429 0.38353624939918518
0.11784141510725021 0.83877253532409668 0.38525256514549255
0.40308979153633118 0.82395249605178833 0.38466498255729675
0.59745651483535767 0.80769234895706177 0.38032841682434082
0.77699190378189087 0.78729474544525146 0.37050241231918335
0.95525860786437988 0.76138472557067871 0.35937845706939697
0 0.99067133665084839 0.40690794587135315
0.003147185081616044 0.99189311265945435 0.40328073501586914
0.090605355799198151 0.99368405342102051 0.40877965092658997
0.37277442216873169 0.98621284961700439 0.40780475735664368
0.57587826251983643 0.97997665405273438 0.40427431464195251
0.76852154731750488 0.96077573299407959 0.39232242107391357
0.94856774806976318 0.94762599468231201 0.36894232034683228
0.010588686913251877 0.010017619468271732 0.3372783362865448
0.090963013470172882 0.0066019394434988499 0.34255027770996094
0.28097909688949585 0.0017856523627415299 0.34659382700920105
0.45957642793655396 0.001211951719596982 0.34233981370925903
0.63345044851303101 0.0006648343987762928 0.3352801501750946
0.79761916399002075 0 0.33687242865562439
0.96127551794052124 0 0.31567174196243286
0.025672255083918571 0.10654744505882263 0.37362301349639893
0.09850764274597168 0.090742506086826324 0.38054880499839783
0.28604942560195923 0.066391929984092712 0.38232332468032837
0.46457850933074951 0.040369413793087006 0.38281717896461487
0.64170271158218384 0.013855309225618839 0.37803959846496582
0.80362707376480103 0.0093398746103048325 0.3741813600063324
0.95970481634140015 0.0031261220574378967 0.36170250177383423
0.023064093664288521 0.31699028611183167 0.41704985499382019
0.076148942112922668 0.30190169811248779 0.41751000285148621
0.27096271514892578 0.27611348032951355 0.42121937870979309
0.45847231149673462 0.24294519424438477 0.41897296905517578
0.6396602988243103 0.21325242519378662 0.41667249798774719
0.80685043334960938 0.18325057625770569 0.4158744215965271
0.96211272478103638 0.14830531179904938 0.40125042200088501
0.0011564367450773716 0.50305891036987305 0.45509916543960571
0.019780522212386131 0.4944017231464386 0.4530150294303894
0.24011872708797455 0.47649091482162476 0.45555248856544495
0.44903433322906494 0.44940313696861267 0.45369908213615417
0.63590604066848755 0.43004816770553589 0.45243704319000244
0.79757750034332275 0.40121319890022278 0.44826573133468628
0.95918565988540649 0.37116765975952148 0.4400942325592041
0 0.67864668369293213 0.48744279146194458
0.005854886956512928 0.67552971839904785 0.48931434750556946
0.17969177663326263 0.66288858652114868 0.49070385098457336
0.4347870945930481 0.64307487010955811 0.48996996879577637
0.62355905771255493 0.62841355800628662 0.48617574572563171
0.79095625877380371 0.60420089960098267 0.48156845569610596
0.96095234155654907 0.57566297054290771 0.47891131043434143
0 0.85175842046737671 0.51896679401397705
0.0031757878605276346 0.85051161050796509 0.52023756504058838
0.10678388178348541 0.84101444482803345 0.52477574348449707
0.399444580078125 0.82717406749725342 0.52020514011383057
0.5994269847869873 0.81016236543655396 0.52199679613113403
0.78476637601852417 0.78983873128890991 0.51816177368164062
0.95703220367431641 0.76665699481964111 0.5109257698059082
0 0.99137145280838013 0.54452192783355713
0.00070516549749299884 0.99441266059875488 0.54251623153686523
0.084799222648143768 0.99440556764602661 0.54970526695251465
0.37045514583587646 0.98767995834350586 0.54974210262298584
0.57459580898284912 0.98107326030731201 0.54936397075653076
0.7662014365196228 0.96579277515411377 0.53985285758972168
0.95183968544006348 0.94862264394760132 0.52628439664840698
0.011540251784026623 0.0081682689487934113 0.46522906422615051
0.086082249879837036 0.0054911295883357525 0.46946290135383606
0.26611694693565369 0.003527084132656455 0.47513037919998169
0.45695975422859192 0.003411461366340518 0.48667320609092712
0.63531720638275146 0.00045231837430037558 0.48162481188774109
0.80392950773239136 0 0.47304293513298035
0.96060878038406372 0 0.47150656580924988
0.022642128169536591 0.093381814658641815 0.50546443462371826
0.086536288261413574 0.080096222460269928 0.51091837882995605
0.27996519207954407 0.050706032663583755 0.51559925079345703
0.46223273873329163 0.023702450096607208 0.51730632781982422
0.64097714424133301 0.0096227759495377541 0.51664882898330688
0.80350559949874878 0.0040025301277637482 0.5131797194480896
0.96292668581008911 0.0029036428313702345 0.50649559497833252
0.012054473161697388 0.31035226583480835 0.54363882541656494
0.073490291833877563 0.29688000679016113 0.54879450798034668
0.26809912919998169 0.26607808470726013 0.55264508724212646
0.45712915062904358 0.23359429836273193 0.55272197723388672
0.6413763165473938 0.2009168267250061 0.55347537994384766
0.80826783180236816 0.16753791272640228 0.54984074831008911
0.96467405557632446 0.13001497089862823 0.54490172863006592
0.0017286114161834121 0.4981541633605957 0.58318006992340088
0.01467819232493639 0.49315232038497925 0.58484017848968506
0.23307973146438599 0.47252994775772095 0.5871727466583252
0.44878268241882324 0.44531884789466858 0.58554691076278687
0.6355440616607666 0.4249635636806488 0.58891040086746216
0.80587863922119141 0.39226284623146057 0.5871163010597229
0.9660983681678772 0.36559724807739258 0.58434408903121948
9.1911766503471881e-05 0.67563027143478394 0.61549901962280273
0.0051459218375384808 0.67378246784210205 0.6176142692565918
0.16691341996192932 0.66416823863983154 0.62068498134613037
0.43090805411338806 0.64050203561782837 0.61720997095108032
0.62363213300704956 0.62096911668777466 0.61813050508499146
0.79454672336578369 0.596466064453125 0.6171535849571228
0.96324628591537476 0.57390409708023071 0.6170654296875
0 0.85196411609649658 0.64477282762527466
0.0032798317261040211 0.85320305824279785 0.64844906330108643
0.083641618490219116 0.84436023235321045 0.65204280614852905
0.39213275909423828 0.82769393920898438 0.65199017524719238
0.5960090160369873 0.80867475271224976 0.65021508932113647
0.78430134057998657 0.78309148550033569 0.64671272039413452
0.95854157209396362 0.76320445537567139 0.64909368753433228
0 0.99312204122543335 0.66889935731887817
4.6673943870700896e-05 0.9946407675743103 0.67384839057922363
0.066643945872783661 0.99571216106414795 0.67877674102783203
0.36274155974388123 0.99016040563583374 0.68077689409255981
0.57409864664077759 0.98134905099868774 0.67899960279464722
0.76951819658279419 0.9690929651260376 0.67602825164794922
0.95501422882080078 0.95361381769180298 0.66853970289230347
0.0090500181540846825 0.005607216153293848 0.59315121173858643
0.07064741849899292 0.0021782370749861002 0.59887123107910156
0.25577828288078308 0.00042685715015977621 0.60429471731185913
0.44957724213600159 0.00024252498405985534 0.61437749862670898
0.63724881410598755 0 0.61152702569961548
0.80511510372161865 0 0.60687381029129028
0.9639897346496582 0 0.60219097137451172
0.015937849879264832 0.074851110577583313 0.63284313678741455
0.072447791695594788 0.064008824527263641 0.63676470518112183
0.26412850618362427 0.03674648329615593 0.63831686973571777
0.45669260621070862 0.017019579187035561 0.64226418733596802
0.63822370767593384 0.0052396585233509541 0.64409816265106201
0.80517286062240601 0.0057587865740060806 0.6433405876159668
0.96468794345855713 0.0027137456927448511 0.64096748828887939
0.016844641417264938 0.29094213247299194 0.66565275192260742
0.067093059420585632 0.28410691022872925 0.66894471645355225
0.25958049297332764 0.25067102909088135 0.67335802316665649
0.4545033872127533 0.21796999871730804 0.67495942115783691
0.64089971780776978 0.18714560568332672 0.67808157205581665
0.8091931939125061 0.15063613653182983 0.67628437280654907
0.97068017721176147 0.11112404614686966 0.67688775062561035
0.0030444127041846514 0.49048808217048645 0.70215165615081787
0.011552010662853718 0.48511141538619995 0.70476275682449341
0.21454177796840668 0.46600550413131714 0.70884007215499878
0.44153717160224915 0.43796136975288391 0.71065711975097656
0.63500803709030151 0.4155653715133667 0.71236222982406616
0.80739748477935791 0.38195061683654785 0.71339720487594604
0.96790581941604614 0.35219424962997437 0.71421200037002563
0 0.67710411548614502 0.74203693866729736
0.0066827810369431973 0.67209398746490479 0.74190139770507812
0.13815957307815552 0.66317850351333618 0.74397939443588257
0.41649064421653748 0.63698214292526245 0.74421006441116333
0.61674493551254272 0.6141895055770874 0.74739962816238403
0.80074161291122437 0.58711248636245728 0.75050002336502075
0.96315377950668335 0.56613963842391968 0.75166302919387817
0 0.85532867908477783 0.77610939741134644
0.0019923639483749866 0.85422646999359131 0.77724248170852661
0.055612258613109589 0.84385627508163452 0.77967172861099243
0.38193598389625549 0.8273700475692749 0.78113031387329102
0.58896881341934204 0.80625683069229126 0.78162062168121338
0.78443318605422974 0.78232139348983765 0.78211569786071777
0.96368706226348877 0.75909304618835449 0.78411698341369629
0 0.9967881441116333 0.80703961849212646
0 0.9936823844909668 0.80904608964920044
0.043496869504451752 0.99564933776855469 0.81289577484130859
0.34340581297874451 0.99316287040710449 0.81680375337600708
0.56761157512664795 0.98062610626220703 0.8170551061630249
0.77057749032974243 0.97502434253692627 0.81759583950042725
0.95536136627197266 0.95749616622924805 0.81347483396530151
0.0035003062803298235 0.0041177785024046898 0.72020137310028076
0.050557095557451248 0.0020458893850445747 0.71818369626998901
0.23083372414112091 0 0.72383278608322144
0.44005414843559265 0 0.73041528463363647
0.63162857294082642 0 0.7295493483543396
0.80435526371002197 0 0.73217958211898804
0.96452397108078003 0 0.73788297176361084
0.0099980076774954796 0.054487459361553192 0.7498285174369812
0.05292033776640892 0.044920455664396286 0.75309175252914429
0.23964592814445496 0.020958291366696358 0.75723135471343994
0.44619590044021606 0.0056352205574512482 0.76186865568161011
0.63285320997238159 0.00066172279184684157 0.7645605206489563
0.80613160133361816 0.0027040818240493536 0.76584601402282715
0.96762931346893311 0 0.76779383420944214
0.012370480224490166 0.26170113682746887 0.7857130765914917
0.048663463443517685 0.25850063562393188 0.78990799188613892
0.23433220386505127 0.22250407934188843 0.7933887243270874
0.44511634111404419 0.18937686085700989 0.7971375584602356
0.63793480396270752 0.15274535119533539 0.80226230621337891
0.81137925386428833 0.11410797387361526 0.80287796258926392
0.97367691993713379 0.074174396693706512 0.80422568321228027
0.00018328498117625713 0.48153749108314514 0.82283347845077515
0.0037532283458858728 0.47654387354850769 0.82835417985916138
0.18544456362724304 0.45485171675682068 0.83103376626968384
0.42541107535362244 0.42425233125686646 0.82532209157943726
0.63289207220077515 0.39977669715881348 0.84004157781600952
0.80906230211257935 0.36682936549186707 0.84135407209396362
0.97236526012420654 0.33179184794425964 0.84547621011734009
0 0.67481529712677002 0.86340248584747314
0.0032934451010078192 0.67055892944335938 0.86414027214050293
0.09306817501783371 0.65727776288986206 0.86973148584365845
0.39971175789833069 0.63366764783859253 0.87081974744796753
0.61119723320007324 0.60765987634658813 0.87485212087631226
0.79686754941940308 0.57985132932662964 0.87933242321014404
0.97034597396850586 0.55481082201004028 0.88541114330291748
0 0.85716301202774048 0.90159040689468384
0.0035702125169336796 0.85473853349685669 0.89749431610107422
0.02049986831843853 0.84267747402191162 0.90922385454177856
0.35432791709899902 0.82395321130752563 0.91305172443389893
0.57958489656448364 0.80078989267349243 0.91471999883651733
0.77952980995178223 0.7752605676651001 0.91732215881347656
0.96573257446289062 0.75350534915924072 0.92197698354721069
0 0.99206781387329102 0.93783515691757202
0 0.99323469400405884 0.94247603416442871
0.01624094694852829 0.99466186761856079 0.94517958164215088
0.28738859295845032 0.9931601881980896 0.95051461458206177
0.54530256986618042 0.98431122303009033 0.94960373640060425
0.76036930084228516 0.97461044788360596 0.95669639110565186
0.95858281850814819 0.95620930194854736 0.95919501781463623
