luts/colorslide/fuji_provia_400x.cube
# Created by: G'MIC (https://gmic.eu)
TITLE "fuji_provia_400x"
# LUT size
LUT_3D_SIZE 5
# Data domain
DOMAIN_MIN 0.0 0.0 0.0
DOMAIN_MAX 1.0 1.0 1.0
# LUT data points
0.04399128258228302 0.039295315742492676 0.031046893447637558
0.28145593404769897 0.035871274769306183 0.030398275703191757
0.57578295469284058 0.0268987026065588 0.031581908464431763
0.84651541709899902 0.012350329197943211 0.015489630401134491
0.99610644578933716 0.0046201217919588089 0.0060411193408071995
0.09122321754693985 0.27839374542236328 0.10156408697366714
0.2646719217300415 0.27549216151237488 0.098579287528991699
0.58342891931533813 0.25185760855674744 0.092825807631015778
0.85695642232894897 0.22566722333431244 0.068407095968723297
0.99751424789428711 0.18286767601966858 0.022754939272999763
0.0054358239285647869 0.54529792070388794 0.14712880551815033
0.22936975955963135 0.53787165880203247 0.14531265199184418
0.5960879921913147 0.53020668029785156 0.13907480239868164
0.89120608568191528 0.5139119029045105 0.11844401806592941
0.99921917915344238 0.48072648048400879 0.065763078629970551
0.0060300040058791637 0.74631983041763306 0.11941348761320114
0.21018430590629578 0.74954962730407715 0.11707332730293274
0.63347572088241577 0.74349081516265869 0.11248333752155304
0.92179584503173828 0.73344951868057251 0.086563199758529663
1 0.72281903028488159 0.058587003499269485
0 0.94950920343399048 0.0087328441441059113
0.04674694687128067 0.9630434513092041 0.00023875516490079463
0.61111712455749512 0.95745962858200073 0.00076329847797751427
0.94945830106735229 0.95446509122848511 0.001337642315775156
1 0.95494610071182251 0.0047502107918262482
0.016692038625478745 0.01948852464556694 0.1841094046831131
0.2395043671131134 0.023069793358445168 0.1879819929599762
0.52196711301803589 0.013422079384326935 0.17963829636573792
0.78339797258377075 0.0085561862215399742 0.15068534016609192
0.99009352922439575 0.0011296889279037714 0.097147680819034576
0.07483692467212677 0.24827679991722107 0.23973880708217621
0.24497237801551819 0.24375689029693604 0.2412276417016983
0.5389634370803833 0.23015289008617401 0.23078435659408569
0.80420094728469849 0.20707724988460541 0.20831063389778137
0.99335002899169922 0.15052251517772675 0.15849284827709198
0.0072023728862404823 0.52390527725219727 0.28909787535667419
0.1781514585018158 0.52591395378112793 0.28889399766921997
0.54922235012054443 0.5157884955406189 0.28492182493209839
0.82611185312271118 0.49498441815376282 0.26061221957206726
0.99416160583496094 0.47315075993537903 0.20770320296287537
0.0038742963224649429 0.74081683158874512 0.30580073595046997
0.11278155446052551 0.74125963449478149 0.30390259623527527
0.56535065174102783 0.73414593935012817 0.2892819344997406
0.85592359304428101 0.72415381669998169 0.26683667302131653
0.99531561136245728 0.71565252542495728 0.19326338171958923
0 0.96378481388092041 0.1589556485414505
0.0087092379108071327 0.9611087441444397 0.15812894701957703
0.55396902561187744 0.95816820859909058 0.14496830105781555
0.91378653049468994 0.95383614301681519 0.10649555921554565
1 0.94926941394805908 0.023855995386838913
0.014416234567761421 0.0089308051392436028 0.34386339783668518
0.195439413189888 0.0045060398988425732 0.34767350554466248
0.47097578644752502 0.0045060552656650543 0.34619608521461487
0.70959711074829102 0.0034421284217387438 0.33335974812507629
0.94048964977264404 0.0021089590154588223 0.29335349798202515
0.051556278020143509 0.19268494844436646 0.41166442632675171
0.20078779757022858 0.1874658614397049 0.4113709032535553
0.47896632552146912 0.16952373087406158 0.40768307447433472
0.71963262557983398 0.1379813551902771 0.3969225287437439
0.93778061866760254 0.084434092044830322 0.36391359567642212
0.0034943525679409504 0.49924120306968689 0.48056548833847046
0.11646206676959991 0.49843719601631165 0.48801955580711365
0.48537057638168335 0.48056086897850037 0.48311290144920349
0.7382999062538147 0.46293395757675171 0.47202888131141663
0.96905076503753662 0.43578842282295227 0.45185491442680359
0.00087114219786599278 0.7307894229888916 0.52557414770126343
0.031944379210472107 0.72599589824676514 0.53473639488220215
0.47055286169052124 0.71733307838439941 0.52933824062347412
0.74983376264572144 0.70475155115127563 0.51106911897659302
0.98245477676391602 0.70010197162628174 0.49881932139396667
0 0.9531053900718689 0.51114803552627563
0.0033991795498877764 0.9498177170753479 0.51649719476699829
0.34050962328910828 0.95367240905761719 0.51554679870605469
0.74380886554718018 0.94764953851699829 0.49609115719795227
0.99575525522232056 0.94335156679153442 0.44980531930923462
0.015057956799864769 0 0.49525719881057739
0.19208157062530518 0 0.50462883710861206
0.43558290600776672 0.0011115130037069321 0.49748539924621582
0.64330834150314331 0.0076979096047580242 0.51363486051559448
0.85663139820098877 0.0028027552179992199 0.48139527440071106
0.063327625393867493 0.091686874628067017 0.54549705982208252
0.21849910914897919 0.08761143684387207 0.54926049709320068
0.44565293192863464 0.062611721456050873 0.54842191934585571
0.64825069904327393 0.039389725774526596 0.54858660697937012
0.84878528118133545 0.012073591351509094 0.53265434503555298
0.029581585898995399 0.44538065791130066 0.62553095817565918
0.21119861304759979 0.43106719851493835 0.62360721826553345
0.4715116024017334 0.41232579946517944 0.62609827518463135
0.68633550405502319 0.40019416809082031 0.62546968460083008
0.89901924133300781 0.35821422934532166 0.61447638273239136
0.0048989839851856232 0.69905573129653931 0.67602694034576416
0.11163723468780518 0.70085316896438599 0.68522810935974121
0.44474548101425171 0.69131791591644287 0.68628627061843872
0.68241864442825317 0.68280208110809326 0.6826479434967041
0.93349993228912354 0.6638026237487793 0.67667829990386963
0.00088587740901857615 0.94887512922286987 0.70984095335006714
0.0050182715058326721 0.94239526987075806 0.71303695440292358
0.2503560483455658 0.94782042503356934 0.72073328495025635
0.63669377565383911 0.94455790519714355 0.71862113475799561
0.95863693952560425 0.93819254636764526 0.7078319787979126
0.052554741501808167 0 0.60998880863189697
0.23977053165435791 0 0.61282718181610107
0.42553132772445679 0 0.62077367305755615
0.60327744483947754 0 0.62347877025604248
0.80624622106552124 0 0.6213538646697998
0.14605787396430969 0.003173828125 0.64019423723220825
0.26914674043655396 0.0031423531472682953 0.64614909887313843
0.43550664186477661 0.0027583253104239702 0.65189588069915771
0.60889542102813721 0.004110927227884531 0.65702813863754272
0.79702621698379517 0.001080247457139194 0.65516746044158936
0.23315136134624481 0.29423210024833679 0.7270272970199585
0.3322303295135498 0.29183918237686157 0.73059320449829102
0.48807522654533386 0.27025637030601501 0.73165696859359741
0.6537327766418457 0.24639084935188293 0.7339397668838501
0.83731508255004883 0.1867387443780899 0.72767001390457153
0.1743297278881073 0.65267306566238403 0.81200802326202393
0.30356767773628235 0.64726918935775757 0.81279188394546509
0.47985747456550598 0.63851219415664673 0.81801635026931763
0.66899216175079346 0.6262962818145752 0.81735944747924805
0.88890302181243896 0.60595852136611938 0.82166182994842529
0.0025339911226183176 0.93384933471679688 0.88705563545227051
0.038221053779125214 0.92730963230133057 0.88898462057113647
0.30638715624809265 0.92772656679153442 0.89623749256134033
0.59901398420333862 0.92054450511932373 0.90346622467041016
0.90940576791763306 0.918160080909729 0.91066461801528931
