luts/colorslide/fuji_provia_400x.cube
# Created by: G'MIC (https://gmic.eu)
TITLE "fuji_provia_400x"
# LUT size
LUT_3D_SIZE 7
# Data domain
DOMAIN_MIN 0.0 0.0 0.0
DOMAIN_MAX 1.0 1.0 1.0
# LUT data points
0.04399128258228302 0.039295315742492676 0.031046893447637558
0.20001053810119629 0.037558894604444504 0.030651181936264038
0.37164533138275146 0.031675316393375397 0.030736707150936127
0.57578295469284058 0.0268987026065588 0.031581908464431763
0.76231229305267334 0.017512526363134384 0.022858070209622383
0.92270117998123169 0.010802758857607841 0.01072197686880827
0.99610644578933716 0.0046201217919588089 0.0060411193408071995
0.086192876100540161 0.19962488114833832 0.076138637959957123
0.19343438744544983 0.19356031715869904 0.072757899761199951
0.37087485194206238 0.1865856796503067 0.070690467953681946
0.58463889360427856 0.1671142578125 0.071745701134204865
0.77647465467453003 0.15042565762996674 0.054388068616390228
0.93325155973434448 0.12716256082057953 0.035637021064758301
0.99728071689605713 0.090904369950294495 0.012378078885376453
0.035395663231611252 0.36918994784355164 0.12474524974822998
0.16850489377975464 0.36309328675270081 0.12288600206375122
0.35963547229766846 0.35662266612052917 0.12137465924024582
0.58348721265792847 0.34636706113815308 0.11508186161518097
0.78237628936767578 0.33066239953041077 0.10217353701591492
0.94234275817871094 0.30725216865539551 0.075488686561584473
0.99808025360107422 0.27710127830505371 0.03889051079750061
0.0054358239285647869 0.54529792070388794 0.14712880551815033
0.1067393571138382 0.54228907823562622 0.14483994245529175
0.35277044773101807 0.53588211536407471 0.14450983703136444
0.5960879921913147 0.53020668029785156 0.13907480239868164
0.8042525053024292 0.51794469356536865 0.12764382362365723
0.9678155779838562 0.50743108987808228 0.10594946146011353
0.99921917915344238 0.48072648048400879 0.065763078629970551
0.0082014789804816246 0.68156546354293823 0.13537317514419556
0.056089889258146286 0.68676334619522095 0.13655577600002289
0.36019191145896912 0.68275731801986694 0.13574936985969543
0.61699807643890381 0.67612951993942261 0.13000158965587616
0.82240766286849976 0.66903132200241089 0.11577621102333069
0.98359853029251099 0.66401869058609009 0.098489083349704742
1 0.65489989519119263 0.066359922289848328
0.0022996191401034594 0.81345003843307495 0.08377470076084137
0.03806653618812561 0.81484293937683105 0.082592561841011047
0.37894240021705627 0.81125801801681519 0.080919124186038971
0.64177936315536499 0.81102186441421509 0.071576274931430817
0.84500712156295776 0.80679804086685181 0.062323357909917831
0.98966950178146362 0.7962685227394104 0.050481550395488739
1 0.79486346244812012 0.040155239403247833
0 0.94950920343399048 0.0087328441441059113
0.0037495631258934736 0.96016889810562134 0.0031379100400954485
0.21886450052261353 0.96420258283615112 0.00044358198647387326
0.61111712455749512 0.95745962858200073 0.00076329847797751427
0.84900844097137451 0.95557659864425659 0.0015895619289949536
0.99309957027435303 0.95432007312774658 0.0019363702740520239
1 0.95494610071182251 0.0047502107918262482
0.026419186964631081 0.027406670153141022 0.13428770005702972
0.1702868640422821 0.025286566466093063 0.13509505987167358
0.33739170432090759 0.021125074476003647 0.13577018678188324
0.53688907623291016 0.017620895057916641 0.12838149070739746
0.72023856639862061 0.013078817166388035 0.10948257148265839
0.88251125812530518 0.0060618980787694454 0.084506675601005554
0.99013835191726685 6.8604713305830956e-05 0.044239584356546402
0.063428856432437897 0.17664571106433868 0.17026086151599884
0.17847228050231934 0.17283375561237335 0.16902393102645874
0.34383565187454224 0.16457986831665039 0.16682492196559906
0.55296534299850464 0.15267147123813629 0.15957996249198914
0.73899680376052856 0.13662068545818329 0.14527866244316101
0.89589881896972656 0.10847418010234833 0.12088558822870255
0.99601596593856812 0.070211194455623627 0.07697577029466629
0.040736854076385498 0.34965506196022034 0.20312130451202393
0.14760354161262512 0.35383462905883789 0.20590342581272125
0.33527097105979919 0.3440985381603241 0.20469324290752411
0.5600513219833374 0.33806368708610535 0.19752143323421478
0.75710064172744751 0.32492274045944214 0.18244028091430664
0.91314208507537842 0.30047383904457092 0.16093017160892487
0.99663853645324707 0.26507410407066345 0.11988931149244308
0.008958868682384491 0.53391808271408081 0.22804349660873413
0.068998284637928009 0.53653848171234131 0.22886605560779572
0.33329597115516663 0.52996146678924561 0.23022185266017914
0.57103103399276733 0.52268147468566895 0.22391124069690704
0.77207112312316895 0.50984352827072144 0.20918713510036469
0.93648415803909302 0.49464729428291321 0.18087778985500336
0.99677443504333496 0.47593909502029419 0.14264500141143799
0.007106107659637928 0.6768488883972168 0.23746335506439209
0.028889225795865059 0.68135470151901245 0.23597678542137146
0.32104197144508362 0.67491555213928223 0.23779608309268951
0.58614456653594971 0.67006212472915649 0.2232661098241806
0.78828293085098267 0.66331923007965088 0.20815257728099823
0.95776611566543579 0.65793263912200928 0.17901962995529175
0.99693995714187622 0.65006959438323975 0.1375434398651123
0.0019919602200388908 0.81103098392486572 0.20868749916553497
0.015050207264721394 0.81166189908981323 0.20879983901977539
0.33554372191429138 0.80775612592697144 0.20816628634929657
0.60575294494628906 0.80667221546173096 0.17905180156230927
0.81349796056747437 0.80077683925628662 0.17200717329978943
0.97695529460906982 0.79546821117401123 0.14623039960861206
0.999461829662323 0.79054230451583862 0.086952373385429382
0 0.9647943377494812 0.045181948691606522
0.0021095725242048502 0.96080487966537476 0.045499362051486969
0.18450713157653809 0.96359437704086304 0.043518379330635071
0.59360760450363159 0.95744967460632324 0.034743290394544601
0.84423506259918213 0.95588821172714233 0.022294916212558746
0.99535495042800903 0.95121043920516968 0.01081498060375452
1 0.95086264610290527 0.0060643362812697887
0.013271003030240536 0.014082291163504124 0.23886409401893616
0.14413508772850037 0.015910997986793518 0.23353475332260132
0.31495127081871033 0.017560083419084549 0.2393290102481842
0.5038873553276062 0.0064631146378815174 0.23118700087070465
0.6797516942024231 0.0082765761762857437 0.21653749048709869
0.83887845277786255 0.0060529522597789764 0.19605287909507751
0.97906780242919922 0.00063047220464795828 0.16325554251670837
0.050456970930099487 0.15029691159725189 0.27629587054252625
0.15069970488548279 0.14599554240703583 0.27764791250228882
0.32127511501312256 0.13019436597824097 0.27147623896598816
0.51563507318496704 0.12164194136857986 0.26552358269691467
0.69288808107376099 0.10647314041852951 0.25365853309631348
0.85012269020080566 0.082065820693969727 0.23199185729026794
0.98560398817062378 0.041305676102638245 0.19634643197059631
0.044895589351654053 0.32546547055244446 0.31869047880172729
0.11814185976982117 0.32877722382545471 0.31993350386619568
0.31416058540344238 0.31722232699394226 0.31603536009788513
0.51793164014816284 0.31211647391319275 0.30617749691009521
0.70278275012969971 0.30073454976081848 0.29793468117713928
0.86322349309921265 0.27366912364959717 0.28120225667953491
0.99029576778411865 0.23808607459068298 0.24961283802986145
0.0039122337475419044 0.51547932624816895 0.35462310910224915
0.029592236503958702 0.52343469858169556 0.35697481036186218
0.28599438071250916 0.51856487989425659 0.3570370078086853
0.52101981639862061 0.5052487850189209 0.35029891133308411
0.71712309122085571 0.49850043654441833 0.34109893441200256
0.87364852428436279 0.48035800457000732 0.32164573669433594
0.9943004846572876 0.46841597557067871 0.293294757604599
0.0038720823358744383 0.6708991527557373 0.37521570920944214
0.011286268010735512 0.67208325862884521 0.37869963049888611
0.26728564500808716 0.66891056299209595 0.38092729449272156
0.52815127372741699 0.65696924924850464 0.37507882714271545
0.72411864995956421 0.64880722761154175 0.36081206798553467
0.89220988750457764 0.6444551944732666 0.3389585018157959
0.99431222677230835 0.64133143424987793 0.3089960515499115
0.0001802631450118497 0.80749219655990601 0.37720444798469543
0.0064063728787004948 0.80509656667709351 0.38206902146339417
0.23916356265544891 0.80198866128921509 0.38300660252571106
0.53217172622680664 0.79839450120925903 0.37086990475654602
0.73953807353973389 0.79428291320800781 0.36352246999740601
0.91699445247650146 0.79028797149658203 0.3397977352142334
0.99687153100967407 0.78572303056716919 0.29789426922798157
0 0.96198183298110962 0.29128631949424744
0.0017039430094882846 0.9551386833190918 0.2908264696598053
0.062084034085273743 0.95925098657608032 0.29303282499313354
0.4926002025604248 0.9560396671295166 0.28386175632476807
0.75355565547943115 0.9524959921836853 0.26567617058753967
0.95464110374450684 0.95226949453353882 0.23050147294998169
0.99998277425765991 0.94791531562805176 0.14429238438606262
0.014416234567761421 0.0089308051392436028 0.34386339783668518
0.11546725034713745 0.0057036308571696281 0.3477725088596344
0.28600984811782837 0.0061660767532885075 0.34792354702949524
0.47097578644752502 0.0045060552656650543 0.34619608521461487
0.6326259970664978 0.003806140273809433 0.33850452303886414
0.78690892457962036 0.0039455341175198555 0.32354387640953064
0.94048964977264404 0.0021089590154588223 0.29335349798202515
0.029131662100553513 0.10284079611301422 0.38728392124176025
0.1206655278801918 0.10088603943586349 0.38673901557922363
0.29429572820663452 0.08720041811466217 0.38565495610237122
0.47625270485877991 0.077257819473743439 0.38263469934463501
0.6379319429397583 0.059164758771657944 0.37508708238601685
0.78235393762588501 0.03820616751909256 0.36374655365943909
0.93019276857376099 0.018299655988812447 0.33560901880264282
0.046651054173707962 0.29326626658439636 0.43679004907608032
0.1034993901848793 0.29308244585990906 0.43644228577613831
0.29564255475997925 0.28423067927360535 0.44080334901809692
0.48198249936103821 0.27701050043106079 0.43305861949920654
0.64957731962203979 0.25719153881072998 0.42459356784820557
0.80151259899139404 0.22496241331100464 0.416849285364151
0.95008528232574463 0.19210796058177948 0.39215856790542603
0.0034943525679409504 0.49924120306968689 0.48056548833847046
0.023190757259726524 0.50020283460617065 0.48671421408653259
0.25716736912727356 0.49125003814697266 0.48618170619010925
0.48537057638168335 0.48056086897850037 0.48311290144920349
0.6628803014755249 0.47502079606056213 0.47653508186340332
0.81563585996627808 0.45720395445823669 0.46855008602142334
0.96905076503753662 0.43578842282295227 0.45185491442680359
0.001554391928948462 0.66085672378540039 0.51425683498382568
0.0059823580086231232 0.65729725360870361 0.51754516363143921
0.22008970379829407 0.65551835298538208 0.52355468273162842
0.4782794713973999 0.64260125160217285 0.51708471775054932
0.66592162847518921 0.63469260931015015 0.50726670026779175
0.82696568965911865 0.62989825010299683 0.50038522481918335
0.97839713096618652 0.62046557664871216 0.48809894919395447
0.00016907336248550564 0.79936069250106812 0.53658890724182129
0.0053516761399805546 0.79590046405792236 0.53372883796691895
0.15960760414600372 0.793262779712677 0.54449319839477539
0.46278294920921326 0.79069322347640991 0.53676384687423706
0.66130310297012329 0.78215610980987549 0.52837091684341431
0.83565807342529297 0.7780156135559082 0.52031117677688599
0.98768109083175659 0.7747342586517334 0.50535124540328979
0 0.9531053900718689 0.51114803552627563
0.0002980849239975214 0.95210808515548706 0.51285278797149658
0.0114072160795331 0.95043128728866577 0.52007311582565308
0.34050962328910828 0.95367240905761719 0.51554679870605469
0.63406527042388916 0.94863903522491455 0.50198173522949219
0.84998023509979248 0.94804543256759644 0.48774024844169617
0.99575525522232056 0.94335156679153442 0.44980531930923462
0.014003349468111992 0.00066281488398090005 0.45000746846199036
0.10393793135881424 0.00043640137300826609 0.45508632063865662
0.27094182372093201 0.00044527239515446126 0.45169413089752197
0.44398960471153259 0.00043026794446632266 0.45189213752746582
0.58729642629623413 0.0039215688593685627 0.46421992778778076
0.73688977956771851 0.0061529572121798992 0.44963130354881287
0.88159239292144775 0.0031782861333340406 0.41949528455734253
0.027735840529203415 0.050170090049505234 0.48391568660736084
0.12110019475221634 0.044581260532140732 0.48765125870704651
0.2793157696723938 0.033937118947505951 0.48778846859931946
0.44447559118270874 0.025685584172606468 0.48704054951667786
0.59059149026870728 0.01875649206340313 0.4867556095123291
0.72872728109359741 0.016588307917118073 0.48258519172668457
0.87041056156158447 0.005766894668340683 0.46425104141235352
0.07028699666261673 0.23698797821998596 0.53307116031646729
0.14547838270664215 0.23244386911392212 0.53229957818984985
0.295723557472229 0.22634167969226837 0.53420805931091309
0.46274730563163757 0.20897842943668365 0.53081893920898438
0.61193615198135376 0.19824947416782379 0.52981823682785034
0.750560462474823 0.1619858592748642 0.52121508121490479
0.88857173919677734 0.12250282615423203 0.51198190450668335
0.0092548895627260208 0.46871432662010193 0.5843309760093689
0.068247929215431213 0.46359696984291077 0.58496540784835815
0.28013712167739868 0.45388597249984741 0.58339142799377441
0.47553148865699768 0.44481316208839417 0.58543920516967773
0.62630760669708252 0.43334010243415833 0.580902099609375
0.77354919910430908 0.41804581880569458 0.57820940017700195
0.92016887664794922 0.39302721619606018 0.57044625282287598
0.005006064660847187 0.63663738965988159 0.61468923091888428
0.012100145220756531 0.64048194885253906 0.623069167137146
0.23849467933177948 0.6330791711807251 0.62445956468582153
0.46025258302688599 0.62720972299575806 0.62403172254562378
0.62260615825653076 0.62072902917861938 0.62130427360534668
0.77923345565795898 0.61096376180648804 0.61887425184249878
0.94365906715393066 0.60016679763793945 0.61161726713180542
0.0025254792999476194 0.78278809785842896 0.6443178653717041
0.0058832503855228424 0.78237903118133545 0.64920663833618164
0.17342393100261688 0.78072595596313477 0.65381664037704468
0.42862483859062195 0.77731525897979736 0.6523628830909729
0.60912948846817017 0.76936984062194824 0.64604216814041138
0.78350979089736938 0.76479363441467285 0.64139187335968018
0.95822060108184814 0.75939095020294189 0.63901829719543457
0 0.94997525215148926 0.65540659427642822
0.0018385943258181214 0.95132791996002197 0.65576404333114624
0.011192022822797298 0.94577407836914062 0.66081821918487549
0.25966909527778625 0.95045995712280273 0.66377788782119751
0.55493754148483276 0.94524228572845459 0.65935593843460083
0.76547002792358398 0.94643592834472656 0.64956963062286377
0.96990972757339478 0.9412723183631897 0.6369631290435791
0.018619745969772339 0 0.53648239374160767
0.13503599166870117 0 0.53819364309310913
0.27678573131561279 0 0.54054015874862671
0.42826586961746216 0.00037288290332071483 0.54159462451934814
0.56046700477600098 0.0040201521478593349 0.55163896083831787
0.69770097732543945 0.0056879380717873573 0.55124163627624512
0.83864349126815796 0.0011432722676545382 0.5366281270980835
0.059124696999788284 0.0091555723920464516 0.56124591827392578
0.15528343617916107 0.014276272617280483 0.56405901908874512
0.2877349853515625 0.0061815897934138775 0.56669312715530396
0.42793440818786621 0.0049406015314161777 0.56873244047164917
0.56389009952545166 0.0087698847055435181 0.57168233394622803
0.69617617130279541 0.0096006058156490326 0.5706976056098938
0.82927757501602173 0.0026157305110245943 0.55912059545516968
0.1207539290189743 0.14895699918270111 0.60476601123809814
0.19559007883071899 0.14350752532482147 0.60549288988113403
0.31558912992477417 0.13528190553188324 0.60863745212554932
0.44885137677192688 0.12407843023538589 0.60692644119262695
0.58104008436203003 0.098914459347724915 0.60774654150009155
0.70544683933258057 0.069912657141685486 0.60282415151596069
0.83884638547897339 0.034552555531263351 0.59323376417160034
0.093986049294471741 0.41137334704399109 0.66069227457046509
0.18297874927520752 0.40358534455299377 0.66036653518676758
0.33396565914154053 0.39234194159507751 0.66232192516326904
0.47456082701683044 0.37485125660896301 0.66344374418258667
0.61000645160675049 0.36987596750259399 0.66247850656509399
0.74042105674743652 0.35251480340957642 0.66204500198364258
0.88010120391845703 0.31972575187683105 0.65482920408248901
0.023147134110331535 0.6139342188835144 0.70688152313232422
0.10908894240856171 0.60926192998886108 0.70820814371109009
0.30338311195373535 0.6045989990234375 0.70902055501937866
0.46723899245262146 0.59870344400405884 0.71251159906387329
0.61092501878738403 0.59133851528167725 0.71376824378967285
0.75347995758056641 0.58218562602996826 0.71229314804077148
0.90812498331069946 0.56380546092987061 0.70781153440475464
0.0054050520993769169 0.76536202430725098 0.74025678634643555
0.033629968762397766 0.76646506786346436 0.74454551935195923
0.24498163163661957 0.76398605108261108 0.7464328408241272
0.43031787872314453 0.75664502382278442 0.74886327981948853
0.58448261022567749 0.75681149959564209 0.74862557649612427
0.74654537439346313 0.75333011150360107 0.74520844221115112
0.92668545246124268 0.73606640100479126 0.7430453896522522
0.0024064157623797655 0.94137704372406006 0.7657962441444397
0.0021891873329877853 0.94553160667419434 0.76926231384277344
0.017815159633755684 0.94181281328201294 0.77353453636169434
0.25044125318527222 0.94411283731460571 0.77620548009872437
0.51440978050231934 0.9411434531211853 0.77491557598114014
0.71974068880081177 0.93834215402603149 0.77527827024459839
0.94153296947479248 0.93524706363677979 0.76898139715194702
0.052554741501808167 0 0.60998880863189697
0.18201059103012085 0 0.61159712076187134
0.29995599389076233 0 0.61494225263595581
0.42553132772445679 0 0.62077367305755615
0.54220724105834961 0 0.62158995866775513
0.66675424575805664 0.00011201746383449063 0.62734448909759521
0.80624622106552124 0 0.6213538646697998
0.11273006349802017 0.00016545313701499254 0.6271471381187439
0.20091110467910767 3.8894954741408583e-06 0.63303112983703613
0.31093844771385193 0.00090465170796960592 0.63646751642227173
0.42966166138648987 0.00045171999954618514 0.63852077722549438
0.54565328359603882 0.00013708975166082382 0.64247441291809082
0.66925036907196045 0.0019774043466895819 0.64385288953781128
0.79829168319702148 0 0.64263260364532471
0.18663495779037476 0.033936787396669388 0.6654093861579895
0.24593116343021393 0.030165877193212509 0.66765809059143066
0.3414272665977478 0.026605509221553802 0.67100715637207031
0.44832339882850647 0.019110854715108871 0.67141848802566528
0.55730754137039185 0.011770510114729404 0.67393958568572998
0.67227840423583984 0.0078258886933326721 0.67063754796981812
0.79867780208587646 0.0051142522133886814 0.66893959045410156
0.23315136134624481 0.29423210024833679 0.7270272970199585
0.2895691990852356 0.29593357443809509 0.72980815172195435
0.37973076105117798 0.28447458148002625 0.72997891902923584
0.48807522654533386 0.27025637030601501 0.73165696859359741
0.59870302677154541 0.25644224882125854 0.73398619890213013
0.71035927534103394 0.22652144730091095 0.73024284839630127
0.83731508255004883 0.1867387443780899 0.72767001390457153
0.20532521605491638 0.55613219738006592 0.78624039888381958
0.26501756906509399 0.55532509088516235 0.78733712434768677
0.37447541952133179 0.54856067895889282 0.78905504941940308
0.49169996380805969 0.54488319158554077 0.79249781370162964
0.61161321401596069 0.52925032377243042 0.79232490062713623
0.73668497800827026 0.52011531591415405 0.79420715570449829
0.87818688154220581 0.4993998110294342 0.79485279321670532
0.12344241887331009 0.736042320728302 0.8372156023979187
0.20524445176124573 0.73449301719665527 0.83753418922424316
0.33666330575942993 0.73219722509384155 0.84019023180007935
0.46039626002311707 0.72679358720779419 0.84126657247543335
0.59491199254989624 0.72194510698318481 0.84618276357650757
0.73168998956680298 0.7124171257019043 0.84448248147964478
0.89451140165328979 0.69994193315505981 0.84722709655761719
0.0025339911226183176 0.93384933471679688 0.88705563545227051
0.018851859495043755 0.92638540267944336 0.88866859674453735
0.094326794147491455 0.92813992500305176 0.89208817481994629
0.30638715624809265 0.92772656679153442 0.89623749256134033
0.51018476486206055 0.92378610372543335 0.90046101808547974
0.68975371122360229 0.92120552062988281 0.90683788061141968
0.90940576791763306 0.918160080909729 0.91066461801528931
