luts/colorslide/fuji_provia_400f.cube
# Created by: G'MIC (https://gmic.eu)
TITLE "fuji_provia_400f"
# LUT size
LUT_3D_SIZE 13
# Data domain
DOMAIN_MIN 0.0 0.0 0.0
DOMAIN_MAX 1.0 1.0 1.0
# LUT data points
0.010596839711070061 0.011077581904828548 0.010377083905041218
0.040816556662321091 0.0090723522007465363 0.0060596093535423279
0.089506097137928009 0.011002080515027046 0.0051171993836760521
0.16019842028617859 0.016489874571561813 0.0027753643225878477
0.24668076634407043 0.021412704139947891 0.00028016333817504346
0.33961808681488037 0.024770893156528473 0
0.43218126893043518 0.027930136770009995 0
0.51885980367660522 0.032577112317085266 0
0.59900814294815063 0.041016791015863419 0
0.6734660267829895 0.051986739039421082 0.00018144494970329106
0.74160069227218628 0.063920296728610992 0.00078314985148608685
0.80643653869628906 0.077524460852146149 0.0018580268369987607
0.86813056468963623 0.087453834712505341 0.002780974144116044
0.034020502120256424 0.056202474981546402 0.032202359288930893
0.063094824552536011 0.052541155368089676 0.02426440641283989
0.11044265329837799 0.054522197693586349 0.019361384212970734
0.18028426170349121 0.060751251876354218 0.015432888641953468
0.26472178101539612 0.063241071999073029 0.0081627639010548592
0.35451140999794006 0.061075247824192047 0.00098799157422035933
0.44303888082504272 0.055002715438604355 0
0.52546298503875732 0.048321906477212906 0
0.60067540407180786 0.043060511350631714 0
0.67015755176544189 0.043598368763923645 0.00029890771838836372
0.7367321252822876 0.053743012249469757 0.0010287715122103691
0.80047452449798584 0.06846880167722702 0.0027506661135703325
0.86091101169586182 0.079095564782619476 0.0062360125593841076
0.074782080948352814 0.13066507875919342 0.074462622404098511
0.097611099481582642 0.12554983794689178 0.062178518623113632
0.14218913018703461 0.12523934245109558 0.052391562610864639
0.20991665124893188 0.12839454412460327 0.044035114347934723
0.29070618748664856 0.12685205042362213 0.029916247352957726
0.37593275308609009 0.11801811307668686 0.01166164968162775
0.45959541201591492 0.1034172922372818 0.00071693869540467858
0.53721410036087036 0.0864243283867836 0
0.60728317499160767 0.068902112543582916 0
0.67180180549621582 0.056297659873962402 0
0.7343602180480957 0.056707017123699188 5.834242983837612e-06
0.79528355598449707 0.06472344696521759 0.00074033549753949046
0.85361623764038086 0.071723625063896179 0.0058914483524858952
0.1010604128241539 0.22980290651321411 0.13090336322784424
0.12854987382888794 0.22394749522209167 0.11824236065149307
0.17794837057590485 0.22200816869735718 0.10659360885620117
0.24553129076957703 0.22026289999485016 0.092237867414951324
0.32256045937538147 0.2133728563785553 0.071060344576835632
0.40334814786911011 0.20015321671962738 0.044394355267286301
0.48286175727844238 0.18091939389705658 0.018315169960260391
0.55708873271942139 0.15862691402435303 0.0055410945788025856
0.62357515096664429 0.13427835702896118 0.0042634550482034683
0.68322229385375977 0.10789651423692703 0.0019081415375694633
0.73927682638168335 0.08600471168756485 1.6156365745700896e-05
0.79402512311935425 0.072946257889270782 1.1668486195048899e-06
0.84805834293365479 0.066718980669975281 0.0019387189531698823
0.11364355683326721 0.33235394954681396 0.18794617056846619
0.15651403367519379 0.32882705330848694 0.17970544099807739
0.21378789842128754 0.32730618119239807 0.16948458552360535
0.28257951140403748 0.32359039783477783 0.15306004881858826
0.35673558712005615 0.31458717584609985 0.12887002527713776
0.43407034873962402 0.30161347985267639 0.10032116621732712
0.51092660427093506 0.28476360440254211 0.072913438081741333
0.58340275287628174 0.26502230763435364 0.05396517738699913
0.64790737628936768 0.23762567341327667 0.044673606753349304
0.70337194204330444 0.19723464548587799 0.02904999628663063
0.75253665447235107 0.14908386766910553 0.0073781330138444901
0.79936933517456055 0.10358942300081253 8.4491803136188537e-05
0.84625244140625 0.067893475294113159 1.0112687959917821e-05
0.16547650098800659 0.42846477031707764 0.24811695516109467
0.19904473423957825 0.42899316549301147 0.24220946431159973
0.25263762474060059 0.4283708930015564 0.23281721770763397
0.31882539391517639 0.42506366968154907 0.21749848127365112
0.39052358269691467 0.41873091459274292 0.19583910703659058
0.46518442034721375 0.41073483228683472 0.17195002734661102
0.54009550809860229 0.40162703394889832 0.15015783905982971
0.61199629306793213 0.38967177271842957 0.13439550995826721
0.67611312866210938 0.36499208211898804 0.11889926344156265
0.7296297550201416 0.31878146529197693 0.092036664485931396
0.77598381042480469 0.25872898101806641 0.056461766362190247
0.81779217720031738 0.1905658096075058 0.024296360090374947
0.85641783475875854 0.11743686348199844 0.0062019946053624153
0.22223915159702301 0.52025306224822998 0.30724772810935974
0.24943052232265472 0.52188122272491455 0.30306032299995422
0.29675197601318359 0.52144342660903931 0.29503485560417175
0.35699170827865601 0.51994723081588745 0.28243729472160339
0.42414861917495728 0.51761400699615479 0.26577681303024292
0.49519139528274536 0.51519691944122314 0.24779993295669556
0.56732350587844849 0.51246875524520874 0.23182626068592072
0.63743805885314941 0.50687724351882935 0.21859060227870941
0.70125329494476318 0.48917296528816223 0.20245890319347382
0.75647813081741333 0.45322006940841675 0.17701651155948639
0.80604267120361328 0.40657225251197815 0.14764505624771118
0.85165244340896606 0.35206973552703857 0.12096671015024185
0.88835912942886353 0.26616999506950378 0.08306363970041275
0.28582236170768738 0.60447210073471069 0.36342898011207581
0.30849483609199524 0.60603505373001099 0.36105179786682129
0.34654349088668823 0.6061357855796814 0.35578468441963196
0.39794430136680603 0.60650336742401123 0.34657719731330872
0.45849573612213135 0.60730361938476562 0.33430224657058716
0.52417683601379395 0.60864228010177612 0.32091507315635681
0.59189766645431519 0.60937273502349854 0.30848795175552368
0.65859037637710571 0.60694026947021484 0.2964911162853241
0.72149986028671265 0.59610521793365479 0.28231105208396912
0.77922916412353516 0.57500958442687988 0.26398465037345886
0.83308941125869751 0.54712235927581787 0.24460276961326599
0.8835136890411377 0.50988155603408813 0.22517557442188263
0.92590904235839844 0.44304302334785461 0.19247017800807953
0.34895065426826477 0.68067729473114014 0.41988956928253174
0.36836656928062439 0.68196213245391846 0.41833099722862244
0.39798098802566528 0.68271338939666748 0.41538971662521362
0.44095781445503235 0.68440455198287964 0.40897008776664734
0.49396184086799622 0.68724280595779419 0.39982697367668152
0.55330765247344971 0.69040215015411377 0.38932579755783081
0.6155732274055481 0.69260209798812866 0.37884145975112915
0.67798471450805664 0.69178313016891479 0.36776289343833923
0.73863518238067627 0.68566417694091797 0.35563910007476807
0.79673349857330322 0.67342227697372437 0.34159517288208008
0.85261416435241699 0.65598708391189575 0.32684853672981262
0.90505826473236084 0.62866854667663574 0.30971583724021912
0.95087802410125732 0.58105325698852539 0.28433477878570557
0.40851309895515442 0.75148463249206543 0.47746092081069946
0.42507722973823547 0.75206738710403442 0.47638469934463501
0.44887685775756836 0.75336551666259766 0.47438573837280273
0.48502629995346069 0.75594669580459595 0.46969464421272278
0.53122967481613159 0.7596161961555481 0.46233904361724854
0.58377021551132202 0.76321452856063843 0.45359933376312256
0.64005440473556519 0.76556867361068726 0.44396039843559265
0.69780421257019043 0.76532799005508423 0.43385395407676697
0.75552195310592651 0.7613675594329834 0.42282548546791077
0.81211727857589722 0.75297021865844727 0.41051915287971497
0.86748379468917847 0.74059998989105225 0.3976769745349884
0.91993284225463867 0.72183048725128174 0.38339412212371826
0.96577799320220947 0.68981432914733887 0.36451485753059387
0.46818429231643677 0.81995701789855957 0.53504538536071777
0.48183959722518921 0.82059967517852783 0.53389900922775269
0.50135219097137451 0.82152926921844482 0.53183609247207642
0.53176087141036987 0.82414489984512329 0.52838432788848877
0.5711977481842041 0.82790094614028931 0.52209568023681641
0.6167711615562439 0.83108139038085938 0.51454895734786987
0.66664749383926392 0.8329351544380188 0.50602883100509644
0.71930891275405884 0.83262574672698975 0.49701526761054993
0.77374559640884399 0.82977914810180664 0.48723521828651428
0.82920223474502563 0.82392299175262451 0.4766198992729187
0.88336431980133057 0.8155784010887146 0.46538066864013672
0.93351006507873535 0.80444741249084473 0.45408535003662109
0.97520995140075684 0.78473043441772461 0.44041132926940918
0.52874797582626343 0.88843315839767456 0.59101814031600952
0.54084146022796631 0.88873225450515747 0.58983123302459717
0.55745190382003784 0.88976043462753296 0.58899396657943726
0.58183842897415161 0.89210301637649536 0.58525758981704712
0.61430281400680542 0.89497977495193481 0.58031249046325684
0.65317368507385254 0.89750581979751587 0.57408660650253296
0.69643157720565796 0.89864844083786011 0.56686544418334961
0.74363726377487183 0.89845108985900879 0.55946022272109985
0.79491585493087769 0.89690607786178589 0.55186283588409424
0.849639892578125 0.89410042762756348 0.54338192939758301
0.90402388572692871 0.89031487703323364 0.53425216674804688
0.95032685995101929 0.88508492708206177 0.52529311180114746
0.98348945379257202 0.87411874532699585 0.51485258340835571
0.58805334568023682 0.9581788182258606 0.64843887090682983
0.5989990234375 0.9582323431968689 0.6466679573059082
0.61304587125778198 0.95910614728927612 0.64465177059173584
0.63298267126083374 0.9609074592590332 0.64184045791625977
0.65969181060791016 0.96305078268051147 0.63778120279312134
0.69236737489700317 0.96502792835235596 0.63286495208740234
0.72965717315673828 0.96595877408981323 0.6274983286857605
0.77151602506637573 0.96634972095489502 0.62242341041564941
0.81860119104385376 0.96641582250595093 0.61736917495727539
0.87258899211883545 0.96645563840866089 0.6106993556022644
0.92729997634887695 0.96537536382675171 0.60323882102966309
0.97202259302139282 0.96479523181915283 0.59595853090286255
0.99346184730529785 0.96080654859542847 0.58829134702682495
0.005454374011605978 0.009745623916387558 0.032931473106145859
0.035276975482702255 0.0089398548007011414 0.02402731217443943
0.085850492119789124 0.011062532663345337 0.016715839505195618
0.15714567899703979 0.015521674416959286 0.0091271940618753433
0.24231132864952087 0.019753444939851761 0.0031964171212166548
0.33391746878623962 0.021088499575853348 0.00045454734936356544
0.42481735348701477 0.022392900660634041 0
0.51043832302093506 0.02541758306324482 0
0.58916252851486206 0.031009450554847717 0
0.66166096925735474 0.039545305073261261 0
0.7294309139251709 0.051399711519479752 0
0.79411280155181885 0.065701425075531006 1.029220311465906e-05
0.85582256317138672 0.076224982738494873 0.0016178505029529333
0.029337579384446144 0.059186432510614395 0.063224643468856812
0.05865001305937767 0.056325126439332962 0.052192792296409607
0.10742814093828201 0.05850708857178688 0.042989738285541534
0.17723387479782104 0.06193135678768158 0.033490709960460663
0.26085758209228516 0.062214285135269165 0.021871259436011314
0.34958270192146301 0.057705987244844437 0.0092180734500288963
0.43662863969802856 0.050060316920280457 0.0010138717480003834
0.51758015155792236 0.042441572993993759 0
0.59153491258621216 0.036293689161539078 0
0.65961027145385742 0.034890178591012955 0
0.72460132837295532 0.042358938604593277 0
0.7878153920173645 0.056444879621267319 2.5850184101727791e-05
0.8485376238822937 0.067945666611194611 0.0030013439245522022
0.067696511745452881 0.13566558063030243 0.10779329389333725
0.091162361204624176 0.13170546293258667 0.095934115350246429
0.13754481077194214 0.13133050501346588 0.084695108234882355
0.20597079396247864 0.13181222975254059 0.071793481707572937
0.28664132952690125 0.12758021056652069 0.054054543375968933
0.37126883864402771 0.11657128483057022 0.031952906399965286
0.45369067788124084 0.10023565590381622 0.011381770484149456
0.53006953001022339 0.083264447748661041 0.0028173259925097227
0.5989648699760437 0.065478548407554626 0.00080116122262552381
0.66202390193939209 0.050972867757081985 5.370495273382403e-05
0.72255980968475342 0.046719778329133987 0
0.78255939483642578 0.052773419767618179 1.1967678119617631e-06
0.84118509292602539 0.060539692640304565 0.001927603967487812
0.093352146446704865 0.23343314230442047 0.1632654070854187
0.11690319329500198 0.22929161787033081 0.15317027270793915
0.1693042516708374 0.22715045511722565 0.14170841872692108
0.23982681334018707 0.22418269515037537 0.12610098719596863
0.31809961795806885 0.21568690240383148 0.10245401412248611
0.39882376790046692 0.20074422657489777 0.074153512716293335
0.47748294472694397 0.18096639215946198 0.046615526080131531
0.55047982931137085 0.15832976996898651 0.028971279039978981
0.61557197570800781 0.13226978480815887 0.019827928394079208
0.67367738485336304 0.10274489223957062 0.009313635528087616
0.72797966003417969 0.076584428548812866 0.00089783011935651302
0.78157079219818115 0.060857720673084259 0
0.83570557832717896 0.053455337882041931 0.00015596876619383693
0.10372115671634674 0.33474087715148926 0.22165963053703308
0.14141607284545898 0.33278277516365051 0.21517251431941986
0.20380356907844543 0.33143764734268188 0.20552742481231689
0.27624523639678955 0.32751739025115967 0.18914259970188141
0.35200232267379761 0.31824710965156555 0.16467410326004028
0.42974793910980225 0.30456387996673584 0.1360686868429184
0.50590091943740845 0.28745290637016296 0.10900503396987915
0.57730484008789062 0.2662380039691925 0.088724531233310699
0.64070367813110352 0.23674650490283966 0.072692796587944031
0.6951606273651123 0.19439683854579926 0.049508381634950638
0.74280887842178345 0.1427217572927475 0.01935158483684063
0.78845322132110596 0.094670854508876801 0.0028087540995329618
0.83454269170761108 0.054556842893362045 0.00011016247299266979
0.15236416459083557 0.43062126636505127 0.28202953934669495
0.18912973999977112 0.43094351887702942 0.27700889110565186
0.24598810076713562 0.43094289302825928 0.26863428950309753
0.31363391876220703 0.4289679229259491 0.25403395295143127
0.38612425327301025 0.4229280948638916 0.23309819400310516
0.46096128225326538 0.41462570428848267 0.20937487483024597
0.5353085994720459 0.40446066856384277 0.18760323524475098
0.60612779855728149 0.39014416933059692 0.16979034245014191
0.66954827308654785 0.36464989185333252 0.15118803083896637
0.72314631938934326 0.31996956467628479 0.12153387814760208
0.76851677894592285 0.25916540622711182 0.081992253661155701
0.8096962571144104 0.18988689780235291 0.046491660177707672
0.84759438037872314 0.11308357119560242 0.018524918705224991
0.21332351863384247 0.52171730995178223 0.33967763185501099
0.24534983932971954 0.52322506904602051 0.3362119197845459
0.29302522540092468 0.52354127168655396 0.32950654625892639
0.35305780172348022 0.52318716049194336 0.31788173317909241
0.42012274265289307 0.52149283885955811 0.30204197764396667
0.49104326963424683 0.51897561550140381 0.28433641791343689
0.56271284818649292 0.5157734751701355 0.26834568381309509
0.63208979368209839 0.50868356227874756 0.25399500131607056
0.69558799266815186 0.49114236235618591 0.23688355088233948
0.75128722190856934 0.45798203349113464 0.21125051379203796
0.80058801174163818 0.4120732843875885 0.17945218086242676
0.84498202800750732 0.35221865773200989 0.14728333055973053
0.88136947154998779 0.26301389932632446 0.10478352755308151
0.28004634380340576 0.60602658987045288 0.39360424876213074
0.3049963116645813 0.60661637783050537 0.39223584532737732
0.34338289499282837 0.60781937837600708 0.38802507519721985
0.39459177851676941 0.60922640562057495 0.38000345230102539
0.45465824007987976 0.61033564805984497 0.36852642893791199
0.51994389295578003 0.6119081974029541 0.3554384708404541
0.58748084306716919 0.61268854141235352 0.34288126230239868
0.65379232168197632 0.60992336273193359 0.33066964149475098
0.71624654531478882 0.60010594129562378 0.31659474968910217
0.77401614189147949 0.58070218563079834 0.29777848720550537
0.82809001207351685 0.55375796556472778 0.27665308117866516
0.87871849536895752 0.51367521286010742 0.25307899713516235
0.92136675119400024 0.44313791394233704 0.21669135987758636
0.34408178925514221 0.68145477771759033 0.44725465774536133
0.3643949031829834 0.68267840147018433 0.44705420732498169
0.39497238397598267 0.68378490209579468 0.44484677910804749
0.4376055896282196 0.68633002042770386 0.43924358487129211
0.49023893475532532 0.68923270702362061 0.43077978491783142
0.54920113086700439 0.69233411550521851 0.42059811949729919
0.61092513799667358 0.69530099630355835 0.40990877151489258
0.67303562164306641 0.69463777542114258 0.39871743321418762
0.73331528902053833 0.68877875804901123 0.38601416349411011
0.79115313291549683 0.67751216888427734 0.37136805057525635
0.84740161895751953 0.66052967309951782 0.35555604100227356
0.90196031332015991 0.63385099172592163 0.33691549301147461
0.95026087760925293 0.58568483591079712 0.3095797598361969
0.40395990014076233 0.75112432241439819 0.50143963098526001
0.42154282331466675 0.75222742557525635 0.50134605169296265
0.44657447934150696 0.75376319885253906 0.50022739171981812
0.48222500085830688 0.75659370422363281 0.49647310376167297
0.52764582633972168 0.76022213697433472 0.48974502086639404
0.57960909605026245 0.76393133401870728 0.48077648878097534
0.63544833660125732 0.7663264274597168 0.47097143530845642
0.69273602962493896 0.76628249883651733 0.46015408635139465
0.74985849857330322 0.76238226890563965 0.44849380850791931
0.80602931976318359 0.75417131185531616 0.43538486957550049
0.86152344942092896 0.7418481707572937 0.42123383283615112
0.91747426986694336 0.72515296936035156 0.40675431489944458
0.96815288066864014 0.69503110647201538 0.38747674226760864
0.46432897448539734 0.81838107109069824 0.5549507737159729
0.47925731539726257 0.81900560855865479 0.5551379919052124
0.49959495663642883 0.82080340385437012 0.55458587408065796
0.52904313802719116 0.82355606555938721 0.55150359869003296
0.5675463080406189 0.82706588506698608 0.54581648111343384
0.61274904012680054 0.83021795749664307 0.5379144549369812
0.66230648756027222 0.83195847272872925 0.52855765819549561
0.71486431360244751 0.83169043064117432 0.51826030015945435
0.7685660719871521 0.82885020971298218 0.50769466161727905
0.82294577360153198 0.82292854785919189 0.49646857380867004
0.87690287828445435 0.81441646814346313 0.48445233702659607
0.93051367998123169 0.80599391460418701 0.47376430034637451
0.97812467813491821 0.78931504487991333 0.46049320697784424
0.52504539489746094 0.88558316230773926 0.60759574174880981
0.53785240650177002 0.88614475727081299 0.60814613103866577
0.55435103178024292 0.88751327991485596 0.60782325267791748
0.5785108208656311 0.88994163274765015 0.60551911592483521
0.61049073934555054 0.89274692535400391 0.60062676668167114
0.64900380373001099 0.89518558979034424 0.5936540961265564
0.69243335723876953 0.89644438028335571 0.5852656364440918
0.73988884687423706 0.89607107639312744 0.5758051872253418
0.79069769382476807 0.89493250846862793 0.56716042757034302
0.84399086236953735 0.89299720525741577 0.55931353569030762
0.89742082357406616 0.88959240913391113 0.55074340105056763
0.94601428508758545 0.88646441698074341 0.54263043403625488
0.98435992002487183 0.87701618671417236 0.53244990110397339
0.58369308710098267 0.95409101247787476 0.66179877519607544
0.59513485431671143 0.95433372259140015 0.66188377141952515
0.60922837257385254 0.95556282997131348 0.66139596700668335
0.62903118133544922 0.95750576257705688 0.65941065549850464
0.65555673837661743 0.95980000495910645 0.65543371438980103
0.68805086612701416 0.96163880825042725 0.64964216947555542
0.72589677572250366 0.96280580759048462 0.64277303218841553
0.7685086727142334 0.96318173408508301 0.63547593355178833
0.81581610441207886 0.96375483274459839 0.6294599175453186
0.86749720573425293 0.9650886058807373 0.62402427196502686
0.91942256689071655 0.96534037590026855 0.61796146631240845
0.96350246667861938 0.96595436334609985 0.61160868406295776
0.99250978231430054 0.96200478076934814 0.60365629196166992
0.0043131811544299126 0.01076170988380909 0.0657004714012146
0.034421853721141815 0.010026849806308746 0.053154949098825455
0.085392341017723083 0.012179415673017502 0.040004130452871323
0.1564970463514328 0.01553814485669136 0.026398468762636185
0.2398671954870224 0.017415707930922508 0.016867559403181076
0.32871833443641663 0.017676200717687607 0.0092011392116546631
0.41734510660171509 0.018401427194476128 0.0025445227511227131
0.50084525346755981 0.020067986100912094 0.00012703689571935683
0.57741111516952515 0.022447399795055389 0
0.64776027202606201 0.027169037610292435 0
0.71442282199859619 0.036804873496294022 0
0.77913969755172729 0.050384059548377991 9.0864596131723374e-05
0.84118425846099854 0.061120830476284027 0.0033869275357574224
0.027478879317641258 0.063438326120376587 0.104310043156147
0.058476094156503677 0.061682935804128647 0.091799810528755188
0.10787356644868851 0.06250298023223877 0.078503280878067017
0.17706938087940216 0.063847318291664124 0.064011558890342712
0.25886031985282898 0.0618782639503479 0.049309495836496353
0.34503361582756042 0.056040894240140915 0.03319428488612175
0.42943495512008667 0.048093114048242569 0.016998546198010445
0.50843614339828491 0.039246052503585815 0.0054658777080476284
0.58015555143356323 0.030867617577314377 0.00082313688471913338
0.64607226848602295 0.025724373757839203 1.4810000720899552e-05
0.70951861143112183 0.029022740200161934 0
0.77246546745300293 0.040566165000200272 3.9523256418760866e-05
0.83362281322479248 0.051271028816699982 0.0034682180266827345
0.066714510321617126 0.14158259332180023 0.15364828705787659
0.090931370854377747 0.13852299749851227 0.14186826348304749
0.13739818334579468 0.13721100986003876 0.1284652054309845
0.204560786485672 0.13535980880260468 0.112479567527771
0.28413635492324829 0.1291126012802124 0.092505723237991333
0.3667398989200592 0.11740128695964813 0.068938270211219788
0.44687554240226746 0.10163590312004089 0.045370109379291534
0.52098613977432251 0.083446621894836426 0.027486121281981468
0.58815121650695801 0.063812509179115295 0.014092599041759968
0.64914321899414062 0.04527900367975235 0.0041973041370511055
0.70805263519287109 0.035208217799663544 0.00040764902951195836
0.76737064123153687 0.036651179194450378 0.00012910131772514433
0.82606816291809082 0.040617804974317551 0.0019835976418107748
0.092291615903377533 0.23705494403839111 0.20989011228084564
0.11247259378433228 0.23420050740242004 0.20024041831493378
0.16505679488182068 0.23154175281524658 0.18766024708747864
0.23565332591533661 0.22746339440345764 0.17055678367614746
0.31406474113464355 0.21875205636024475 0.14766466617584229
0.39386096596717834 0.20416294038295746 0.12013792246580124
0.47061491012573242 0.18467025458812714 0.092722527682781219
0.54180669784545898 0.16156713664531708 0.070564448833465576
0.60572147369384766 0.13353006541728973 0.051798142492771149
0.66238033771514893 0.10083254426717758 0.031532600522041321
0.7150459885597229 0.069888368248939514 0.012482168152928352
0.76793617010116577 0.04803650826215744 0.0035646327305585146
0.82096517086029053 0.03222593292593956 0.0013504178496077657
0.094637729227542877 0.33551561832427979 0.26785415410995483
0.12903732061386108 0.33424437046051025 0.26092183589935303
0.19573450088500977 0.33298251032829285 0.25021910667419434
0.26939499378204346 0.32941648364067078 0.23421284556388855
0.34663301706314087 0.32152199745178223 0.21203188598155975
0.4242035448551178 0.30868908762931824 0.18559278547763824
0.49919232726097107 0.29134407639503479 0.15929684042930603
0.56939899921417236 0.26972535252571106 0.13701227307319641
0.63192206621170044 0.2396107017993927 0.11499127000570297
0.68582618236541748 0.19689980149269104 0.086325220763683319
