luts/colorslide/fuji_superia_200_xpro.cube
# Created by: G'MIC (https://gmic.eu)
TITLE "fuji_superia_200_xpro"
# LUT size
LUT_3D_SIZE 5
# Data domain
DOMAIN_MIN 0.0 0.0 0.0
DOMAIN_MAX 1.0 1.0 1.0
# LUT data points
0.00063476560171693563 0.032536152750253677 0.17710365355014801
0.00077939499169588089 0.054733425378799438 0.22269044816493988
0.018978133797645569 0.070375911891460419 0.25897333025932312
0.1235133484005928 0.045356616377830505 0.26037171483039856
0.33860832452774048 0.087782964110374451 0.28134605288505554
0.011627811007201672 0.31103432178497314 0.40653979778289795
0.0099481018260121346 0.31072735786437988 0.41745981574058533
0.061533462256193161 0.2969869077205658 0.41583269834518433
0.21512661874294281 0.25960829854011536 0.39300799369812012
0.40151792764663696 0.24460674822330475 0.38564082980155945
0.0062921112403273582 0.62942206859588623 0.58886808156967163
0.0051270131953060627 0.62430286407470703 0.58678442239761353
0.050611324608325958 0.59665000438690186 0.57114791870117188
0.31535351276397705 0.51489728689193726 0.53044337034225464
0.51675939559936523 0.43443334102630615 0.48195511102676392
0.068148605525493622 0.98783624172210693 0.76590812206268311
0.095305636525154114 0.99391847848892212 0.77397805452346802
0.22003287076950073 0.97629863023757935 0.75691145658493042
0.46537426114082336 0.88354498147964478 0.69881993532180786
0.68009978532791138 0.73347765207290649 0.62311822175979614
0.89199048280715942 1 0.96781712770462036
0.90812516212463379 1 0.97764092683792114
0.92293184995651245 1 0.98514145612716675
0.94450944662094116 0.99954545497894287 0.98641222715377808
0.96497738361358643 0.99814611673355103 0.83465611934661865
0 0.055237863212823868 0.41099482774734497
0 0.080947041511535645 0.4242301881313324
0.0055236369371414185 0.069504573941230774 0.41305726766586304
0.075256571173667908 0.052562788128852844 0.38679581880569458
0.30224436521530151 0.10480199754238129 0.38948357105255127
0 0.3253420889377594 0.53718358278274536
0.0047033573500812054 0.31679406762123108 0.52930259704589844
0.034020427614450455 0.29700031876564026 0.51750481128692627
0.17924201488494873 0.26981666684150696 0.49049964547157288
0.37801587581634521 0.25115698575973511 0.46468400955200195
0.00057012517936527729 0.63027507066726685 0.67563486099243164
0.0061783436685800552 0.62094575166702271 0.6692967414855957
0.028804285451769829 0.57856911420822144 0.64009356498718262
0.28370976448059082 0.50200551748275757 0.59586828947067261
0.4890892505645752 0.43713265657424927 0.55127614736557007
0.022928006947040558 0.9885706901550293 0.85370153188705444
0.03299916535615921 0.9830019474029541 0.84641522169113159
0.10468932241201401 0.96153181791305542 0.81948626041412354
0.43325158953666687 0.85517913103103638 0.75720691680908203
0.65417927503585815 0.71689826250076294 0.66990441083908081
0.85890334844589233 1 0.99695336818695068
0.87029820680618286 1 0.99795436859130859
0.8861013650894165 1 0.99627852439880371
0.91034740209579468 0.99998438358306885 0.99160754680633545
0.93780219554901123 0.99640285968780518 0.86880546808242798
0 0.1085340604186058 0.55197656154632568
0.0003577737370505929 0.091750860214233398 0.53817260265350342
0.0076380413956940174 0.075361214578151703 0.5176091194152832
0.079917266964912415 0.094424046576023102 0.50256085395812988
0.28771895170211792 0.13688331842422485 0.49482542276382446
0 0.33310148119926453 0.64829063415527344
0.01231683511286974 0.31624516844749451 0.63406795263290405
0.047093827277421951 0.29298064112663269 0.61386632919311523
0.15747943520545959 0.27569425106048584 0.59230619668960571
0.36317494511604309 0.2703806459903717 0.55948400497436523
0 0.60906189680099487 0.76635134220123291
0.0082072541117668152 0.58318072557449341 0.75089931488037109
0.028803491964936256 0.53683650493621826 0.72486120462417603
0.26873564720153809 0.48625370860099792 0.68362081050872803
0.47484377026557922 0.44924944639205933 0.63968110084533691
0.0056359083391726017 0.97140133380889893 0.93694519996643066
0.0073709078133106232 0.95906293392181396 0.92355287075042725
0.14749525487422943 0.89996194839477539 0.87849658727645874
0.43221098184585571 0.80375844240188599 0.81767183542251587
0.63548654317855835 0.69865912199020386 0.74561142921447754
0.80583411455154419 1 1
0.81543999910354614 1 1
0.83872121572494507 1 0.99897509813308716
0.86223584413528442 1 0.99559777975082397
0.90106713771820068 0.99526500701904297 0.91797751188278198
0.0013156665954738855 0.13994750380516052 0.66507899761199951
0.00038770787068642676 0.13848546147346497 0.65147799253463745
0.022001303732395172 0.13745614886283875 0.63581216335296631
0.11400975286960602 0.1472652405500412 0.61525517702102661
0.30564096570014954 0.19444350898265839 0.60278785228729248
0.0045900382101535797 0.33900529146194458 0.74500131607055664
0.0067580877803266048 0.3215976357460022 0.7299807071685791
0.06072685495018959 0.31317234039306641 0.71357542276382446
0.19849242269992828 0.30553540587425232 0.69286429882049561
0.37908399105072021 0.32032692432403564 0.66781949996948242
0.0059002148918807507 0.5546945333480835 0.83317124843597412
0.010430250316858292 0.54193598031997681 0.82453334331512451
0.11541516333818436 0.521473228931427 0.80296134948730469
0.30614736676216125 0.50014489889144897 0.77273637056350708
0.48571029305458069 0.47820428013801575 0.7381664514541626
0.047751259058713913 0.88668662309646606 0.96710890531539917
0.12978053092956543 0.86553919315338135 0.95377647876739502
0.31021606922149658 0.8313593864440918 0.92661380767822266
0.46690112352371216 0.7622256875038147 0.88439482450485229
0.63691657781600952 0.69837164878845215 0.82999581098556519
0.76562464237213135 1 1
0.77025705575942993 1 1
0.78586989641189575 0.99911713600158691 0.99900263547897339
0.80126315355300903 0.99891185760498047 0.99894732236862183
0.85921615362167358 0.98347944021224976 0.96311491727828979
0.012513014487922192 0.20851363241672516 0.7592921257019043
0.030350584536790848 0.2132660448551178 0.75316542387008667
0.083346210420131683 0.21166305243968964 0.73592793941497803
0.18643759191036224 0.22683091461658478 0.7237975001335144
0.35923191905021667 0.27955973148345947 0.71541023254394531
0.014242344535887241 0.36050906777381897 0.82245939970016479
0.04740205779671669 0.35724428296089172 0.81718122959136963
0.1355707049369812 0.35340654850006104 0.80531913042068481
0.27825221419334412 0.36515301465988159 0.78995084762573242
0.43579268455505371 0.39315387606620789 0.7734907865524292
0.14510335028171539 0.54623723030090332 0.89949780702590942
0.19052569568157196 0.53971964120864868 0.89236164093017578
0.28180798888206482 0.53138655424118042 0.87771952152252197
0.39995822310447693 0.5260084867477417 0.8611762523651123
0.53781545162200928 0.53150570392608643 0.83535325527191162
0.37875816226005554 0.79373610019683838 0.98919278383255005
0.40464985370635986 0.78537666797637939 0.97515308856964111
0.46957367658615112 0.76147943735122681 0.96338510513305664
0.56304198503494263 0.74219059944152832 0.94189810752868652
0.68164896965026855 0.71406525373458862 0.91285938024520874
0.7448393702507019 0.9986274242401123 1
0.75298666954040527 0.99753075838088989 1
0.76951342821121216 0.99709582328796387 1
0.79985266923904419 0.99137437343597412 0.99974441528320312
0.88897097110748291 0.9578443169593811 0.99200248718261719
