luts/colorslide/fuji_provia_100f.cube
# Created by: G'MIC (https://gmic.eu)
TITLE "fuji_provia_100f"
# LUT size
LUT_3D_SIZE 5
# Data domain
DOMAIN_MIN 0.0 0.0 0.0
DOMAIN_MAX 1.0 1.0 1.0
# LUT data points
0.032915603369474411 0.030779505148530006 0.021367540583014488
0.24477946758270264 0.031902074813842773 0.019917221739888191
0.50107532739639282 0.02010689489543438 0.011201147921383381
0.80785363912582397 0.014477868564426899 0.0042071323841810226
0.99846816062927246 0.005451875738799572 0
0.10582628101110458 0.25696578621864319 0.13207666575908661
0.27282068133354187 0.25297731161117554 0.1237160786986351
0.51391273736953735 0.24281570315361023 0.10310797393321991
0.81650394201278687 0.22337040305137634 0.068996250629425049
0.99839651584625244 0.18434858322143555 0.017384203150868416
0.13880795240402222 0.50978708267211914 0.26008310914039612
0.29461133480072021 0.51206123828887939 0.26023995876312256
0.54648715257644653 0.50929051637649536 0.24122495949268341
0.82648509740829468 0.50329756736755371 0.20106272399425507
0.99814528226852417 0.47825312614440918 0.12806670367717743
0.22643411159515381 0.78985106945037842 0.40736991167068481
0.36034798622131348 0.78879374265670776 0.4037480354309082
0.58821886777877808 0.78988134860992432 0.39337775111198425
0.83704781532287598 0.79176491498947144 0.36736884713172913
0.99643844366073608 0.77708196640014648 0.29976144433021545
0.52008038759231567 0.99846720695495605 0.58666110038757324
0.5814521312713623 0.99853503704071045 0.58250075578689575
0.72260427474975586 0.99418544769287109 0.57506316900253296
0.91794943809509277 0.99695748090744019 0.55503731966018677
1 0.9957466721534729 0.50778299570083618
0.013153300620615482 0.01696745865046978 0.14275793731212616
0.20917613804340363 0.018171945586800575 0.13229405879974365
0.47394788265228271 0.0096998177468776703 0.11090174317359924
0.78603428602218628 0.0072816289030015469 0.069699592888355255
0.99864274263381958 0.00010573443432804197 0.015024910680949688
0.086498364806175232 0.24110758304595947 0.24361255764961243
0.23772171139717102 0.23484116792678833 0.23378905653953552
0.49576464295387268 0.22738339006900787 0.21792691946029663
0.79362112283706665 0.20526549220085144 0.17828847467899323
0.99667006731033325 0.16191889345645905 0.11128433793783188
0.073407866060733795 0.50096780061721802 0.35117989778518677
0.26111131906509399 0.49976259469985962 0.34823262691497803
0.52007550001144409 0.49800264835357666 0.33686482906341553
0.80929255485534668 0.49072322249412537 0.30066168308258057
0.99985510110855103 0.4676261842250824 0.25414055585861206
0.15406595170497894 0.78794455528259277 0.48373603820800781
0.32892873883247375 0.77890968322753906 0.48124772310256958
0.56551378965377808 0.78027075529098511 0.47110491991043091
0.82573783397674561 0.77742338180541992 0.44795453548431396
0.99732810258865356 0.77691256999969482 0.40691030025482178
0.49657568335533142 0.99487274885177612 0.64901375770568848
0.55853497982025146 0.99472212791442871 0.6458580493927002
0.70112365484237671 0.99604529142379761 0.64019840955734253
0.90315306186676025 0.99467813968658447 0.62548327445983887
1 0.99541038274765015 0.58825236558914185
0.0048308130353689194 0.00980351772159338 0.28242146968841553
0.15983046591281891 0.0059821931645274162 0.27357602119445801
0.43435311317443848 0.0060866260901093483 0.25808152556419373
0.74909138679504395 0.0052241156809031963 0.22579705715179443
0.99751859903335571 2.8004365958622657e-05 0.17468513548374176
0.056476801633834839 0.21256834268569946 0.37837180495262146
0.19290681183338165 0.20364677906036377 0.37273085117340088
0.46218118071556091 0.18801218271255493 0.35726690292358398
0.76134538650512695 0.17268979549407959 0.33327507972717285
0.99153828620910645 0.12044493854045868 0.28167632222175598
0.025612534955143929 0.48145538568496704 0.48553311824798584
0.19291059672832489 0.48085081577301025 0.48409107327461243
0.47255924344062805 0.4686439037322998 0.47311431169509888
0.77111965417861938 0.45839914679527283 0.45256328582763672
0.99531406164169312 0.44076132774353027 0.41930574178695679
0.027655882760882378 0.77231514453887939 0.61512738466262817
0.23945692181587219 0.76980555057525635 0.61323565244674683
0.51180720329284668 0.76315522193908691 0.60836648941040039
0.78772389888763428 0.7580791711807251 0.58832526206970215
0.99184328317642212 0.75476539134979248 0.56370073556900024
0.44188219308853149 0.99253350496292114 0.75528877973556519
0.51222115755081177 0.9893420934677124 0.75108504295349121
0.66522830724716187 0.99195867776870728 0.74917328357696533
0.86930781602859497 0.98915195465087891 0.73694086074829102
0.99915987253189087 0.99125891923904419 0.71149748563766479
0.00045919980038888752 0.0026393965817987919 0.43577593564987183
0.091631151735782623 0.0025448668748140335 0.42893069982528687
0.37324368953704834 3.4466913348296657e-05 0.42329621315002441
0.69983792304992676 0.0031906727235764265 0.40164145827293396
0.99011802673339844 0 0.36785054206848145
0.018789747729897499 0.15668024122714996 0.52931880950927734
0.12809100747108459 0.15295061469078064 0.52958309650421143
0.39166086912155151 0.13239593803882599 0.51940381526947021
0.70774787664413452 0.1076323539018631 0.49800020456314087
0.98692977428436279 0.055988911539316177 0.46300199627876282
0.002413581358268857 0.44736143946647644 0.63717865943908691
0.094642698764801025 0.44348546862602234 0.63812947273254395
0.41320565342903137 0.42558562755584717 0.62981712818145752
0.72467845678329468 0.41605374217033386 0.61653369665145874
0.99258154630661011 0.39652666449546814 0.59220302104949951
0.0026338614989072084 0.75400006771087646 0.75846797227859497
0.09870968759059906 0.74761027097702026 0.75612980127334595
0.46010717749595642 0.74105221033096313 0.75115549564361572
0.75193566083908081 0.73949027061462402 0.7397468090057373
0.98850888013839722 0.72711706161499023 0.72514301538467407
0.35794347524642944 0.98384076356887817 0.88197439908981323
0.44885757565498352 0.9814717173576355 0.88036811351776123
0.61396116018295288 0.98387783765792847 0.87831705808639526
0.82706081867218018 0.9800383448600769 0.86803150177001953
0.99012976884841919 0.9829447865486145 0.85537582635879517
0 8.4192615759093314e-05 0.59573268890380859
0.024206932634115219 0 0.59585326910018921
0.29754149913787842 6.8933826696593314e-05 0.59636366367340088
0.63794320821762085 0 0.58226311206817627
0.97163724899291992 0 0.55892926454544067
0 0.070988312363624573 0.68120080232620239
0.04788786917924881 0.065790824592113495 0.68035382032394409
0.32200154662132263 0.052570898085832596 0.67437601089477539
0.64677232503890991 0.026034381240606308 0.65947037935256958
0.96742188930511475 0.010525213554501534 0.6365516185760498
0 0.39170369505882263 0.79440581798553467
0.024175696074962616 0.38853827118873596 0.79296755790710449
0.34315183758735657 0.3746064305305481 0.78698498010635376
0.67091208696365356 0.35576057434082031 0.77922695875167847
0.97458541393280029 0.32046741247177124 0.7624666690826416
0 0.72181969881057739 0.89661169052124023
0.005907110869884491 0.71395480632781982 0.90184515714645386
0.36989811062812805 0.70857495069503784 0.8932529091835022
0.69717001914978027 0.700325608253479 0.8924872875213623
0.97867870330810547 0.68486720323562622 0.88137900829315186
0.20126228034496307 0.97791391611099243 0.98574262857437134
0.33069443702697754 0.97266310453414917 0.98171663284301758
0.54790353775024414 0.97320562601089478 0.98137915134429932
0.78468030691146851 0.97302818298339844 0.97956687211990356
0.9748569130897522 0.96997153759002686 0.97205102443695068
