luts/colorslide/fuji_astia_100f.cube
# Created by: G'MIC (https://gmic.eu)
TITLE "fuji_astia_100f"
# LUT size
LUT_3D_SIZE 7
# Data domain
DOMAIN_MIN 0.0 0.0 0.0
DOMAIN_MAX 1.0 1.0 1.0
# LUT data points
0.040260672569274902 0.034579511731863022 0.028535252436995506
0.16702133417129517 0.034423589706420898 0.027175154536962509
0.32725027203559875 0.029741549864411354 0.023348534479737282
0.48531720042228699 0.026870144531130791 0.026320153847336769
0.65194904804229736 0.046409592032432556 0.046276018023490906
0.80716198682785034 0.066616207361221313 0.074881382286548615
0.94574844837188721 0.086012177169322968 0.12156163901090622
0.11008719354867935 0.18601928651332855 0.10983672738075256
0.20697721838951111 0.18403564393520355 0.10031113028526306
0.36681085824966431 0.17636235058307648 0.082975916564464569
0.51680785417556763 0.14711357653141022 0.066908620297908783
0.67473256587982178 0.10691563040018082 0.06042010709643364
0.82204711437225342 0.077631451189517975 0.070097275078296661
0.95576190948486328 0.089484900236129761 0.11281539499759674
0.1551717072725296 0.34092658758163452 0.18030384182929993
0.26236099004745483 0.34401831030845642 0.17272849380970001
0.40982210636138916 0.34323704242706299 0.16102370619773865
0.56367158889770508 0.32813259959220886 0.16297014057636261
0.7179754376411438 0.29060333967208862 0.15191465616226196
0.85417914390563965 0.22277434170246124 0.13986314833164215
0.97727173566818237 0.12052570283412933 0.11731733381748199
0.25554090738296509 0.50099211931228638 0.24781611561775208
0.34056288003921509 0.50181818008422852 0.23414933681488037
0.46869370341300964 0.5083433985710144 0.22749814391136169
0.62902045249938965 0.50249624252319336 0.21386332809925079
0.78095394372940063 0.48676052689552307 0.21085150539875031
0.90944135189056396 0.45406624674797058 0.23376505076885223
0.99464142322540283 0.37293195724487305 0.24338275194168091
0.34606015682220459 0.6573793888092041 0.32416117191314697
0.41379010677337646 0.65928953886032104 0.31602677702903748
0.52972280979156494 0.66290062665939331 0.30259978771209717
0.68749505281448364 0.66737550497055054 0.28000199794769287
0.85515981912612915 0.66397690773010254 0.2465752512216568
0.98593449592590332 0.65523421764373779 0.24542340636253357
0.99917709827423096 0.61565631628036499 0.31134259700775146
0.44815123081207275 0.7823982834815979 0.38517570495605469
0.50034171342849731 0.78597229719161987 0.37998089194297791
0.6038786768913269 0.78710919618606567 0.36513960361480713
0.74085789918899536 0.80029970407485962 0.34980589151382446
0.9010271430015564 0.80624896287918091 0.3233795166015625
0.99600106477737427 0.80932009220123291 0.29531106352806091
1 0.80206674337387085 0.27076229453086853
0.55478519201278687 0.89121240377426147 0.4366309642791748
0.5913129448890686 0.89819121360778809 0.43550732731819153
0.67666250467300415 0.90727776288986206 0.42763301730155945
0.79938596487045288 0.91339617967605591 0.41044408082962036
0.94107151031494141 0.92664998769760132 0.39313900470733643
0.99973618984222412 0.93541646003723145 0.36807215213775635
1 0.94164580106735229 0.34361520409584045
0.017006607726216316 0.028070906177163124 0.11300314962863922
0.133281409740448 0.033230200409889221 0.11318230628967285
0.29657101631164551 0.031822055578231812 0.10403825342655182
0.45467668771743774 0.02687365934252739 0.10514698177576065
0.62104994058609009 0.04781506210565567 0.11532849818468094
0.77934873104095459 0.068431884050369263 0.14460423588752747
0.92730307579040527 0.08690769225358963 0.17518271505832672
0.086280062794685364 0.17980389297008514 0.18150323629379272
0.18135863542556763 0.18281382322311401 0.18032069504261017
0.3339897096157074 0.16675150394439697 0.16448429226875305
0.48489862680435181 0.13975195586681366 0.14843423664569855
0.64493995904922485 0.10024424642324448 0.13039562106132507
0.79745262861251831 0.077263712882995605 0.13021096587181091
0.93773841857910156 0.090325959026813507 0.16048189997673035
0.12867707014083862 0.34199386835098267 0.24117888510227203
0.23950377106666565 0.34539949893951416 0.2439209520816803
0.38102361559867859 0.34288135170936584 0.23955711722373962
0.53080588579177856 0.3205392062664032 0.23492743074893951
0.68709999322891235 0.2804797887802124 0.21968521177768707
0.83049732446670532 0.2162056565284729 0.19418524205684662
0.96113568544387817 0.1118481382727623 0.15821489691734314
0.26812276244163513 0.50865250825881958 0.27627748250961304
0.33635640144348145 0.51171743869781494 0.2767920196056366
0.45932415127754211 0.51140475273132324 0.27496939897537231
0.60117584466934204 0.50111234188079834 0.28264912962913513
0.74634534120559692 0.48522862792015076 0.28622743487358093
0.88264971971511841 0.45199134945869446 0.29289388656616211
0.9912523627281189 0.36541828513145447 0.28644806146621704
0.37532472610473633 0.66038894653320312 0.32342973351478577
0.44063481688499451 0.66347682476043701 0.31686970591545105
0.55153703689575195 0.66430395841598511 0.30408561229705811
0.70172804594039917 0.67083048820495605 0.28777784109115601
0.84332692623138428 0.66559857130050659 0.2842099666595459
0.95958405733108521 0.65395653247833252 0.32024958729743958
0.99836939573287964 0.6130601167678833 0.37247923016548157
0.47955727577209473 0.78348028659820557 0.38388952612876892
0.52631044387817383 0.78754216432571411 0.37893128395080566
0.6234632134437561 0.79178178310394287 0.36623531579971313
0.75704586505889893 0.79805010557174683 0.34912315011024475
0.91069549322128296 0.8049512505531311 0.32527142763137817
0.99737453460693359 0.81296050548553467 0.3005346953868866
1 0.8016657829284668 0.32064968347549438
0.57669103145599365 0.89875763654708862 0.43855434656143188
0.60932374000549316 0.9038158655166626 0.43640816211700439
0.69354021549224854 0.91154736280441284 0.42834454774856567
0.81467539072036743 0.91967177391052246 0.4144599437713623
0.954947829246521 0.92966240644454956 0.39377573132514954
0.99915099143981934 0.94090926647186279 0.37173321843147278
1 0.94424736499786377 0.34219494462013245
0.0069010565057396889 0.023611854761838913 0.19496960937976837
0.12233070284128189 0.028444880619645119 0.18767131865024567
0.2763594388961792 0.023662058636546135 0.17260225117206573
0.43656685948371887 0.030413294211030006 0.17018485069274902
0.60114890336990356 0.051071107387542725 0.17704960703849792
0.76177620887756348 0.071936242282390594 0.1983550637960434
0.90188020467758179 0.087445445358753204 0.22236083447933197
0.065599225461483002 0.17156416177749634 0.26644724607467651
0.16048194468021393 0.16649261116981506 0.25791645050048828
0.30179235339164734 0.14844280481338501 0.24072785675525665
0.45757648348808289 0.127635657787323 0.22043928503990173
0.6190413236618042 0.091518804430961609 0.19497977197170258
0.77438771724700928 0.075277276337146759 0.1896788626909256
0.91439378261566162 0.08925909548997879 0.2107112854719162
0.088016286492347717 0.33628606796264648 0.34015300869941711
0.19208987057209015 0.33998212218284607 0.33700928092002869
0.34070616960525513 0.33237212896347046 0.32819110155105591
0.49707067012786865 0.30775618553161621 0.31605044007301331
0.65231585502624512 0.26324254274368286 0.28813064098358154
0.79944825172424316 0.20254135131835938 0.25433355569839478
0.93710917234420776 0.10703308880329132 0.21058064699172974
0.18770025670528412 0.50366795063018799 0.38371744751930237
0.27079275250434875 0.50777822732925415 0.38501641154289246
0.40261319279670715 0.50771892070770264 0.38355886936187744
0.54503655433654785 0.49481424689292908 0.38669601082801819
0.70360523462295532 0.47977110743522644 0.382139652967453
0.84269505739212036 0.44554921984672546 0.37688520550727844
0.97373497486114502 0.35010150074958801 0.34290233254432678
0.36974576115608215 0.6622011661529541 0.37113472819328308
0.4261380136013031 0.66490137577056885 0.37187686562538147
0.52319955825805664 0.66757458448410034 0.37799072265625
0.64501738548278809 0.66678279638290405 0.3921608030796051
0.77739638090133667 0.66283929347991943 0.41082224249839783
0.90308862924575806 0.6512138843536377 0.43931993842124939
0.99658465385437012 0.60783350467681885 0.45713409781455994
0.51894122362136841 0.79052633047103882 0.38260030746459961
0.56237268447875977 0.79362475872039795 0.38112488389015198
0.65263676643371582 0.79859268665313721 0.37168240547180176
0.77578949928283691 0.8033936619758606 0.35881870985031128
0.91767990589141846 0.81145364046096802 0.3487439751625061
0.99130403995513916 0.81418085098266602 0.37592360377311707
0.99981993436813354 0.79868829250335693 0.46339297294616699
0.60862791538238525 0.90486407279968262 0.43705493211746216
0.64622664451599121 0.9084547758102417 0.43450558185577393
0.72820228338241577 0.9126165509223938 0.42553302645683289
0.83971261978149414 0.92263829708099365 0.41245642304420471
0.97122395038604736 0.93394297361373901 0.39367330074310303
0.99987423419952393 0.94122499227523804 0.37193197011947632
1 0.94793343544006348 0.34434065222740173
0.0098964469507336617 0.02388184517621994 0.26771610975265503
0.11978017538785934 0.022275423631072044 0.2569471001625061
0.26756572723388672 0.021523479372262955 0.24392366409301758
0.42365193367004395 0.032140035182237625 0.23676802217960358
0.58356630802154541 0.054954409599304199 0.24328814446926117
0.74638569355010986 0.073037117719650269 0.24925468862056732
0.88158011436462402 0.088131941854953766 0.26395124197006226
0.056359264999628067 0.16068901121616364 0.34455126523971558
0.14571081101894379 0.15017026662826538 0.33064371347427368
0.28731733560562134 0.13537165522575378 0.30998766422271729
0.43908524513244629 0.10979412496089935 0.28404951095581055
0.59746426343917847 0.075912296772003174 0.25429081916809082
0.75414925813674927 0.075597994029521942 0.24955569207668304
0.89473050832748413 0.089866146445274353 0.26568877696990967
0.071274928748607635 0.33053696155548096 0.43215689063072205
0.16274799406528473 0.32795166969299316 0.42380890250205994
0.3107394278049469 0.31598973274230957 0.40735486149787903
0.46564742922782898 0.29264679551124573 0.38967731595039368
0.62145757675170898 0.25166481733322144 0.35825943946838379
0.77461773157119751 0.17572250962257385 0.30921313166618347
0.91311460733413696 0.09927888959646225 0.26727193593978882
0.094150334596633911 0.49946913123130798 0.50550729036331177
0.2029891312122345 0.50483036041259766 0.50247132778167725
0.34523418545722961 0.49872198700904846 0.49413159489631653
0.50368952751159668 0.4891209602355957 0.48438811302185059
0.66057342290878296 0.47559106349945068 0.47593453526496887
0.8068888783454895 0.43271350860595703 0.45304903388023376
0.9445003867149353 0.33060002326965332 0.40157335996627808
0.24159440398216248 0.65823566913604736 0.53750151395797729
0.3108469545841217 0.66065037250518799 0.53768837451934814
0.42714813351631165 0.66368931531906128 0.53776127099990845
0.56397897005081177 0.66478943824768066 0.54010248184204102
0.70877242088317871 0.65776139497756958 0.54649883508682251
0.84846824407577515 0.64226216077804565 0.54567313194274902
0.97224670648574829 0.59418213367462158 0.54088950157165527
0.49999865889549255 0.79457402229309082 0.45743176341056824
0.53433042764663696 0.79739081859588623 0.46492215991020203
0.61060220003128052 0.80105143785476685 0.47734850645065308
0.71246355772018433 0.80560791492462158 0.49345657229423523
0.82182890176773071 0.81073993444442749 0.52230840921401978
0.93066179752349854 0.809215247631073 0.55828291177749634
0.99489736557006836 0.79281866550445557 0.60208785533905029
0.65767806768417358 0.91230618953704834 0.43571126461029053
0.69271314144134521 0.91348230838775635 0.43051216006278992
0.76805108785629272 0.92065447568893433 0.42370542883872986
0.87275511026382446 0.92849814891815186 0.41123250126838684
0.98755228519439697 0.93829631805419922 0.39367082715034485
0.9998701810836792 0.94704973697662354 0.37935596704483032
1 0.94716399908065796 0.4099266529083252
0.012625346891582012 0.011050430126488209 0.33200767636299133
0.12846867740154266 0.01618480309844017 0.32159101963043213
0.26846170425415039 0.017975525930523872 0.31038844585418701
0.41278302669525146 0.02857055701315403 0.30639702081680298
0.57093149423599243 0.054191574454307556 0.31087443232536316
0.72543460130691528 0.073514573276042938 0.3104742169380188
0.87537741661071777 0.089892521500587463 0.31311789155006409
0.066611811518669128 0.13408187031745911 0.40595906972885132
0.14865002036094666 0.12842860817909241 0.39187854528427124
0.28107628226280212 0.1111963763833046 0.36935284733772278
0.42783340811729431 0.092780128121376038 0.34537056088447571
0.57911175489425659 0.064492829144001007 0.31550252437591553
0.73488199710845947 0.078107945621013641 0.312176913022995
0.87641888856887817 0.090804979205131531 0.31550508737564087
0.081517778337001801 0.31312614679336548 0.50767594575881958
0.16061422228813171 0.31278392672538757 0.50007575750350952
0.29581615328788757 0.29182121157646179 0.47529971599578857
0.44750982522964478 0.26912268996238708 0.45002555847167969
0.60590612888336182 0.22978091239929199 0.41629332304000854
0.75474834442138672 0.14895007014274597 0.35771188139915466
0.89194959402084351 0.096931084990501404 0.3229776918888092
0.065222814679145813 0.49305066466331482 0.6030924916267395
0.17386583983898163 0.49300476908683777 0.59707856178283691
0.3190915584564209 0.48747673630714417 0.58599615097045898
0.47283601760864258 0.48120793700218201 0.57219141721725464
0.63236534595489502 0.45811024308204651 0.55132323503494263
0.78185737133026123 0.41180917620658875 0.51551449298858643
0.91948753595352173 0.30082625150680542 0.44625657796859741
0.14195163547992706 0.65591663122177124 0.66943496465682983
0.23724530637264252 0.65748888254165649 0.66630798578262329
0.36414110660552979 0.65682607889175415 0.66275244951248169
0.51447105407714844 0.65764772891998291 0.65202873945236206
0.65766292810440063 0.64909166097640991 0.64677673578262329
0.8051486611366272 0.63279050588607788 0.63806617259979248
0.94100069999694824 0.57946282625198364 0.60749548673629761
0.34400749206542969 0.79239177703857422 0.67208045721054077
0.39166447520256042 0.79519659280776978 0.67373186349868774
0.48440921306610107 0.79748368263244629 0.67323434352874756
0.60081779956817627 0.80308341979980469 0.68033212423324585
0.72848474979400635 0.80452340841293335 0.68428021669387817
0.85571342706680298 0.80255049467086792 0.69425815343856812
0.97086119651794434 0.78297877311706543 0.70283830165863037
0.69330060482025146 0.9185030460357666 0.46564200520515442
0.71969795227050781 0.9169914722442627 0.4660305380821228
0.78263294696807861 0.92323237657546997 0.46565914154052734
0.86703890562057495 0.93210029602050781 0.47541210055351257
0.9463312029838562 0.94015491008758545 0.49296712875366211
0.98604142665863037 0.94675081968307495 0.53432881832122803
0.99960607290267944 0.94686710834503174 0.62738180160522461
0.031248548999428749 0.0077425041235983372 0.39214462041854858
0.14505623281002045 0.010854099877178669 0.38235089182853699
0.27555340528488159 0.017220756039023399 0.37356528639793396
0.4249095618724823 0.032803330570459366 0.36509105563163757
0.57158708572387695 0.052649375051259995 0.36428916454315186
0.72268569469451904 0.071937412023544312 0.36285611987113953
0.86379212141036987 0.088975764811038971 0.35915794968605042
0.093442715704441071 0.10087159276008606 0.45168614387512207
0.17814420163631439 0.095381960272789001 0.43731310963630676
0.29443562030792236 0.079053767025470734 0.41548964381217957
0.43092978000640869 0.062136121094226837 0.38764598965644836
0.5794491171836853 0.05900268629193306 0.36930751800537109
0.7289164662361145 0.07761199027299881 0.3681730329990387
0.86995768547058105 0.09094613790512085 0.36377757787704468
0.12272792309522629 0.28597128391265869 0.55768358707427979
0.20434299111366272 0.28535416722297668 0.54988944530487061
0.31799545884132385 0.26487931609153748 0.52700304985046387
0.45247584581375122 0.23861409723758698 0.4967372715473175
0.60382884740829468 0.18873074650764465 0.45157381892204285
0.74395203590393066 0.11522018164396286 0.39356112480163574
0.87719464302062988 0.093139395117759705 0.3678920567035675
0.11650882661342621 0.47903063893318176 0.66951972246170044
0.21046006679534912 0.47173678874969482 0.65832173824310303
0.33688044548034668 0.47028267383575439 0.65027874708175659
0.47569799423217773 0.45853671431541443 0.63135719299316406
0.62627643346786499 0.43366855382919312 0.60200530290603638
0.76576024293899536 0.38037270307540894 0.55627548694610596
0.90160256624221802 0.25086581707000732 0.46719393134117126
0.14014656841754913 0.6476743221282959 0.75972706079483032
0.23035010695457458 0.65039741992950439 0.75454044342041016
0.36038726568222046 0.65163391828536987 0.74857562780380249
0.49984267354011536 0.64497977495193481 0.73385685682296753
0.63965916633605957 0.6371161937713623 0.72376227378845215
0.78144139051437378 0.61599874496459961 0.6983303427696228
0.92058032751083374 0.55680924654006958 0.65610241889953613
0.27088996767997742 0.7906651496887207 0.81244927644729614
0.32499107718467712 0.7929500937461853 0.80932152271270752
0.42867869138717651 0.79613757133483887 0.80631029605865479
0.54714345932006836 0.79937934875488281 0.8058515191078186
0.67465382814407349 0.79700762033462524 0.79757958650588989
0.80612349510192871 0.79253792762756348 0.79030531644821167
0.93573778867721558 0.77610784769058228 0.78231328725814819
0.52188307046890259 0.91906630992889404 0.73812341690063477
0.55040931701660156 0.92184251546859741 0.74026715755462646
0.6105838418006897 0.9256775975227356 0.74666446447372437
0.69569307565689087 0.93156737089157104 0.75610655546188354
0.79285180568695068 0.93819355964660645 0.76927763223648071
0.89312160015106201 0.94371539354324341 0.79006022214889526
0.98155045509338379 0.94325566291809082 0.8148571252822876
0.066283434629440308 0.006490759551525116 0.43884620070457458
0.18834969401359558 0.013708825223147869 0.42572954297065735
0.3057805597782135 0.021281613036990166 0.42321160435676575
0.43868148326873779 0.036217093467712402 0.41449087858200073
0.58048033714294434 0.052592199295759201 0.41175344586372375
0.72167956829071045 0.071813724935054779 0.40222418308258057
0.86296242475509644 0.090302668511867523 0.39647844433784485
0.15701177716255188 0.058899689465761185 0.47243168950080872
0.22573862969875336 0.05260041356086731 0.46059000492095947
0.33052203059196472 0.047066245228052139 0.43843725323677063
0.45105931162834167 0.045555382966995239 0.42206379771232605
0.58848661184310913 0.058464109897613525 0.4164314866065979
0.73362189531326294 0.077450186014175415 0.40546426177024841
0.86265552043914795 0.091281995177268982 0.3982681930065155
0.21192467212677002 0.24177338182926178 0.57811647653579712
0.2641492486000061 0.23337623476982117 0.56990766525268555
0.361378014087677 0.21286793053150177 0.5441167950630188
0.48157191276550293 0.17937426269054413 0.51124221086502075
0.61447763442993164 0.12954838573932648 0.46440327167510986
0.74718213081359863 0.091482959687709808 0.42263984680175781
0.8756294846534729 0.095359697937965393 0.40864083170890808
0.2317814826965332 0.45407894253730774 0.70707732439041138
0.28299665451049805 0.44652536511421204 0.69824397563934326
0.38216942548751831 0.44280979037284851 0.68792212009429932
0.50762581825256348 0.42780861258506775 0.66324979066848755
0.6391645073890686 0.39245551824569702 0.62533766031265259
0.76814848184585571 0.33089715242385864 0.57062804698944092
0.89280182123184204 0.18034321069717407 0.46593782305717468
0.25430920720100403 0.63916879892349243 0.81461304426193237
0.30416283011436462 0.63898253440856934 0.8105657696723938
0.40758654475212097 0.63386237621307373 0.79907399415969849
0.52457612752914429 0.63006806373596191 0.78613102436065674
0.65235847234725952 0.61700046062469482 0.76453965902328491
0.78052586317062378 0.58819520473480225 0.73093718290328979
0.91163116693496704 0.51370382308959961 0.67542541027069092
0.31794032454490662 0.78858476877212524 0.89346158504486084
0.36663722991943359 0.78797972202301025 0.89152747392654419
0.45175954699516296 0.79003715515136719 0.88719141483306885
0.55477571487426758 0.78996425867080688 0.87428897619247437
0.6711355447769165 0.79411107301712036 0.87167161703109741
0.79539644718170166 0.78191179037094116 0.84965282678604126
0.91982752084732056 0.75496691465377808 0.82810395956039429
0.43424719572067261 0.92019885778427124 0.93969047069549561
0.4618384838104248 0.920654296875 0.94074201583862305
0.52553600072860718 0.92505210638046265 0.93712359666824341
0.61377406120300293 0.92993181943893433 0.93455451726913452
0.71100825071334839 0.9367215633392334 0.9359552264213562
0.82152336835861206 0.93874311447143555 0.92663657665252686
0.94796842336654663 0.94183331727981567 0.93018358945846558
