luts/colorslide/kodak_elite_chrome_400.cube
# Created by: G'MIC (https://gmic.eu)
TITLE "kodak_elite_chrome_400"
# LUT size
LUT_3D_SIZE 13
# Data domain
DOMAIN_MIN 0.0 0.0 0.0
DOMAIN_MAX 1.0 1.0 1.0
# LUT data points
0.020792882889509201 0.020527634769678116 0.018982920795679092
0.052701059728860855 0.017874833196401596 0.015155298635363579
0.095718085765838623 0.017085835337638855 0.012522140517830849
0.15010455250740051 0.017119478434324265 0.01047960203140974
0.2159249484539032 0.018521446734666824 0.0092729153111577034
0.29376351833343506 0.020511507987976074 0.0089149177074432373
0.38365179300308228 0.024178912863135338 0.0084787402302026749
0.48112860321998596 0.029149493202567101 0.0065950881689786911
0.5749356746673584 0.034043900668621063 0.0047793071717023849
0.65716612339019775 0.03718109056353569 0.0028723173309117556
0.73201936483383179 0.044348157942295074 0.0029280269518494606
0.80555033683776855 0.058613210916519165 0.0056621027179062366
0.87917673587799072 0.075390592217445374 0.0058204052038490772
0.059012319892644882 0.072152294218540192 0.039645101875066757
0.085009753704071045 0.06919591873884201 0.035360522568225861
0.12327520549297333 0.0672110915184021 0.031263329088687897
0.17532286047935486 0.065970145165920258 0.026359213516116142
0.24076014757156372 0.063800886273384094 0.021508324891328812
0.31812983751296997 0.060898095369338989 0.016964511945843697
0.4052216112613678 0.058563679456710815 0.01337031926959753
0.49646523594856262 0.056241564452648163 0.010370590724050999
0.58371937274932861 0.05153929814696312 0.0074862460605800152
0.66246670484542847 0.045272693037986755 0.0049003004096448421
0.73547321557998657 0.044903788715600967 0.0040981220081448555
0.80850470066070557 0.056464623659849167 0.0070505179464817047
0.8824726939201355 0.074922136962413788 0.0072742984630167484
0.098425529897212982 0.13413916528224945 0.062003489583730698
0.11712046712636948 0.13152292370796204 0.058065932244062424
0.15132658183574677 0.13020883500576019 0.05265330895781517
0.20280154049396515 0.12831094861030579 0.045342598110437393
0.26875302195549011 0.12418223172426224 0.036255136132240295
0.34616371989250183 0.11742951720952988 0.026808286085724831
0.42994916439056396 0.11004146188497543 0.019743436947464943
0.51463645696640015 0.10132815688848495 0.01506195031106472
0.59520536661148071 0.086853384971618652 0.0099344886839389801
0.66955798864364624 0.06763063371181488 0.0050504496321082115
0.73999089002609253 0.053189042955636978 0.0026033290196210146
0.81241190433502197 0.057424195110797882 0.0039824992418289185
0.88709837198257446 0.074360668659210205 0.0046512680128216743
0.12478386610746384 0.21137481927871704 0.086348243057727814
0.1384187787771225 0.20933040976524353 0.083105020225048065
0.17440755665302277 0.20823554694652557 0.076980501413345337
0.22947098314762115 0.20658551156520844 0.067716620862483978
0.29848125576972961 0.20278587937355042 0.056345380842685699
0.37633007764816284 0.19593776762485504 0.044202826917171478
0.4576973021030426 0.1866396963596344 0.03403618186712265
0.53768444061279297 0.17307150363922119 0.025833219289779663
0.61306148767471313 0.15092480182647705 0.016609789803624153
0.68357646465301514 0.12042300403118134 0.0072727277874946594
0.75143909454345703 0.090153880417346954 0.00083251652540639043
0.82228761911392212 0.074756905436515808 0.00049119838513433933
0.89485597610473633 0.073506161570549011 0.0018426933092996478
0.13712608814239502 0.30585944652557373 0.11251087486743927
0.15437588095664978 0.30189734697341919 0.11010836064815521
0.19800575077533722 0.29943835735321045 0.10397389531135559
0.25901418924331665 0.29914215207099915 0.094387337565422058
0.33099228143692017 0.2970825731754303 0.082533009350299835
0.40918764472007751 0.29320159554481506 0.069427043199539185
0.48877173662185669 0.28576701879501343 0.057225320488214493
0.56520020961761475 0.27068337798118591 0.04488290473818779
0.63679963350296021 0.24532091617584229 0.030239973217248917
0.70495659112930298 0.20980821549892426 0.01498235110193491
0.77199757099151611 0.16891194880008698 0.0031738730613142252
0.8398517370223999 0.1258065402507782 0
0.90759521722793579 0.085903406143188477 0.0001971974124899134
0.16466996073722839 0.40873977541923523 0.14038872718811035
0.18877233564853668 0.40300258994102478 0.13848233222961426
0.23522357642650604 0.3992859423160553 0.13418696820735931
0.29700520634651184 0.39811438322067261 0.12604062259197235
0.36856400966644287 0.39827612042427063 0.11438462138175964
0.4451386034488678 0.39861345291137695 0.10078084468841553
0.52207779884338379 0.3953736424446106 0.08681100606918335
0.5952376127243042 0.38392242789268494 0.071226306259632111
0.6634143590927124 0.35955649614334106 0.051173564046621323
0.72975564002990723 0.32582584023475647 0.029542585834860802
0.79644215106964111 0.28287854790687561 0.011353496462106705
0.86326617002487183 0.22729459404945374 0.0016338273417204618
0.92768955230712891 0.16615197062492371 0
0.22403852641582489 0.50611960887908936 0.17462536692619324
0.24876244366168976 0.50093322992324829 0.17345269024372101
0.29034820199012756 0.49676457047462463 0.17070102691650391
0.34564477205276489 0.49595475196838379 0.16393552720546722
0.4111575186252594 0.49762675166130066 0.15251247584819794
0.48220789432525635 0.50046920776367188 0.13784846663475037
0.55424278974533081 0.50121253728866577 0.12144271284341812
0.62340790033340454 0.49451959133148193 0.10272488743066788
0.68838590383529663 0.47623637318611145 0.077599138021469116
0.75342881679534912 0.45129638910293579 0.050900820642709732
0.82024937868118286 0.41836163401603699 0.026684509590268135
0.88820868730545044 0.37145081162452698 0.0094698136672377586
0.95266306400299072 0.31561267375946045 0.00046691895113326609
0.30927526950836182 0.59254676103591919 0.21867577731609344
0.32628262042999268 0.58998435735702515 0.21732474863529205
0.35684573650360107 0.58769708871841431 0.21576181054115295
0.40126407146453857 0.58733451366424561 0.20991151034832001
0.45654666423797607 0.58894985914230347 0.19833970069885254
0.51830226182937622 0.59165447950363159 0.18155375123023987
0.58245092630386353 0.59231573343276978 0.16067519783973694
0.64577877521514893 0.58789253234863281 0.13619191944599152
0.70889067649841309 0.57974588871002197 0.10886219888925552
0.77407193183898926 0.56925046443939209 0.079614557325839996
0.84198868274688721 0.553230881690979 0.049139223992824554
0.91114681959152222 0.52441799640655518 0.02307453565299511
0.97597676515579224 0.48139697313308716 0.0038957183714956045
0.39437481760978699 0.6720588207244873 0.27198898792266846
0.40373116731643677 0.67186588048934937 0.27099999785423279
0.42434117197990417 0.671092689037323 0.26967957615852356
0.45812779664993286 0.67111992835998535 0.26437917351722717
0.5026734471321106 0.67184937000274658 0.25302338600158691
0.55437791347503662 0.6720588207244873 0.23510943353176117
0.60978108644485474 0.6720588207244873 0.21065965294837952
0.66677248477935791 0.66991358995437622 0.18192555010318756
0.72773009538650513 0.66959142684936523 0.15355254709720612
0.79286926984786987 0.66992735862731934 0.12108419090509415
0.86144661903381348 0.66537505388259888 0.080990731716156006
0.93044215440750122 0.64974892139434814 0.041696183383464813
0.987892746925354 0.61988461017608643 0.011563439853489399
0.4606984555721283 0.74738174676895142 0.33532595634460449
0.46985810995101929 0.7481200098991394 0.33348646759986877
0.48637896776199341 0.74835819005966187 0.33174091577529907
0.51307296752929688 0.74861067533493042 0.32691517472267151
0.54911977052688599 0.74901795387268066 0.31630977988243103
0.59245002269744873 0.7492331862449646 0.29874679446220398
0.64049303531646729 0.74926471710205078 0.27570435404777527
0.69209492206573486 0.74926471710205078 0.24884271621704102
0.7485542893409729 0.75186508893966675 0.21949432790279388
0.81080293655395508 0.7553403377532959 0.18212346732616425
0.87799489498138428 0.75414341688156128 0.12925873696804047
0.94497346878051758 0.74457645416259766 0.065648563206195831
0.99232685565948486 0.72509855031967163 0.021725015714764595
0.51841366291046143 0.82026058435440063 0.40416601300239563
0.52953404188156128 0.82083332538604736 0.40107876062393188
0.54530066251754761 0.82100582122802734 0.39895015954971313
0.56758421659469604 0.8212885856628418 0.39513435959815979
0.59741359949111938 0.82166355848312378 0.38598626852035522
0.63432419300079346 0.8227076530456543 0.37047076225280762
0.67624038457870483 0.82349330186843872 0.35087579488754272
0.72212773561477661 0.82528269290924072 0.32812967896461487
0.77283191680908203 0.82811272144317627 0.30168336629867554
0.83001607656478882 0.83126729726791382 0.26513513922691345
0.89246058464050293 0.83109891414642334 0.20720168948173523
0.95738232135772705 0.82670611143112183 0.11320799589157104
0.9967341423034668 0.81739145517349243 0.030552374199032784
0.58530259132385254 0.89074832201004028 0.47290942072868347
0.59443211555480957 0.89172559976577759 0.4699709415435791
0.60723251104354858 0.8921058177947998 0.46785345673561096
0.62525784969329834 0.89311879873275757 0.46511960029602051
0.64990544319152832 0.8933599591255188 0.45814833045005798
0.68149775266647339 0.89413625001907349 0.44545403122901917
0.71768718957901001 0.8954809308052063 0.43004652857780457
0.75795841217041016 0.89758014678955078 0.41275414824485779
0.80269008874893188 0.9001079797744751 0.39218726754188538
0.85413265228271484 0.90284860134124756 0.36322411894798279
0.91241723299026489 0.90529382228851318 0.31603950262069702
0.96899986267089844 0.90719485282897949 0.23086655139923096
0.99833804368972778 0.90748238563537598 0.083040960133075714
0.66341406106948853 0.9605405330657959 0.54043948650360107
0.66678571701049805 0.96151196956634521 0.53802061080932617
0.67452025413513184 0.96262216567993164 0.53648161888122559
0.68797856569290161 0.96308016777038574 0.53399741649627686
0.70786076784133911 0.96360296010971069 0.52904152870178223
0.73386931419372559 0.96485334634780884 0.52052211761474609
0.76464325189590454 0.96612852811813354 0.5099480152130127
0.79968971014022827 0.96757841110229492 0.49822607636451721
0.83953279256820679 0.96913802623748779 0.48395654559135437
0.88511407375335693 0.97110480070114136 0.46453654766082764
0.93525528907775879 0.97376620769500732 0.43326678872108459
0.97749006748199463 0.97630405426025391 0.37776544690132141
0.99612468481063843 0.97785240411758423 0.25431537628173828
0.015516258776187897 0.01952647790312767 0.05582917109131813
0.045810684561729431 0.017331276088953018 0.049769561737775803
0.088054284453392029 0.01642131432890892 0.044411320239305496
0.14196234941482544 0.01617647148668766 0.039269495755434036
0.2085956484079361 0.016145892441272736 0.034361820667982101
0.28837662935256958 0.017426390200853348 0.029760831966996193
0.37991794943809509 0.019680742174386978 0.024989483878016472
0.47717788815498352 0.023046709597110748 0.019084585830569267
0.57062697410583496 0.027618557214736938 0.012465129606425762
0.65473783016204834 0.033986695110797882 0.0063952724449336529
0.73173600435256958 0.045063499361276627 0.0032929065637290478
0.80701065063476562 0.061620928347110748 0.0056316303089261055
0.8824012279510498 0.078800290822982788 0.0066113341599702835
0.05093778669834137 0.072115279734134674 0.077606469392776489
0.078168846666812897 0.068858250975608826 0.071832872927188873
0.11663661152124405 0.06617426872253418 0.065565489232540131
0.1682741641998291 0.065335579216480255 0.058541659265756607
0.23403021693229675 0.06270165741443634 0.050635829567909241
0.31300508975982666 0.059397991746664047 0.042655542492866516
0.40174907445907593 0.055418051779270172 0.035036467015743256
0.49384215474128723 0.051419008523225784 0.02744782343506813
0.58189600706100464 0.046663574874401093 0.01883137971162796
0.66179525852203369 0.043064236640930176 0.010753930546343327
0.73647922277450562 0.046042498201131821 0.0065379873849451542
0.81045842170715332 0.059349630028009415 0.0076741385273635387
0.88588857650756836 0.077906712889671326 0.0078431377187371254
0.090548105537891388 0.13574860990047455 0.10049355030059814
0.1124453991651535 0.1318964809179306 0.095561936497688293
0.14680622518062592 0.13024993240833282 0.088932543992996216
0.1969655305147171 0.12811766564846039 0.07988758385181427
0.26292246580123901 0.12437658756971359 0.069045454263687134
0.34120824933052063 0.11792143434286118 0.057553309947252274
0.42675605416297913 0.1098702996969223 0.046913191676139832
0.51315528154373169 0.099103502929210663 0.036484304815530777
0.59461504220962524 0.084481120109558105 0.025088800117373466
0.67028307914733887 0.068139217793941498 0.013517970219254494
0.74196606874465942 0.057281747460365295 0.0055766534060239792
0.81510484218597412 0.060122411698102951 0.0044762855395674706
0.89012551307678223 0.072999797761440277 0.0057080439291894436
0.1183929443359375 0.21449552476406097 0.1241995096206665
0.13649944961071014 0.21064974367618561 0.12056463211774826
0.17120012640953064 0.209188312292099 0.11419205367565155
0.22434338927268982 0.20747381448745728 0.10405011475086212
0.29298669099807739 0.20401790738105774 0.091451175510883331
0.37184375524520874 0.19753342866897583 0.077518627047538757
0.45474386215209961 0.18774743378162384 0.063979670405387878
0.53613698482513428 0.17269714176654816 0.050315182656049728
0.61258900165557861 0.15098731219768524 0.034848067909479141
0.68423193693161011 0.12308342009782791 0.018411239609122276
0.75372302532196045 0.095709845423698425 0.0054407007992267609
0.82461643218994141 0.077188901603221893 0.00074181647505611181
0.89731156826019287 0.068191945552825928 0.001677973079495132
0.13189330697059631 0.30853068828582764 0.14953231811523438
0.15144748985767365 0.30431243777275085 0.14664886891841888
0.19281034171581268 0.30221393704414368 0.14139752089977264
0.25285482406616211 0.30017197132110596 0.13182651996612549
0.32546010613441467 0.29874300956726074 0.1185128316283226
0.40519747138023376 0.2949240505695343 0.10312569141387939
0.48602715134620667 0.28679987788200378 0.087287411093711853
0.56335139274597168 0.27090197801589966 0.070532284677028656
0.63580322265625 0.24659425020217896 0.050939850509166718
0.70483475923538208 0.21353983879089355 0.029097434133291245
0.77321338653564453 0.17508649826049805 0.0092566842213273048
0.84212970733642578 0.13169969618320465 0.00024798524100333452
0.90994518995285034 0.087499745190143585 0
0.15582489967346191 0.41014868021011353 0.17797064781188965
0.18080012500286102 0.40507471561431885 0.17591801285743713
0.22720545530319214 0.40138724446296692 0.17229382693767548
0.29002147912979126 0.3999626636505127 0.1638023853302002
0.36302539706230164 0.40055668354034424 0.15059958398342133
0.44154897332191467 0.40048199892044067 0.13373357057571411
0.51962047815322876 0.39630714058876038 0.11596959084272385
0.59251922369003296 0.3839271068572998 0.097425438463687897
0.66128599643707275 0.36102473735809326 0.074498541653156281
0.72855883836746216 0.32994177937507629 0.04777057096362114
0.79665470123291016 0.28973525762557983 0.021382963284850121
0.86465626955032349 0.23561398684978485 0.003813380841165781
0.9295307993888855 0.17080722749233246 0.0001847809471655637
0.21446555852890015 0.50659745931625366 0.21325762569904327
0.23964861035346985 0.5022398829460144 0.2120184600353241
0.28207901120185852 0.49902743101119995 0.20911175012588501
0.33914503455162048 0.49816590547561646 0.20186033844947815
0.40627005696296692 0.49982476234436035 0.18879440426826477
0.4789116382598877 0.50246244668960571 0.17042712867259979
0.55150127410888672 0.50187265872955322 0.15047518908977509
0.61953508853912354 0.4930260181427002 0.13020718097686768
0.68491846323013306 0.47676917910575867 0.10495303571224213
0.75114482641220093 0.45463091135025024 0.075334809720516205
0.81939244270324707 0.42203852534294128 0.044517859816551208
0.88787060976028442 0.37271702289581299 0.019208885729312897
0.95198303461074829 0.31344819068908691 0.0027917898260056973
0.30195173621177673 0.59244644641876221 0.25731834769248962
0.31963276863098145 0.5907173752784729 0.25568932294845581
0.35061919689178467 0.58872479200363159 0.25354841351509094
0.39610528945922852 0.5886722207069397 0.24713850021362305
0.45235580205917358 0.5905265212059021 0.2343677282333374
0.51488828659057617 0.59268736839294434 0.21601781249046326
0.57884269952774048 0.59244060516357422 0.19362059235572815
0.6416548490524292 0.58750689029693604 0.16923269629478455
0.70488041639328003 0.58025276660919189 0.14227336645126343
0.77120983600616455 0.57061535120010376 0.11068743467330933
0.84017068147659302 0.55202984809875488 0.075531497597694397
0.90928363800048828 0.51830852031707764 0.041191041469573975
0.97217071056365967 0.47219681739807129 0.011234971694648266
0.38997387886047363 0.67165976762771606 0.30884814262390137
0.3999883234500885 0.67202723026275635 0.30668982863426208
0.42041531205177307 0.67174464464187622 0.30516645312309265
0.45413932204246521 0.67187559604644775 0.29918935894966125
0.49902540445327759 0.6720588207244873 0.28736197948455811
0.55077099800109863 0.6720588207244873 0.26918449997901917
0.60583209991455078 0.6720588207244873 0.24616736173629761
0.66275101900100708 0.67052340507507324 0.21963584423065186
0.72347939014434814 0.66978698968887329 0.19175276160240173
0.78934198617935181 0.6695670485496521 0.15770347416400909
0.85896211862564087 0.66248857975006104 0.11451057344675064
0.92723852396011353 0.64309298992156982 0.067903600633144379
0.9835394024848938 0.6106027364730835 0.026472054421901703
0.45937538146972656 0.74636036157608032 0.36739012598991394
0.46767619252204895 0.74784481525421143 0.36435708403587341
0.4835372269153595 0.74872183799743652 0.36287638545036316
0.50987082719802856 0.74907445907592773 0.35775446891784668
0.54589474201202393 0.74914944171905518 0.34737449884414673
0.58903199434280396 0.74919575452804565 0.33098623156547546
0.63661414384841919 0.74912732839584351 0.30952814221382141
0.68807774782180786 0.74922937154769897 0.28500482439994812
0.74474149942398071 0.75097763538360596 0.25738620758056641
0.80769002437591553 0.75391638278961182 0.22077210247516632
0.87580311298370361 0.75212359428405762 0.16773220896720886
0.9424060583114624 0.74121600389480591 0.099306531250476837
0.98969513177871704 0.72051304578781128 0.042257077991962433
0.51835852861404419 0.81940090656280518 0.43010178208351135
0.52706682682037354 0.82063114643096924 0.42700183391571045
0.54205703735351562 0.82122838497161865 0.42492839694023132
0.56433427333831787 0.82162988185882568 0.42097094655036926
0.59449058771133423 0.82185858488082886 0.41235166788101196
0.63119465112686157 0.82248950004577637 0.39823046326637268
0.67277318239212036 0.82284629344940186 0.3800586462020874
0.71866804361343384 0.82409405708312988 0.35952165722846985
0.76981502771377563 0.82700109481811523 0.33505368232727051
0.82756292819976807 0.83021700382232666 0.30092969536781311
0.89181977510452271 0.83054631948471069 0.2461775541305542
0.95649522542953491 0.82588851451873779 0.15693101286888123
0.99545454978942871 0.81585323810577393 0.059737380594015121
0.582511305809021 0.89015239477157593 0.49453112483024597
0.58966052532196045 0.89147096872329712 0.49139028787612915
0.60246354341506958 0.89229416847229004 0.4894774854183197
0.62137508392333984 0.89330708980560303 0.48641034960746765
0.64681351184844971 0.89340507984161377 0.47971567511558533
0.67843466997146606 0.89416444301605225 0.46840569376945496
0.71477347612380981 0.89485585689544678 0.45397076010704041
0.7550283670425415 0.8967631459236145 0.4379349946975708
0.80024266242980957 0.89900451898574829 0.41863328218460083
0.8523564338684082 0.90227794647216797 0.39143085479736328
0.91043424606323242 0.90595132112503052 0.34791916608810425
0.96683257818222046 0.90729916095733643 0.27394869923591614
0.99771475791931152 0.90531134605407715 0.14033296704292297
0.65538012981414795 0.95998275279998779 0.55942142009735107
0.65944904088973999 0.96128898859024048 0.5568009614944458
0.66841292381286621 0.96233224868774414 0.55497205257415771
0.68320834636688232 0.96305245161056519 0.55267786979675293
0.70410037040710449 0.96362161636352539 0.54763060808181763
0.73073661327362061 0.96483725309371948 0.53950554132461548
0.76184874773025513 0.96577709913253784 0.52942490577697754
0.79700976610183716 0.96711510419845581 0.51795732975006104
0.8360704779624939 0.9685814380645752 0.50398892164230347
0.88119858503341675 0.97085165977478027 0.48377233743667603
0.93044352531433105 0.97517639398574829 0.45235350728034973
0.9739224910736084 0.97892993688583374 0.4025210440158844
0.99623614549636841 0.97945642471313477 0.30236929655075073
0.011709040962159634 0.020528022199869156 0.098792538046836853
0.04071846604347229 0.018270500004291534 0.09095434844493866
0.081501513719558716 0.017088258638978004 0.083470799028873444
0.13447920978069305 0.016642237082123756 0.075392752885818481
0.20144157111644745 0.016032051295042038 0.066635504364967346
0.28259611129760742 0.015830006450414658 0.057656172662973404
0.376007080078125 0.015601004473865032 0.048583101481199265
0.47432827949523926 0.016473926603794098 0.038312993943691254
0.5673598051071167 0.02089976891875267 0.025871859863400459
0.65182375907897949 0.030581111088395119 0.012243786826729774
0.73043376207351685 0.044656626880168915 0.0034812926314771175
0.80739790201187134 0.063174016773700714 0.0028241176623851061
0.88490694761276245 0.081257104873657227 0.0049702064134180546
0.04225526750087738 0.074228666722774506 0.12263195216655731
0.070960037410259247 0.07031751424074173 0.11526051163673401
0.10978367924690247 0.068529717624187469 0.10755700618028641
0.16104893386363983 0.066223815083503723 0.098497591912746429
0.22711767256259918 0.063706144690513611 0.088164597749710083
0.30756452679634094 0.059027697890996933 0.077259764075279236
0.39820927381515503 0.053053896874189377 0.066001489758491516
0.49192732572555542 0.046655915677547455 0.053414452821016312
0.58027493953704834 0.041693128645420074 0.038045682013034821
0.66049730777740479 0.040663819760084152 0.02181936614215374
0.73574244976043701 0.04662569984793663 0.0097968010231852531
0.81120777130126953 0.062128882855176926 0.0064468085765838623
0.88838851451873779 0.081541649997234344 0.0067801829427480698
0.082365594804286957 0.13852046430110931 0.14628373086452484
0.10637528449296951 0.13438744843006134 0.14072395861148834
0.14077703654766083 0.13209852576255798 0.13339698314666748
0.19007556140422821 0.13026887178421021 0.12369728833436966
0.25627562403678894 0.12623709440231323 0.11209637671709061
0.33599850535392761 0.1193833127617836 0.098858915269374847
0.42321723699569702 0.10960153490304947 0.085098043084144592
0.51124089956283569 0.096940882503986359 0.069556228816509247
0.59385937452316284 0.082462266087532043 0.050952311605215073
0.66966789960861206 0.067908540368080139 0.030563892796635628
0.74187928438186646 0.058644730597734451 0.01347789354622364
0.81539803743362427 0.061421174556016922 0.0049562640488147736
0.89234435558319092 0.07652968168258667 0.0042822593823075294
0.11371400207281113 0.21735879778862 0.17015042901039124
0.13168922066688538 0.21328796446323395 0.16654022037982941
0.16518284380435944 0.21129271388053894 0.16049009561538696
0.21742735803127289 0.20977918803691864 0.15076924860477448
0.28632906079292297 0.20617900788784027 0.13813748955726624
0.36651971936225891 0.19949738681316376 0.12332992255687714
0.45079511404037476 0.18850168585777283 0.1070903092622757
0.53357541561126709 0.1722603440284729 0.088467076420783997
0.61127537488937378 0.15074685215950012 0.066644378006458282
0.68312710523605347 0.12434249371290207 0.041802529245615005
0.75284206867218018 0.097010806202888489 0.01853523962199688
0.82402586936950684 0.07671724259853363 0.0043832515366375446
0.89820718765258789 0.068661198019981384 0.00047029982670210302
0.12446293234825134 0.30945095419883728 0.1961548924446106
0.14220121502876282 0.30646613240242004 0.19332720339298248
0.18401812016963959 0.30363428592681885 0.18898756802082062
0.24510376155376434 0.30283880233764648 0.18038441240787506
