luts/colorslide/kodak_kodachrome_64_generic.cube
# Created by: G'MIC (https://gmic.eu)
TITLE "kodak_kodachrome_64_generic"
# LUT size
LUT_3D_SIZE 5
# Data domain
DOMAIN_MIN 0.0 0.0 0.0
DOMAIN_MAX 1.0 1.0 1.0
# LUT data points
0.022678166627883911 0.01655883714556694 0.015427563339471817
0.19088970124721527 0.020989496260881424 0.020841546356678009
0.52666360139846802 0.025118390098214149 0.020421450957655907
0.86117994785308838 0.037597790360450745 0.037126980721950531
0.99874895811080933 0.03896007314324379 0.028338877484202385
0.05593109130859375 0.17858694493770599 0.035235177725553513
0.19066295027732849 0.18516871333122253 0.039885159581899643
0.52445369958877563 0.19511951506137848 0.044223889708518982
0.85457390546798706 0.20532038807868958 0.050191063433885574
0.99875575304031372 0.21585884690284729 0.05483703687787056
0 0.48368537425994873 0.066526316106319427
0.090655401349067688 0.49266993999481201 0.073333010077476501
0.50369834899902344 0.49787569046020508 0.078655079007148743
0.82755190134048462 0.50628113746643066 0.084452353417873383
0.99562519788742065 0.52142071723937988 0.094987042248249054
0.00037805893225595355 0.76747971773147583 0.064270228147506714
0.013488081283867359 0.77576631307601929 0.063209816813468933
0.47939902544021606 0.77832210063934326 0.063760168850421906
0.78977948427200317 0.78975468873977661 0.064178705215454102
0.98401057720184326 0.79427701234817505 0.061933569610118866
0 0.96767789125442505 0.039312176406383514
0.16696703433990479 0.96898871660232544 0.039842195808887482
0.52738142013549805 0.97200483083724976 0.046473558992147446
0.77922290563583374 0.97343593835830688 0.054049007594585419
0.98222070932388306 0.97969156503677368 0.061911400407552719
0.020227858796715736 0.016419399529695511 0.17096820473670959
0.19701480865478516 0.01969991996884346 0.17806252837181091
0.5301479697227478 0.024292366579174995 0.17945535480976105
0.87029612064361572 0.028949378058314323 0.19014391303062439
0.99809980392456055 0.033838652074337006 0.19362805783748627
0.056911781430244446 0.17717266082763672 0.18868337571620941
0.1910298764705658 0.1816076934337616 0.18880672752857208
0.52966916561126709 0.19366012513637543 0.19839365780353546
0.85845541954040527 0.20360866189002991 0.20098103582859039
0.99914675951004028 0.21072043478488922 0.20451219379901886
0.00050491630099713802 0.4845159649848938 0.20819845795631409
0.095724247395992279 0.48938265442848206 0.20846828818321228
0.50474828481674194 0.4977957010269165 0.21432189643383026
0.8280370831489563 0.50859260559082031 0.22047099471092224
0.9977034330368042 0.51799726486206055 0.22383137047290802
0 0.76804995536804199 0.22714433073997498
0.015702551230788231 0.77345550060272217 0.22818614542484283
0.4806915819644928 0.77929073572158813 0.23463021218776703
0.79091542959213257 0.78535044193267822 0.23843204975128174
0.98567026853561401 0.79032140970230103 0.2454763799905777
0 0.96817505359649658 0.26571354269981384
0.17667719721794128 0.96682536602020264 0.26858016848564148
0.52577036619186401 0.96700692176818848 0.26985430717468262
0.77570044994354248 0.97228187322616577 0.27073699235916138
0.98118686676025391 0.97710108757019043 0.27841216325759888
0.019859343767166138 0.013724188320338726 0.46470588445663452
0.19270043075084686 0.013953474350273609 0.46706584095954895
0.52342450618743896 0.021479543298482895 0.47118133306503296
0.87082278728485107 0.028610244393348694 0.47555962204933167
0.99692070484161377 0.030930537730455399 0.48609450459480286
0.059264045208692551 0.17332154512405396 0.48451635241508484
0.19343055784702301 0.17355358600616455 0.48520457744598389
0.53135371208190918 0.18300662934780121 0.48568546772003174
0.86122232675552368 0.1966535896062851 0.49380657076835632
0.997150719165802 0.21045447885990143 0.49336186051368713
0.0038526346907019615 0.47455832362174988 0.50684857368469238
0.10938069969415665 0.48413282632827759 0.50708568096160889
0.50284808874130249 0.49134331941604614 0.50602513551712036
0.83183342218399048 0.49834653735160828 0.51506292819976807
0.99445468187332153 0.50906246900558472 0.51606911420822144
0 0.75901561975479126 0.52593481540679932
0.020538074895739555 0.76681274175643921 0.53219914436340332
0.48485228419303894 0.77215576171875 0.53496032953262329
0.79347795248031616 0.77718663215637207 0.54095137119293213
0.98907077312469482 0.78641605377197266 0.53970879316329956
0 0.95867359638214111 0.56294405460357666
0.18759649991989136 0.96084856986999512 0.55845469236373901
0.5315515398979187 0.96713948249816895 0.56290686130523682
0.78107583522796631 0.96894079446792603 0.5643652081489563
0.98193413019180298 0.97518569231033325 0.56979501247406006
0.021491855382919312 0.0089150518178939819 0.72775846719741821
0.19268877804279327 0.02134520560503006 0.72001552581787109
0.52552253007888794 0.01686432771384716 0.73111152648925781
0.87016540765762329 0.024297377094626427 0.73741751909255981
0.99789929389953613 0.026027949526906013 0.7445949912071228
0.065405964851379395 0.16399922966957092 0.73538881540298462
0.19515158236026764 0.16678974032402039 0.74133116006851196
0.5257377028465271 0.17941229045391083 0.74636197090148926
0.86389130353927612 0.19196155667304993 0.75245171785354614
0.99981743097305298 0.2018117755651474 0.75516515970230103
0.00013625201245304197 0.4756736159324646 0.76055264472961426
0.11527102440595627 0.47801429033279419 0.76643550395965576
0.50910753011703491 0.48387032747268677 0.76828950643539429
0.83342528343200684 0.49407258629798889 0.77461308240890503
0.99802136421203613 0.50130939483642578 0.77802366018295288
7.8627643233630806e-05 0.75805842876434326 0.78478860855102539
0.025172289460897446 0.76165997982025146 0.79085397720336914
0.49325853586196899 0.76597875356674194 0.78713315725326538
0.79921358823776245 0.76521939039230347 0.79506504535675049
0.98827195167541504 0.77629935741424561 0.79461795091629028
0.0012637418694794178 0.95679968595504761 0.80653560161590576
0.20783782005310059 0.95656627416610718 0.80606991052627563
0.53561633825302124 0.95981091260910034 0.80753666162490845
0.77942419052124023 0.96872824430465698 0.81234169006347656
0.98059898614883423 0.97243458032608032 0.81736564636230469
0.023271868005394936 0.0060395481996238232 0.89695119857788086
0.1884893923997879 0.0075185289606451988 0.90165871381759644
0.52547377347946167 0.013151939027011395 0.90790420770645142
0.86898362636566162 0.02349478006362915 0.91460698843002319
0.99916762113571167 0.025198513641953468 0.91234636306762695
0.060994707047939301 0.15683707594871521 0.91351258754730225
0.19580525159835815 0.16408488154411316 0.91542226076126099
0.53203725814819336 0.18439961969852448 0.91862195730209351
0.86452412605285645 0.18915191292762756 0.92785292863845825
0.9991462230682373 0.19668112695217133 0.93120735883712769
0.00012610940029844642 0.47195130586624146 0.93470382690429688
0.12165353447198868 0.47483423352241516 0.93920069932937622
0.50948238372802734 0.48289817571640015 0.94117408990859985
0.83302843570709229 0.48981225490570068 0.94800102710723877
0.99931484460830688 0.49781399965286255 0.95088660717010498
0 0.75054103136062622 0.96030533313751221
0.027807094156742096 0.75796633958816528 0.9601324200630188
0.49157726764678955 0.75519692897796631 0.96143621206283569
0.79023635387420654 0.76357185840606689 0.96559709310531616
0.98369944095611572 0.76555138826370239 0.96747004985809326
0.00038057216443121433 0.95405328273773193 0.97489088773727417
0.21563433110713959 0.95482105016708374 0.98109740018844604
0.54241150617599487 0.95909565687179565 0.98301643133163452
0.78546959161758423 0.95958858728408813 0.98217225074768066
0.98314112424850464 0.97070163488388062 0.98599016666412354
