luts/colorslide/kodak_ektachrome_100_vs_generic.cube
# Created by: G'MIC (https://gmic.eu)
TITLE "kodak_ektachrome_100_vs_generic"
# LUT size
LUT_3D_SIZE 5
# Data domain
DOMAIN_MIN 0.0 0.0 0.0
DOMAIN_MAX 1.0 1.0 1.0
# LUT data points
0.026470378041267395 0.020545331761240959 0.020854352042078972
0.23823638260364532 0.01518325787037611 0.015566552989184856
0.5906144380569458 0.0096299266442656517 0.012548977509140968
0.96221518516540527 0.0049415137618780136 0.0087279072031378746
1 0.003898426191881299 0.0098889963701367378
0.057052716612815857 0.20209378004074097 0.046827968209981918
0.21442475914955139 0.19535844027996063 0.04319426417350769
0.57392644882202148 0.17980110645294189 0.035230088979005814
0.94410020112991333 0.16166459023952484 0.023615280166268349
1 0.15491244196891785 0.024232422932982445
0.002404381288215518 0.50621306896209717 0.088940910995006561
0.071279875934123993 0.49739593267440796 0.088592037558555603
0.53609102964401245 0.48472431302070618 0.080285012722015381
0.89152473211288452 0.46806430816650391 0.073996014893054962
0.99243462085723877 0.45884141325950623 0.070136144757270813
0 0.78825819492340088 0.071079522371292114
0.0031097412575036287 0.78496825695037842 0.07111649215221405
0.4750925600528717 0.77710443735122681 0.071065150201320648
0.81535661220550537 0.76539373397827148 0.07130151242017746
0.99549895524978638 0.753257155418396 0.070366203784942627
0 0.99270749092102051 0.096160382032394409
0.0052429051138460636 0.9919050931930542 0.096443653106689453
0.45568239688873291 0.98780530691146851 0.087278865277767181
0.77171683311462402 0.98487430810928345 0.075340315699577332
0.99712377786636353 0.98284226655960083 0.06210683286190033
0.024339728057384491 0.018563408404588699 0.17862766981124878
0.24241240322589874 0.016408553346991539 0.1703464686870575
0.59177577495574951 0.011027766391634941 0.16330806910991669
0.96293401718139648 0.0041562695987522602 0.14982159435749054
1 0.0056020100601017475 0.14383475482463837
0.053175292909145355 0.20117609202861786 0.19894991815090179
0.21425259113311768 0.19586388766765594 0.19345523416996002
0.57628381252288818 0.17942565679550171 0.18483398854732513
0.937469482421875 0.16184398531913757 0.17670291662216187
1 0.14984837174415588 0.17022599279880524
0 0.50120806694030762 0.22680658102035522
0.070779182016849518 0.49684742093086243 0.21658740937709808
0.53811764717102051 0.48084238171577454 0.21020130813121796
0.88847136497497559 0.47292605042457581 0.20366145670413971
0.99867910146713257 0.4603959321975708 0.19669266045093536
0 0.7898978590965271 0.24586829543113708
0.0031930063851177692 0.78831630945205688 0.23847487568855286
0.47284030914306641 0.77757257223129272 0.23412206768989563
0.82152426242828369 0.77028012275695801 0.22592203319072723
0.99608367681503296 0.75480341911315918 0.21905234456062317
0 0.98917979001998901 0.27422767877578735
0.0028911964036524296 0.99210244417190552 0.27038657665252686
0.45676127076148987 0.98430114984512329 0.26500466465950012
0.77057456970214844 0.98658627271652222 0.26176220178604126
0.99706465005874634 0.97993350028991699 0.2534727156162262
0.027615057304501534 0.019972033798694611 0.4507213830947876
0.24089176952838898 0.01495787687599659 0.43962860107421875
0.59081190824508667 0.011088486760854721 0.43274796009063721
0.96197009086608887 0.007866937667131424 0.42162168025970459
1 0.0044847526587545872 0.41456356644630432
0.056350395083427429 0.20391848683357239 0.46669536828994751
0.21360236406326294 0.19214355945587158 0.46112018823623657
0.57825905084609985 0.1821245402097702 0.44749826192855835
0.93594324588775635 0.16043350100517273 0.44066879153251648
0.99996232986450195 0.15369315445423126 0.4302082359790802
0.0039280313067138195 0.50283277034759521 0.48911529779434204
0.069455705583095551 0.49601417779922485 0.49038514494895935
0.53493344783782959 0.48302918672561646 0.48153033852577209
0.88895004987716675 0.47088444232940674 0.47199943661689758
0.99733227491378784 0.46062594652175903 0.46734967827796936
0 0.78784269094467163 0.51367980241775513
0.0043776119127869606 0.78524100780487061 0.51678287982940674
0.46977478265762329 0.77791619300842285 0.51054364442825317
0.82126921415328979 0.76721870899200439 0.50718545913696289
0.99228882789611816 0.76129138469696045 0.50226849317550659
0 0.98994523286819458 0.55134826898574829
0.0056225345470011234 0.98982793092727661 0.54726982116699219
0.45495831966400146 0.98663884401321411 0.54331326484680176
0.76669466495513916 0.985698401927948 0.53912526369094849
0.99067026376724243 0.98031187057495117 0.53377246856689453
0.025506921112537384 0.020180122926831245 0.71033936738967896
0.23671163618564606 0.015278461389243603 0.70361900329589844
0.58703571557998657 0.012046470306813717 0.69349318742752075
0.95457053184509277 0.0060672685503959656 0.68616741895675659
1 0.0029646032489836216 0.67842763662338257
0.050979748368263245 0.20228222012519836 0.7272678017616272
0.21145501732826233 0.1978536993265152 0.72392517328262329
0.57268112897872925 0.18144442141056061 0.71130096912384033
0.93747627735137939 0.16427791118621826 0.70400530099868774
1 0.15016396343708038 0.69583278894424438
0.0039285696111619473 0.50552177429199219 0.75202834606170654
0.066636256873607635 0.49732279777526855 0.75367522239685059
0.52802282571792603 0.48555901646614075 0.74079215526580811
0.88919699192047119 0.46488401293754578 0.73003542423248291
0.99697250127792358 0.46190071105957031 0.72621238231658936
0 0.78848040103912354 0.77463775873184204
0.0033366484567523003 0.78460097312927246 0.77462530136108398
0.469541996717453 0.78083401918411255 0.77086222171783447
0.8198244571685791 0.76369965076446533 0.75864827632904053
0.99457573890686035 0.75530397891998291 0.75556081533432007
0 0.99159353971481323 0.79551523923873901
0.0046887863427400589 0.9909822940826416 0.79723119735717773
0.44856506586074829 0.98636734485626221 0.79329991340637207
0.76445859670639038 0.98557752370834351 0.78505271673202515
0.99489200115203857 0.98063498735427856 0.78329759836196899
0.023255741223692894 0.018299940973520279 0.90554112195968628
0.23387768864631653 0.017844360321760178 0.90102684497833252
0.58467680215835571 0.0097212251275777817 0.89116173982620239
0.96083468198776245 0.0033563501201570034 0.88211464881896973
1 0.0026506611611694098 0.87799429893493652
0.058122087270021439 0.19898569583892822 0.92179697751998901
0.20991602540016174 0.19487887620925903 0.91657966375350952
0.57216793298721313 0.17761325836181641 0.91104865074157715
0.93777734041213989 0.16013102233409882 0.90167903900146484
1 0.1530306488275528 0.89251691102981567
0.0011072346242144704 0.50385499000549316 0.94645673036575317
0.068361870944499969 0.49596866965293884 0.94713914394378662
0.52917075157165527 0.48506742715835571 0.93841546773910522
0.88754153251647949 0.47067105770111084 0.93141835927963257
0.9987102746963501 0.46570858359336853 0.92419016361236572
0 0.79014730453491211 0.97557109594345093
0.0037826239131391048 0.78943049907684326 0.97210276126861572
0.46587148308753967 0.77829337120056152 0.96571922302246094
0.81894701719284058 0.76679855585098267 0.95740038156509399
0.99748152494430542 0.75932914018630981 0.9560011625289917
0 0.99376499652862549 0.98973566293716431
0.0025638355873525143 0.99019259214401245 0.9858543872833252
0.44817587733268738 0.98379683494567871 0.98325806856155396
0.76432377099990845 0.98677194118499756 0.98190045356750488
0.99753135442733765 0.98131895065307617 0.97958207130432129
