luts/colorslide/kodak_ektachrome_100_vs.cube
# Created by: G'MIC (https://gmic.eu)
TITLE "kodak_ektachrome_100_vs"
# LUT size
LUT_3D_SIZE 7
# Data domain
DOMAIN_MIN 0.0 0.0 0.0
DOMAIN_MAX 1.0 1.0 1.0
# LUT data points
0.01514988299459219 0.01341400109231472 0.011329052038490772
0.087417587637901306 0.013710545375943184 0.0099019967019557953
0.24408431351184845 0.0088338218629360199 0.0036866879090666771
0.44596439599990845 0.009862532839179039 0.0035174351651221514
0.65118813514709473 0.0042546289041638374 0.001856441143900156
0.84232449531555176 0.0014381258515641093 0.0028060614131391048
0.98720282316207886 0 0.0018959195585921407
0.057134978473186493 0.12028297036886215 0.055818118155002594
0.14688868820667267 0.11834441870450974 0.047979749739170074
0.30615845322608948 0.10589034110307693 0.024662930518388748
0.49269792437553406 0.089213773608207703 0.01002578716725111
0.68149900436401367 0.060276616364717484 0.0083989165723323822
0.86497032642364502 0.029062114655971527 0.0051455926150083542
0.99049252271652222 0.0081948228180408478 0.0024405685253441334
0.11625780910253525 0.29725855588912964 0.13438966870307922
0.2125696986913681 0.29912129044532776 0.12630815804004669
0.36226651072502136 0.28460288047790527 0.10222814232110977
0.53826522827148438 0.26615691184997559 0.075844615697860718
0.70782500505447388 0.23917460441589355 0.060466542840003967
0.88301676511764526 0.19081667065620422 0.055850457400083542
0.99815165996551514 0.13048146665096283 0.048297088593244553
0.24373611807823181 0.48102352023124695 0.19066426157951355
0.31607019901275635 0.48654133081436157 0.18563912808895111
0.44278714060783386 0.47706252336502075 0.16451539099216461
0.58855944871902466 0.4636940062046051 0.14284765720367432
0.74857908487319946 0.4538600742816925 0.1340772956609726
0.90667396783828735 0.42862033843994141 0.14682318270206451
0.99934166669845581 0.38544368743896484 0.16118314862251282
0.39777868986129761 0.65563386678695679 0.24163100123405457
0.45219001173973083 0.66283214092254639 0.23889598250389099
0.53887999057769775 0.66801506280899048 0.22206465899944305
0.66909009218215942 0.66087073087692261 0.19080792367458344
0.80346369743347168 0.65347456932067871 0.16567158699035645
0.95102673768997192 0.63463026285171509 0.16427028179168701
0.99926471710205078 0.60499626398086548 0.21584327518939972
0.55296659469604492 0.82882052659988403 0.30422279238700867
0.58849376440048218 0.83773684501647949 0.30216166377067566
0.66319870948791504 0.83966743946075439 0.28723001480102539
0.75615471601486206 0.83658850193023682 0.26513025164604187
0.86984407901763916 0.83166033029556274 0.23390971124172211
0.98904240131378174 0.82031220197677612 0.18760526180267334
1 0.80886560678482056 0.1862005740404129
0.75667721033096313 0.98672026395797729 0.35947379469871521
0.77611249685287476 0.98480099439620972 0.35500368475914001
0.82427710294723511 0.98291033506393433 0.34576702117919922
0.88345515727996826 0.98513197898864746 0.33151787519454956
0.96330446004867554 0.98426598310470581 0.31046590209007263
0.99846315383911133 0.98338639736175537 0.2801782488822937
1 0.98454093933105469 0.24818138778209686
0.0035299414303153753 0.010618636384606361 0.077443145215511322
0.05636889860033989 0.011266955174505711 0.077204719185829163
0.21715201437473297 0.0097498726099729538 0.064697936177253723
0.42171165347099304 0.0063812555745244026 0.03975054994225502
0.6281437873840332 0.0033519519492983818 0.030972065404057503
0.82781243324279785 0.0005266974912956357 0.023985784500837326
0.98682636022567749 0 0.019088640809059143
0.041355762630701065 0.11560986191034317 0.12551611661911011
0.11642499268054962 0.11164300888776779 0.1208060011267662
0.27748477458953857 0.1030023917555809 0.10342513769865036
0.4616883397102356 0.07953750342130661 0.076623208820819855
0.65596878528594971 0.052932243794202805 0.057205799967050552
0.84736078977584839 0.022750061005353928 0.040433157235383987
0.99209010601043701 0.0074680102989077568 0.030526943504810333
0.097918100655078888 0.29513591527938843 0.19110842049121857
0.18483379483222961 0.28828072547912598 0.1850525289773941
0.33683237433433533 0.27934962511062622 0.16854226589202881
0.50810712575912476 0.26192387938499451 0.14989905059337616
0.68397146463394165 0.2387523353099823 0.14304529130458832
0.86419212818145752 0.18585836887359619 0.12258324772119522
0.99770623445510864 0.128902867436409 0.10557699948549271
0.22141346335411072 0.48323452472686768 0.23521262407302856
0.29407790303230286 0.48324781656265259 0.23064211010932922
0.42289999127388 0.47614505887031555 0.21735340356826782
0.56701159477233887 0.46091926097869873 0.21315120160579681
0.72355598211288452 0.4490106999874115 0.21985386312007904
0.88810902833938599 0.4211498498916626 0.2228960245847702
0.99561285972595215 0.38310769200325012 0.22596034407615662
0.3917539119720459 0.66211724281311035 0.26638230681419373
0.44045135378837585 0.66270452737808228 0.26407706737518311
0.52913326025009155 0.66707301139831543 0.24552395939826965
0.65107911825180054 0.65295886993408203 0.23280330002307892
0.7863420844078064 0.64831399917602539 0.23664848506450653
0.93105226755142212 0.63295972347259521 0.25014591217041016
0.99848604202270508 0.60292142629623413 0.29470479488372803
0.5529472827911377 0.83355903625488281 0.31104749441146851
0.59007620811462402 0.83742797374725342 0.30520910024642944
0.66003000736236572 0.84054279327392578 0.2918572723865509
0.75687593221664429 0.83529186248779297 0.2697502076625824
0.86952048540115356 0.83072453737258911 0.24009546637535095
0.98494374752044678 0.82363510131835938 0.22090961039066315
1 0.80570799112319946 0.26707890629768372
0.76212775707244873 0.98290741443634033 0.35989734530448914
0.78116458654403687 0.98618161678314209 0.3558865487575531
0.82365745306015015 0.98448818922042847 0.34706407785415649
0.88684552907943726 0.98418539762496948 0.33284184336662292
0.96380972862243652 0.98521912097930908 0.31104511022567749
0.99919027090072632 0.98220187425613403 0.28030103445053101
1 0.98264992237091064 0.2497234046459198
0 0.0084986817091703415 0.18159089982509613
0.026183439418673515 0.0084197251126170158 0.17786353826522827
0.18281331658363342 0.0059050167910754681 0.15943823754787445
0.3915562629699707 0.0040094563737511635 0.13223950564861298
0.60739195346832275 0.003031562315300107 0.10858383029699326
0.81473040580749512 0.00096610572654753923 0.087074965238571167
0.98400753736495972 0 0.07139943540096283
0.019467268139123917 0.10671165585517883 0.24108347296714783
0.079132035374641418 0.10662093758583069 0.23372264206409454
0.23800401389598846 0.090380467474460602 0.21110744774341583
0.43139511346817017 0.070489145815372467 0.17961814999580383
0.63385206460952759 0.044806074351072311 0.14708386361598969
0.82942914962768555 0.017213499173521996 0.11527469009160995
0.99328100681304932 0.003050635801628232 0.0887884721159935
0.066825747489929199 0.28811603784561157 0.31340032815933228
0.12390678375959396 0.28162682056427002 0.30505102872848511
0.29436609148979187 0.27719384431838989 0.28713357448577881
0.46799382567405701 0.25644716620445251 0.2652861475944519
0.65585452318191528 0.22690252959728241 0.23923932015895844
0.84108209609985352 0.18641237914562225 0.21340407431125641
0.99573123455047607 0.11739280819892883 0.1747257262468338
0.14428505301475525 0.47695323824882507 0.35984399914741516
0.23019669950008392 0.47090035676956177 0.351214200258255
0.3745911717414856 0.47155064344406128 0.34872424602508545
0.52464228868484497 0.45729812979698181 0.34386026859283447
0.68729186058044434 0.44114276766777039 0.33186879754066467
0.86052614450454712 0.41612371802330017 0.32613733410835266
0.9940570592880249 0.37668588757514954 0.31151238083839417
0.34252378344535828 0.6600421667098999 0.36672776937484741
0.38774499297142029 0.65651774406433105 0.36443018913269043
0.48525193333625793 0.65560120344161987 0.36750692129135132
0.61160570383071899 0.64869731664657593 0.3665253221988678
0.74300825595855713 0.64247399568557739 0.38194915652275085
0.89303493499755859 0.61860215663909912 0.39047852158546448
0.99709075689315796 0.59529465436935425 0.40635213255882263
0.54362869262695312 0.84094744920730591 0.33568742871284485
0.57333272695541382 0.83652979135513306 0.33323070406913757
0.64096188545227051 0.83760178089141846 0.32774838805198669
0.73380786180496216 0.83554297685623169 0.32748472690582275
0.83949995040893555 0.82885301113128662 0.34022042155265808
0.95623874664306641 0.81579220294952393 0.37475654482841492
0.99928480386734009 0.79215878248214722 0.43745818734169006
0.76477962732315063 0.98781365156173706 0.36168769001960754
0.78185462951660156 0.98720967769622803 0.35773691534996033
0.82605093717575073 0.98655158281326294 0.34915119409561157
0.88950639963150024 0.98797178268432617 0.3350527286529541
0.96798199415206909 0.98646003007888794 0.31470003724098206
0.99947363138198853 0.98391985893249512 0.2878057062625885
1 0.98140108585357666 0.287181556224823
0 0.0044994279742240906 0.28263148665428162
0.015204021707177162 0.0047552818432450294 0.27514886856079102
0.14899316430091858 0.0051801195368170738 0.25162777304649353
0.36163163185119629 0.0042344634421169758 0.21672117710113525
0.58550465106964111 0.0020151026546955109 0.18464614450931549
0.79801589250564575 0 0.15574614703655243
0.97583609819412231 0 0.14208990335464478
0.0044709299691021442 0.098383881151676178 0.35271385312080383
0.050605278462171555 0.095217056572437286 0.342386394739151
0.19934645295143127 0.085090175271034241 0.31732586026191711
0.39785495400428772 0.068892441689968109 0.27841377258300781
0.60593909025192261 0.041545327752828598 0.23767314851284027
0.81312119960784912 0.018449939787387848 0.19882771372795105
0.98402309417724609 0.0010929033160209656 0.15977956354618073
0.030888037756085396 0.27849909663200378 0.43848040699958801
0.084856115281581879 0.27582892775535583 0.42892876267433167
0.24672475457191467 0.26496154069900513 0.4022749662399292
0.43127387762069702 0.24877634644508362 0.37467208504676819
0.62260270118713379 0.2219996303319931 0.34217226505279541
0.8234221339225769 0.17475195229053497 0.29813337326049805
0.98562431335449219 0.11615341901779175 0.25333628058433533
0.046830508857965469 0.46654447913169861 0.51014953851699829
0.14176200330257416 0.46304193139076233 0.49987563490867615
0.30707782506942749 0.46194648742675781 0.48181450366973877
0.48073059320449829 0.4479677677154541 0.46584367752075195
0.65043467283248901 0.4299299418926239 0.44415798783302307
0.82866382598876953 0.40534275770187378 0.42415457963943481
0.98637092113494873 0.36576706171035767 0.39670607447624207
0.23405155539512634 0.64466792345046997 0.54208266735076904
0.29667416214942932 0.64706969261169434 0.54325681924819946
0.41467335820198059 0.64445358514785767 0.53933650255203247
0.54827016592025757 0.63667804002761841 0.53513354063034058
0.69976496696472168 0.6282724142074585 0.51999390125274658
0.85843580961227417 0.61145222187042236 0.5128471851348877
0.99209892749786377 0.58591175079345703 0.50789791345596313
0.46157392859458923 0.82669031620025635 0.51906812191009521
0.49408355355262756 0.82566756010055542 0.52497553825378418
0.56459063291549683 0.82524818181991577 0.53199642896652222
0.65984135866165161 0.82024872303009033 0.5387871265411377
0.77860671281814575 0.81475019454956055 0.54577535390853882
0.91060048341751099 0.8026127815246582 0.55725312232971191
0.99508804082870483 0.78060120344161987 0.5734594464302063
0.76728302240371704 0.99007546901702881 0.37763422727584839
0.78313767910003662 0.99136149883270264 0.37533619999885559
0.82367467880249023 0.99049121141433716 0.37131893634796143
0.88487833738327026 0.98983347415924072 0.36610108613967896
0.95512980222702026 0.98796528577804565 0.37134543061256409
0.99543583393096924 0.98301631212234497 0.3944375216960907
1 0.97468233108520508 0.47842714190483093
0 0.0065031913109123707 0.38138231635093689
0.0016962686786428094 0.0034615460317581892 0.37022882699966431
0.10353417694568634 0.0042309630662202835 0.34607064723968506
0.32769650220870972 0.0038750742096453905 0.30756792426109314
0.55552530288696289 0.00049227545969188213 0.2676946222782135
0.77266907691955566 0 0.23685018718242645
0.95791035890579224 0 0.2171698659658432
0.0018906686455011368 0.09641043096780777 0.46038356423377991
0.018308272585272789 0.088748827576637268 0.44287315011024475
0.15306814014911652 0.079223752021789551 0.41756114363670349
0.3651885986328125 0.056819692254066467 0.37284263968467712
0.5759589672088623 0.033224936574697495 0.32595029473304749
0.78477519750595093 0.014922347851097584 0.28298506140708923
0.97137701511383057 0.0021947822533547878 0.23556883633136749
0.0055697420611977577 0.27205529808998108 0.55085921287536621
0.047672826796770096 0.2681763768196106 0.53986442089080811
0.1913151890039444 0.25936740636825562 0.51261180639266968
0.39275425672531128 0.2441864013671875 0.4788571298122406
0.59061175584793091 0.21571806073188782 0.43744823336601257
0.79527610540390015 0.16937333345413208 0.38710355758666992
0.9769318699836731 0.10313662141561508 0.33096829056739807
0.0055723004043102264 0.45901453495025635 0.62501996755599976
0.048089150339365005 0.45712590217590332 0.62314337491989136
0.23722130060195923 0.45072823762893677 0.60297763347625732
0.42819449305534363 0.43523332476615906 0.57560443878173828
0.61284476518630981 0.42296507954597473 0.55176997184753418
0.80181795358657837 0.40024095773696899 0.521320641040802
0.97769653797149658 0.35841605067253113 0.48157072067260742
0.094528421759605408 0.63777154684066772 0.69164168834686279
0.17707616090774536 0.63523530960083008 0.68019527196884155
0.33180388808250427 0.63179618120193481 0.67200857400894165
0.49414157867431641 0.62665152549743652 0.65727263689041138
0.65530985593795776 0.62069040536880493 0.6429293155670166
0.82130098342895508 0.60309982299804688 0.62474566698074341
0.98333138227462769 0.57612264156341553 0.60200560092926025
0.34806022047996521 0.8124997615814209 0.71911287307739258
0.39335405826568604 0.81138622760772705 0.71625536680221558
0.4803922176361084 0.81046968698501587 0.71292465925216675
0.59545576572418213 0.80643332004547119 0.70262545347213745
0.71995848417282104 0.79911953210830688 0.69928151369094849
0.86391192674636841 0.78941422700881958 0.69273209571838379
0.99197036027908325 0.77476543188095093 0.69496327638626099
0.68997269868850708 0.98220616579055786 0.58442062139511108
0.70520883798599243 0.98313713073730469 0.58975261449813843
0.74478399753570557 0.98194336891174316 0.59559148550033569
0.80231255292892456 0.98052304983139038 0.60965538024902344
0.87799549102783203 0.9789385199546814 0.63030999898910522
0.96182137727737427 0.97335857152938843 0.65807265043258667
0.99965137243270874 0.96395832300186157 0.70458537340164185
0 0.0063723097555339336 0.47375974059104919
0.0047516166232526302 0.0077748019248247147 0.464201420545578
0.061171408742666245 0.003888104110956192 0.43433547019958496
0.28907260298728943 0.0054542692378163338 0.39368218183517456
0.5204271674156189 0.0021481532603502274 0.34970062971115112
0.75102388858795166 8.9159198978450149e-05 0.3109794557094574
0.94774049520492554 0 0.2752801775932312
0 0.087846584618091583 0.55441105365753174
0.0065646152943372726 0.080589562654495239 0.53988516330718994
0.09961313009262085 0.067061558365821838 0.50904971361160278
0.32153886556625366 0.0499446801841259 0.46035474538803101
0.53983479738235474 0.029587270691990852 0.41067585349082947
0.76034218072891235 0.0072183795273303986 0.35628032684326172
0.95294749736785889 0.0001919017086038366 0.3021845817565918
0.0026476990897208452 0.26777952909469604 0.64632916450500488
0.01583964005112648 0.26532721519470215 0.63859987258911133
0.12337921559810638 0.25252288579940796 0.61147481203079224
0.34445419907569885 0.2378925234079361 0.5729222297668457
0.55794167518615723 0.21090325713157654 0.52634632587432861
0.77122312784194946 0.16280177235603333 0.46669808030128479
0.95936483144760132 0.096757017076015472 0.40253457427024841
0.0039215688593685627 0.45429661870002747 0.73041164875030518
0.0070174871943891048 0.45318242907524109 0.7275504469871521
0.15458096563816071 0.44638574123382568 0.70907878875732422
0.37876608967781067 0.43474435806274414 0.68061870336532593
0.57712537050247192 0.4193892776966095 0.64674347639083862
0.77721929550170898 0.39073270559310913 0.6018642783164978
0.95618849992752075 0.35480982065200806 0.5564957857131958
0.011463928036391735 0.62951564788818359 0.80962967872619629
0.048410661518573761 0.62923717498779297 0.80537247657775879
0.23538000881671906 0.626331627368927 0.786598801612854
0.42499485611915588 0.61733973026275635 0.76867234706878662
0.61031943559646606 0.61028361320495605 0.74770611524581909
0.7916264533996582 0.59185338020324707 0.71551245450973511
0.96056520938873291 0.56675601005554199 0.68476992845535278
0.21548831462860107 0.79950547218322754 0.86660885810852051
0.28187555074691772 0.79881858825683594 0.86144167184829712
0.39437109231948853 0.80089288949966431 0.8527456521987915
0.5227692723274231 0.79522585868835449 0.83945983648300171
0.66414034366607666 0.78879106044769287 0.82632601261138916
0.82206743955612183 0.78214812278747559 0.81050401926040649
0.97038954496383667 0.7672276496887207 0.79119288921356201
0.56205636262893677 0.96763914823532104 0.85624688863754272
0.58129894733428955 0.96815496683120728 0.86036771535873413
0.62844181060791016 0.96756112575531006 0.85872083902359009
0.69961374998092651 0.96590590476989746 0.85757994651794434
0.79110914468765259 0.96416866779327393 0.85507786273956299
0.90086859464645386 0.9627910852432251 0.85599595308303833
0.99745637178421021 0.95543640851974487 0.86336022615432739
0 0.002098951255902648 0.55053496360778809
0.0034151263535022736 0.002533826744183898 0.52552568912506104
0.029401322826743126 0.00044313317630439997 0.50450700521469116
0.25396350026130676 0.00085869582835584879 0.45589396357536316
0.50216513872146606 0.0014562120195478201 0.40307790040969849
0.73600280284881592 0.00010735006799222901 0.35943520069122314
0.9342162013053894 0 0.32066547870635986
0 0.078821651637554169 0.6244739294052124
0.0051554064266383648 0.07622075080871582 0.61003321409225464
0.055394969880580902 0.057339925318956375 0.58182978630065918
0.28924134373664856 0.043122503906488419 0.52280658483505249
0.5168689489364624 0.024593980982899666 0.47239923477172852
0.74071824550628662 0.0078442739322781563 0.41015350818634033
0.93760538101196289 4.4878790504299104e-05 0.35040590167045593
0 0.25603193044662476 0.72358220815658569
0.0039665671065449715 0.25493982434272766 0.71135371923446655
0.081207439303398132 0.24498027563095093 0.68357181549072266
0.30908408761024475 0.2339257150888443 0.63494324684143066
0.52607834339141846 0.21132157742977142 0.59109222888946533
0.74815464019775391 0.15674212574958801 0.5246511697769165
0.94471341371536255 0.08898983895778656 0.44850766658782959
0 0.44327834248542786 0.81439894437789917
0.0053123924881219864 0.44414326548576355 0.80034816265106201
0.073051512241363525 0.44198566675186157 0.78594034910202026
0.33139151334762573 0.43091413378715515 0.75093215703964233
0.54430437088012695 0.41395309567451477 0.71346807479858398
0.74841535091400146 0.38953870534896851 0.66898256540298462
0.94191837310791016 0.34930083155632019 0.61156940460205078
0.0017244676128029823 0.619975745677948 0.89099478721618652
0.0039746002294123173 0.62314295768737793 0.88495379686355591
0.13110016286373138 0.62305194139480591 0.8755868673324585
0.37080585956573486 0.61517012119293213 0.85063648223876953
0.56658941507339478 0.60389649868011475 0.8197365403175354
0.75912338495254517 0.58691394329071045 0.78573185205459595
0.94686049222946167 0.56721436977386475 0.74161058664321899
0.058825906366109848 0.79247969388961792 0.96400392055511475
0.13318517804145813 0.79229038953781128 0.96091592311859131
0.29991909861564636 0.79285991191864014 0.95063215494155884
0.46010163426399231 0.7909928560256958 0.9360663890838623
0.61914855241775513 0.78481537103652954 0.91510725021362305
0.78803807497024536 0.77700740098953247 0.89025282859802246
0.95399165153503418 0.76537638902664185 0.86142981052398682
0.45898693799972534 0.95887064933776855 0.99617063999176025
0.48725226521492004 0.95825105905532837 0.99493980407714844
0.54169970750808716 0.95918160676956177 0.99769222736358643
0.6268584132194519 0.95611107349395752 0.99216377735137939
0.72623586654663086 0.95690256357192993 0.98928272724151611
0.84928172826766968 0.95520907640457153 0.98161673545837402
0.98295676708221436 0.95169532299041748 0.97018700838088989
