luts/colorslide/kodak_kodachrome_64.cube
# Created by: G'MIC (https://gmic.eu)
TITLE "kodak_kodachrome_64"
# LUT size
LUT_3D_SIZE 7
# Data domain
DOMAIN_MIN 0.0 0.0 0.0
DOMAIN_MAX 1.0 1.0 1.0
# LUT data points
0.018587583675980568 0.016993863508105278 0.015286180190742016
0.11988523602485657 0.024303091689944267 0.014014314860105515
0.31809821724891663 0.041866812855005264 0.011851576156914234
0.54690879583358765 0.067682631313800812 0.010566785931587219
0.71235936880111694 0.085668347775936127 0.0072568855248391628
0.85696542263031006 0.099466674029827118 0.0051223905757069588
0.9795498251914978 0.12057720869779587 0.0012510411906987429
0.081857629120349884 0.13832598924636841 0.070630215108394623
0.16760416328907013 0.14619764685630798 0.066539451479911804
0.36566179990768433 0.16479192674160004 0.062564671039581299
0.57817709445953369 0.18350087106227875 0.053511090576648712
0.7356296181678772 0.18514449894428253 0.042507469654083252
0.87285178899765015 0.17844128608703613 0.028428275138139725
0.9846004843711853 0.16338068246841431 0.012382208369672298
0.096849553287029266 0.36143484711647034 0.16162826120853424
0.22804126143455505 0.36954993009567261 0.15953060984611511
0.44670408964157104 0.38632884621620178 0.15268890559673309
0.6304667592048645 0.39517182111740112 0.14269354939460754
0.77986770868301392 0.39157426357269287 0.12848861515522003
0.91074866056442261 0.35906705260276794 0.10530538856983185
0.99866688251495361 0.31869292259216309 0.074068598449230194
0.20567041635513306 0.54979813098907471 0.26814764738082886
0.33835780620574951 0.55957484245300293 0.26913788914680481
0.51487749814987183 0.57695925235748291 0.2614702582359314
0.67053449153900146 0.58931529521942139 0.25232741236686707
0.81375330686569214 0.59913665056228638 0.23831579089164734
0.95012456178665161 0.60194772481918335 0.21475321054458618
0.99975943565368652 0.59475111961364746 0.18861912190914154
0.38600003719329834 0.69756889343261719 0.39816895127296448
0.45515045523643494 0.70440870523452759 0.39731821417808533
0.56617724895477295 0.71080631017684937 0.39716294407844543
0.69494354724884033 0.7241101861000061 0.3909338116645813
0.82705235481262207 0.7342333197593689 0.37674328684806824
0.95957005023956299 0.74730390310287476 0.35285386443138123
0.99993932247161865 0.755504310131073 0.32289189100265503
0.49242615699768066 0.82279175519943237 0.52527594566345215
0.53518390655517578 0.82807439565658569 0.52382802963256836
0.62108278274536133 0.83360636234283447 0.51668471097946167
0.72978746891021729 0.84598678350448608 0.51678073406219482
0.8398057222366333 0.85224300622940063 0.50705915689468384
0.95909768342971802 0.86366534233093262 0.48992174863815308
1 0.87774568796157837 0.47461923956871033
0.5834583044052124 0.9484286904335022 0.63294863700866699
0.61289149522781372 0.95122402906417847 0.63143235445022583
0.67807602882385254 0.95352852344512939 0.62709420919418335
0.76226121187210083 0.96662592887878418 0.62842530012130737
0.86564970016479492 0.972037672996521 0.62488704919815063
0.97964704036712646 0.97843188047409058 0.61454123258590698
1 0.98842394351959229 0.59650397300720215
0.010237734764814377 0.012610895559191704 0.071563258767127991
0.096352145075798035 0.017922898754477501 0.074331022799015045
0.30514276027679443 0.032363772392272949 0.06211230531334877
0.52746236324310303 0.053349185734987259 0.057383965700864792
0.69098567962646484 0.07142455130815506 0.05128948763012886
0.83715027570724487 0.083447307348251343 0.034585181623697281
0.96067577600479126 0.10476132482290268 0.021754350513219833
0.055334579199552536 0.12213090062141418 0.14519624412059784
0.14391542971134186 0.13109023869037628 0.14155884087085724
0.34541109204292297 0.15178786218166351 0.13812971115112305
0.55187112092971802 0.16698047518730164 0.12773698568344116
0.70841813087463379 0.16837491095066071 0.11590605974197388
0.84631919860839844 0.16406434774398804 0.096278063952922821
0.96093451976776123 0.14564394950866699 0.064536795020103455
0.063896298408508301 0.34804016351699829 0.24416139721870422
0.1920166015625 0.35476011037826538 0.24555690586566925
0.41950032114982605 0.37087944149971008 0.23928207159042358
0.59832066297531128 0.38082972168922424 0.23076629638671875
0.74776071310043335 0.37446638941764832 0.21379439532756805
0.87896716594696045 0.34560903906822205 0.18786551058292389
0.9835016131401062 0.30311799049377441 0.15207198262214661
0.1419750452041626 0.53356075286865234 0.361909419298172
0.30505251884460449 0.54391002655029297 0.36018279194831848
0.47681659460067749 0.5537412166595459 0.35413506627082825
0.63452053070068359 0.57085007429122925 0.34789979457855225
0.77512162923812866 0.57752662897109985 0.34021925926208496
0.91104602813720703 0.57824051380157471 0.31858646869659424
0.99743527173995972 0.57664281129837036 0.29478579759597778
0.35056477785110474 0.68256062269210815 0.4687974750995636
0.4199257493019104 0.68941903114318848 0.47301754355430603
0.53584557771682739 0.69524753093719482 0.46719393134117126
0.66000866889953613 0.70474910736083984 0.46783420443534851
0.79355186223983765 0.71831774711608887 0.45484685897827148
0.92733597755432129 0.72679102420806885 0.43686005473136902
0.99747121334075928 0.73201978206634521 0.42355069518089294
0.46854254603385925 0.81267052888870239 0.5685608983039856
0.51877456903457642 0.82098388671875 0.5674443244934082
0.60048598051071167 0.82729226350784302 0.56692349910736084
0.70326656103134155 0.83453458547592163 0.56446927785873413
0.81943696737289429 0.84136307239532471 0.55500859022140503
0.94066667556762695 0.8541567325592041 0.54323709011077881
0.99757355451583862 0.86367702484130859 0.53827238082885742
0.56941425800323486 0.94243079423904419 0.6643517017364502
0.60007190704345703 0.94488680362701416 0.66324889659881592
0.66121029853820801 0.9524763822555542 0.66218352317810059
0.74512183666229248 0.95659375190734863 0.66040319204330444
0.84941631555557251 0.96691256761550903 0.65685689449310303
0.96619719266891479 0.97434645891189575 0.64995282888412476
1 0.9834790825843811 0.63511425256729126
0.00073807657463476062 0.0067211971618235111 0.18325620889663696
0.053182296454906464 0.0083773890510201454 0.17862929403781891
0.26788097620010376 0.017937649041414261 0.17583924531936646
0.48354214429855347 0.028679551556706429 0.16949336230754852
0.64537256956100464 0.043763566762208939 0.16084162890911102
0.78954470157623291 0.051931522786617279 0.14649023115634918
0.91792625188827515 0.073504336178302765 0.11937957257032394
0.018464211374521255 0.095431402325630188 0.26997929811477661
0.09450066089630127 0.10167308151721954 0.2731875479221344
0.30434983968734741 0.12620879709720612 0.26759475469589233
0.49952936172485352 0.13751260936260223 0.26003304123878479
0.65283364057540894 0.13758313655853271 0.24865144491195679
0.79049843549728394 0.12709634006023407 0.22750586271286011
0.90489059686660767 0.11015762388706207 0.19501107931137085
0.038062781095504761 0.3194173276424408 0.37944510579109192
0.12634830176830292 0.32901749014854431 0.38097700476646423
0.3660285472869873 0.34670957922935486 0.37616512179374695
0.54540538787841797 0.35647737979888916 0.37057340145111084
0.69098192453384399 0.34267240762710571 0.35570192337036133
0.81918078660964966 0.31262177228927612 0.33579054474830627
0.92606252431869507 0.26849916577339172 0.30377629399299622
0.081658534705638885 0.51247906684875488 0.47509723901748657
0.25058609247207642 0.52322763204574585 0.47316771745681763
0.43384996056556702 0.53264880180358887 0.46905761957168579
0.58585923910140991 0.54295474290847778 0.46462371945381165
0.72844445705413818 0.5532793402671814 0.45866596698760986
0.86066907644271851 0.549873948097229 0.44444519281387329
0.9733625054359436 0.54272717237472534 0.42875126004219055
0.31810009479522705 0.66636145114898682 0.55410254001617432
0.38232296705245972 0.66689836978912354 0.55313634872436523
0.50085347890853882 0.67486536502838135 0.54860383272171021
0.62482798099517822 0.68950849771499634 0.55018395185470581
0.75554811954498291 0.70094883441925049 0.54303485155105591
0.88671332597732544 0.70556783676147461 0.530689537525177
0.99338018894195557 0.70789748430252075 0.52453386783599854
0.4365975558757782 0.80098247528076172 0.63018250465393066
0.48209017515182495 0.8036234974861145 0.63383126258850098
0.57206732034683228 0.80900996923446655 0.6308516263961792
0.67217755317687988 0.8183598518371582 0.63063275814056396
0.79110199213027954 0.83349037170410156 0.62593483924865723
0.9116942286491394 0.84132856130599976 0.61744970083236694
0.99557054042816162 0.8475881814956665 0.61210912466049194
0.54759615659713745 0.93408298492431641 0.71472924947738647
0.57848012447357178 0.93800073862075806 0.71524971723556519
0.63904464244842529 0.94386976957321167 0.71519428491592407
0.72604221105575562 0.95126760005950928 0.7134968638420105
0.83114081621170044 0.96280181407928467 0.70954281091690063
0.9459158182144165 0.96793419122695923 0.70324724912643433
0.99829757213592529 0.97477585077285767 0.69486743211746216
0 0.0019827450159937143 0.32385402917861938
0.015382280573248863 0.0015456704422831535 0.32437035441398621
0.21205227077007294 0.0025357862468808889 0.32300475239753723
0.41817712783813477 0.0090051386505365372 0.31591957807540894
0.57817775011062622 0.015659796074032784 0.30900371074676514
0.72054338455200195 0.015082205645740032 0.29877421259880066
0.83443665504455566 0.023540211841464043 0.29044225811958313
0.0044191847555339336 0.066946767270565033 0.39575764536857605
0.051888782531023026 0.072182178497314453 0.39674797654151917
0.26246204972267151 0.094738751649856567 0.39281705021858215
0.44751420617103577 0.10676547884941101 0.3884509801864624
0.59700506925582886 0.10172117501497269 0.37702807784080505
0.73022043704986572 0.087609924376010895 0.36362138390541077
0.83635449409484863 0.06657041609287262 0.34552925825119019
0.034844059497117996 0.3062320351600647 0.4881836473941803
0.097875960171222687 0.31181472539901733 0.48684093356132507
0.331644207239151 0.32928302884101868 0.48405250906944275
0.50239503383636475 0.33240926265716553 0.47965037822723389
0.64432036876678467 0.32299932837486267 0.46936565637588501
0.77176159620285034 0.2900339663028717 0.44927278161048889
0.87308061122894287 0.24119886755943298 0.42684632539749146
0.067453376948833466 0.49594268202781677 0.56561601161956787
0.23306086659431458 0.50428134202957153 0.56475555896759033
0.39687338471412659 0.5136260986328125 0.56188833713531494
0.55233085155487061 0.52548015117645264 0.55711036920547485
0.68984591960906982 0.53465551137924194 0.55103838443756104
0.82069116830825806 0.52831220626831055 0.54101020097732544
0.93077981472015381 0.52025097608566284 0.53369712829589844
0.27755597233772278 0.65256237983703613 0.63379144668579102
0.35041555762290955 0.65241044759750366 0.63376700878143311
0.47006130218505859 0.6568681001663208 0.63051325082778931
0.59487354755401611 0.66739612817764282 0.62498027086257935
0.72064292430877686 0.67876684665679932 0.62087690830230713
0.85248702764511108 0.68553835153579712 0.61482197046279907
0.96568644046783447 0.68920743465423584 0.61162322759628296
0.41146847605705261 0.7917168140411377 0.70499932765960693
0.45275011658668518 0.79168117046356201 0.70313817262649536
0.54569065570831299 0.79636543989181519 0.70320248603820801
0.64867311716079712 0.80208277702331543 0.69863581657409668
0.76103705167770386 0.81511181592941284 0.69548714160919189
0.88648140430450439 0.82568442821502686 0.69003850221633911
0.9882696270942688 0.83272320032119751 0.68582212924957275
0.52239596843719482 0.92285776138305664 0.77379268407821655
0.55196809768676758 0.92708849906921387 0.77485466003417969
0.61620038747787476 0.9335828423500061 0.77715921401977539
0.70482778549194336 0.94045662879943848 0.77612006664276123
0.80443590879440308 0.9533495306968689 0.77328157424926758
0.92047935724258423 0.96497577428817749 0.76991111040115356
0.99677860736846924 0.96853494644165039 0.76382231712341309
0 0.0030533585231751204 0.42579519748687744
0.0058864071033895016 0.00021920297876931727 0.42949157953262329
0.18108753859996796 0.0014649634249508381 0.4289703369140625
0.37781557440757751 0.0044077704660594463 0.42320221662521362
0.53186112642288208 0.0065542780794203281 0.41658520698547363
0.66800665855407715 0.0045102289877831936 0.41605335474014282
0.78767400979995728 0.004818605724722147 0.40298232436180115
0.0013906591339036822 0.050496075302362442 0.49278804659843445
0.031738519668579102 0.055122792720794678 0.49219325184822083
0.24112248420715332 0.077898211777210236 0.48602861166000366
0.41456598043441772 0.084447138011455536 0.48389032483100891
0.55920016765594482 0.078790552914142609 0.47730839252471924
0.68441200256347656 0.06245759129524231 0.46317338943481445
0.7913433313369751 0.038831360638141632 0.44790589809417725
0.028324590995907784 0.2939484715461731 0.57684797048568726
0.097324609756469727 0.3008391261100769 0.5754016637802124
0.30842465162277222 0.31388813257217407 0.57131975889205933
0.47245562076568604 0.31393527984619141 0.5671420693397522
0.61171859502792358 0.30781295895576477 0.55801892280578613
0.73535805940628052 0.27069824934005737 0.54165935516357422
0.83519548177719116 0.22188203036785126 0.52246665954589844
0.078102916479110718 0.48432216048240662 0.6469910740852356
0.21184100210666656 0.48710358142852783 0.64694935083389282
0.37482565641403198 0.49923625588417053 0.64420837163925171
0.52492976188659668 0.50651991367340088 0.63868391513824463
0.658092200756073 0.51738834381103516 0.63588869571685791
0.78996551036834717 0.51484471559524536 0.62968498468399048
0.89713943004608154 0.5021665096282959 0.61929655075073242
0.26999583840370178 0.63946527242660522 0.70882606506347656
0.33967959880828857 0.64211171865463257 0.71119236946105957
0.45096117258071899 0.64708423614501953 0.70858585834503174
0.57150119543075562 0.65522289276123047 0.70280981063842773
0.69420838356018066 0.66362994909286499 0.70134299993515015
0.82177102565765381 0.66850447654724121 0.69960612058639526
0.93362069129943848 0.67248076200485229 0.69282853603363037
0.39543434977531433 0.7792353630065918 0.77430683374404907
0.44120284914970398 0.78392624855041504 0.77658122777938843
0.52183181047439575 0.78825235366821289 0.77787858247756958
0.6235804557800293 0.79225730895996094 0.77455508708953857
0.73705410957336426 0.80303055047988892 0.77261477708816528
0.86028993129730225 0.81229287385940552 0.76723241806030273
0.96804004907608032 0.8180382251739502 0.75944477319717407
0.50540542602539062 0.91736781597137451 0.84165948629379272
0.53248673677444458 0.91886794567108154 0.84205043315887451
0.59315294027328491 0.92390906810760498 0.84405165910720825
0.67820662260055542 0.93128114938735962 0.84366101026535034
0.78098380565643311 0.94259238243103027 0.84055691957473755
0.89761227369308472 0.95350193977355957 0.83561837673187256
0.99367290735244751 0.96177786588668823 0.8318324089050293
0 0.0011376325273886323 0.51703357696533203
0.0032522613182663918 0.00064024084713310003 0.51520949602127075
0.16597045958042145 0.0016631331527605653 0.51615291833877563
0.34726947546005249 0.003287341445684433 0.51486986875534058
0.49775782227516174 0.0050895689055323601 0.50947386026382446
0.63317310810089111 0.0039956485852599144 0.5039067268371582
0.74742013216018677 0.0014966628514230251 0.49857807159423828
0 0.038706686347723007 0.57694357633590698
0.023972859606146812 0.043591190129518509 0.57525467872619629
0.22376665472984314 0.066075824201107025 0.57275313138961792
0.38863947987556458 0.068520113825798035 0.56909656524658203
0.52600538730621338 0.057426199316978455 0.56050074100494385
0.65100717544555664 0.039128515869379044 0.54951876401901245
0.75553888082504272 0.01867300271987915 0.53537863492965698
0.024256104603409767 0.27914625406265259 0.65690630674362183
0.10445152968168259 0.29074007272720337 0.65680897235870361
0.29490411281585693 0.30177450180053711 0.65326368808746338
0.44968351721763611 0.30025824904441833 0.64577400684356689
0.58614593744277954 0.29250776767730713 0.6402432918548584
0.70707172155380249 0.26117753982543945 0.62813675403594971
0.80182397365570068 0.20018737018108368 0.60672694444656372
0.099051684141159058 0.47469478845596313 0.72388583421707153
0.21410946547985077 0.48189440369606018 0.72328174114227295
0.35927337408065796 0.49178487062454224 0.7226870059967041
0.502116858959198 0.49722391366958618 0.71921724081039429
0.63129377365112305 0.50616240501403809 0.71778947114944458
0.75825959444046021 0.50205129384994507 0.71162360906600952
0.86422032117843628 0.48495835065841675 0.70028185844421387
0.26098459959030151 0.6297333836555481 0.78173160552978516
0.32566294074058533 0.63448637723922729 0.78348338603973389
0.43054145574569702 0.63989943265914917 0.78264570236206055
0.54781132936477661 0.6474493145942688 0.78164809942245483
0.67229408025741577 0.65534704923629761 0.78126931190490723
0.79496663808822632 0.65673023462295532 0.7770887017250061
0.901711106300354 0.65604478120803833 0.77037745714187622
0.38445314764976501 0.7713245153427124 0.84577035903930664
0.42933931946754456 0.77473849058151245 0.84681588411331177
0.50282400846481323 0.77897340059280396 0.84562277793884277
0.59815555810928345 0.78484266996383667 0.844868004322052
0.71171474456787109 0.79484790563583374 0.84513884782791138
0.83319145441055298 0.80036044120788574 0.83930641412734985
0.93816167116165161 0.80218863487243652 0.83670896291732788
0.48850244283676147 0.90464615821838379 0.90861719846725464
0.51487249135971069 0.90849965810775757 0.90926223993301392
0.57491153478622437 0.91568994522094727 0.910011887550354
0.65564525127410889 0.92402714490890503 0.90951991081237793
0.75564950704574585 0.93077278137207031 0.90930712223052979
0.87264704704284668 0.946144700050354 0.91002470254898071
0.98397409915924072 0.95700722932815552 0.90643447637557983
0 0.00048074161168187857 0.57344275712966919
0.0030476737301796675 0 0.56765413284301758
0.15844419598579407 0.00086656457278877497 0.56769198179244995
0.33298793435096741 0.0013318529818207026 0.57041174173355103
0.4765947163105011 0.0035845288075506687 0.56112533807754517
0.61107534170150757 0.0016983331879600883 0.556327223777771
0.72181934118270874 0 0.5516323447227478
0.0002393535542069003 0.034366950392723083 0.62522006034851074
0.024934582412242889 0.037341848015785217 0.62659627199172974
0.21747523546218872 0.053173977881669998 0.62347275018692017
0.37337088584899902 0.059411514550447464 0.61856991052627563
0.50850850343704224 0.048239689320325851 0.61090457439422607
0.6305810809135437 0.02998250350356102 0.60285407304763794
0.73095226287841797 0.010572351515293121 0.5908539891242981
0.03445599228143692 0.27629697322845459 0.70681136846542358
0.12152998894453049 0.28797829151153564 0.70672690868377686
0.2892780601978302 0.29329994320869446 0.70277422666549683
0.43495804071426392 0.29547059535980225 0.69954574108123779
0.57102596759796143 0.28849217295646667 0.69326066970825195
0.68943172693252563 0.25242596864700317 0.68215346336364746
0.78089386224746704 0.18831224739551544 0.66160953044891357
0.11565180867910385 0.46810877323150635 0.77446651458740234
0.21345290541648865 0.47448980808258057 0.77312600612640381
0.3536897599697113 0.48521435260772705 0.77091902494430542
0.48804196715354919 0.49287736415863037 0.76806807518005371
0.61637359857559204 0.50130248069763184 0.7680436372756958
0.74270510673522949 0.49516937136650085 0.7620200514793396
0.8467177152633667 0.47646808624267578 0.75445818901062012
0.25497016310691833 0.62066411972045898 0.83383011817932129
0.3158811628818512 0.6247062087059021 0.83384144306182861
0.41862329840660095 0.63360923528671265 0.83084601163864136
0.54042810201644897 0.64228266477584839 0.82823103666305542
0.65883028507232666 0.65180438756942749 0.82952064275741577
0.77606499195098877 0.64749270677566528 0.82549452781677246
0.8865317702293396 0.64857500791549683 0.82608217000961304
0.3756181001663208 0.76391249895095825 0.89516890048980713
0.41265508532524109 0.76728588342666626 0.89433354139328003
0.4971376359462738 0.77305126190185547 0.89210325479507446
0.5855603814125061 0.77837526798248291 0.89132142066955566
0.69438177347183228 0.78626000881195068 0.89165854454040527
0.81358104944229126 0.78777945041656494 0.88899493217468262
0.92120057344436646 0.79099160432815552 0.88537347316741943
0.48243528604507446 0.89846312999725342 0.95871609449386597
0.50511473417282104 0.90473777055740356 0.96002238988876343
0.56700003147125244 0.90906190872192383 0.95787793397903442
0.64092153310775757 0.91212654113769531 0.95745211839675903
0.73878580331802368 0.9269411563873291 0.96415162086486816
0.85075670480728149 0.93784761428833008 0.96810555458068848
0.97002911567687988 0.94436711072921753 0.96752816438674927
