luts/colorslide/kodak_elite_extracolor_100.cube
# Created by: G'MIC (https://gmic.eu)
TITLE "kodak_elite_extracolor_100"
# LUT size
LUT_3D_SIZE 13
# Data domain
DOMAIN_MIN 0.0 0.0 0.0
DOMAIN_MAX 1.0 1.0 1.0
# LUT data points
0.039727065712213516 0.031361181288957596 0.027583522722125053
0.085298947989940643 0.029001258313655853 0.025102831423282623
0.13477623462677002 0.025152826681733131 0.022691912949085236
0.19257570803165436 0.024275582283735275 0.024298334494233131
0.25502529740333557 0.020606337115168571 0.018421217799186707
0.32088741660118103 0.015587585978209972 0.014827384613454342
0.39812776446342468 0.0088622299954295158 0.012287304736673832
0.49023699760437012 0.008455897681415081 0.012645168229937553
0.56864899396896362 0.0070048612542450428 0.010997802019119263
0.63639569282531738 0.0042604184709489346 0.0089705819264054298
0.69634687900543213 0.00061274511972442269 0.0076274648308753967
0.7538796067237854 0 0.0056972876191139221
0.8056456446647644 0 0.0032819411717355251
0.075727410614490509 0.093989908695220947 0.038721587508916855
0.11008742451667786 0.09016215056180954 0.039819110184907913
0.15486882627010345 0.084412500262260437 0.038035135716199875
0.21005059778690338 0.077073760330677032 0.035927612334489822
0.27269420027732849 0.069223992526531219 0.028947433456778526
0.34220874309539795 0.0597548708319664 0.024773482233285904
0.41600218415260315 0.045328386127948761 0.020432969555258751
0.49698269367218018 0.033632270991802216 0.018704762682318687
0.57533043622970581 0.023168452084064484 0.016846645623445511
0.64149630069732666 0.0092417849227786064 0.0090888980776071548
0.70008498430252075 0.0027581308968365192 0.0051805833354592323
0.75758844614028931 0.0026552686467766762 0.0045212986879050732
0.81122291088104248 0.0002986833278555423 0.0019357868004590273
0.10327262431383133 0.16163492202758789 0.061481520533561707
0.13061384856700897 0.15434363484382629 0.059891059994697571
0.1708189994096756 0.14747323095798492 0.057991459965705872
0.22651559114456177 0.13876289129257202 0.054562408477067947
0.29069703817367554 0.12993872165679932 0.048188991844654083
0.36191579699516296 0.12142138183116913 0.040792010724544525
0.43633505702018738 0.1083681732416153 0.032651204615831375
0.51847082376480103 0.090520016849040985 0.027888428419828415
0.59527993202209473 0.071314103901386261 0.02401205338537693
0.65723025798797607 0.047989189624786377 0.012577340938150883
0.71060466766357422 0.024464759975671768 0.0062549817375838757
0.76650571823120117 0.0098470654338598251 0.0035796521697193384
0.81975173950195312 0.0032995934598147869 0.00094727159012109041
0.12434075772762299 0.23316268622875214 0.08752092719078064
0.15128421783447266 0.22658734023571014 0.084506213665008545
0.19422657787799835 0.22131501138210297 0.080569230020046234
0.25017452239990234 0.21185439825057983 0.074966982007026672
0.3129342794418335 0.20214535295963287 0.068729415535926819
0.38339143991470337 0.19338856637477875 0.062149077653884888
0.46107256412506104 0.18191197514533997 0.050109025090932846
0.54480648040771484 0.16329647600650787 0.039548821747303009
0.62098419666290283 0.14131700992584229 0.028324620798230171
0.67977619171142578 0.11582149565219879 0.018816405907273293
0.73365682363510132 0.085219934582710266 0.010305053554475307
0.78293228149414062 0.044580347836017609 0.0039592068642377853
0.82799166440963745 0.015387770719826221 0.0018517138669267297
0.13985167443752289 0.30687063932418823 0.10961517691612244
0.16727577149868011 0.30229783058166504 0.10612165927886963
0.2191622257232666 0.30247139930725098 0.10298287123441696
0.27696359157562256 0.29796913266181946 0.096952773630619049
0.33627745509147644 0.28669363260269165 0.089355617761611938
0.40778431296348572 0.27907481789588928 0.083440624177455902
0.48827290534973145 0.26901313662528992 0.07292640209197998
0.57107669115066528 0.25145629048347473 0.05860607698559761
0.64538943767547607 0.22703048586845398 0.041564043611288071
0.70456540584564209 0.19588616490364075 0.028957322239875793
0.76148748397827148 0.1640809178352356 0.017911739647388458
0.81159341335296631 0.12365409731864929 0.0076989717781543732
0.85059905052185059 0.072222523391246796 0.0044679529964923859
0.15743435919284821 0.39790740609169006 0.12318024039268494
0.18886508047580719 0.39914968609809875 0.11802104860544205
0.24181380867958069 0.40040773153305054 0.11417779326438904
0.30044063925743103 0.39677411317825317 0.10859285295009613
0.36298933625221252 0.38782575726509094 0.10132069140672684
0.43620529770851135 0.37554937601089478 0.097080141305923462
0.51616090536117554 0.36175161600112915 0.089314870536327362
0.59913599491119385 0.3505021333694458 0.077640682458877563
0.6739841103553772 0.33074939250946045 0.058642160147428513
0.73422795534133911 0.29902583360671997 0.042575355619192123
0.79379665851593018 0.26786813139915466 0.028700241819024086
0.84656071662902832 0.22908921539783478 0.015478186309337616
0.88670122623443604 0.17573350667953491 0.0073112486861646175
0.17972585558891296 0.51012611389160156 0.12826278805732727
0.21370632946491241 0.50719356536865234 0.12263218313455582
0.26433476805686951 0.50591832399368286 0.11676559597253799
0.32463037967681885 0.50272399187088013 0.11353092640638351
0.39076390862464905 0.49686327576637268 0.1077866330742836
0.46427637338638306 0.48469918966293335 0.10241681337356567
0.54943752288818359 0.47244131565093994 0.09482855349779129
0.63407725095748901 0.46065914630889893 0.087130993604660034
0.70977061986923218 0.44355982542037964 0.070915490388870239
0.77031558752059937 0.41387766599655151 0.054445289075374603
0.83058947324752808 0.38634821772575378 0.039158135652542114
0.88618189096450806 0.35326704382896423 0.022737869992852211
0.92522317171096802 0.30302602052688599 0.011439020745456219
0.20552600920200348 0.61808788776397705 0.12337211519479752
0.24077431857585907 0.61362671852111816 0.11769014596939087
0.28885290026664734 0.61030870676040649 0.11207733303308487
0.35097843408584595 0.60666322708129883 0.11007373034954071
0.4186004102230072 0.60485810041427612 0.10804396867752075
0.49744096398353577 0.5972101092338562 0.10165795683860779
0.5883784294128418 0.58818858861923218 0.094547957181930542
0.67439568042755127 0.57854205369949341 0.086500130593776703
0.74981057643890381 0.56638967990875244 0.076286330819129944
0.80982309579849243 0.54412573575973511 0.062970392405986786
0.86832207441329956 0.51881736516952515 0.04642917588353157
0.92409229278564453 0.49098825454711914 0.028026759624481201
0.96594125032424927 0.44951030611991882 0.01469294261187315
0.24392694234848022 0.71613019704818726 0.099437311291694641
0.27509281039237976 0.71316421031951904 0.099860094487667084
0.31890493631362915 0.7116774320602417 0.095777742564678192
0.38511854410171509 0.70660340785980225 0.090948648750782013
0.45879647135734558 0.70476949214935303 0.085133090615272522
0.54176026582717896 0.70009851455688477 0.081108301877975464
0.63180297613143921 0.69621497392654419 0.078361287713050842
0.71262615919113159 0.69145900011062622 0.073388434946537018
0.78506183624267578 0.68379205465316772 0.065609723329544067
0.84922170639038086 0.6717604398727417 0.056954268366098404
0.9074702262878418 0.65254712104797363 0.041981998831033707
0.96016746759414673 0.6279638409614563 0.029056129977107048
0.99346619844436646 0.60431212186813354 0.019061923027038574
0.29448923468589783 0.80670100450515747 0.057720109820365906
0.32551521062850952 0.80523645877838135 0.05565975233912468
0.36785757541656494 0.80429381132125854 0.05549207329750061
0.43576565384864807 0.80274134874343872 0.053249567747116089
0.51120656728744507 0.80094563961029053 0.047819294035434723
0.5912480354309082 0.79716861248016357 0.044849876314401627
0.67225342988967896 0.79376071691513062 0.041461046785116196
0.7482377290725708 0.78927022218704224 0.040358688682317734
0.8165556788444519 0.78111457824707031 0.039117027074098587
0.88187873363494873 0.77465426921844482 0.032245021313428879
0.9435228705406189 0.76843178272247314 0.026064928621053696
0.98731005191802979 0.75307518243789673 0.024296779185533524
0.99494415521621704 0.73507183790206909 0.019623475149273872
0.35129547119140625 0.89205664396286011 0.013196294195950031
0.38096234202384949 0.89211553335189819 0.012733145616948605
0.42225274443626404 0.89168673753738403 0.01278216764330864
0.49137622117996216 0.89252579212188721 0.013210656121373177
0.56353437900543213 0.89179778099060059 0.011520953848958015
0.63650387525558472 0.88925224542617798 0.0099650966003537178
0.71147060394287109 0.88526254892349243 0.0097065791487693787
0.78002190589904785 0.87987619638442993 0.011106602847576141
0.84585314989089966 0.87322378158569336 0.01245561521500349
0.91012716293334961 0.86820816993713379 0.010546306148171425
0.96696639060974121 0.86093157529830933 0.012976597994565964
0.99384450912475586 0.85553538799285889 0.014735576696693897
0.99610292911529541 0.84634542465209961 0.014445420354604721
0.41065207123756409 0.96779727935791016 0.0015542124165222049
0.43680861592292786 0.967415452003479 0.001557518495246768
0.47759664058685303 0.96780204772949219 0.0016380309825763106
0.53918606042861938 0.96815121173858643 0.0022461535409092903
0.6068418025970459 0.96625423431396484 0.0017901102546602488
0.67633241415023804 0.96553277969360352 0.001550517394207418
0.74338358640670776 0.96388983726501465 0.0018750957679003477
0.80940097570419312 0.96183079481124878 0.002310135867446661
0.87455576658248901 0.95939040184020996 0.002154436195269227
0.93592685461044312 0.95669496059417725 0.0022771947551518679
0.9860999584197998 0.95364773273468018 0.0037148867268115282
0.99644875526428223 0.94583255052566528 0.0044783051125705242
0.99839586019515991 0.94050538539886475 0.0046278559602797031
0.49011841416358948 0.99729150533676147 0
0.50752252340316772 0.99917936325073242 0
0.54664474725723267 0.99845826625823975 0
0.60226494073867798 0.99554461240768433 0
0.66397714614868164 0.99421542882919312 0
0.7276654839515686 0.99773460626602173 0
0.79005730152130127 0.99732112884521484 0
0.85161817073822021 0.99693840742111206 0
0.91009169816970825 0.99759691953659058 0
0.96819573640823364 0.99720638990402222 0
0.9945259690284729 0.99513077735900879 0
0.9999464750289917 0.99146723747253418 0
1 0.99212014675140381 0
0.03132915124297142 0.030983120203018188 0.076242469251155853
0.070547349750995636 0.030869906768202782 0.072803214192390442
0.11902667582035065 0.027911616489291191 0.068342424929141998
0.17895741760730743 0.026049280539155006 0.066145248711109161
0.24568356573581696 0.022833267226815224 0.061016425490379333
0.31350624561309814 0.015373828820884228 0.050815194845199585
0.39146921038627625 0.010410069487988949 0.044610250741243362
0.48169705271720886 0.0095130773261189461 0.042917244136333466
0.56250029802322388 0.0090109435841441154 0.034424308687448502
0.63189816474914551 0.0059719160199165344 0.022324386984109879
0.6943047046661377 0.0011862511746585369 0.01261482946574688
0.75179153680801392 0 0.0094309486448764801
0.80418223142623901 0 0.0072081321850419044
0.069607846438884735 0.092476695775985718 0.088406190276145935
0.098532207310199738 0.091032557189464569 0.087525248527526855
0.14140661060810089 0.087390854954719543 0.085314854979515076
0.19606921076774597 0.08150608092546463 0.081507645547389984
0.26204875111579895 0.072832711040973663 0.073965691030025482
0.33238279819488525 0.061528313905000687 0.064877845346927643
0.41037490963935852 0.048221349716186523 0.057187579572200775
0.49341499805450439 0.035553112626075745 0.047539893537759781
0.57342594861984253 0.024523282423615456 0.035530447959899902
0.63976311683654785 0.015271160751581192 0.024547336623072624
0.69775241613388062 0.0064405854791402817 0.014598876237869263
0.75462019443511963 0.0010372984688729048 0.0088299624621868134
0.80951333045959473 2.9784558137180284e-05 0.0048884972929954529
0.1021730899810791 0.15793173015117645 0.10243400186300278
0.1243724599480629 0.15564635396003723 0.10342392325401306
0.16172747313976288 0.15208032727241516 0.1021159291267395
0.21514241397380829 0.14321593940258026 0.098944239318370819
0.28203141689300537 0.1355539858341217 0.092591501772403717
0.35504263639450073 0.1264883428812027 0.083322487771511078
0.43288639187812805 0.1095842570066452 0.073086410760879517
0.51431816816329956 0.090294197201728821 0.060635704547166824
0.59151566028594971 0.068562872707843781 0.04483501985669136
0.65328574180603027 0.045001473277807236 0.030856622382998466
0.70697730779647827 0.02223815955221653 0.017715049907565117
0.76048046350479126 0.0076400907710194588 0.008397495374083519
0.81508958339691162 0.0043629216961562634 0.0041638691909611225
0.12056977301836014 0.22841490805149078 0.12230992317199707
0.14485244452953339 0.22575743496417999 0.12014465034008026
0.1822979599237442 0.22095096111297607 0.11739692091941833
0.2406516820192337 0.21306765079498291 0.1139180064201355
0.30553340911865234 0.20516550540924072 0.10916885733604431
0.37468656897544861 0.19423979520797729 0.10026410967111588
0.4563654363155365 0.18094316124916077 0.089707560837268829
0.54008179903030396 0.16407692432403564 0.07761770486831665
0.61612439155578613 0.14350570738315582 0.063886068761348724
0.67553430795669556 0.11805783212184906 0.047934975475072861
0.72899878025054932 0.084025286138057709 0.029577890411019325
0.77705812454223633 0.043152336031198502 0.014122053980827332
0.82242178916931152 0.016318915411829948 0.0060520097613334656
0.130017951130867 0.30542910099029541 0.14205443859100342
0.15987181663513184 0.30504876375198364 0.13851766288280487
0.20655824244022369 0.30376133322715759 0.13416558504104614
0.26789280772209167 0.29824155569076538 0.12842223048210144
0.3324432373046875 0.28997600078582764 0.12276730686426163
0.40049397945404053 0.28017064929008484 0.11618897318840027
0.48248305916786194 0.26929804682731628 0.10667359828948975
0.56796467304229736 0.25352627038955688 0.093223899602890015
0.64044296741485596 0.22750432789325714 0.078988783061504364
0.69972449541091919 0.19616635143756866 0.061018567532300949
0.75808858871459961 0.16344048082828522 0.041299618780612946
0.80656534433364868 0.12157861888408661 0.023448195308446884
0.84606474637985229 0.07411753386259079 0.010128604248166084
0.14736823737621307 0.39703220129013062 0.15260201692581177
0.17742225527763367 0.39663523435592651 0.14888863265514374
0.23041284084320068 0.39768263697624207 0.14535047113895416
0.29051825404167175 0.39373719692230225 0.14080110192298889
0.35842302441596985 0.38763993978500366 0.13446405529975891
0.4314633309841156 0.37826681137084961 0.12878169119358063
0.51256024837493896 0.36503434181213379 0.11980203539133072
0.60023462772369385 0.34938371181488037 0.10529281198978424
0.6670723557472229 0.32726696133613586 0.090016774833202362
0.72832024097442627 0.29931649565696716 0.072504304349422455
0.78968405723571777 0.26857760548591614 0.056473031640052795
0.8417738676071167 0.22915634512901306 0.037720669060945511
0.88290029764175415 0.18296541273593903 0.018549228087067604
0.16849546134471893 0.50614053010940552 0.15316657721996307
0.19847966730594635 0.50263553857803345 0.15360221266746521
0.25150877237319946 0.50318074226379395 0.15035165846347809
0.31357210874557495 0.49882805347442627 0.14603443443775177
0.38227730989456177 0.49385783076286316 0.14022156596183777
0.45821490883827209 0.48534509539604187 0.13314574956893921
0.54570329189300537 0.47291731834411621 0.12206722795963287
0.6343238353729248 0.46024566888809204 0.11289538443088531
0.70400875806808472 0.4452020525932312 0.099193066358566284
0.76622158288955688 0.41937702894210815 0.083709895610809326
0.82465708255767822 0.38853928446769714 0.071028962731361389
0.87825566530227661 0.35230904817581177 0.051328785717487335
0.92364919185638428 0.30421215295791626 0.025879161432385445
0.19179061055183411 0.61697745323181152 0.14697928726673126
0.22531051933765411 0.61578279733657837 0.14997778832912445
0.27555477619171143 0.61325162649154663 0.14625565707683563
0.33906301856040955 0.60777276754379272 0.14317673444747925
0.40748220682144165 0.60283178091049194 0.14023531973361969
0.49155142903327942 0.59442359209060669 0.129092738032341
0.58208435773849487 0.58556556701660156 0.11806008964776993
0.66785985231399536 0.57951241731643677 0.11111427843570709
0.74500244855880737 0.56920105218887329 0.10178372263908386
0.80575370788574219 0.54679840803146362 0.089519038796424866
0.86358660459518433 0.52113604545593262 0.074144028127193451
0.91980278491973877 0.49378922581672668 0.054565176367759705
0.96447211503982544 0.44907915592193604 0.034688971936702728
0.2312568724155426 0.71537238359451294 0.1266418844461441
0.26008588075637817 0.71404838562011719 0.13341224193572998
0.31069928407669067 0.71124690771102905 0.12361223995685577
0.3744109570980072 0.70702058076858521 0.11798722296953201
0.45001968741416931 0.70449650287628174 0.11521971225738525
0.53719949722290039 0.69819176197052002 0.10540952533483505
0.6232265830039978 0.69331681728363037 0.099827349185943604
0.70464056730270386 0.68817991018295288 0.093330740928649902
0.77949446439743042 0.6817815899848938 0.086705178022384644
0.84462523460388184 0.67235922813415527 0.082265563309192657
0.90299838781356812 0.65418404340744019 0.067983634769916534
0.95953315496444702 0.63155925273895264 0.051377017050981522
0.99254578351974487 0.59976100921630859 0.03509083017706871
0.28008195757865906 0.80452942848205566 0.083910532295703888
0.30998432636260986 0.8040727972984314 0.081239916384220123
0.35621392726898193 0.80311125516891479 0.078816778957843781
0.4218425452709198 0.80098485946655273 0.072914168238639832
0.50298702716827393 0.80010461807250977 0.069357611238956451
0.5848538875579834 0.79735487699508667 0.068012967705726624
0.66555243730545044 0.79383343458175659 0.062456004321575165
0.74079704284667969 0.78911560773849487 0.061848331242799759
0.81076526641845703 0.78135257959365845 0.056021373718976974
0.87827461957931519 0.77541255950927734 0.051192086189985275
0.9376111626625061 0.76812529563903809 0.043833401054143906
0.98620748519897461 0.75422793626785278 0.034319020807743073
0.99656659364700317 0.73202139139175415 0.025037609040737152
0.33820968866348267 0.88985967636108398 0.021576510742306709
0.36619585752487183 0.88902348279953003 0.019547257572412491
0.41234502196311951 0.88948726654052734 0.021793724969029427
0.47598499059677124 0.88992857933044434 0.018303411081433296
0.55073368549346924 0.88823550939559937 0.019661428406834602
0.62828546762466431 0.88592159748077393 0.022123703733086586
0.70702165365219116 0.88627159595489502 0.014767127111554146
0.77430969476699829 0.88041168451309204 0.016777427867054939
0.84198307991027832 0.87488341331481934 0.01636289618909359
0.90835821628570557 0.87110501527786255 0.013589627109467983
0.96634757518768311 0.86469942331314087 0.012020185589790344
0.99202418327331543 0.8552899956703186 0.014422951266169548
0.99694883823394775 0.84392189979553223 0.014904096722602844
0.40363287925720215 0.96808499097824097 0.0022507612593472004
0.42888686060905457 0.96618616580963135 0.0039343293756246567
0.47272151708602905 0.96896541118621826 0.0026471007149666548
0.53204745054244995 0.96908628940582275 0.0038393805734813213
0.59883695840835571 0.96670663356781006 0.003332863561809063
0.67289698123931885 0.96466267108917236 0.0031616808846592903
0.74205601215362549 0.96487313508987427 0.0019643297418951988
0.80786991119384766 0.96214872598648071 0.0017249612137675285
0.87238508462905884 0.9547918438911438 0.0015588797396048903
0.93511670827865601 0.95646339654922485 0.0012877819826826453
0.98537141084671021 0.95447206497192383 0.0011137420078739524
0.9952964186668396 0.944649338722229 0.0029318865854293108
0.99878084659576416 0.93843621015548706 0.0045136995613574982
0.48723536729812622 0.99744307994842529 0
0.50741362571716309 0.99729740619659424 0
0.54399758577346802 0.99596232175827026 0
0.59884476661682129 0.99606019258499146 0
0.66145545244216919 0.99672019481658936 0
0.72572970390319824 0.99787092208862305 0
0.78675496578216553 0.9963153600692749 0
0.84951263666152954 0.99448329210281372 0
0.91187047958374023 0.99291896820068359 3.3569336665095761e-05
0.96876758337020874 0.99598026275634766 1.7772001228877343e-05
0.99466425180435181 0.99447226524353027 0
0.99984103441238403 0.98919248580932617 0
1 0.98605221509933472 0
0.026205563917756081 0.031403575092554092 0.12361593544483185
0.061378777027130127 0.032868359237909317 0.12176884710788727
0.10949006676673889 0.031785570085048676 0.11846008151769638
0.16571807861328125 0.027588309720158577 0.11338994652032852
0.23385338485240936 0.022466875612735748 0.10588712245225906
0.30515983700752258 0.015570771880447865 0.095779865980148315
0.38606062531471252 0.011255930177867413 0.086744360625743866
0.47217991948127747 0.008156915195286274 0.079963341355323792
0.55059486627578735 0.0054521895945072174 0.068957597017288208
0.62232643365859985 0.002499748719856143 0.053902987390756607
0.68732678890228271 0.0001659767294768244 0.040698975324630737
0.74856072664260864 0 0.029191169887781143
0.80490261316299438 0 0.017793886363506317
0.06242452934384346 0.092171765863895416 0.13863757252693176
0.088630005717277527 0.091884776949882507 0.1368090808391571
0.13059526681900024 0.089587271213531494 0.13381314277648926
0.18391729891300201 0.084574408829212189 0.12960012257099152
0.25112628936767578 0.074819706380367279 0.12102888524532318
0.32350489497184753 0.061438333243131638 0.11077049374580383
0.40455442667007446 0.049061208963394165 0.10152359306812286
0.48827695846557617 0.035984009504318237 0.091447748243808746
0.56385225057601929 0.021370876580476761 0.074624858796596527
0.62860643863677979 0.010147902183234692 0.057728949934244156
0.68798404932022095 0.0036836361978203058 0.044368144124746323
0.748585045337677 0.00095364439766854048 0.032044969499111176
0.80430912971496582 0 0.01789398118853569
0.098824471235275269 0.1558782160282135 0.15216819941997528
0.11713223904371262 0.15520788729190826 0.15086530148983002
0.15309698879718781 0.15242323279380798 0.14920565485954285
0.20358352363109589 0.14588955044746399 0.14575217664241791
0.27301976084709167 0.13718155026435852 0.13815616071224213
0.34689399600028992 0.12413635104894638 0.12752434611320496
0.42400017380714417 0.10894457995891571 0.11708542704582214
0.5068671703338623 0.091188825666904449 0.10409415513277054
0.58400112390518188 0.069740161299705505 0.086914107203483582
0.64685666561126709 0.046761710196733475 0.070914968848228455
0.69996100664138794 0.023430140689015388 0.052134331315755844
0.75408625602722168 0.0064947986975312233 0.033099889755249023
0.80801248550415039 0.0016293544322252274 0.017030917108058929
0.11257340759038925 0.22512049973011017 0.16729338467121124
0.13546021282672882 0.22354570031166077 0.16474814713001251
0.17093624174594879 0.22054657340049744 0.16251166164875031
0.22735168039798737 0.21535193920135498 0.15962794423103333
0.29589790105819702 0.20828135311603546 0.15499235689640045
0.36866077780723572 0.19607686996459961 0.14520078897476196
0.44799193739891052 0.18266087770462036 0.13346722722053528
0.53248721361160278 0.16379657387733459 0.11946435272693634
0.61045092344284058 0.14436018466949463 0.10418849438428879
0.6692625880241394 0.11966944485902786 0.088420048356056213
0.72275519371032715 0.086479783058166504 0.068641230463981628
0.77279835939407349 0.048977136611938477 0.044850174337625504
0.81684231758117676 0.014512754045426846 0.022965256124734879
0.10968249291181564 0.30368891358375549 0.18301376700401306
0.14469896256923676 0.30364441871643066 0.17918908596038818
0.19142436981201172 0.30308163166046143 0.17479868233203888
0.25425571203231812 0.30169877409934998 0.17019785940647125
0.32191929221153259 0.29414716362953186 0.16669832170009613
0.39420223236083984 0.28374868631362915 0.16118666529655457
0.47592133283615112 0.27143099904060364 0.14903730154037476
0.56024849414825439 0.25042504072189331 0.13519185781478882
0.63645005226135254 0.22621223330497742 0.12004969269037247
0.69533646106719971 0.19823183119297028 0.10430411249399185
