luts/colorslide/kodak_kodachrome_200.cube
# Created by: G'MIC (https://gmic.eu)
TITLE "kodak_kodachrome_200"
# LUT size
LUT_3D_SIZE 5
# Data domain
DOMAIN_MIN 0.0 0.0 0.0
DOMAIN_MAX 1.0 1.0 1.0
# LUT data points
0.020950032398104668 0.017410997301340103 0.014215192757546902
0.19318129122257233 0.020160077139735222 0.017961105331778526
0.49650722742080688 0.019324926659464836 0.02507336251437664
0.73970264196395874 0.01514276210218668 0.024820156395435333
0.91414302587509155 0.010414452292025089 0.017459660768508911
0.09177708625793457 0.23418587446212769 0.11604748666286469
0.25462359189987183 0.23431462049484253 0.121440589427948
0.5367966890335083 0.22561362385749817 0.12442535907030106
0.75833320617675781 0.21237054467201233 0.11310639977455139
0.93090552091598511 0.18140247464179993 0.080201365053653717
0.14975844323635101 0.52178066968917847 0.27391088008880615
0.35027322173118591 0.52081388235092163 0.27907073497772217
0.57383722066879272 0.52235710620880127 0.27587485313415527
0.76656311750411987 0.52022475004196167 0.25105190277099609
0.94039362668991089 0.50810486078262329 0.19710753858089447
0.40694651007652283 0.72536540031433105 0.46595919132232666
0.47900450229644775 0.71857661008834839 0.46024063229560852
0.62486803531646729 0.72607821226119995 0.46262398362159729
0.7831684947013855 0.72412556409835815 0.44067409634590149
0.94342046976089478 0.71685051918029785 0.37860465049743652
0.56881225109100342 0.90916693210601807 0.63576740026473999
0.60441493988037109 0.90870571136474609 0.63786453008651733
0.68996310234069824 0.91593420505523682 0.64052551984786987
0.81157666444778442 0.9179651141166687 0.63532990217208862
0.97169166803359985 0.91369724273681641 0.60250145196914673
0.017032219097018242 0.019026497378945351 0.10970993340015411
0.18436504900455475 0.018321497365832329 0.11269596964120865
0.49543744325637817 0.019152861088514328 0.12054247409105301
0.73635172843933105 0.012646768242120743 0.10645608603954315
0.9148484468460083 0.0063616582192480564 0.071510091423988342
0.078713454306125641 0.23476326465606689 0.23744496703147888
0.2444075345993042 0.23024716973304749 0.24040646851062775
0.5269591212272644 0.22360590100288391 0.24636408686637878
0.74733525514602661 0.20817065238952637 0.22496853768825531
0.92749249935150146 0.17469452321529388 0.16800796985626221
0.11725368350744247 0.52587783336639404 0.39479368925094604
0.32912158966064453 0.51992559432983398 0.39627829194068909
0.5643923282623291 0.52280652523040771 0.39737996459007263
0.75886231660842896 0.51695001125335693 0.38029947876930237
0.92763435840606689 0.49981021881103516 0.33317950367927551
0.39201778173446655 0.72747254371643066 0.54482156038284302
0.4729883074760437 0.72829568386077881 0.54540592432022095
0.6139104962348938 0.72615492343902588 0.54343611001968384
0.77105569839477539 0.72361981868743896 0.54126584529876709
0.93360447883605957 0.71332615613937378 0.50218778848648071
0.56470948457717896 0.91954004764556885 0.68455570936203003
0.60071057081222534 0.91313546895980835 0.68037456274032593
0.68349575996398926 0.92035967111587524 0.68789303302764893
0.80480480194091797 0.91473877429962158 0.68054497241973877
0.96738249063491821 0.92023736238479614 0.66321909427642822
0.0066642910242080688 0.014154545962810516 0.28294572234153748
0.16138611733913422 0.013762754388153553 0.29039940237998962
0.47490561008453369 0.013086550869047642 0.30066940188407898
0.72429752349853516 0.01052703894674778 0.28903687000274658
0.90412795543670654 0.0035038217902183533 0.24783945083618164
0.062770560383796692 0.22622551023960114 0.40005600452423096
0.21961294114589691 0.21990187466144562 0.40164870023727417
0.51076191663742065 0.21283428370952606 0.41503337025642395
0.73454457521438599 0.1925462931394577 0.40751838684082031
0.91124826669692993 0.16491973400115967 0.37894803285598755
0.064371682703495026 0.52738136053085327 0.5308040976524353
0.29979416728019714 0.52356159687042236 0.52942359447479248
0.54807591438293457 0.52079916000366211 0.54092293977737427
0.74579215049743652 0.51367592811584473 0.53805238008499146
0.91693621873855591 0.50598961114883423 0.52367484569549561
0.36354979872703552 0.72471112012863159 0.63897436857223511
0.45356911420822144 0.72575384378433228 0.64223825931549072
0.60125255584716797 0.72307431697845459 0.64525902271270752
0.76587200164794922 0.7210700511932373 0.64288640022277832
0.92654097080230713 0.7225678563117981 0.6400153636932373
0.55491292476654053 0.91952407360076904 0.75258058309555054
0.59188026189804077 0.9251067042350769 0.75722086429595947
0.67753905057907104 0.92207634449005127 0.75445616245269775
0.80121320486068726 0.9264640212059021 0.7576591968536377
0.96728497743606567 0.92623770236968994 0.75384855270385742
0.0028186424169689417 0.011349367909133434 0.432098388671875
0.13177323341369629 0.009420701302587986 0.44235679507255554
0.45422661304473877 0.008509497158229351 0.45927608013153076
0.7076532244682312 0.0059051811695098877 0.46597293019294739
0.88754212856292725 0.0016922595677897334 0.45546171069145203
0.042297825217247009 0.19750294089317322 0.52030676603317261
0.19126057624816895 0.19651180505752563 0.5295259952545166
0.48799529671669006 0.18387290835380554 0.5415465235710144
0.72396373748779297 0.1698765903711319 0.54477739334106445
0.89924770593643188 0.13380838930606842 0.53728646039962769
0.021660912781953812 0.51896554231643677 0.63392478227615356
0.26048189401626587 0.5127071738243103 0.63966351747512817
0.52957642078399658 0.5042879581451416 0.64838755130767822
0.73455619812011719 0.5050169825553894 0.65348869562149048
0.90747851133346558 0.48632943630218506 0.65040075778961182
0.33344212174415588 0.72436153888702393 0.72974240779876709
0.43598282337188721 0.72069275379180908 0.73206526041030884
0.58325636386871338 0.72435295581817627 0.74169379472732544
0.7551310658454895 0.71915090084075928 0.74458974599838257
0.91929090023040771 0.71922194957733154 0.74704539775848389
0.53472673892974854 0.93174064159393311 0.83405369520187378
0.57333612442016602 0.92383396625518799 0.83345788717269897
0.66302448511123657 0.93160974979400635 0.8395460844039917
0.7908129096031189 0.93128794431686401 0.84348040819168091
0.96853142976760864 0.93127614259719849 0.84240502119064331
0.0016205431893467903 0.0052017662674188614 0.53244262933731079
0.097584426403045654 0.0048190546222031116 0.53601151704788208
0.43599721789360046 0.0047743255272507668 0.55156826972961426
0.68894898891448975 0.0014330246485769749 0.57288998365402222
0.88065409660339355 0.0017140855779871345 0.5726616382598877
0.019710391759872437 0.1537376195192337 0.60020071268081665
0.15027590095996857 0.15329112112522125 0.60829102993011475
0.47617670893669128 0.14266720414161682 0.62544828653335571
0.70979195833206177 0.12321914732456207 0.6339835524559021
0.88958990573883057 0.089963383972644806 0.63339471817016602
0.0033399844542145729 0.49578851461410522 0.71150439977645874
0.19767823815345764 0.496500164270401 0.71989357471466064
0.5118098258972168 0.49453997611999512 0.73247683048248291
0.72147554159164429 0.48401311039924622 0.73868006467819214
0.90346348285675049 0.46904602646827698 0.74459844827651978
0.27594897150993347 0.72071963548660278 0.80832195281982422
0.38786327838897705 0.71582376956939697 0.81579053401947021
0.56597369909286499 0.71942192316055298 0.82342863082885742
0.74030536413192749 0.71283638477325439 0.83190488815307617
0.91510045528411865 0.71136116981506348 0.83990943431854248
0.49954798817634583 0.93086773157119751 0.92365926504135132
0.54396682977676392 0.93104863166809082 0.92426693439483643
0.63841116428375244 0.9354667067527771 0.93390464782714844
0.77294182777404785 0.93458127975463867 0.94344377517700195
0.9676511287689209 0.93987655639648438 0.95747506618499756
