luts/colorslide/kodak_ektachrome_100_vs.cube
# Created by: G'MIC (https://gmic.eu)
TITLE "kodak_ektachrome_100_vs"
# LUT size
LUT_3D_SIZE 5
# Data domain
DOMAIN_MIN 0.0 0.0 0.0
DOMAIN_MAX 1.0 1.0 1.0
# LUT data points
0.01514988299459219 0.01341400109231472 0.011329052038490772
0.15685538947582245 0.013539692386984825 0.0071374629624187946
0.44596439599990845 0.009862532839179039 0.0035174351651221514
0.74955236911773682 0.0017446181736886501 0.002198133384808898
0.98720282316207886 0 0.0018959195585921407
0.086785785853862762 0.20781901478767395 0.096048422157764435
0.25322511792182922 0.20241448283195496 0.077309839427471161
0.51292890310287476 0.1738429069519043 0.036708667874336243
0.78046208620071411 0.12030575424432755 0.022065853700041771
0.99588942527770996 0.044325422495603561 0.012116615660488605
0.24373611807823181 0.48102352023124695 0.19066426157951355
0.3742099404335022 0.48315814137458801 0.17575153708457947
0.58855944871902466 0.4636940062046051 0.14284765720367432
0.82538628578186035 0.44639629125595093 0.13596144318580627
0.99934166669845581 0.38544368743896484 0.16118314862251282
0.47403180599212646 0.74064493179321289 0.27213665843009949
0.5542902946472168 0.75490337610244751 0.26481431722640991
0.70947927236557007 0.75042790174484253 0.22819808125495911
0.90926873683929443 0.73917865753173828 0.18091578781604767
0.9998965859413147 0.7078436017036438 0.21323832869529724
0.75667721033096313 0.98672026395797729 0.35947379469871521
0.79690426588058472 0.98550361394882202 0.35103562474250793
0.88345515727996826 0.98513197898864746 0.33151787519454956
0.99070566892623901 0.98378771543502808 0.29590585827827454
1 0.98454093933105469 0.24818138778209686
0.001054920838214457 0.0098936939612030983 0.13020077347755432
0.11054081469774246 0.0084752105176448822 0.12149243801832199
0.41074883937835693 0.005365962628275156 0.086653359234333038
0.71925473213195801 0.0025365042965859175 0.061590589582920074
0.9860299825668335 0 0.040650147944688797
0.066370807588100433 0.2016349732875824 0.21674084663391113
0.20114168524742126 0.19147138297557831 0.20211032032966614
0.46493062376976013 0.16433237493038177 0.16669605672359467
0.75135594606399536 0.11002591997385025 0.12856572866439819
0.9953765869140625 0.029760802164673805 0.084026753902435303
0.18982948362827301 0.48080131411552429 0.28930360078811646
0.32609695196151733 0.47669976949691772 0.27991744875907898
0.54706346988677979 0.45887592434883118 0.27760547399520874
0.78943562507629395 0.43667900562286377 0.27384355664253235
0.9954526424407959 0.37494063377380371 0.26645082235336304
0.46695792675018311 0.75312083959579468 0.30141514539718628
0.53646129369735718 0.75300377607345581 0.29217749834060669
0.69060283899307251 0.74680769443511963 0.28231990337371826
0.87727898359298706 0.73418599367141724 0.29478621482849121
0.999256432056427 0.69808226823806763 0.36777132749557495
0.76445913314819336 0.98525649309158325 0.36152487993240356
0.79965877532958984 0.9859166145324707 0.35333022475242615
0.88736969232559204 0.98629266023635864 0.33362984657287598
0.99261081218719482 0.98514068126678467 0.29882273077964783
1 0.9819297194480896 0.25446036458015442
0 0.0044994279742240906 0.28263148665428162
0.057819966226816177 0.0056830462999641895 0.26492547988891602
0.36163163185119629 0.0042344634421169758 0.21672117710113525
0.69174790382385254 0.00044259463902562857 0.16714102029800415
0.97583609819412231 0 0.14208990335464478
0.016101447865366936 0.18662570416927338 0.39863023161888123
0.1437654048204422 0.17642688751220703 0.3741123378276825
0.41230541467666626 0.15673202276229858 0.32664510607719421
0.71719694137573242 0.098364017903804779 0.26441106200218201
0.98852300643920898 0.023611495271325111 0.19377270340919495
0.046830508857965469 0.46654447913169861 0.51014953851699829
0.21841582655906677 0.46276700496673584 0.48924094438552856
0.48073059320449829 0.4479677677154541 0.46584367752075195
0.7388988733291626 0.42041268944740295 0.43509894609451294
0.98637092113494873 0.36576706171035767 0.39670607447624207
0.34054774045944214 0.7353026270866394 0.54909694194793701
0.42989259958267212 0.73685669898986816 0.54961884021759033
0.59559828042984009 0.72789430618286133 0.54975289106369019
0.80606776475906372 0.71750414371490479 0.5443529486656189
0.99233078956604004 0.68551695346832275 0.5469549298286438
0.76728302240371704 0.99007546901702881 0.37763422727584839
0.80114060640335083 0.99069356918334961 0.37299808859825134
0.88487833738327026 0.98983347415924072 0.36610108613967896
0.9807438850402832 0.98664766550064087 0.37397545576095581
1 0.97468233108520508 0.47842714190483093
0 0.0071346508339047432 0.42853266000747681
0.017439059913158417 0.0040573119185864925 0.40547731518745422
0.30553314089775085 0.0045008193701505661 0.35097530484199524
0.64899361133575439 0.00056527828564867377 0.29113423824310303
0.95132392644882202 0 0.2473074197769165
0.0027960385195910931 0.17981721460819244 0.55470138788223267
0.070104293525218964 0.16757369041442871 0.52836734056472778
0.35723567008972168 0.14694693684577942 0.47431191802024841
0.67526859045028687 0.085678502917289734 0.39315992593765259
0.9670451283454895 0.015863815322518349 0.3054317831993103
0.0042371712625026703 0.45725715160369873 0.68057334423065186
0.087058261036872864 0.45380440354347229 0.66992855072021484
0.40372589230537415 0.43465331196784973 0.62960666418075562
0.69110751152038574 0.41098585724830627 0.58357465267181396
0.96478760242462158 0.35594207048416138 0.51888442039489746
0.1391596794128418 0.71999055147171021 0.77985942363739014
0.28040513396263123 0.71645939350128174 0.76728719472885132
0.50549584627151489 0.71199053525924683 0.75029081106185913
0.73677301406860352 0.69980770349502563 0.72506546974182129
0.97828567028045654 0.67110270261764526 0.69945591688156128
0.6226622462272644 0.97473061084747314 0.73848634958267212
0.65832430124282837 0.97493523359298706 0.74305933713912964
0.74679964780807495 0.97377747297286987 0.7503165602684021
0.88157528638839722 0.97051739692687988 0.75843650102615356
0.99924486875534058 0.96053361892700195 0.7874375581741333
0 0.002098951255902648 0.55053496360778809
0.0083170868456363678 0.0009414972155354917 0.52155035734176636
0.25396350026130676 0.00085869582835584879 0.45589396357536316
0.62064892053604126 0.001082192175090313 0.38066920638084412
0.9342162013053894 0 0.32066547870635986
0 0.16417007148265839 0.6779857873916626
0.018866175785660744 0.15672032535076141 0.6486085057258606
0.29786276817321777 0.1314397007226944 0.57641875743865967
0.63161689043045044 0.082257278263568878 0.49576222896575928
0.94284629821777344 0.010560981929302216 0.38600969314575195
0 0.44327834248542786 0.81439894437789917
0.011873866431415081 0.44447606801986694 0.79345917701721191
0.33139151334762573 0.43091413378715515 0.75093215703964233
0.64715373516082764 0.39966845512390137 0.68893003463745117
0.94191837310791016 0.34930083155632019 0.61156940460205078
0.0087278028950095177 0.70627766847610474 0.92508065700531006
0.089078061282634735 0.70911741256713867 0.92349725961685181
0.40844690799713135 0.70620346069335938 0.89751207828521729
0.67841768264770508 0.68801355361938477 0.85181558132171631
0.94953262805938721 0.66783833503723145 0.80596768856048584
0.45898693799972534 0.95887064933776855 0.99617063999176025
0.51215469837188721 0.96019715070724487 0.9972832202911377
0.6268584132194519 0.95611107349395752 0.99216377735137939
0.78433108329772949 0.95783793926239014 0.98848456144332886
0.98295676708221436 0.95169532299041748 0.97018700838088989
