luts/colorslide/kodak_kodachrome_200.cube
# Created by: G'MIC (https://gmic.eu)
TITLE "kodak_kodachrome_200"
# LUT size
LUT_3D_SIZE 13
# Data domain
DOMAIN_MIN 0.0 0.0 0.0
DOMAIN_MAX 1.0 1.0 1.0
# LUT data points
0.020950032398104668 0.017410997301340103 0.014215192757546902
0.062080278992652893 0.0198947973549366 0.016657795757055283
0.12017344683408737 0.020845988765358925 0.017067553475499153
0.19318129122257233 0.020160077139735222 0.017961105331778526
0.29149332642555237 0.022024895995855331 0.022729208692908287
0.39528214931488037 0.0199318528175354 0.023449990898370743
0.49650722742080688 0.019324926659464836 0.02507336251437664
0.59042292833328247 0.01535327360033989 0.023628817871212959
0.66827797889709473 0.016400132328271866 0.025392076000571251
0.73970264196395874 0.01514276210218668 0.024820156395435333
0.80465340614318848 0.010073837824165821 0.021823553368449211
0.86654800176620483 0.0089533636346459389 0.0184352807700634
0.91414302587509155 0.010414452292025089 0.017459660768508911
0.042474094778299332 0.068118482828140259 0.038395587354898453
0.077758610248565674 0.066954053938388824 0.040543753653764725
0.13576924800872803 0.065757989883422852 0.040320795029401779
0.21605290472507477 0.066430874168872833 0.042553681880235672
0.31102421879768372 0.067825838923454285 0.046573549509048462
0.41318318247795105 0.064147830009460449 0.048503201454877853
0.50995802879333496 0.062710873782634735 0.051142867654561996
0.59902030229568481 0.062619946897029877 0.051404617726802826
0.67474979162216187 0.05774974450469017 0.049630153924226761
0.74513339996337891 0.053442578762769699 0.046884305775165558
0.80878770351409912 0.044884908944368362 0.039412643760442734
0.8700748085975647 0.039970606565475464 0.031720388680696487
0.91831153631210327 0.037695687264204025 0.026898762211203575
0.072294645011425018 0.14080674946308136 0.075228370726108551
0.10145553946495056 0.13864432275295258 0.074041403830051422
0.15707571804523468 0.13845920562744141 0.076199688017368317
0.23694850504398346 0.13766787946224213 0.078140959143638611
0.3290189802646637 0.13495387136936188 0.080407127737998962
0.42628365755081177 0.13320188224315643 0.082827545702457428
0.52262008190155029 0.13207621872425079 0.084630526602268219
0.61013585329055786 0.12915243208408356 0.083464771509170532
0.68377113342285156 0.12356413155794144 0.080562174320220947
0.75200468301773071 0.11690393835306168 0.075315229594707489
0.81535857915878296 0.11008130013942719 0.066802069544792175
0.87685990333557129 0.101030133664608 0.055785235017538071
0.92482823133468628 0.091970346868038177 0.045531284064054489
0.09177708625793457 0.23418587446212769 0.11604748666286469
0.11784063279628754 0.23306421935558319 0.11623434722423553
0.17420345544815063 0.23456290364265442 0.11873526126146317
0.25462359189987183 0.23431462049484253 0.121440589427948
0.34831327199935913 0.23172366619110107 0.12309721112251282
0.44295445084571838 0.22823959589004517 0.12431932240724564
0.5367966890335083 0.22561362385749817 0.12442535907030106
0.61899155378341675 0.22245331108570099 0.12204592674970627
0.6897236704826355 0.2204410582780838 0.11943501234054565
0.75833320617675781 0.21237054467201233 0.11310639977455139
0.82129532098770142 0.20354120433330536 0.10361477732658386
0.88292372226715088 0.1921936422586441 0.091038346290588379
0.93090552091598511 0.18140247464179993 0.080201365053653717
0.068798437714576721 0.33668717741966248 0.16098254919052124
0.10276751220226288 0.33725717663764954 0.16130471229553223
0.18351183831691742 0.34058520197868347 0.16418863832950592
0.2745177149772644 0.33959728479385376 0.16913580894470215
0.36933925747871399 0.33470332622528076 0.16955871880054474
0.46099239587783813 0.33313855528831482 0.1671275794506073
0.54824542999267578 0.33285266160964966 0.16585399210453033
0.62626242637634277 0.33069494366645813 0.16370534896850586
0.69461411237716675 0.3273262083530426 0.16039940714836121
0.76275092363357544 0.3206380307674408 0.15271736681461334
0.82494163513183594 0.30805045366287231 0.14148233830928802
0.88591784238815308 0.29678606986999512 0.12864114344120026
0.93358057737350464 0.29120156168937683 0.11918515712022781
0.08482997864484787 0.43619713187217712 0.2132018506526947
0.13567453622817993 0.43556076288223267 0.21458087861537933
0.21578061580657959 0.43735429644584656 0.2167896032333374
0.30319124460220337 0.43897247314453125 0.22147662937641144
0.39198929071426392 0.43584915995597839 0.22115962207317352
0.47756919264793396 0.43494144082069397 0.21973066031932831
0.55965960025787354 0.43476647138595581 0.21634060144424438
0.63394975662231445 0.43384796380996704 0.21338553726673126
0.70162117481231689 0.43076694011688232 0.20711719989776611
0.76551192998886108 0.42605334520339966 0.19738174974918365
0.82680761814117432 0.41720995306968689 0.18402326107025146
0.88942581415176392 0.41058528423309326 0.16927359998226166
0.93733435869216919 0.40715911984443665 0.15783542394638062
0.14975844323635101 0.52178066968917847 0.27391088008880615
0.20137372612953186 0.52016526460647583 0.27488771080970764
0.27259907126426697 0.5198180079460144 0.27707910537719727
0.35027322173118591 0.52081388235092163 0.27907073497772217
0.42311406135559082 0.52148187160491943 0.2783261239528656
0.49770873785018921 0.52494257688522339 0.27884030342102051
0.57383722066879272 0.52235710620880127 0.27587485313415527
0.64103502035140991 0.5193437933921814 0.27252748608589172
0.70544141530990601 0.51934611797332764 0.26503607630729675
0.76656311750411987 0.52022475004196167 0.25105190277099609
0.82846742868423462 0.51742279529571533 0.23530732095241547
0.8915940523147583 0.51245856285095215 0.21536365151405334
0.94039362668991089 0.50810486078262329 0.19710753858089447
0.25295138359069824 0.59644633531570435 0.33745339512825012
0.28886857628822327 0.59621584415435791 0.33823847770690918
0.33126091957092285 0.59599268436431885 0.33851766586303711
0.3920091986656189 0.59252804517745972 0.33888772130012512
0.45841467380523682 0.59384125471115112 0.33944043517112732
0.52520477771759033 0.59891670942306519 0.33838644623756409
0.59030121564865112 0.59846478700637817 0.33721834421157837
0.65187078714370728 0.59661799669265747 0.33368098735809326
0.71192723512649536 0.59630531072616577 0.3247678279876709
0.77048701047897339 0.59611606597900391 0.31150951981544495
0.8312569260597229 0.59446263313293457 0.29417887330055237
0.89213627576828003 0.59201508760452271 0.27119320631027222
0.94029414653778076 0.58980506658554077 0.2491016685962677
0.3365456759929657 0.6646084189414978 0.40190285444259644
0.35964468121528625 0.66152995824813843 0.40143600106239319
0.38642725348472595 0.65841370820999146 0.39870738983154297
0.43217214941978455 0.65574473142623901 0.3988398015499115
0.49150019884109497 0.65858203172683716 0.40081313252449036
0.54945755004882812 0.66307765245437622 0.40141385793685913
0.60719889402389526 0.66470903158187866 0.40043118596076965
0.66548585891723633 0.66489773988723755 0.39687106013298035
0.72310596704483032 0.66442418098449707 0.38711032271385193
0.77643328905105591 0.66211903095245361 0.37456813454627991
0.83345949649810791 0.66054105758666992 0.35817846655845642
0.89313584566116333 0.65872091054916382 0.33414450287818909
0.94108712673187256 0.65719974040985107 0.31125783920288086
0.40694651007652283 0.72536540031433105 0.46595919132232666
0.42263197898864746 0.72271496057510376 0.4650585949420929
0.44666215777397156 0.71974664926528931 0.46191608905792236
0.47900450229644775 0.71857661008834839 0.46024063229560852
0.52842766046524048 0.72023975849151611 0.4618343710899353
0.577342689037323 0.72378420829772949 0.46222755312919617
0.62486803531646729 0.72607821226119995 0.46262398362159729
0.67942291498184204 0.72805052995681763 0.46020674705505371
0.73399293422698975 0.72587370872497559 0.45238664746284485
0.7831684947013855 0.72412556409835815 0.44067409634590149
0.83623003959655762 0.72165024280548096 0.42523419857025146
0.89562040567398071 0.71774137020111084 0.39953517913818359
0.94342046976089478 0.71685051918029785 0.37860465049743652
0.47080340981483459 0.78555852174758911 0.52474641799926758
0.48165863752365112 0.78488647937774658 0.52450191974639893
0.50499248504638672 0.78330415487289429 0.52295595407485962
0.52963113784790039 0.78257918357849121 0.52001827955245972
0.56093066930770874 0.78243863582611084 0.51910239458084106
0.60176324844360352 0.78255748748779297 0.52021980285644531
0.64420783519744873 0.78393751382827759 0.52106094360351562
0.69316267967224121 0.78585159778594971 0.51989412307739258
0.74363696575164795 0.78612804412841797 0.51399326324462891
0.79170244932174683 0.78561770915985107 0.5039142370223999
0.84148812294006348 0.78337699174880981 0.49153950810432434
0.89955216646194458 0.77778130769729614 0.46887794137001038
0.94698983430862427 0.7751203179359436 0.45005959272384644
0.52310174703598022 0.84929269552230835 0.58275294303894043
0.53070574998855591 0.8502800464630127 0.58344238996505737
0.5498165488243103 0.84881705045700073 0.58109200000762939
0.56864869594573975 0.84672677516937256 0.57817673683166504
0.59345728158950806 0.84659183025360107 0.57783472537994385
0.62745779752731323 0.84715574979782104 0.58005684614181519
0.66646432876586914 0.84650266170501709 0.5797085165977478
0.70700943470001221 0.84642666578292847 0.57804840803146362
0.75479549169540405 0.85089683532714844 0.57665503025054932
0.80177313089370728 0.85269308090209961 0.57076162099838257
0.85084986686706543 0.85065871477127075 0.56206965446472168
0.91001510620117188 0.84392482042312622 0.5426601767539978
0.95813119411468506 0.83977925777435303 0.52600628137588501
0.56881225109100342 0.90916693210601807 0.63576740026473999
0.57567793130874634 0.91472142934799194 0.63960522413253784
0.58851659297943115 0.91195762157440186 0.63777166604995728
0.60441493988037109 0.90870571136474609 0.63786453008651733
0.6269037127494812 0.9081261157989502 0.63690537214279175
0.65486389398574829 0.91283303499221802 0.63862574100494385
0.68996310234069824 0.91593420505523682 0.64052551984786987
0.72731363773345947 0.91175800561904907 0.63532054424285889
0.76734626293182373 0.9151914119720459 0.63655555248260498
0.81157666444778442 0.9179651141166687 0.63532990217208862
0.86055278778076172 0.91733324527740479 0.63044315576553345
0.9202340841293335 0.91421777009963989 0.61451417207717896
0.97169166803359985 0.91369724273681641 0.60250145196914673
0.018597502261400223 0.01845957525074482 0.036628946661949158
0.057072058320045471 0.021289017051458359 0.037935100495815277
0.11433928459882736 0.020955868065357208 0.037528812885284424
0.19090671837329865 0.020985232666134834 0.040193639695644379
0.29110202193260193 0.021712569519877434 0.043328691273927689
0.39649352431297302 0.020559033378958702 0.045534785836935043
0.49752622842788696 0.019249681383371353 0.049476802349090576
0.59032094478607178 0.016750559210777283 0.047823604196310043
0.66824686527252197 0.017797701060771942 0.04905388131737709
0.73808073997497559 0.01532326452434063 0.048612497746944427
0.80385386943817139 0.010594596154987812 0.038842547684907913
0.86686581373214722 0.0090182581916451454 0.029654320329427719
0.91578197479248047 0.0084811793640255928 0.024021672084927559
0.038648087531328201 0.067935124039649963 0.06707414984703064
0.073087744414806366 0.066779583692550659 0.06804841011762619
0.13345660269260406 0.068107828497886658 0.068729385733604431
0.21430732309818268 0.068222567439079285 0.070196650922298431
0.31178373098373413 0.067712374031543732 0.073591507971286774
0.41327932476997375 0.065590336918830872 0.07706557959318161
0.51008206605911255 0.063713178038597107 0.079864010214805603
0.59852772951126099 0.061619479209184647 0.078545726835727692
0.67459732294082642 0.058941904455423355 0.07576587051153183
0.74478137493133545 0.053135666996240616 0.072409220039844513
0.80841684341430664 0.045216146856546402 0.064898021519184113
0.86937636137008667 0.040053378790616989 0.053659848868846893
0.91874456405639648 0.032611861824989319 0.04091312363743782
0.070389151573181152 0.13876456022262573 0.10074049979448318
0.09829394519329071 0.13787242770195007 0.10251711308956146
0.15433059632778168 0.13687218725681305 0.10483763366937637
0.23466221988201141 0.13591013848781586 0.10647587478160858
0.3306269645690918 0.13365410268306732 0.10930681228637695
0.42588213086128235 0.13256624341011047 0.11147694289684296
0.51941162347793579 0.13234852254390717 0.11203605681657791
0.60867279767990112 0.12649402022361755 0.10808313637971878
0.68191909790039062 0.12350159883499146 0.10602150857448578
0.75113004446029663 0.11778704822063446 0.1008387878537178
0.81334894895553589 0.10916592180728912 0.092108480632305145
0.87530642747879028 0.099481649696826935 0.079902321100234985
0.92505472898483276 0.089874744415283203 0.067589268088340759
0.085365712642669678 0.2340778261423111 0.1438937783241272
0.11603093147277832 0.2354012131690979 0.14599861204624176
0.1710493266582489 0.23452404141426086 0.14855402708053589
0.25534099340438843 0.23346282541751862 0.15237759053707123
0.34857428073883057 0.22884495556354523 0.15144069492816925
0.44143569469451904 0.22683392465114594 0.15198278427124023
0.5317571759223938 0.22571840882301331 0.15160718560218811
0.61815047264099121 0.22070713341236115 0.14697100222110748
0.68820065259933472 0.21778000891208649 0.14347261190414429
0.75717610120773315 0.21294882893562317 0.13727343082427979
0.81906509399414062 0.20505417883396149 0.1276041567325592
0.88098442554473877 0.1908748596906662 0.11372333765029907
0.92988979816436768 0.17833217978477478 0.10141222923994064
0.060533545911312103 0.33849793672561646 0.19222892820835114
0.099246412515640259 0.33790773153305054 0.19153034687042236
0.17870724201202393 0.33987170457839966 0.19495503604412079
0.27400714159011841 0.3380553126335144 0.19991843402385712
0.36766991019248962 0.33251732587814331 0.20056813955307007
0.45864185690879822 0.33317631483078003 0.19799596071243286
0.54633736610412598 0.33360859751701355 0.19552849233150482
0.62441611289978027 0.32777416706085205 0.19373011589050293
0.69201171398162842 0.32470667362213135 0.18790949881076813
0.76009464263916016 0.32040607929229736 0.17812080681324005
0.82367128133773804 0.31075406074523926 0.16631177067756653
0.88551896810531616 0.29967957735061646 0.15249377489089966
0.93204706907272339 0.29230591654777527 0.14144934713840485
0.082766525447368622 0.43721851706504822 0.24461004137992859
0.12995922565460205 0.43467354774475098 0.24527193605899811
0.2134738564491272 0.4348328709602356 0.24882331490516663
0.3019549548625946 0.43714094161987305 0.25205850601196289
0.38982400298118591 0.43499085307121277 0.25233849883079529
0.47594693303108215 0.43474996089935303 0.25151440501213074
0.55818045139312744 0.43379691243171692 0.24913810193538666
0.63264518976211548 0.43318170309066772 0.24398773908615112
0.69668114185333252 0.43144750595092773 0.2398056834936142
0.76197326183319092 0.42532050609588623 0.22602145373821259
0.82503253221511841 0.41973868012428284 0.21169058978557587
0.88774710893630981 0.41335248947143555 0.19457696378231049
0.93593299388885498 0.40812292695045471 0.17944550514221191
0.14313624799251556 0.52269679307937622 0.30350574851036072
0.19295734167098999 0.51822865009307861 0.3047175407409668
0.26409661769866943 0.51746565103530884 0.30722460150718689
0.34552493691444397 0.51884287595748901 0.30916020274162292
0.41983708739280701 0.52085119485855103 0.30840298533439636
0.49417784810066223 0.52178686857223511 0.30982884764671326
0.57125002145767212 0.51921659708023071 0.3089282214641571
0.63980484008789062 0.51770877838134766 0.30366033315658569
0.70059359073638916 0.5207977294921875 0.2957044243812561
0.76299560070037842 0.51990187168121338 0.28155171871185303
0.82420521974563599 0.51623666286468506 0.26562196016311646
0.8880915641784668 0.5115087628364563 0.24328844249248505
0.93831437826156616 0.50763618946075439 0.22317700088024139
0.2447274774312973 0.59668409824371338 0.36574137210845947
0.27916750311851501 0.59485495090484619 0.36870530247688293
0.32557705044746399 0.59407901763916016 0.37130862474441528
0.38744166493415833 0.59209704399108887 0.36912825703620911
0.45372900366783142 0.59252125024795532 0.36854910850524902
0.52144604921340942 0.59583359956741333 0.37021130323410034
0.58799701929092407 0.59483706951141357 0.36965709924697876
0.64986836910247803 0.59352666139602661 0.36384537816047668
0.70997494459152222 0.59533828496932983 0.35461050271987915
0.76781392097473145 0.59658372402191162 0.34374630451202393
0.82729333639144897 0.59386467933654785 0.32542452216148376
0.89029616117477417 0.59027838706970215 0.2996533215045929
0.93942064046859741 0.58758175373077393 0.27788093686103821
0.33333370089530945 0.66540521383285522 0.42687192559242249
0.35702031850814819 0.66415375471115112 0.42886921763420105
0.38501629233360291 0.66084057092666626 0.42759087681770325
0.42874294519424438 0.65874361991882324 0.42668366432189941
0.48724198341369629 0.6600835919380188 0.42791149020195007
0.54618942737579346 0.66320252418518066 0.4285646378993988
0.60441607236862183 0.66229748725891113 0.42706197500228882
0.66303133964538574 0.66176015138626099 0.4224700927734375
0.72112196683883667 0.66171586513519287 0.41487866640090942
0.77457898855209351 0.66187089681625366 0.40890771150588989
0.83201330900192261 0.65913522243499756 0.39142048358917236
0.89301621913909912 0.65713977813720703 0.36320590972900391
0.93941432237625122 0.65453755855560303 0.34125396609306335
0.40413945913314819 0.72774028778076172 0.48692315816879272
0.42187666893005371 0.72571581602096558 0.48966759443283081
0.44466611742973328 0.72290438413619995 0.4859127402305603
0.47621366381645203 0.72056007385253906 0.48361089825630188
0.52519470453262329 0.72236233949661255 0.48613345623016357
0.57401055097579956 0.72554701566696167 0.48492562770843506
0.62267988920211792 0.7265971302986145 0.48258283734321594
0.67569577693939209 0.72519052028656006 0.47900572419166565
0.73077630996704102 0.724556565284729 0.47260898351669312
0.78104305267333984 0.72380697727203369 0.46716219186782837
0.83486479520797729 0.72126346826553345 0.45468240976333618
0.89482033252716064 0.71934938430786133 0.42872679233551025
0.94034570455551147 0.71662771701812744 0.40886500477790833
0.46831771731376648 0.78675884008407593 0.54366278648376465
0.48338055610656738 0.78760844469070435 0.54566353559494019
0.50331574678421021 0.78627759218215942 0.54407155513763428
0.52646380662918091 0.78377252817153931 0.54046344757080078
0.55897337198257446 0.78317177295684814 0.53925389051437378
0.60002166032791138 0.78429251909255981 0.53851568698883057
0.64473658800125122 0.7865140438079834 0.53837716579437256
0.69074302911758423 0.78583145141601562 0.53588205575942993
0.73966354131698608 0.78531461954116821 0.53079479932785034
0.78980755805969238 0.78443229198455811 0.52230989933013916
0.84170615673065186 0.7825852632522583 0.51225495338439941
0.89876127243041992 0.77871441841125488 0.49403253197669983
0.94498920440673828 0.77555334568023682 0.47718825936317444
0.52154070138931274 0.85014039278030396 0.5979272723197937
0.53149694204330444 0.851642906665802 0.59931588172912598
0.5483357310295105 0.8518376350402832 0.5983995795249939
0.56826138496398926 0.8504747748374939 0.59567117691040039
0.59336727857589722 0.84919172525405884 0.59382349252700806
0.62742465734481812 0.84722715616226196 0.59331685304641724
0.66624420881271362 0.84643328189849854 0.5932002067565918
0.7083854079246521 0.84820479154586792 0.59275966882705688
0.7521393895149231 0.85094565153121948 0.5909721851348877
0.79995203018188477 0.85027843713760376 0.58382928371429443
0.85093539953231812 0.84950786828994751 0.57567662000656128
0.90844762325286865 0.84464472532272339 0.56094276905059814
0.95494818687438965 0.84065985679626465 0.54867792129516602
0.56780338287353516 0.91047006845474243 0.64765298366546631
0.57522153854370117 0.91526252031326294 0.65109068155288696
0.58816134929656982 0.91620820760726929 0.65111297369003296
0.60620385408401489 0.91610443592071533 0.64983290433883667
0.62793534994125366 0.91400134563446045 0.6481403112411499
0.65544146299362183 0.91501343250274658 0.64903908967971802
0.68939900398254395 0.91579043865203857 0.65042281150817871
0.72714328765869141 0.91301500797271729 0.64704763889312744
0.7661433219909668 0.91530179977416992 0.64705061912536621
0.81076401472091675 0.91647213697433472 0.64426308870315552
0.8606681227684021 0.91734439134597778 0.63967114686965942
0.9174811840057373 0.91445928812026978 0.62694960832595825
0.96769547462463379 0.91386193037033081 0.61828362941741943
0.018477302044630051 0.020171985030174255 0.070748239755630493
0.053432032465934753 0.021225364878773689 0.068872757256031036
0.11109894514083862 0.020204745233058929 0.067665442824363708
0.19016252458095551 0.019976537674665451 0.071286112070083618
0.28962287306785583 0.021033089607954025 0.073529034852981567
0.39534658193588257 0.020250717177987099 0.07489757239818573
0.49694016575813293 0.018738331273198128 0.079485185444355011
0.58733195066452026 0.015699379146099091 0.079288497567176819
0.6674191951751709 0.015789825469255447 0.076434701681137085
0.73795706033706665 0.012245612218976021 0.071395933628082275
0.80147624015808105 0.012033499777317047 0.06511872261762619
0.8652273416519165 0.011107530444860458 0.05498708039522171
0.91583240032196045 0.0082670627161860466 0.042154453694820404
0.037668760865926743 0.067772075533866882 0.10563282668590546
0.071164466440677643 0.06796245276927948 0.10496224462985992
0.13014405965805054 0.067246094346046448 0.10389257967472076
0.21229635179042816 0.065809555351734161 0.10668632388114929
0.3108876645565033 0.065889008343219757 0.1080973893404007
0.41350176930427551 0.065550893545150757 0.11151582002639771
0.51114380359649658 0.062786772847175598 0.1157357320189476
0.59840792417526245 0.058948561549186707 0.11354327946901321
0.67381268739700317 0.057012267410755157 0.10899640619754791
0.74402648210525513 0.050285756587982178 0.10137856006622314
0.80688047409057617 0.04769299179315567 0.094928130507469177
0.86876958608627319 0.040876336395740509 0.082100704312324524
0.91803830862045288 0.033014845103025436 0.068643294274806976
0.06592356413602829 0.13653881847858429 0.13943716883659363
0.093520127236843109 0.13745024800300598 0.14048317074775696
0.15017615258693695 0.13613638281822205 0.14318089187145233
0.23166008293628693 0.13600356876850128 0.14634072780609131
0.32843667268753052 0.1335509866476059 0.1485104113817215
0.42406943440437317 0.1319785863161087 0.15073436498641968
0.51830375194549561 0.13170528411865234 0.1504361480474472
0.60789954662322998 0.12554475665092468 0.14569622278213501
0.68103587627410889 0.12264511734247208 0.14159852266311646
0.74872690439224243 0.11727788299322128 0.13306351006031036
0.8116568922996521 0.11031243950128555 0.1236349493265152
0.87466466426849365 0.099026717245578766 0.10814307630062103
0.92474210262298584 0.088253960013389587 0.094193615019321442
0.079521402716636658 0.23388613760471344 0.18506605923175812
0.11267554759979248 0.23405192792415619 0.18537226319313049
0.16673892736434937 0.23163908720016479 0.18782523274421692
0.25151541829109192 0.23038762807846069 0.19179682433605194
0.34574657678604126 0.22764198482036591 0.19278974831104279
0.43853288888931274 0.22743611037731171 0.19518612325191498
0.52791953086853027 0.22597125172615051 0.19463503360748291
0.6140630841255188 0.22015853226184845 0.18915154039859772
0.68580842018127441 0.21641145646572113 0.18262371420860291
0.75422030687332153 0.20953281223773956 0.17174609005451202
0.81601756811141968 0.20137889683246613 0.15821416676044464
0.87890839576721191 0.18775257468223572 0.14235439896583557
0.92842751741409302 0.17743374407291412 0.12926957011222839
0.051395028829574585 0.33824354410171509 0.23540480434894562
0.094793550670146942 0.33740967512130737 0.2355952113866806
0.17739005386829376 0.33445197343826294 0.23817276954650879
0.27199560403823853 0.33219656348228455 0.24108374118804932
0.3646857738494873 0.32956123352050781 0.24247616529464722
