luts/colorslide/kodak_ektachrome_100_vs_generic.cube
# Created by: G'MIC (https://gmic.eu)
TITLE "kodak_ektachrome_100_vs_generic"
# LUT size
LUT_3D_SIZE 7
# Data domain
DOMAIN_MIN 0.0 0.0 0.0
DOMAIN_MAX 1.0 1.0 1.0
# LUT data points
0.026470378041267395 0.020545331761240959 0.020854352042078972
0.15585818886756897 0.017826514318585396 0.016532210633158684
0.34416276216506958 0.014305129647254944 0.016768136993050575
0.5906144380569458 0.0096299266442656517 0.012548977509140968
0.8548126220703125 0.0069443797692656517 0.0079337172210216522
0.99519908428192139 0.0027828740421682596 0.0094821108505129814
1 0.003898426191881299 0.0098889963701367378
0.049109738320112228 0.13375476002693176 0.035712685436010361
0.14551551640033722 0.12914222478866577 0.035209581255912781
0.33569353818893433 0.11822333186864853 0.029192741960287094
0.57946836948394775 0.10633691400289536 0.024073014035820961
0.84091085195541382 0.095312111079692841 0.019298987463116646
0.99663996696472168 0.08336937427520752 0.013920518569648266
1 0.079602263867855072 0.014196448028087616
0.035428635776042938 0.29691281914710999 0.061759769916534424
0.09226372092962265 0.29427015781402588 0.061602737754583359
0.31718912720680237 0.28300482034683228 0.05649426206946373
0.57139581441879272 0.27177590131759644 0.052691292017698288
0.81726741790771484 0.26093253493309021 0.044228691607713699
0.99257266521453857 0.25111603736877441 0.038942523300647736
0.99870020151138306 0.24527271091938019 0.038385353982448578
0.002404381288215518 0.50621306896209717 0.088940910995006561
0.0093805203214287758 0.4992377758026123 0.091264538466930389
0.23948389291763306 0.49288618564605713 0.086458586156368256
0.53609102964401245 0.48472431302070618 0.080285012722015381
0.7802269458770752 0.47431066632270813 0.077985964715480804
0.9762158989906311 0.4635671079158783 0.070308834314346313
0.99243462085723877 0.45884141325950623 0.070136144757270813
0 0.7034839391708374 0.089519664645195007
0.0011255900608375669 0.7007489800453186 0.088311165571212769
0.094801329076290131 0.70119619369506836 0.087161079049110413
0.48943758010864258 0.68925786018371582 0.08596280962228775
0.74020624160766602 0.68016177415847778 0.08510926365852356
0.93289715051651001 0.6717841625213623 0.080752536654472351
0.99130535125732422 0.66385740041732788 0.081907697021961212
0 0.86810857057571411 0.047318402677774429
0.00035131117329001427 0.86463671922683716 0.045345980674028397
0.076152205467224121 0.86279553174972534 0.041882399469614029
0.47230604290962219 0.85260027647018433 0.039380390197038651
0.70994234085083008 0.84566521644592285 0.04253074899315834
0.89181357622146606 0.83921104669570923 0.041875444352626801
0.99676030874252319 0.8308950662612915 0.039055079221725464
0 0.99270749092102051 0.096160382032394409
2.154182038793806e-05 0.99331891536712646 0.095854662358760834
0.10512752085924149 0.99067550897598267 0.093816407024860382
0.45568239688873291 0.98780530691146851 0.087278865277767181
0.67934340238571167 0.98593664169311523 0.082691013813018799
0.86077028512954712 0.98566204309463501 0.067873738706111908
0.99712377786636353 0.98284226655960083 0.06210683286190033
0.025306850671768188 0.018702547997236252 0.11375994235277176
0.15873251855373383 0.019737273454666138 0.11121842265129089
0.34416434168815613 0.014894552528858185 0.10398927330970764
0.58837366104125977 0.012061922810971737 0.10003310441970825
0.85273534059524536 0.0086544705554842949 0.091018348932266235
0.9992179274559021 0.0050550871528685093 0.084028966724872589
1 0.0045106178149580956 0.082899279892444611
0.047358985990285873 0.13205224275588989 0.12961849570274353
0.14325179159641266 0.12698657810688019 0.12675437331199646
0.33602440357208252 0.12065324932336807 0.12368020415306091
0.57713615894317627 0.10754641145467758 0.11503931879997253
0.83945566415786743 0.098242737352848053 0.10929263383150101
0.99465137720108032 0.084646604955196381 0.10231694579124451
1 0.080010555684566498 0.098657272756099701
0.033648651093244553 0.29652002453804016 0.14555211365222931
0.093111865222454071 0.29145908355712891 0.14256934821605682
0.31437906622886658 0.28418335318565369 0.1393355131149292
0.56980013847351074 0.27382171154022217 0.13349853456020355
0.81935065984725952 0.26603531837463379 0.12965188920497894
0.99050110578536987 0.24938477575778961 0.12166743725538254
0.99925094842910767 0.24769057333469391 0.12497089058160782
0.00076798081863671541 0.50649553537368774 0.15771874785423279
0.0033706515096127987 0.49922063946723938 0.15584981441497803
0.23792769014835358 0.49396014213562012 0.15148545801639557
0.53934687376022339 0.48279786109924316 0.14948946237564087
0.78505402803421021 0.47664445638656616 0.14442260563373566
0.97332334518432617 0.46681025624275208 0.13812708854675293
0.99581611156463623 0.46051496267318726 0.14336229860782623
0 0.70688390731811523 0.16208988428115845
0.00084686279296875 0.70358777046203613 0.15597274899482727
0.09466283768415451 0.70158272981643677 0.15041317045688629
0.48932585120201111 0.69151991605758667 0.14985720813274384
0.74039763212203979 0.68230372667312622 0.14420340955257416
0.93183952569961548 0.67623841762542725 0.14007489383220673
0.995930016040802 0.67096626758575439 0.13952168822288513
0 0.86769860982894897 0.17514616250991821
0.0027161841280758381 0.86374354362487793 0.16986291110515594
0.077750034630298615 0.86180168390274048 0.15898531675338745
0.46651598811149597 0.85411262512207031 0.15698447823524475
0.71030813455581665 0.84663635492324829 0.15488795936107635
0.89707750082015991 0.84196692705154419 0.15106263756752014
0.99607843160629272 0.83082252740859985 0.14598755538463593
0 0.99275749921798706 0.18926724791526794
0.00013661103730555624 0.99213641881942749 0.18970920145511627
0.10316435992717743 0.99065130949020386 0.18215732276439667
0.45704913139343262 0.98732274770736694 0.1787322461605072
0.68020820617675781 0.98655408620834351 0.17488193511962891
0.86187613010406494 0.98629838228225708 0.17611624300479889
0.99777072668075562 0.98285317420959473 0.16714413464069366
0.024244435131549835 0.018654078245162964 0.25829628109931946
0.16291347146034241 0.018851904198527336 0.25862792134284973
0.34821507334709167 0.01699504442512989 0.24836190044879913
0.59428828954696655 0.013106716796755791 0.24674512445926666
0.85625678300857544 0.0080120014026761055 0.23548156023025513
0.99608141183853149 0.0064489175565540791 0.22888921201229095
1 0.0063135931268334389 0.22565209865570068
0.047553837299346924 0.13256201148033142 0.28053420782089233
0.14538930356502533 0.12594582140445709 0.26861310005187988
0.34105151891708374 0.119884192943573 0.26625114679336548
0.57942450046539307 0.11142972856760025 0.25901573896408081
0.83713304996490479 0.097141474485397339 0.25177821516990662
0.99344605207443237 0.085513472557067871 0.24279031157493591
1 0.079852506518363953 0.24165654182434082
0.032866861671209335 0.294321209192276 0.29065665602684021
0.091318987309932709 0.29228472709655762 0.28798738121986389
0.30901136994361877 0.28126910328865051 0.28161466121673584
0.56166595220565796 0.27003693580627441 0.27464374899864197
0.81629908084869385 0.26269501447677612 0.26762524247169495
0.99057465791702271 0.25057628750801086 0.26514580845832825
1 0.24683079123497009 0.25804772973060608
0.002141675679013133 0.49944612383842468 0.30740839242935181
0.010411550290882587 0.49774128198623657 0.30610418319702148
0.23990799486637115 0.49159452319145203 0.30378016829490662
0.53540736436843872 0.48287418484687805 0.29533278942108154
0.78445833921432495 0.47516763210296631 0.28807145357131958
0.97541177272796631 0.46464017033576965 0.2876829206943512
0.9969678521156311 0.46048346161842346 0.28023353219032288
0 0.7017633318901062 0.32243633270263672
0.0027192956767976284 0.70181238651275635 0.32078543305397034
0.090960107743740082 0.70072859525680542 0.32068923115730286
0.48922023177146912 0.69136780500411987 0.31538701057434082
0.73611879348754883 0.6831200122833252 0.30910837650299072
0.93165785074234009 0.67588943243026733 0.30857554078102112
0.99505710601806641 0.66946315765380859 0.30449512600898743
0 0.86308920383453369 0.34050676226615906
0.0012016146210953593 0.86309468746185303 0.3407745361328125
0.077556982636451721 0.86175340414047241 0.3391205370426178
0.46678155660629272 0.85389697551727295 0.33351966738700867
0.70684796571731567 0.84620559215545654 0.32927742600440979
0.89659184217453003 0.84117478132247925 0.32699859142303467
0.99609863758087158 0.83481454849243164 0.32339867949485779
0 0.99072611331939697 0.36189725995063782
3.7698184314649552e-05 0.98889940977096558 0.35978990793228149
0.099547125399112701 0.99198716878890991 0.36104956269264221
0.4608159065246582 0.97928047180175781 0.3555334210395813
0.68057870864868164 0.98481351137161255 0.35239064693450928
0.86204653978347778 0.98310750722885132 0.34424036741256714
0.99563771486282349 0.97991436719894409 0.34711819887161255
0.027615057304501534 0.019972033798694611 0.4507213830947876
0.15947236120700836 0.015616338700056076 0.4419599175453186
0.34796667098999023 0.017678398638963699 0.44013071060180664
0.59081190824508667 0.011088486760854721 0.43274796009063721
0.85555011034011841 0.0092108780518174171 0.42292007803916931
0.99572193622589111 0.0080131683498620987 0.41680631041526794
1 0.0044847526587545872 0.41456356644630432
0.04695536196231842 0.13402648270130157 0.46282130479812622
0.14238914847373962 0.12540000677108765 0.45587050914764404
0.33587467670440674 0.11700998991727829 0.44933846592903137
0.57814520597457886 0.10677579790353775 0.43928986787796021
0.83587229251861572 0.098653800785541534 0.43833240866661072
0.99223095178604126 0.085721455514431 0.42759096622467041
1 0.082855924963951111 0.42416679859161377
0.037315651774406433 0.29556062817573547 0.47412535548210144
0.085800141096115112 0.29353928565979004 0.46905311942100525
0.3101007342338562 0.28416842222213745 0.46634036302566528
0.56630873680114746 0.27406221628189087 0.45734709501266479
0.818412184715271 0.26124656200408936 0.45424407720565796
0.98813539743423462 0.25148105621337891 0.44328659772872925
0.99998170137405396 0.24837392568588257 0.43959733843803406
0.0039280313067138195 0.50283277034759521 0.48911529779434204
0.011195537634193897 0.496591717004776 0.48986616730690002
0.23898372054100037 0.49233710765838623 0.48885640501976013
0.53493344783782959 0.48302918672561646 0.48153033852577209
0.78379958868026733 0.47582802176475525 0.47480136156082153
0.97187471389770508 0.46481499075889587 0.47304686903953552
0.99733227491378784 0.46062594652175903 0.46734967827796936
0.00010507620754651725 0.70250040292739868 0.50368529558181763
0.0034943674691021442 0.6996878981590271 0.50582355260848999
0.089140735566616058 0.700797438621521 0.50914615392684937
0.48462522029876709 0.68873852491378784 0.4985862672328949
0.73768562078475952 0.68272978067398071 0.4950711727142334
0.92883485555648804 0.67602914571762085 0.49780908226966858
0.99474871158599854 0.66834801435470581 0.49466639757156372
0 0.86548846960067749 0.52639204263687134
0.0016910628182813525 0.86391556262969971 0.52826607227325439
0.070832304656505585 0.86204749345779419 0.5274580717086792
0.46701374650001526 0.85214591026306152 0.52236741781234741
0.70802289247512817 0.8424491286277771 0.51557779312133789
0.89691668748855591 0.83814734220504761 0.51470053195953369
0.993080735206604 0.83762449026107788 0.51088494062423706
0 0.98994523286819458 0.55134826898574829
0 0.991161048412323 0.54850560426712036
0.095253869891166687 0.99108594655990601 0.54727232456207275
0.45495831966400146 0.98663884401321411 0.54331326484680176
0.67619657516479492 0.98282843828201294 0.53771853446960449
0.85772418975830078 0.9859204888343811 0.53698587417602539
0.99067026376724243 0.98031187057495117 0.53377246856689453
0.025716414675116539 0.019671570509672165 0.63377469778060913
0.15798008441925049 0.017919981852173805 0.62612992525100708
0.3378797173500061 0.014408904127776623 0.6236950159072876
0.5869402289390564 0.0095197940245270729 0.61635488271713257
0.84936994314193726 0.0097416751086711884 0.60602998733520508
0.99644327163696289 0.0049825483001768589 0.60390865802764893
1 0.0039181876927614212 0.60245752334594727
0.045752357691526413 0.13357274234294891 0.64131277799606323
0.13970312476158142 0.12613365054130554 0.63939124345779419
0.33031892776489258 0.11880458891391754 0.63416111469268799
0.57510679960250854 0.10622588545084 0.6246718168258667
0.83402985334396362 0.097487777471542358 0.61764508485794067
0.99263280630111694 0.08624006062746048 0.61478042602539062
1 0.080766700208187103 0.60782122611999512
0.030736213549971581 0.29799297451972961 0.65472739934921265
0.09034111350774765 0.29384195804595947 0.65664070844650269
0.3096281886100769 0.28306639194488525 0.64889699220657349
0.56679868698120117 0.27286466956138611 0.63879162073135376
0.81612652540206909 0.25986245274543762 0.63622105121612549
0.99054783582687378 0.24764741957187653 0.63178151845932007
1 0.24746608734130859 0.62436556816101074
0.0039215688593685627 0.50676989555358887 0.67428123950958252
0.007197944913059473 0.49953308701515198 0.67685544490814209
0.23441432416439056 0.49233314394950867 0.67047423124313354
0.52636778354644775 0.48434051871299744 0.6608920693397522
0.78506773710250854 0.47292554378509521 0.65534394979476929
0.97297406196594238 0.46816322207450867 0.65611273050308228
0.99766868352890015 0.46168714761734009 0.64713478088378906
3.0158547815517522e-05 0.70843696594238281 0.69011473655700684
0.0035818661563098431 0.70090293884277344 0.69065797328948975
0.088742785155773163 0.70124012231826782 0.69155645370483398
0.48110353946685791 0.69315171241760254 0.67984503507614136
0.7358701229095459 0.68306642770767212 0.67747974395751953
0.92958372831344604 0.67501461505889893 0.67578607797622681
0.99514293670654297 0.66510915756225586 0.66816622018814087
0 0.86420387029647827 0.70282936096191406
0.0024271348956972361 0.86334854364395142 0.7045256495475769
0.067663215100765228 0.8616517186164856 0.70842206478118896
0.46362125873565674 0.85483145713806152 0.70304632186889648
0.70411056280136108 0.84626615047454834 0.69515144824981689
0.89224886894226074 0.84196120500564575 0.69344830513000488
0.99469983577728271 0.83960437774658203 0.69241178035736084
0 0.98733538389205933 0.71573656797409058
0 0.99295324087142944 0.7238614559173584
0.092970937490463257 0.9907878041267395 0.72352796792984009
0.44878432154655457 0.98744094371795654 0.7214733362197876
0.67229825258255005 0.98817193508148193 0.71467018127441406
0.85928905010223389 0.98127442598342896 0.71252357959747314
0.99340158700942993 0.98164886236190796 0.70867234468460083
0.022672900930047035 0.019062282517552376 0.77956408262252808
0.15341050922870636 0.016164712607860565 0.77513450384140015
0.34351307153701782 0.015806026756763458 0.77005994319915771
0.58565938472747803 0.0097363041713833809 0.76500487327575684
0.85226088762283325 0.0092366533353924751 0.7595100998878479
0.9962390661239624 0.0059995464980602264 0.7540096640586853
1 0.0046615302562713623 0.7488977313041687
0.048051618039608002 0.1312917023897171 0.78914207220077515
0.13908348977565765 0.12778200209140778 0.78470045328140259
0.33155813813209534 0.12292897701263428 0.78073382377624512
0.58224552869796753 0.1100815087556839 0.77272152900695801
0.83783018589019775 0.098531119525432587 0.76922458410263062
0.99679577350616455 0.085086047649383545 0.76318156719207764
1 0.081068731844425201 0.75806182622909546
0.031270869076251984 0.29581376910209656 0.80380958318710327
0.08875739574432373 0.29250872135162354 0.80405116081237793
0.3071017861366272 0.2845463752746582 0.79938101768493652
0.56245619058609009 0.27794766426086426 0.79178345203399658
0.81716221570968628 0.25996536016464233 0.78265869617462158
0.99226528406143188 0.24935275316238403 0.77938461303710938
1 0.2500474750995636 0.77436786890029907
0.0048795514740049839 0.50206059217453003 0.81955468654632568
0.0075380513444542885 0.4982389509677887 0.82081997394561768
0.23250897228717804 0.49280202388763428 0.81683540344238281
0.52991795539855957 0.48499470949172974 0.81106299161911011
0.78345537185668945 0.47036728262901306 0.80449241399765015
0.9736284613609314 0.46193018555641174 0.7989315390586853
0.99790745973587036 0.45930436253547668 0.79750066995620728
0 0.70745950937271118 0.84310555458068848
0.0019407235085964203 0.70005583763122559 0.83772271871566772
0.088792674243450165 0.70094913244247437 0.8368038535118103
0.4801827073097229 0.69106805324554443 0.83087551593780518
0.73822414875030518 0.68249619007110596 0.82359123229980469
0.92983114719390869 0.66912710666656494 0.82011681795120239
0.99607843160629272 0.66557544469833374 0.81713014841079712
0 0.8637092113494873 0.85159450769424438
0.0030829636380076408 0.86237365007400513 0.84763568639755249
0.068526282906532288 0.86121922731399536 0.8501279354095459
0.46341559290885925 0.85572141408920288 0.84443408250808716
0.70435923337936401 0.84705328941345215 0.83659869432449341
0.89137214422225952 0.83739179372787476 0.8343009352684021
0.99215614795684814 0.83277249336242676 0.83102703094482422
0 0.99099165201187134 0.86501586437225342
0.00067585962824523449 0.99266248941421509 0.86299538612365723
0.091890864074230194 0.99079650640487671 0.86321169137954712
0.45034384727478027 0.98678642511367798 0.85942059755325317
0.67206674814224243 0.98431015014648438 0.85332775115966797
0.85943293571472168 0.9827888011932373 0.85087853670120239
0.99604171514511108 0.98221904039382935 0.84794986248016357
0.023255741223692894 0.018299940973520279 0.90554112195968628
0.15273198485374451 0.016006320714950562 0.90271091461181641
0.33674830198287964 0.013293023221194744 0.89807361364364624
0.58467680215835571 0.0097212251275777817 0.89116173982620239
0.8515632152557373 0.007199650164693594 0.88288336992263794
0.99808508157730103 0.0041372263804078102 0.88023394346237183
1 0.0026506611611694098 0.87799429893493652
0.04764283075928688 0.12765993177890778 0.91489386558532715
0.13515995442867279 0.12551601231098175 0.91347920894622803
0.33059564232826233 0.11576613038778305 0.90945440530776978
0.57648110389709473 0.10563039034605026 0.90122121572494507
0.83448207378387451 0.09294622391462326 0.89612084627151489
0.99722707271575928 0.08131815493106842 0.8890986442565918
1 0.076513998210430145 0.88493949174880981
0.039201639592647552 0.29485738277435303 0.93164324760437012
0.088030777871608734 0.29251012206077576 0.92809396982192993
0.30847615003585815 0.28399759531021118 0.92593473196029663
0.56069850921630859 0.27322304248809814 0.91989028453826904
0.81539738178253174 0.25906345248222351 0.91259384155273438
0.99325752258300781 0.25269213318824768 0.90609192848205566
1 0.24885654449462891 0.90123885869979858
0.0011072346242144704 0.50385499000549316 0.94645673036575317
0.0035309286322444677 0.5003548264503479 0.94825315475463867
0.23276279866695404 0.49246850609779358 0.94263601303100586
0.52917075157165527 0.48506742715835571 0.93841546773910522
0.77976298332214355 0.4749942421913147 0.93445855379104614
0.97514724731445312 0.4665781557559967 0.92817646265029907
0.9987102746963501 0.46570858359336853 0.92419016361236572
0 0.70363134145736694 0.96683615446090698
0.00029207117040641606 0.70263969898223877 0.96679902076721191
0.085145793855190277 0.7005845308303833 0.96353989839553833
0.48257121443748474 0.69189506769180298 0.95726805925369263
0.73806083202362061 0.68234378099441528 0.94979244470596313
0.92617017030715942 0.67328685522079468 0.94620245695114136
0.99917978048324585 0.67012935876846313 0.94775485992431641
0 0.86580127477645874 0.98250794410705566
0.00051505892770364881 0.86488771438598633 0.97577863931655884
0.065095789730548859 0.86151242256164551 0.97806501388549805
0.46090948581695557 0.85300546884536743 0.97267371416091919
0.70427173376083374 0.84696918725967407 0.96909469366073608
0.89366960525512695 0.8408806324005127 0.9662853479385376
0.99606060981750488 0.83654952049255371 0.96120476722717285
0 0.99376499652862549 0.98973566293716431
2.3336971935350448e-05 0.99136584997177124 0.9861331582069397
0.087519116699695587 0.99149346351623535 0.98801600933074951
0.44817587733268738 0.98379683494567871 0.98325806856155396
0.67399686574935913 0.98669701814651489 0.98018026351928711
0.85650014877319336 0.98483127355575562 0.98246258497238159
0.99753135442733765 0.98131895065307617 0.97958207130432129
