luts/colorslide/kodak_kodachrome_25.cube
# Created by: G'MIC (https://gmic.eu)
TITLE "kodak_kodachrome_25"
# LUT size
LUT_3D_SIZE 7
# Data domain
DOMAIN_MIN 0.0 0.0 0.0
DOMAIN_MAX 1.0 1.0 1.0
# LUT data points
0.016567589715123177 0.017919562757015228 0.020870702341198921
0.079292058944702148 0.019628981128334999 0.020698398351669312
0.19077947735786438 0.016668505966663361 0.016640381887555122
0.44609397649765015 0.011962816119194031 0.0060664010234177113
0.85145235061645508 0.011465977877378464 0.0009520587045699358
0.99601060152053833 0.075714394450187683 0.020606664940714836
1 0.27732053399085999 0.16284084320068359
0.068819575011730194 0.14404413104057312 0.071007594466209412
0.1550891101360321 0.15060360729694366 0.067961134016513824
0.3289247453212738 0.15726557374000549 0.062891401350498199
0.58294206857681274 0.16423971951007843 0.046548433601856232
0.83451420068740845 0.20545078814029694 0.060102798044681549
0.94532537460327148 0.31380513310432434 0.13310477137565613
0.99570316076278687 0.4238618016242981 0.22147086262702942
0.099658176302909851 0.4015166163444519 0.19688819348812103
0.24270585179328918 0.39644107222557068 0.1890285462141037
0.43211525678634644 0.39570850133895874 0.17822973430156708
0.60488110780715942 0.4032885730266571 0.17148202657699585
0.75610929727554321 0.44023376703262329 0.17969052493572235
0.88808494806289673 0.48233076930046082 0.20250685513019562
0.97928059101104736 0.53159373998641968 0.24768373370170593
0.43868711590766907 0.5956428050994873 0.28362247347831726
0.48509803414344788 0.59587502479553223 0.2799835205078125
0.55383563041687012 0.59482192993164062 0.27228400111198425
0.65193003416061401 0.58846360445022583 0.2645365297794342
0.76331204175949097 0.59902966022491455 0.25606909394264221
0.8705672025680542 0.61761796474456787 0.25526830554008484
0.97762060165405273 0.64159888029098511 0.26008236408233643
0.603546142578125 0.72331434488296509 0.34282806515693665
0.61857146024703979 0.72686934471130371 0.3449101448059082
0.66382044553756714 0.72980988025665283 0.3409767746925354
0.72280424833297729 0.72887343168258667 0.33598044514656067
0.79853302240371704 0.72889727354049683 0.32792341709136963
0.89682459831237793 0.74111789464950562 0.32441934943199158
0.98568767309188843 0.75114428997039795 0.31939786672592163
0.72928744554519653 0.85670632123947144 0.41024404764175415
0.74017935991287231 0.85806882381439209 0.41054177284240723
0.77342933416366577 0.85985136032104492 0.40797862410545349
0.80154269933700562 0.85910028219223022 0.40450131893157959
0.86633181571960449 0.86053752899169922 0.39768347144126892
0.9420931339263916 0.86846774816513062 0.39377108216285706
0.99696105718612671 0.86995726823806763 0.38550052046775818
0.86795508861541748 0.97735297679901123 0.46788915991783142
0.87301433086395264 0.97719115018844604 0.46668887138366699
0.88758713006973267 0.97349071502685547 0.46341162919998169
0.91445654630661011 0.97721409797668457 0.46260473132133484
0.95084011554718018 0.97367781400680542 0.45636960864067078
0.99182701110839844 0.98196762800216675 0.45530611276626587
0.99926453828811646 0.98541486263275146 0.44884470105171204
0.0097436942160129547 0.014936335384845734 0.11405600607395172
0.048965901136398315 0.016348730772733688 0.12133551388978958
0.15712225437164307 0.014468966983258724 0.12389897555112839
0.40620076656341553 0.0084428228437900543 0.10332798957824707
0.81877446174621582 0.012126653455197811 0.064488925039768219
0.99594402313232422 0.064397551119327545 0.11587639898061752
0.99997848272323608 0.26699733734130859 0.27927109599113464
0.051252774894237518 0.12973757088184357 0.14166827499866486
0.12531161308288574 0.13538083434104919 0.1487952321767807
0.30311089754104614 0.14552292227745056 0.14835441112518311
0.55787968635559082 0.15065264701843262 0.1401773989200592
0.81403821706771851 0.19452479481697083 0.158299520611763
0.92961364984512329 0.30926099419593811 0.25234386324882507
0.98786109685897827 0.41662624478340149 0.34593889117240906
0.075407497584819794 0.39395090937614441 0.24038845300674438
0.21758046746253967 0.39322671294212341 0.23970977962017059
0.41902288794517517 0.39330971240997314 0.23143675923347473
0.59229421615600586 0.39768451452255249 0.23615875840187073
0.74409538507461548 0.43636780977249146 0.25778910517692566
0.86592012643814087 0.4792650043964386 0.29876282811164856
0.96863478422164917 0.53098881244659424 0.36576730012893677
0.43310868740081787 0.59518313407897949 0.28943988680839539
0.47294634580612183 0.59271752834320068 0.29019299149513245
0.54848223924636841 0.59562128782272339 0.28258624672889709
0.64225184917449951 0.59191489219665527 0.28942307829856873
0.75314044952392578 0.60330992937088013 0.27845960855484009
0.85968810319900513 0.61567062139511108 0.29143568873405457
0.97167885303497314 0.6389167308807373 0.31793305277824402
0.59882164001464844 0.7252577543258667 0.34778538346290588
0.61988168954849243 0.72530466318130493 0.34802177548408508
0.66208893060684204 0.72890740633010864 0.34505519270896912
0.72110849618911743 0.72839891910552979 0.33755740523338318
0.79524379968643188 0.72913402318954468 0.32999998331069946
0.88972610235214233 0.7384105920791626 0.32761132717132568
0.98570126295089722 0.74838411808013916 0.31833231449127197
0.72401285171508789 0.8603401780128479 0.41161513328552246
0.7477378249168396 0.85838997364044189 0.41152161359786987
0.77892386913299561 0.86157286167144775 0.41093775629997253
0.81147998571395874 0.86223357915878296 0.40866732597351074
0.87032121419906616 0.8634682297706604 0.40166571736335754
0.94465059041976929 0.86916881799697876 0.39667606353759766
0.99431705474853516 0.87711042165756226 0.39229720830917358
0.87076330184936523 0.97873866558074951 0.46826273202896118
0.8703036904335022 0.97210109233856201 0.46439951658248901
0.89150965213775635 0.98016148805618286 0.46670430898666382
0.91254931688308716 0.97289073467254639 0.46040734648704529
0.94898605346679688 0.97443413734436035 0.4573134183883667
0.98972177505493164 0.97837752103805542 0.45394346117973328
0.99903059005737305 0.98233163356781006 0.44891121983528137
0.0032431059516966343 0.0161716528236866 0.24707260727882385
0.026538489386439323 0.01833394356071949 0.25106847286224365
0.11182130128145218 0.0092345438897609711 0.24227361381053925
0.36546480655670166 0.0051945406012237072 0.2131204754114151
0.79472118616104126 0.0053126015700399876 0.15918058156967163
0.99712115526199341 0.050594870001077652 0.19153666496276855
0.99990880489349365 0.25765883922576904 0.34163230657577515
0.020681582391262054 0.11083777993917465 0.28811323642730713
0.077540814876556396 0.11249238252639771 0.29204800724983215
0.25501900911331177 0.12345386296510696 0.28947588801383972
0.51578861474990845 0.12921659648418427 0.27612927556037903
0.79787415266036987 0.17167562246322632 0.28168323636054993
0.90987378358840942 0.29143086075782776 0.35083132982254028
0.98610132932662964 0.40133985877037048 0.42796880006790161
0.037586916238069534 0.3727928102016449 0.40016400814056396
0.13215525448322296 0.37572172284126282 0.39933538436889648
0.35986781120300293 0.37852230668067932 0.39177694916725159
0.55402714014053345 0.39381948113441467 0.39334455132484436
0.71526634693145752 0.42283821105957031 0.40569543838500977
0.83661860227584839 0.4647124707698822 0.43649008870124817
0.94951760768890381 0.51861274242401123 0.47949391603469849
0.38686308264732361 0.58624774217605591 0.40013918280601501
0.42407432198524475 0.5824732780456543 0.40309315919876099
0.5101245641708374 0.58383333683013916 0.40441051125526428
0.61001706123352051 0.58456051349639893 0.41656684875488281
0.71333813667297363 0.59320449829101562 0.43348732590675354
0.81845188140869141 0.60720044374465942 0.46352294087409973
0.94110482931137085 0.6276131272315979 0.49791333079338074
0.60118710994720459 0.72492891550064087 0.3594653308391571
0.61834388971328735 0.72534328699111938 0.36130067706108093
0.65486687421798706 0.72482383251190186 0.35836547613143921
0.7092164158821106 0.72377490997314453 0.3655681312084198
0.78122150897979736 0.72606468200683594 0.364705890417099
0.87189203500747681 0.73201143741607666 0.37835076451301575
0.97816562652587891 0.74096894264221191 0.40773656964302063
0.72900474071502686 0.85394370555877686 0.41514983773231506
0.74180179834365845 0.85570347309112549 0.41949731111526489
0.77141106128692627 0.85900723934173584 0.41388729214668274
0.80909824371337891 0.85754501819610596 0.41144055128097534
0.86364579200744629 0.86036574840545654 0.40421503782272339
0.93744230270385742 0.86597371101379395 0.39670661091804504
0.99562227725982666 0.87181937694549561 0.39358004927635193
0.86800116300582886 0.97882461547851562 0.46933507919311523
0.87158471345901489 0.97480148077011108 0.46713671088218689
0.88841134309768677 0.97777253389358521 0.46627628803253174
0.91358649730682373 0.97603303194046021 0.46319782733917236
0.95342260599136353 0.98492336273193359 0.46405485272407532
0.99384415149688721 0.98673087358474731 0.45985615253448486
0.99978280067443848 0.98877263069152832 0.4528440535068512
0 0.010958189144730568 0.31909507513046265
0.0079566510394215584 0.0080216052010655403 0.31723955273628235
0.077404946088790894 0.0050277560949325562 0.30575945973396301
0.31972774863243103 0.0025551291182637215 0.27677682042121887
0.76778805255889893 0.0032374511938542128 0.21175326406955719
0.99744588136672974 0.032620061188936234 0.22814474999904633
1 0.23552553355693817 0.37861844897270203
0.0065573449246585369 0.089357219636440277 0.37505534291267395
0.042249538004398346 0.091582700610160828 0.37458217144012451
0.20427188277244568 0.092744298279285431 0.36539825797080994
0.48116305470466614 0.10053618252277374 0.34587499499320984
0.79706674814224243 0.13338425755500793 0.33594432473182678
0.91539239883422852 0.25617623329162598 0.4011351466178894
0.97694748640060425 0.38903245329856873 0.48005574941635132
0.026221122592687607 0.34045577049255371 0.50595283508300781
0.07069098949432373 0.34549194574356079 0.5062868595123291
0.29645320773124695 0.34967628121376038 0.49451127648353577
0.52695059776306152 0.36477407813072205 0.48534193634986877
0.69113659858703613 0.40226775407791138 0.49664244055747986
0.82492077350616455 0.44737368822097778 0.51310044527053833
0.94220566749572754 0.50232481956481934 0.54839080572128296
0.29530113935470581 0.5720832347869873 0.57985693216323853
0.34956249594688416 0.57079446315765381 0.58482062816619873
0.44957956671714783 0.56886225938796997 0.58464980125427246
0.56254285573959351 0.56771010160446167 0.57611715793609619
0.6768074631690979 0.57636129856109619 0.57897329330444336
0.7957841157913208 0.59717971086502075 0.58325743675231934
0.92108958959579468 0.6203845739364624 0.60420972108840942
0.5263248085975647 0.7110709547996521 0.57678455114364624
0.54348647594451904 0.71252244710922241 0.57819110155105591
0.58641046285629272 0.71231210231781006 0.57896512746810913
0.64659279584884644 0.71400278806686401 0.58686524629592896
0.71872299909591675 0.71516764163970947 0.60190385580062866
0.81728070974349976 0.72113275527954102 0.60645526647567749
0.93631941080093384 0.73298144340515137 0.62529110908508301
0.71078145503997803 0.85487586259841919 0.43705421686172485
0.71962171792984009 0.85493987798690796 0.44086235761642456
0.74375349283218384 0.85558968782424927 0.44468450546264648
0.78426492214202881 0.85706406831741333 0.446003258228302
0.83964091539382935 0.85922271013259888 0.4509989321231842
0.91202270984649658 0.8603251576423645 0.46951672434806824
0.98850774765014648 0.86605167388916016 0.50173062086105347
0.87548965215682983 0.98717212677001953 0.4722931981086731
0.88045579195022583 0.98595905303955078 0.47145822644233704
0.89350700378417969 0.98538732528686523 0.47157424688339233
0.91858905553817749 0.98572021722793579 0.46949303150177002
0.95374429225921631 0.98733186721801758 0.4662928581237793
0.9918702244758606 0.99136853218078613 0.46398675441741943
0.99998706579208374 0.99026107788085938 0.45584186911582947
0 0.0063467738218605518 0.37447306513786316
0.0022600959055125713 0.0050959419459104538 0.36700224876403809
0.041906993836164474 0.0025770748034119606 0.3541390597820282
0.25104200839996338 0.0011938655516132712 0.33191284537315369
0.71620583534240723 0.001249156310223043 0.25707533955574036
0.99650830030441284 0.011740157380700111 0.24782854318618774
1 0.19873008131980896 0.40556514263153076
0.00020300173491705209 0.051662102341651917 0.4239811897277832
0.011538381688296795 0.054087813943624496 0.42353066802024841
0.14665311574935913 0.051041889935731888 0.40907320380210876
0.42205014824867249 0.057939089834690094 0.38820463418960571
0.79166686534881592 0.075071103870868683 0.36271834373474121
0.93755489587783813 0.20646180212497711 0.42937430739402771
0.98762339353561401 0.35745960474014282 0.51535195112228394
0.018433708697557449 0.2929345965385437 0.55583685636520386
0.050222404301166534 0.2979179322719574 0.55352497100830078
0.24743536114692688 0.30232381820678711 0.54237073659896851
0.50723284482955933 0.31339180469512939 0.52738326787948608
0.68782323598861694 0.36328700184822083 0.54092347621917725
0.82257950305938721 0.42253991961479187 0.56704366207122803
0.93727594614028931 0.48832827806472778 0.60280728340148926
0.20499639213085175 0.55825728178024292 0.6746826171875
0.2729562520980835 0.54823344945907593 0.66717493534088135
0.39064249396324158 0.54718512296676636 0.66014403104782104
0.53611183166503906 0.55113637447357178 0.65312105417251587
0.6600196361541748 0.56654638051986694 0.65413451194763184
0.78067916631698608 0.58588504791259766 0.6619948148727417
0.91128522157669067 0.60916954278945923 0.67276644706726074
0.46021926403045654 0.69745641946792603 0.71030819416046143
0.47880715131759644 0.69816476106643677 0.7131085991859436
0.53183478116989136 0.70242536067962646 0.70917630195617676
0.60494714975357056 0.70521634817123413 0.71596294641494751
0.69649344682693481 0.70796561241149902 0.7032012939453125
0.79665553569793701 0.71535921096801758 0.71198838949203491
0.9223405122756958 0.72732704877853394 0.72048181295394897
0.62049788236618042 0.84408754110336304 0.71318423748016357
0.63058322668075562 0.84517860412597656 0.7178388237953186
0.65923398733139038 0.84491825103759766 0.71962517499923706
0.7025686502456665 0.84673404693603516 0.72184282541275024
0.76233220100402832 0.84695196151733398 0.73209565877914429
0.84424567222595215 0.84914445877075195 0.73725324869155884
0.95326137542724609 0.85693943500518799 0.7442857027053833
0.87461280822753906 0.99201488494873047 0.47963625192642212
0.88159763813018799 0.99189567565917969 0.47833454608917236
0.89650946855545044 0.99183154106140137 0.47888621687889099
0.91743510961532593 0.99064970016479492 0.4774632453918457
0.95169520378112793 0.99074697494506836 0.47786453366279602
0.99045968055725098 0.98915332555770874 0.48073777556419373
0.9999423623085022 0.99064874649047852 0.47312599420547485
0 0.0028362050652503967 0.41866111755371094
5.6846467487048358e-05 0.0013342763995751739 0.41410258412361145
0.01270561944693327 0.00025688621099106967 0.40992188453674316
0.16157090663909912 0 0.38515013456344604
0.61152631044387817 0 0.30720421671867371
0.99531590938568115 0.0063433777540922165 0.25638991594314575
1 0.13015025854110718 0.40416532754898071
0 0.023276833817362785 0.46448498964309692
0.0016237745294347405 0.024541234597563744 0.46250444650650024
0.059756934642791748 0.016866482794284821 0.45342066884040833
0.33243414759635925 0.018234508112072945 0.4255250096321106
0.75376671552658081 0.02163238450884819 0.37751984596252441
0.97244596481323242 0.10233553498983383 0.41587594151496887
0.9935537576675415 0.31185641884803772 0.53731071949005127
0.0062250774353742599 0.22020231187343597 0.58169722557067871
0.030586587265133858 0.22305800020694733 0.5797802209854126
0.1782127171754837 0.23406626284122467 0.57102400064468384
0.47004088759422302 0.23925624787807465 0.54945337772369385
0.69346296787261963 0.29453247785568237 0.56244093179702759
0.82993823289871216 0.37328818440437317 0.59490162134170532
0.94202852249145508 0.46213284134864807 0.6398579478263855
0.077028028666973114 0.53154957294464111 0.7376943826675415
0.15474393963813782 0.52694845199584961 0.73204833269119263
0.32418093085289001 0.52266252040863037 0.72131884098052979
0.49531671404838562 0.52042931318283081 0.70667004585266113
0.63291084766387939 0.53882241249084473 0.70763355493545532
0.76829779148101807 0.55746865272521973 0.7095717191696167
0.90345770120620728 0.58956789970397949 0.71940487623214722
0.39485284686088562 0.68833678960800171 0.79455995559692383
0.41401240229606628 0.68810153007507324 0.79397010803222656
0.4803510308265686 0.69137346744537354 0.79382598400115967
0.56158685684204102 0.68203848600387573 0.78937149047851562
0.66605460643768311 0.69332170486450195 0.78704041242599487
0.77018541097640991 0.69843894243240356 0.78570592403411865
0.90511727333068848 0.71201807260513306 0.78452497720718384
0.55927121639251709 0.83683353662490845 0.84660357236862183
0.57425719499588013 0.83888983726501465 0.84739786386489868
0.60834378004074097 0.83491247892379761 0.84384417533874512
0.65275603532791138 0.83152425289154053 0.84911882877349854
0.72520536184310913 0.83412665128707886 0.84736150503158569
0.81058144569396973 0.83731859922409058 0.84780067205429077
0.93103605508804321 0.84418392181396484 0.84840059280395508
0.78046232461929321 0.98374992609024048 0.81503099203109741
0.78257578611373901 0.98120689392089844 0.81585204601287842
0.80197179317474365 0.98374557495117188 0.81694227457046509
0.81859022378921509 0.98059439659118652 0.82208287715911865
0.85481023788452148 0.98264551162719727 0.82841283082962036
0.90586131811141968 0.98766803741455078 0.83998256921768188
0.98074901103973389 0.98908382654190063 0.85580480098724365
0 0.0023284314665943384 0.45282575488090515
0 0.0023284314665943384 0.45746490359306335
0.0048575308173894882 0.00013697007670998573 0.43559268116950989
0.098279081284999847 0 0.4130217432975769
0.52166402339935303 0 0.33927080035209656
0.99427109956741333 0.00093314977129921317 0.24816149473190308
1 0.069529496133327484 0.38187292218208313
0 0.016955506056547165 0.49058288335800171
0.00023920396051835269 0.011722818948328495 0.48776325583457947
0.019565686583518982 0.0066818837076425552 0.47573146224021912
0.2585761547088623 0.0029189763590693474 0.44130763411521912
0.70475548505783081 0.0061922711320221424 0.38306704163551331
0.98809486627578735 0.040230695158243179 0.39516550302505493
0.99923539161682129 0.26467409729957581 0.53348243236541748
1.7233456674148329e-05 0.16327761113643646 0.58545535802841187
0.014189133420586586 0.1654314398765564 0.58343112468719482
0.12272772938013077 0.17314544320106506 0.57619971036911011
0.42491436004638672 0.17381037771701813 0.54909253120422363
0.70625537633895874 0.21699912846088409 0.54665267467498779
0.84588754177093506 0.32468649744987488 0.59297865629196167
0.94883018732070923 0.43488487601280212 0.64843297004699707
0.01915639266371727 0.50450831651687622 0.76468551158905029
0.057164780795574188 0.50243014097213745 0.75949287414550781
0.25805532932281494 0.4955785870552063 0.74499356746673584
0.45866650342941284 0.49325931072235107 0.72896301746368408
0.61998486518859863 0.51756078004837036 0.72952914237976074
0.75532335042953491 0.54275321960449219 0.73414993286132812
0.90010529756546021 0.5763862133026123 0.74392783641815186
0.35375997424125671 0.67903780937194824 0.83769899606704712
0.36752349138259888 0.68019956350326538 0.83529806137084961
0.43530523777008057 0.67944276332855225 0.83014225959777832
0.52352714538574219 0.66451525688171387 0.82572448253631592
0.64460176229476929 0.67846274375915527 0.82215672731399536
0.75813180208206177 0.68603503704071045 0.82186949253082275
0.89523965120315552 0.69786357879638672 0.82289081811904907
0.51988130807876587 0.82961797714233398 0.91372352838516235
0.53635203838348389 0.83393192291259766 0.91264808177947998
0.56951004266738892 0.828960120677948 0.90758609771728516
0.6169135570526123 0.82191842794418335 0.90734142065048218
0.69106918573379517 0.82450121641159058 0.9069945216178894
0.79941433668136597 0.83818858861923218 0.90103995800018311
0.9213147759437561 0.83995479345321655 0.90453070402145386
0.72387945652008057 0.97686564922332764 0.96450138092041016
0.73218029737472534 0.97786152362823486 0.96725064516067505
0.74569255113601685 0.97619450092315674 0.96721154451370239
0.7686278223991394 0.97623306512832642 0.9659542441368103
0.8083420991897583 0.98057025671005249 0.97390693426132202
0.86099869012832642 0.98251384496688843 0.97777688503265381
0.96182036399841309 0.9872746467590332 0.98765462636947632
