luts/colorslide/kodak_elite_extracolor_100.cube
# Created by: G'MIC (https://gmic.eu)
TITLE "kodak_elite_extracolor_100"
# LUT size
LUT_3D_SIZE 7
# Data domain
DOMAIN_MIN 0.0 0.0 0.0
DOMAIN_MAX 1.0 1.0 1.0
# LUT data points
0.039727065712213516 0.031361181288957596 0.027583522722125053
0.13477623462677002 0.025152826681733131 0.022691912949085236
0.25502529740333557 0.020606337115168571 0.018421217799186707
0.39812776446342468 0.0088622299954295158 0.012287304736673832
0.56864899396896362 0.0070048612542450428 0.010997802019119263
0.69634687900543213 0.00061274511972442269 0.0076274648308753967
0.8056456446647644 0 0.0032819411717355251
0.10327262431383133 0.16163492202758789 0.061481520533561707
0.1708189994096756 0.14747323095798492 0.057991459965705872
0.29069703817367554 0.12993872165679932 0.048188991844654083
0.43633505702018738 0.1083681732416153 0.032651204615831375
0.59527993202209473 0.071314103901386261 0.02401205338537693
0.71060466766357422 0.024464759975671768 0.0062549817375838757
0.81975173950195312 0.0032995934598147869 0.00094727159012109041
0.13985167443752289 0.30687063932418823 0.10961517691612244
0.2191622257232666 0.30247139930725098 0.10298287123441696
0.33627745509147644 0.28669363260269165 0.089355617761611938
0.48827290534973145 0.26901313662528992 0.07292640209197998
0.64538943767547607 0.22703048586845398 0.041564043611288071
0.76148748397827148 0.1640809178352356 0.017911739647388458
0.85059905052185059 0.072222523391246796 0.0044679529964923859
0.17972585558891296 0.51012611389160156 0.12826278805732727
0.26433476805686951 0.50591832399368286 0.11676559597253799
0.39076390862464905 0.49686327576637268 0.1077866330742836
0.54943752288818359 0.47244131565093994 0.09482855349779129
0.70977061986923218 0.44355982542037964 0.070915490388870239
0.83058947324752808 0.38634821772575378 0.039158135652542114
0.92522317171096802 0.30302602052688599 0.011439020745456219
0.24392694234848022 0.71613019704818726 0.099437311291694641
0.31890493631362915 0.7116774320602417 0.095777742564678192
0.45879647135734558 0.70476949214935303 0.085133090615272522
0.63180297613143921 0.69621497392654419 0.078361287713050842
0.78506183624267578 0.68379205465316772 0.065609723329544067
0.9074702262878418 0.65254712104797363 0.041981998831033707
0.99346619844436646 0.60431212186813354 0.019061923027038574
0.35129547119140625 0.89205664396286011 0.013196294195950031
0.42225274443626404 0.89168673753738403 0.01278216764330864
0.56353437900543213 0.89179778099060059 0.011520953848958015
0.71147060394287109 0.88526254892349243 0.0097065791487693787
0.84585314989089966 0.87322378158569336 0.01245561521500349
0.96696639060974121 0.86093157529830933 0.012976597994565964
0.99610292911529541 0.84634542465209961 0.014445420354604721
0.49011841416358948 0.99729150533676147 0
0.54664474725723267 0.99845826625823975 0
0.66397714614868164 0.99421542882919312 0
0.79005730152130127 0.99732112884521484 0
0.91009169816970825 0.99759691953659058 0
0.9945259690284729 0.99513077735900879 0
1 0.99212014675140381 0
0.026205563917756081 0.031403575092554092 0.12361593544483185
0.10949006676673889 0.031785570085048676 0.11846008151769638
0.23385338485240936 0.022466875612735748 0.10588712245225906
0.38606062531471252 0.011255930177867413 0.086744360625743866
0.55059486627578735 0.0054521895945072174 0.068957597017288208
0.68732678890228271 0.0001659767294768244 0.040698975324630737
0.80490261316299438 0 0.017793886363506317
0.098824471235275269 0.1558782160282135 0.15216819941997528
0.15309698879718781 0.15242323279380798 0.14920565485954285
0.27301976084709167 0.13718155026435852 0.13815616071224213
0.42400017380714417 0.10894457995891571 0.11708542704582214
0.58400112390518188 0.069740161299705505 0.086914107203483582
0.69996100664138794 0.023430140689015388 0.052134331315755844
0.80801248550415039 0.0016293544322252274 0.017030917108058929
0.10968249291181564 0.30368891358375549 0.18301376700401306
0.19142436981201172 0.30308163166046143 0.17479868233203888
0.32191929221153259 0.29414716362953186 0.16669832170009613
0.47592133283615112 0.27143099904060364 0.14903730154037476
0.63645005226135254 0.22621223330497742 0.12004969269037247
0.75199371576309204 0.1696275919675827 0.087035313248634338
0.84212648868560791 0.07279592752456665 0.034252781420946121
0.14670541882514954 0.50195914506912231 0.19878286123275757
0.23495501279830933 0.50009816884994507 0.19222645461559296
0.37166672945022583 0.49154144525527954 0.18191292881965637
0.53752142190933228 0.47394680976867676 0.16690334677696228
0.69450658559799194 0.44474214315414429 0.14746870100498199
0.81966924667358398 0.39186868071556091 0.11185437440872192
0.9169309139251709 0.30827370285987854 0.066529326140880585
0.20097692310810089 0.7117849588394165 0.18535047769546509
0.29393362998962402 0.71207958459854126 0.17551650106906891
0.43806421756744385 0.70432054996490479 0.16450504958629608
0.61591595411300659 0.69428497552871704 0.14243751764297485
0.77053117752075195 0.68301045894622803 0.12982027232646942
0.89737385511398315 0.6548079252243042 0.10539314150810242
0.98688811063766479 0.59781867265701294 0.078880771994590759
0.3158591091632843 0.88652604818344116 0.085338965058326721
0.39353692531585693 0.88546168804168701 0.072778292000293732
0.53533768653869629 0.88510388135910034 0.060455530881881714
0.6991998553276062 0.88471883535385132 0.045151699334383011
0.83527743816375732 0.87476664781570435 0.030675491318106651
0.96056509017944336 0.86375254392623901 0.025623606517910957
0.99816602468490601 0.84013462066650391 0.019737603142857552
0.48387745022773743 0.99793314933776855 0.0013658561510965228
0.53970694541931152 0.99626588821411133 0.0018202838255092502
0.65583229064941406 0.99783086776733398 0.00058593752328306437
0.78347253799438477 0.99621707201004028 0.0014444687403738499
0.91186064481735229 0.99148738384246826 0.0019626691937446594
0.99472886323928833 0.99393355846405029 9.1403140686452389e-05
1 0.98429739475250244 0.00061274511972442269
0.015484409406781197 0.036077879369258881 0.2337784618139267
0.084887564182281494 0.030375432223081589 0.22383347153663635
0.21406629681587219 0.024276852607727051 0.21602000296115875
0.36579224467277527 0.010676140896975994 0.19448667764663696
0.53862291574478149 0.005544999148696661 0.16958366334438324
0.67134660482406616 0.0032144584693014622 0.14511929452419281
0.78690999746322632 0 0.11053526401519775
0.072587497532367706 0.15882982313632965 0.26664388179779053
0.12850208580493927 0.15006469190120697 0.26370149850845337
0.24823999404907227 0.13790038228034973 0.25366678833961487
0.40682479739189148 0.11773775517940521 0.23526334762573242
0.57094919681549072 0.074438147246837616 0.20184893906116486
0.69020664691925049 0.02818736620247364 0.16809745132923126
0.78957968950271606 0.0024113673716783524 0.12526439130306244
0.076013214886188507 0.30538731813430786 0.29850512742996216
0.14991211891174316 0.30145621299743652 0.29729545116424561
0.28193840384483337 0.29369246959686279 0.29362547397613525
0.45699164271354675 0.27885270118713379 0.27333182096481323
0.61724567413330078 0.22967033088207245 0.24166083335876465
0.73922955989837646 0.17717097699642181 0.20982655882835388
0.82599198818206787 0.079182401299476624 0.15924641489982605
0.063411921262741089 0.50401163101196289 0.33100101351737976
0.17089992761611938 0.50327688455581665 0.3273080587387085
0.33482488989830017 0.49059787392616272 0.31743043661117554
0.51747232675552368 0.47197124361991882 0.30155149102210999
0.67428725957870483 0.4447990357875824 0.28080344200134277
0.80544984340667725 0.39288049936294556 0.25020194053649902
0.89995235204696655 0.31805324554443359 0.20470887422561646
0.093409441411495209 0.71020615100860596 0.34582823514938354
0.21878015995025635 0.70744097232818604 0.33705875277519226
0.39730063080787659 0.69436252117156982 0.32789689302444458
0.58831971883773804 0.69053930044174194 0.3153080940246582
0.74696898460388184 0.67630910873413086 0.29607108235359192
0.87710976600646973 0.65025919675827026 0.26455098390579224
0.97829931974411011 0.5969088077545166 0.22485023736953735
0.23542453348636627 0.87481075525283813 0.31135869026184082
0.33484289050102234 0.87353253364562988 0.30418187379837036
0.48563921451568604 0.87365490198135376 0.29608914256095886
0.66154736280441284 0.87305587530136108 0.28061738610267639
0.80718767642974854 0.86542731523513794 0.26156705617904663
0.9387403130531311 0.85538232326507568 0.22670648992061615
0.99735969305038452 0.83365285396575928 0.16673809289932251
0.4379487931728363 0.99686592817306519 0.10954633355140686
0.50163894891738892 0.99819612503051758 0.10629746317863464
0.63202744722366333 0.99794685840606689 0.094906598329544067
0.77239662408828735 0.9980473518371582 0.079076357185840607
0.90046966075897217 0.99768906831741333 0.064516223967075348
0.99473929405212402 0.99564039707183838 0.039067946374416351
1 0.99392074346542358 0.016729183495044708
0.0084341010078787804 0.033952631056308746 0.35409533977508545
0.062738426029682159 0.030191848054528236 0.34636443853378296
0.18375815451145172 0.023682627826929092 0.34018447995185852
0.33814337849617004 0.015801418572664261 0.32988876104354858
0.51325720548629761 0.0043230094015598297 0.29871293902397156
0.65189218521118164 0.0017600414576008916 0.27863189578056335
0.76540547609329224 0 0.24695493280887604
0.036511499434709549 0.16328255832195282 0.40267020463943481
0.099335841834545135 0.1517147570848465 0.39732560515403748
0.21545316278934479 0.13826294243335724 0.3891100287437439
0.37805306911468506 0.11559608578681946 0.37427935004234314
0.54282116889953613 0.075923532247543335 0.34645816683769226
0.66669648885726929 0.026578027755022049 0.31639945507049561
0.7694627046585083 0.0056750578805804253 0.27810549736022949
0.05366121232509613 0.30926573276519775 0.44835460186004639
0.095082841813564301 0.30151578783988953 0.44468125700950623
0.24023641645908356 0.29647848010063171 0.43847829103469849
0.4200325608253479 0.27834150195121765 0.42404571175575256
0.58723318576812744 0.23227271437644958 0.40122523903846741
0.71246552467346191 0.1780359297990799 0.37456655502319336
0.8052716851234436 0.075212277472019196 0.3266044557094574
0.011189150623977184 0.5066409707069397 0.49734508991241455
0.068424329161643982 0.50340336561203003 0.4970153272151947
0.26544344425201416 0.49223104119300842 0.49216455221176147
0.47119644284248352 0.47751691937446594 0.47612234950065613
0.64770960807800293 0.45142212510108948 0.46035215258598328
0.77547526359558105 0.39967012405395508 0.43037331104278564
0.87657415866851807 0.31203275918960571 0.38569378852844238
0.0066010868176817894 0.70267271995544434 0.5330384373664856
0.082058683037757874 0.69980841875076294 0.53357034921646118
0.31585758924484253 0.68700492382049561 0.52423250675201416
0.53061598539352417 0.68014967441558838 0.51476836204528809
0.70951098203659058 0.67185431718826294 0.49957934021949768
0.8466915488243103 0.64607435464859009 0.47663119435310364
0.9524543285369873 0.58853995800018311 0.43761527538299561
0.057864632457494736 0.86500394344329834 0.53595930337905884
0.20110227167606354 0.86411595344543457 0.53269815444946289
0.41441166400909424 0.85933184623718262 0.51933062076568604
0.60242682695388794 0.85809236764907837 0.50977998971939087
0.76772713661193848 0.85462969541549683 0.4955328106880188
0.90317428112030029 0.83998113870620728 0.47483697533607483
0.99012070894241333 0.82242417335510254 0.44588243961334229
0.29330360889434814 0.9952731728553772 0.41690602898597717
0.38724693655967712 0.99462711811065674 0.41381168365478516
0.54308676719665527 0.99486923217773438 0.4067443311214447
0.70567613840103149 0.99441802501678467 0.39156460762023926
0.84768426418304443 0.9945715069770813 0.37521100044250488
0.97503769397735596 0.99333041906356812 0.34652718901634216
0.99982732534408569 0.99125033617019653 0.28415802121162415
0.0029224022291600704 0.041194826364517212 0.4977257251739502
0.031981300562620163 0.039823271334171295 0.48952597379684448
0.14010706543922424 0.025375321507453918 0.48499596118927002
0.30166256427764893 0.013350333087146282 0.47606924176216125
0.4808323085308075 0.0055136885493993759 0.45723128318786621
0.62300986051559448 0.0001196169396280311 0.4453311562538147
0.73374223709106445 6.4625462982803583e-05 0.40993449091911316
0.015012718737125397 0.1725970059633255 0.55296891927719116
0.055811848491430283 0.1640140563249588 0.5472906231880188
0.1662466824054718 0.15188805758953094 0.54212486743927002
0.33144709467887878 0.12765063345432281 0.52822607755661011
0.50776088237762451 0.086317650973796844 0.50347471237182617
0.64264494180679321 0.031983722001314163 0.4824998676776886
0.73853582143783569 0.0035780363250523806 0.44765803217887878
0.017000280320644379 0.32146066427230835 0.6060975193977356
0.056612126529216766 0.31125792860984802 0.60325223207473755
0.17900928854942322 0.30897611379623413 0.59482038021087646
0.36875280737876892 0.28554674983024597 0.57830709218978882
0.55846905708312988 0.24501654505729675 0.56347799301147461
0.68417471647262573 0.18203786015510559 0.54089623689651489
0.78173434734344482 0.07808348536491394 0.50546687841415405
0.0018309050938114524 0.51533299684524536 0.65756231546401978
0.010899621993303299 0.50871998071670532 0.65670293569564819
0.17525026202201843 0.50362181663513184 0.64989948272705078
0.41568425297737122 0.48650279641151428 0.63846170902252197
0.60444730520248413 0.46299225091934204 0.61800903081893921
0.75205385684967041 0.41467377543449402 0.60042464733123779
0.85475516319274902 0.32121911644935608 0.5688316822052002
0.00084701238665729761 0.69602400064468384 0.69593906402587891
0.0066920262761414051 0.69527566432952881 0.69777274131774902
0.21038584411144257 0.69232505559921265 0.69480216503143311
0.47343629598617554 0.68337804079055786 0.68243670463562012
0.6668667197227478 0.67094707489013672 0.66789305210113525
0.81503820419311523 0.64734911918640137 0.65191340446472168
0.92518985271453857 0.59447145462036133 0.62811726331710815
0.0022867689840495586 0.85391241312026978 0.71737229824066162
0.028359027579426765 0.8549003005027771 0.7256845235824585
0.30107015371322632 0.85147386789321899 0.71685391664505005
0.54306179285049438 0.84921956062316895 0.70371341705322266
0.71742421388626099 0.84289026260375977 0.68877387046813965
0.86118459701538086 0.82829868793487549 0.67819792032241821
0.97446107864379883 0.80593961477279663 0.66330313682556152
0.040094830095767975 0.98688721656799316 0.69018048048019409
0.16584005951881409 0.98614948987960815 0.6887056827545166
0.41374900937080383 0.98621153831481934 0.67867636680603027
0.61926162242889404 0.98611330986022949 0.66824615001678467
0.77838975191116333 0.98667430877685547 0.6631578803062439
0.9225083589553833 0.98503488302230835 0.64682507514953613
0.9980618953704834 0.98147082328796387 0.61759382486343384
0.0014093436766415834 0.053829029202461243 0.62552559375762939
0.0062021589837968349 0.041355326771736145 0.62212133407592773
0.099977128207683563 0.035981345921754837 0.614632248878479
0.26829585433006287 0.020852047950029373 0.60365885496139526
0.45820343494415283 0.0099500920623540878 0.58674204349517822
0.5960349440574646 0.00231170654296875 0.56585252285003662
0.71406948566436768 0 0.54775547981262207
0.0023626589681953192 0.18941611051559448 0.67944455146789551
0.020150203257799149 0.18207238614559174 0.67231911420822144
0.1205679327249527 0.17267575860023499 0.66760456562042236
0.28817647695541382 0.14843159914016724 0.65441393852233887
0.48891541361808777 0.10171179473400116 0.63535171747207642
0.62410843372344971 0.043494623154401779 0.61177581548690796
0.71946090459823608 0.0026317222509533167 0.58128064870834351
0.001563591999001801 0.34876012802124023 0.72907125949859619
0.016649462282657623 0.33515378832817078 0.72403609752655029
0.099232859909534454 0.32101893424987793 0.71875262260437012
0.32568550109863281 0.30455449223518372 0.70392024517059326
0.53559720516204834 0.26807311177253723 0.68924814462661743
0.67196345329284668 0.20780810713768005 0.66794228553771973
0.76776862144470215 0.10008422285318375 0.63536041975021362
0 0.53242415189743042 0.77915573120117188
0.0041752983815968037 0.52319091558456421 0.77550071477890015
0.061412077397108078 0.52007538080215454 0.77541202306747437
0.35294291377067566 0.50341904163360596 0.76224374771118164
0.57656139135360718 0.48476284742355347 0.74769324064254761
0.7271418571472168 0.44030922651290894 0.72794437408447266
0.83933931589126587 0.35178309679031372 0.70371019840240479
0 0.6981235146522522 0.82524484395980835
0.003754529869183898 0.69670891761779785 0.81990224123001099
0.06115863099694252 0.6971060037612915 0.82270270586013794
0.40223938226699829 0.69317388534545898 0.81279057264328003
0.62382745742797852 0.67876827716827393 0.79932814836502075
0.78416341543197632 0.65865027904510498 0.78666424751281738
0.90660262107849121 0.61114215850830078 0.76690506935119629
0 0.851124107837677 0.85700994729995728
0.0054263696074485779 0.85230273008346558 0.85669094324111938
0.11588048189878464 0.85094499588012695 0.85978490114212036
0.46292063593864441 0.84725427627563477 0.85026884078979492
0.66779941320419312 0.84065312147140503 0.83620697259902954
0.82681745290756226 0.82814079523086548 0.82352954149246216
0.95129179954528809 0.80366086959838867 0.81241166591644287
0.00021601658954750746 0.97568881511688232 0.86765760183334351
0.0044525447301566601 0.97487360239028931 0.8684995174407959
0.20575040578842163 0.97576838731765747 0.86834490299224854
0.52176898717880249 0.97343403100967407 0.85691821575164795
0.71674108505249023 0.97650456428527832 0.84510666131973267
0.87406784296035767 0.97543638944625854 0.83950656652450562
0.98896485567092896 0.97161972522735596 0.82636964321136475
0 0.081187576055526733 0.7368924617767334
0.0021475697867572308 0.071458257734775543 0.73496991395950317
0.051214240491390228 0.053745463490486145 0.72686600685119629
0.22964431345462799 0.035571932792663574 0.71542036533355713
0.43966454267501831 0.017694421112537384 0.7013857364654541
0.57297855615615845 0.0045411204919219017 0.67175209522247314
0.69011521339416504 3.0338062060764059e-05 0.65571433305740356
0.00046691895113326609 0.2252890020608902 0.78540724515914917
0.0070932274684309959 0.2129572331905365 0.78087013959884644
0.069119185209274292 0.20006747543811798 0.77672845125198364
0.23935291171073914 0.17575202882289886 0.76233625411987305
0.46413886547088623 0.13677385449409485 0.74572104215621948
0.61157196760177612 0.071365058422088623 0.72190135717391968
0.70798951387405396 0.0091052185744047165 0.69786596298217773
0.00079752603778615594 0.37513557076454163 0.83657902479171753
0.0040992586873471737 0.36494755744934082 0.8312370777130127
0.025368126109242439 0.35450959205627441 0.82854765653610229
0.25397098064422607 0.33572167158126831 0.81709545850753784
0.49328440427780151 0.30331262946128845 0.79720973968505859
0.65802407264709473 0.24682401120662689 0.77916616201400757
0.76101911067962646 0.14477957785129547 0.74651908874511719
2.6927275030175224e-05 0.5578351616859436 0.88967478275299072
0.00060451729223132133 0.55185383558273315 0.88499027490615845
0.0047162226401269436 0.54337465763092041 0.88054293394088745
0.24930289387702942 0.5354689359664917 0.87373560667037964
0.53334951400756836 0.5179254412651062 0.85701966285705566
0.7085607647895813 0.47656098008155823 0.83922404050827026
0.82748186588287354 0.39331617951393127 0.8185310959815979
0 0.71285319328308105 0.93242710828781128
0 0.70881718397140503 0.92864274978637695
0.004033705685287714 0.70860648155212402 0.92844223976135254
0.26998284459114075 0.70424443483352661 0.9216078519821167
0.57327240705490112 0.69442081451416016 0.90618181228637695
0.75340157747268677 0.67591911554336548 0.89404892921447754
0.88857501745223999 0.63201594352722168 0.87873297929763794
0 0.84937447309494019 0.96490931510925293
0.0003972670529037714 0.85247147083282471 0.96655333042144775
0.0060063977725803852 0.85713165998458862 0.9678834080696106
0.30683383345603943 0.85384702682495117 0.96015709638595581
0.60683304071426392 0.84829074144363403 0.94429695606231689
0.79295426607131958 0.84074652194976807 0.93526417016983032
0.92886227369308472 0.81455004215240479 0.92495155334472656
0 0.96080249547958374 0.99061876535415649
0 0.96373867988586426 0.98402577638626099
0.0042573516257107258 0.96832096576690674 0.98688536882400513
0.32097461819648743 0.9702075719833374 0.98815631866455078
0.62382739782333374 0.97039854526519775 0.97681456804275513
0.82040834426879883 0.97089701890945435 0.96940988302230835
0.96629345417022705 0.96843105554580688 0.96370613574981689
