luts/colorslide/kodak_elite_chrome_200.cube
# Created by: G'MIC (https://gmic.eu)
TITLE "kodak_elite_chrome_200"
# LUT size
LUT_3D_SIZE 5
# Data domain
DOMAIN_MIN 0.0 0.0 0.0
DOMAIN_MAX 1.0 1.0 1.0
# LUT data points
0.02172636054456234 0.021808445453643799 0.018149610608816147
0.1761472076177597 0.0087598767131567001 0.0027162740007042885
0.41102463006973267 0.0071228775195777416 0.00024746166309341788
0.65337187051773071 0 0
0.87902563810348511 0.00028315524104982615 0.00025028901291079819
0.12856012582778931 0.24982282519340515 0.10456978529691696
0.26585772633552551 0.22185735404491425 0.076722025871276855
0.49002799391746521 0.18607492744922638 0.034094374626874924
0.71196264028549194 0.1176951676607132 0.0033448762260377407
0.8920133113861084 0.015072841197252274 1.9387638531043194e-05
0.26152485609054565 0.52443993091583252 0.19572658836841583
0.39725905656814575 0.51511949300765991 0.17448514699935913
0.60631179809570312 0.49657171964645386 0.13619160652160645
0.82353979349136353 0.46253591775894165 0.10622440278530121
0.99277299642562866 0.39282912015914917 0.06415838748216629
0.46728286147117615 0.76655310392379761 0.29016497731208801
0.55880510807037354 0.76453131437301636 0.2805829644203186
0.72790670394897461 0.75628489255905151 0.24966572225093842
0.92282015085220337 0.74034309387207031 0.21229982376098633
1 0.70243239402770996 0.18132731318473816
0.68446093797683716 0.96432226896286011 0.36344587802886963
0.73693740367889404 0.96398180723190308 0.35475000739097595
0.861519455909729 0.96314340829849243 0.34675142168998718
0.99488586187362671 0.9547620415687561 0.31749093532562256
0.99993431568145752 0.94104397296905518 0.29000350832939148
0.00072546565206721425 0.015252386219799519 0.14973349869251251
0.13392357528209686 0.0072563169524073601 0.12002630531787872
0.36721456050872803 3.4466913348296657e-05 0.073323704302310944
0.6063116192817688 0 0.030746715143322945
0.82588207721710205 0 0.0050948797725141048
0.088804684579372406 0.23609839379787445 0.24239234626293182
0.22628258168697357 0.21804116666316986 0.21907986700534821
0.44562113285064697 0.16866283118724823 0.16754800081253052
0.65768074989318848 0.10285001248121262 0.11246123909950256
0.83568936586380005 0.015998676419258118 0.05366617813706398
0.18966332077980042 0.52681028842926025 0.34309783577919006
0.33771571516990662 0.52302521467208862 0.32728767395019531
0.56051152944564819 0.49953526258468628 0.29305276274681091
0.77723550796508789 0.46133950352668762 0.25334569811820984
0.96364724636077881 0.38270825147628784 0.20710362493991852
0.40411382913589478 0.77536958456039429 0.43702158331871033
0.49991676211357117 0.77235919237136841 0.42587649822235107
0.67338675260543823 0.76104289293289185 0.3997282087802887
0.87433648109436035 0.74231195449829102 0.3723025918006897
0.99994343519210815 0.70892786979675293 0.33458012342453003
0.6205558180809021 0.97195476293563843 0.50485366582870483
0.68834632635116577 0.9677807092666626 0.48665788769721985
0.81842422485351562 0.96383225917816162 0.47696107625961304
0.97120684385299683 0.95791780948638916 0.45633742213249207
1 0.94626474380493164 0.43356719613075256
0.00029899747460149229 0.013579484075307846 0.33309632539749146
0.086033627390861511 0.0049918228760361671 0.30722996592521667
0.30450257658958435 0 0.26113918423652649
0.54069674015045166 0 0.21272009611129761
0.76059639453887939 0.0066603566519916058 0.17404621839523315
0.052540063858032227 0.21510393917560577 0.43033918738365173
0.16215558350086212 0.1934819370508194 0.40988314151763916
0.3771355152130127 0.14329525828361511 0.36427190899848938
0.58713597059249878 0.081904105842113495 0.31264808773994446
0.76535576581954956 0.0068892384879291058 0.25799074769020081
0.06215236708521843 0.51808387041091919 0.53795653581619263
0.26037725806236267 0.50851821899414062 0.52119356393814087
0.49179813265800476 0.48436006903648376 0.48892247676849365
0.70374965667724609 0.45139354467391968 0.45129874348640442
0.88334459066390991 0.35433483123779297 0.39883330464363098
0.31678760051727295 0.77588832378387451 0.62938398122787476
0.4203944206237793 0.77277356386184692 0.61750668287277222
0.60167628526687622 0.7635500431060791 0.59342795610427856
0.80027163028717041 0.74765497446060181 0.56713223457336426
0.97468823194503784 0.70818120241165161 0.52801996469497681
0.54446923732757568 0.97603976726531982 0.68668174743652344
0.61102151870727539 0.97557622194290161 0.67613524198532104
0.73987722396850586 0.96949905157089233 0.66128396987915039
0.9046560525894165 0.96331524848937988 0.64631515741348267
1 0.95255428552627563 0.61940306425094604
0 0.0040085138753056526 0.5203089714050293
0.033706020563840866 0.0014729219255968928 0.49211272597312927
0.26067450642585754 0 0.45261427760124207
0.4822552502155304 0.0076703689992427826 0.41261807084083557
0.69085013866424561 0.017025681212544441 0.37674111127853394
0.014153125695884228 0.166998490691185 0.59955787658691406
0.12108975648880005 0.14479891955852509 0.5783722996711731
0.31802967190742493 0.099250137805938721 0.5380445122718811
0.51449406147003174 0.035321958363056183 0.48723694682121277
0.69188427925109863 0.0011077731614932418 0.43729487061500549
0.030657375231385231 0.49570372700691223 0.70841145515441895
0.19977441430091858 0.48603758215904236 0.69471096992492676
0.43208003044128418 0.46158567070960999 0.66338682174682617
0.63916093111038208 0.4189724326133728 0.62366402149200439
0.80657976865768433 0.30075815320014954 0.56685000658035278
0.23882235586643219 0.76903146505355835 0.80076909065246582
0.34852951765060425 0.77213841676712036 0.79287517070770264
0.5387076735496521 0.7686801552772522 0.77062135934829712
0.73646873235702515 0.74131578207015991 0.73998355865478516
0.93026214838027954 0.6930045485496521 0.69965922832489014
0.48138511180877686 0.97510945796966553 0.86524993181228638
0.5385555624961853 0.98133325576782227 0.85463285446166992
0.66959697008132935 0.97878396511077881 0.83959001302719116
0.8382529616355896 0.97261196374893188 0.82410025596618652
0.99205398559570312 0.9646790623664856 0.7978750467300415
0 0 0.68917405605316162
0.02086423896253109 0 0.65838557481765747
0.22169257700443268 0.00016705381858628243 0.62600481510162354
0.43723970651626587 0.010817867703735828 0.58815246820449829
0.62962275743484497 0.011619417928159237 0.54856497049331665
0.0084251407533884048 0.069555602967739105 0.73535490036010742
0.088407032191753387 0.059635896235704422 0.7178112268447876
0.26446130871772766 0.034950584173202515 0.6799742579460144
0.4525931179523468 0.0026520972605794668 0.63861721754074097
0.63165098428726196 0 0.59896069765090942
0.069403268396854401 0.44096925854682922 0.84359055757522583
0.19703061878681183 0.41915607452392578 0.82715487480163574
0.39675012230873108 0.38804537057876587 0.80062854290008545
0.57439732551574707 0.32674625515937805 0.76017910242080688
0.72540020942687988 0.20218724012374878 0.70046228170394897
0.23564191162586212 0.74817836284637451 0.94177669286727905
0.33984130620956421 0.74810147285461426 0.93221348524093628
0.51078855991363525 0.74063849449157715 0.91350477933883667
0.6900666356086731 0.71281993389129639 0.88720178604125977
0.86984097957611084 0.64948290586471558 0.84967350959777832
0.4666016697883606 0.97780007123947144 0.99612510204315186
0.5264517068862915 0.9791795015335083 0.99035912752151489
0.64363479614257812 0.97824132442474365 0.98504269123077393
0.79418420791625977 0.97182458639144897 0.97704005241394043
0.96576231718063354 0.96233773231506348 0.96297585964202881
