luts/colorslide/kodak_kodachrome_25.cube
# Created by: G'MIC (https://gmic.eu)
TITLE "kodak_kodachrome_25"
# LUT size
LUT_3D_SIZE 5
# Data domain
DOMAIN_MIN 0.0 0.0 0.0
DOMAIN_MAX 1.0 1.0 1.0
# LUT data points
0.016567589715123177 0.017919562757015228 0.020870702341198921
0.12406010180711746 0.016665440052747726 0.018421158194541931
0.44609397649765015 0.011962816119194031 0.0060664010234177113
0.98335593938827515 0.031563747674226761 0.0034884433262050152
1 0.27732053399085999 0.16284084320068359
0.094955146312713623 0.2584526538848877 0.12686620652675629
0.274587482213974 0.27065056562423706 0.12201325595378876
0.6027492880821228 0.28234580159187317 0.10578794032335281
0.84972566366195679 0.37128019332885742 0.15093807876110077
0.98689663410186768 0.48108655214309692 0.23986364901065826
0.43868711590766907 0.5956428050994873 0.28362247347831726
0.51770514249801636 0.59488767385482788 0.27522531151771545
0.65193003416061401 0.58846360445022583 0.2645365297794342
0.81663650274276733 0.60824322700500488 0.25262400507926941
0.97762060165405273 0.64159888029098511 0.26008236408233643
0.66374045610427856 0.78884804248809814 0.37598040699958801
0.69936347007751465 0.7915269136428833 0.37506014108657837
0.76040714979171753 0.79376119375228882 0.37054532766342163
0.86571061611175537 0.79780906438827515 0.36072057485580444
0.9932783842086792 0.80733585357666016 0.35048505663871765
0.86795508861541748 0.97735297679901123 0.46788915991783142
0.87851643562316895 0.97411125898361206 0.46443745493888855
0.91445654630661011 0.97721409797668457 0.46260473132133484
0.97238463163375854 0.97694873809814453 0.4556368887424469
0.99926453828811646 0.98541486263275146 0.44884470105171204
0.0069799982011318207 0.016903117299079895 0.18740467727184296
0.075983710587024689 0.01326650008559227 0.18934226036071777
0.38626322150230408 0.0075664594769477844 0.16706570982933044
0.96679306030273438 0.017869612202048302 0.12034530937671661
0.99965912103652954 0.26574024558067322 0.31625586748123169
0.070394523441791534 0.23572432994842529 0.25606301426887512
0.2290167510509491 0.25210630893707275 0.26884323358535767
0.57166224718093872 0.26128610968589783 0.26383426785469055
0.81875574588775635 0.35890743136405945 0.32644599676132202
0.97145390510559082 0.47079211473464966 0.41327342391014099
0.41943719983100891 0.59156596660614014 0.32013341784477234
0.49207672476768494 0.58985191583633423 0.32397454977035522
0.6346856951713562 0.59002411365509033 0.32535222172737122
0.78948557376861572 0.6071774959564209 0.34182554483413696
0.9575270414352417 0.63422083854675293 0.40211918950080872
0.66361773014068604 0.79236918687820435 0.38163948059082031
0.69935297966003418 0.79216837882995605 0.37906104326248169
0.76106703281402588 0.7924003005027771 0.37507206201553345
0.86626023054122925 0.79618531465530396 0.36330026388168335
0.99094021320343018 0.8092501163482666 0.35673925280570984
0.8702881932258606 0.97956740856170654 0.4697018563747406
0.87792879343032837 0.97568976879119873 0.46578782796859741
0.91408532857894897 0.97396254539489746 0.46102714538574219
0.97260826826095581 0.98042792081832886 0.45862594246864319
0.99959081411361694 0.98411929607391357 0.45031309127807617
0 0.010958189144730568 0.31909507513046265
0.026210770010948181 0.0065305223688483238 0.3125821053981781
0.31972774863243103 0.0025551291182637215 0.27677682042121887
0.95902794599533081 0.0069352095015347004 0.19793511927127838
1 0.23552553355693817 0.37861844897270203
0.030739368870854378 0.19543012976646423 0.43153098225593567
0.14278575778007507 0.21232283115386963 0.43333837389945984
0.53115367889404297 0.217265784740448 0.40488195419311523
0.80561321973800659 0.31649088859558105 0.44190394878387451
0.9604606032371521 0.44552308320999146 0.51612722873687744
0.29530113935470581 0.5720832347869873 0.57985693216323853
0.39556372165679932 0.57122421264648438 0.58736646175384521
0.56254285573959351 0.56771010160446167 0.57611715793609619
0.73737800121307373 0.58520603179931641 0.57661962509155273
0.92108958959579468 0.6203845739364624 0.60420972108840942
0.61998951435089111 0.78069758415222168 0.50295805931091309
0.64341926574707031 0.78202158212661743 0.51875078678131104
0.70734047889709473 0.78291219472885132 0.52789855003356934
0.80712074041366577 0.78512352705001831 0.56223714351654053
0.96059739589691162 0.79554861783981323 0.60682058334350586
0.87548965215682983 0.98717212677001953 0.4722931981086731
0.88673359155654907 0.98683899641036987 0.47230929136276245
0.91858905553817749 0.98572021722793579 0.46949303150177002
0.97487407922744751 0.99002575874328613 0.46493825316429138
0.99998706579208374 0.99026107788085938 0.45584186911582947
0 0.0025222629774361849 0.39634242653846741
0.007209389004856348 0.0016926784301176667 0.38564595580101013
0.20544092357158661 0.00054544187150895596 0.35843482613563538
0.92918980121612549 0.00077897612936794758 0.24452349543571472
1 0.16872216761112213 0.40970310568809509
0.0050635244697332382 0.11939530074596405 0.4949910044670105
0.071063458919525146 0.12646418809890747 0.4908786416053772
0.45630374550819397 0.13816401362419128 0.46221518516540527
0.82228249311447144 0.23526149988174438 0.48662379384040833
0.96619361639022827 0.40819838643074036 0.57944411039352417
0.14068080484867096 0.54692918062210083 0.70814770460128784
0.28660082817077637 0.53848332166671753 0.69833725690841675
0.52166283130645752 0.53838938474655151 0.68125158548355103
0.70787602663040161 0.56372886896133423 0.68505668640136719
0.91031515598297119 0.59971600770950317 0.69966614246368408
0.50898236036300659 0.76394504308700562 0.77199035882949829
0.540444016456604 0.76599115133285522 0.77077198028564453
0.62353485822677612 0.76630645990371704 0.77975338697433472
0.75069373846054077 0.77232962846755981 0.77477538585662842
0.92414045333862305 0.78591036796569824 0.77871710062026978
0.86012947559356689 0.99439561367034912 0.55620872974395752
0.87035399675369263 0.99419134855270386 0.55997103452682495
0.89883154630661011 0.9941667914390564 0.56888622045516968
0.94630378484725952 0.99316108226776123 0.59433275461196899
0.99630016088485718 0.99389833211898804 0.64776730537414551
0 0.0023284314665943384 0.45282575488090515
0.0017270107055082917 0.0014268463710322976 0.45281967520713806
0.098279081284999847 0 0.4130217432975769
0.83584976196289062 0 0.27789324522018433
1 0.069529496133327484 0.38187292218208313
0 0.043941646814346313 0.51746523380279541
0.01084874477237463 0.046608388423919678 0.51267766952514648
0.34591096639633179 0.043662127107381821 0.47704869508743286
0.87415319681167603 0.092396877706050873 0.45318365097045898
0.97765791416168213 0.35548952221870422 0.59600299596786499
0.01915639266371727 0.50450831651687622 0.76468551158905029
0.14847829937934875 0.5008513331413269 0.75255352258682251
0.45866650342941284 0.49325931072235107 0.72896301746368408
0.6894804835319519 0.53226608037948608 0.73140406608581543
0.90010529756546021 0.5763862133026123 0.74392783641815186
0.44122248888015747 0.7540174126625061 0.8750566840171814
0.47931882739067078 0.75794523954391479 0.87086373567581177
0.56955945491790771 0.74344432353973389 0.86843597888946533
0.71691739559173584 0.75432795286178589 0.85933417081832886
0.90616685152053833 0.76440602540969849 0.86232846975326538
0.72387945652008057 0.97686564922332764 0.96450138092041016
0.73584657907485962 0.97521501779556274 0.96674561500549316
0.7686278223991394 0.97623306512832642 0.9659542441368103
0.8308226466178894 0.98182058334350586 0.97721183300018311
0.96182036399841309 0.9872746467590332 0.98765462636947632
