luts/colorslide/kodak_kodachrome_64.cube
# Created by: G'MIC (https://gmic.eu)
TITLE "kodak_kodachrome_64"
# LUT size
LUT_3D_SIZE 13
# Data domain
DOMAIN_MIN 0.0 0.0 0.0
DOMAIN_MAX 1.0 1.0 1.0
# LUT data points
0.018587583675980568 0.016993863508105278 0.015286180190742016
0.056957647204399109 0.020073534920811653 0.014822357334196568
0.11988523602485657 0.024303091689944267 0.014014314860105515
0.20707271993160248 0.030349252745509148 0.013738609850406647
0.31809821724891663 0.041866812855005264 0.011851576156914234
0.44429764151573181 0.055305376648902893 0.011112183332443237
0.54690879583358765 0.067682631313800812 0.010566785931587219
0.6360020637512207 0.078840650618076324 0.0087451711297035217
0.71235936880111694 0.085668347775936127 0.0072568855248391628
0.78518319129943848 0.0902695432305336 0.0049171894788742065
0.85696542263031006 0.099466674029827118 0.0051223905757069588
0.93089044094085693 0.1115105003118515 0.0037231745664030313
0.9795498251914978 0.12057720869779587 0.0012510411906987429
0.041513003408908844 0.062675535678863525 0.038224626332521439
0.077167734503746033 0.066117323935031891 0.03570040687918663
0.14243149757385254 0.072562918066978455 0.034626290202140808
0.23037314414978027 0.08273816853761673 0.034522697329521179
0.33781018853187561 0.094345375895500183 0.030749017372727394
0.46170526742935181 0.10836269706487656 0.027852959930896759
0.55962866544723511 0.1195303350687027 0.026966484263539314
0.64687079191207886 0.12774348258972168 0.024869717657566071
0.72210174798965454 0.13057847321033478 0.021415740251541138
0.79376554489135742 0.12986560165882111 0.016786059364676476
0.86242693662643433 0.12959170341491699 0.013373640365898609
0.93096554279327393 0.12720902264118195 0.0093509303405880928
0.97541797161102295 0.12614351511001587 0.0040274676866829395
0.081857629120349884 0.13832598924636841 0.070630215108394623
0.1081358790397644 0.14316897094249725 0.069798670709133148
0.16760416328907013 0.14619764685630798 0.066539451479911804
0.2556050717830658 0.15376186370849609 0.064300715923309326
0.36566179990768433 0.16479192674160004 0.062564671039581299
0.48451423645019531 0.17681032419204712 0.058381937444210052
0.57817709445953369 0.18350087106227875 0.053511090576648712
0.66091132164001465 0.18607945740222931 0.047627542167901993
0.7356296181678772 0.18514449894428253 0.042507469654083252
0.80532145500183105 0.18201257288455963 0.035529688000679016
0.87285178899765015 0.17844128608703613 0.028428275138139725
0.93748277425765991 0.1717679500579834 0.021109607070684433
0.9846004843711853 0.16338068246841431 0.012382208369672298
0.10836341977119446 0.24063961207866669 0.11376429349184036
0.13583731651306152 0.24241507053375244 0.11225520074367523
0.20057429373264313 0.2456468790769577 0.11009202897548676
0.28803953528404236 0.25095978379249573 0.10639655590057373
0.40311700105667114 0.26166176795959473 0.10434185713529587
0.51446223258972168 0.27312836050987244 0.10035520046949387
0.60363268852233887 0.27639320492744446 0.094819419085979462
0.68139755725860596 0.27629381418228149 0.08814646303653717
0.7546924352645874 0.26837533712387085 0.07880045473575592
0.82277446985244751 0.2640758752822876 0.071305684745311737
0.88791060447692871 0.24992756545543671 0.058350551873445511
0.95155149698257446 0.23334300518035889 0.045117322355508804
0.99259811639785767 0.2221517413854599 0.034063033759593964
0.096849553287029266 0.36143484711647034 0.16162826120853424
0.14816872775554657 0.36418923735618591 0.16209973394870758
0.22804126143455505 0.36954993009567261 0.15953060984611511
0.32837247848510742 0.37677407264709473 0.15640304982662201
0.44670408964157104 0.38632884621620178 0.15268890559673309
0.54478985071182251 0.39317375421524048 0.14935560524463654
0.6304667592048645 0.39517182111740112 0.14269354939460754
0.70655131340026855 0.39732366800308228 0.13708703219890594
0.77986770868301392 0.39157426357269287 0.12848861515522003
0.84655660390853882 0.37726986408233643 0.11818962544202805
0.91074866056442261 0.35906705260276794 0.10530538856983185
0.97300797700881958 0.33712801337242126 0.087934546172618866
0.99866688251495361 0.31869292259216309 0.074068598449230194
0.13404896855354309 0.46307510137557983 0.21477261185646057
0.18666142225265503 0.46739944815635681 0.2118428498506546
0.27045318484306335 0.47299093008041382 0.21214798092842102
0.37833073735237122 0.48273375630378723 0.20818601548671722
0.48237723112106323 0.49158388376235962 0.20472925901412964
0.5738179087638855 0.4998430609703064 0.1993660181760788
0.65207910537719727 0.504375159740448 0.1945432722568512
0.72601354122161865 0.50631135702133179 0.18947744369506836
0.80149787664413452 0.50858741998672485 0.17931309342384338
0.86999219655990601 0.50259029865264893 0.16888619959354401
0.93445330858230591 0.49356532096862793 0.15859375894069672
0.98824536800384521 0.48141393065452576 0.14112401008605957
0.99962407350540161 0.45957449078559875 0.12785188853740692
0.20567041635513306 0.54979813098907471 0.26814764738082886
0.2536655068397522 0.55438238382339478 0.26860347390174866
0.33835780620574951 0.55957484245300293 0.26913788914680481
0.43146094679832458 0.56771665811538696 0.26668250560760498
0.51487749814987183 0.57695925235748291 0.2614702582359314
0.59655904769897461 0.5835956335067749 0.25614169239997864
0.67053449153900146 0.58931529521942139 0.25232741236686707
0.74093914031982422 0.59444928169250488 0.248475581407547
0.81375330686569214 0.59913665056228638 0.23831579089164734
0.8833051323890686 0.59967339038848877 0.22677147388458252
0.95012456178665161 0.60194772481918335 0.21475321054458618
0.99268144369125366 0.60084813833236694 0.19930537045001984
0.99975943565368652 0.59475111961364746 0.18861912190914154
0.30673319101333618 0.62829363346099854 0.32993865013122559
0.34893223643302917 0.6324697732925415 0.33080604672431946
0.40717363357543945 0.63806295394897461 0.32778224349021912
0.47411474585533142 0.64293259382247925 0.32962197065353394
0.54253536462783813 0.64724993705749512 0.32734483480453491
0.61518073081970215 0.65286481380462646 0.32160943746566772
0.68601948022842407 0.66227829456329346 0.31749099493026733
0.75315910577774048 0.66919606924057007 0.31430879235267639
0.82278430461883545 0.67472344636917114 0.30487588047981262
0.89087355136871338 0.67755532264709473 0.29235085844993591
0.95863878726959229 0.68269455432891846 0.28055304288864136
0.99381959438323975 0.68544209003448486 0.26634785532951355
0.9997328519821167 0.68461710214614868 0.25298863649368286
0.38600003719329834 0.69756889343261719 0.39816895127296448
0.41527092456817627 0.70071643590927124 0.39974471926689148
0.45515045523643494 0.70440870523452759 0.39731821417808533
0.50629502534866333 0.70741355419158936 0.39794376492500305
0.56617724895477295 0.71080631017684937 0.39716294407844543
0.63237124681472778 0.7163158655166626 0.39255771040916443
0.69494354724884033 0.7241101861000061 0.3909338116645813
0.75907605886459351 0.73036640882492065 0.38802158832550049
0.82705235481262207 0.7342333197593689 0.37674328684806824
0.89358264207839966 0.7393450140953064 0.36318778991699219
0.95957005023956299 0.74730390310287476 0.35285386443138123
0.99529927968978882 0.75213634967803955 0.33978721499443054
0.99993932247161865 0.755504310131073 0.32289189100265503
0.44066658616065979 0.75979912281036377 0.46587827801704407
0.46248498558998108 0.76270401477813721 0.46722716093063354
0.49582165479660034 0.76588618755340576 0.46513676643371582
0.54292815923690796 0.76920586824417114 0.46218562126159668
0.59184741973876953 0.7734673023223877 0.45947569608688354
0.65073567628860474 0.77873122692108154 0.45916181802749634
0.71027266979217529 0.78611510992050171 0.45854425430297852
0.76724529266357422 0.79065805673599243 0.45466560125350952
0.83068245649337769 0.7927049994468689 0.4453410804271698
0.89463561773300171 0.79652386903762817 0.43380314111709595
0.95775002241134644 0.80493098497390747 0.42627313733100891
0.99741899967193604 0.81282609701156616 0.41805028915405273
1 0.81838154792785645 0.40318214893341064
0.49242615699768066 0.82279175519943237 0.52527594566345215
0.51151424646377563 0.82595086097717285 0.52562946081161499
0.53518390655517578 0.82807439565658569 0.52382802963256836
0.57617932558059692 0.83055591583251953 0.52038192749023438
0.62108278274536133 0.83360636234283447 0.51668471097946167
0.6731339693069458 0.83895784616470337 0.51666122674942017
0.72978746891021729 0.84598678350448608 0.51678073406219482
0.78227502107620239 0.84931886196136475 0.51335722208023071
0.8398057222366333 0.85224300622940063 0.50705915689468384
0.8990892767906189 0.85607421398162842 0.49809554219245911
0.95909768342971802 0.86366534233093262 0.48992174863815308
0.99635946750640869 0.87149769067764282 0.48369339108467102
1 0.87774568796157837 0.47461923956871033
0.53975331783294678 0.88741719722747803 0.58135056495666504
0.55534404516220093 0.88935840129852295 0.58041077852249146
0.57544684410095215 0.89073902368545532 0.57901453971862793
0.61105358600616455 0.89289176464080811 0.5765267014503479
0.65109390020370483 0.89595919847488403 0.57448625564575195
0.69509506225585938 0.90093421936035156 0.5743367075920105
0.74671286344528198 0.90606176853179932 0.5737575888633728
0.79749172925949097 0.90832114219665527 0.57108432054519653
0.85266470909118652 0.91185522079467773 0.56661516427993774
0.910175621509552 0.91631597280502319 0.55939370393753052
0.96839570999145508 0.92542821168899536 0.55244821310043335
0.99881476163864136 0.93363535404205322 0.54584294557571411
1 0.9382060170173645 0.53826355934143066
0.5834583044052124 0.9484286904335022 0.63294863700866699
0.59485906362533569 0.94723540544509888 0.6310429573059082
0.61289149522781372 0.95122402906417847 0.63143235445022583
0.64308935403823853 0.95253169536590576 0.62949484586715698
0.67807602882385254 0.95352852344512939 0.62709420919418335
0.71747928857803345 0.959758460521698 0.62722641229629517
0.76226121187210083 0.96662592887878418 0.62842530012130737
0.81110000610351562 0.96849656105041504 0.6273912787437439
0.86564970016479492 0.972037672996521 0.62488704919815063
0.92387551069259644 0.97160011529922485 0.61905586719512939
0.97964704036712646 0.97843188047409058 0.61454123258590698
0.99899786710739136 0.98701518774032593 0.60630816221237183
1 0.98842394351959229 0.59650397300720215
0.015658464282751083 0.015756644308567047 0.035453364253044128
0.048490084707736969 0.017537165433168411 0.035079777240753174
0.10906510055065155 0.021423503756523132 0.034209202975034714
0.19906646013259888 0.028687659651041031 0.03291524201631546
0.31273874640464783 0.036881212145090103 0.029911145567893982
0.4377712607383728 0.049331322312355042 0.026996104046702385
0.53497433662414551 0.061945881694555283 0.026844354346394539
0.62601256370544434 0.072398543357849121 0.024299666285514832
0.70434600114822388 0.078780308365821838 0.022045539692044258
0.77649956941604614 0.084521226584911346 0.016948400065302849
0.84699124097824097 0.091135330498218536 0.012344091199338436
0.91891509294509888 0.10447192937135696 0.0094246361404657364
0.9717177152633667 0.11357054114341736 0.0058903414756059647
0.034675195813179016 0.058296054601669312 0.066995956003665924
0.068407468497753143 0.061153113842010498 0.065981708467006683
0.13036160171031952 0.069110721349716187 0.064276672899723053
0.22137275338172913 0.080963417887687683 0.062682054936885834
0.33769389986991882 0.091198250651359558 0.059325318783521652
0.45548024773597717 0.10205498337745667 0.054468791931867599
0.54877632856369019 0.11223979294300079 0.05354740098118782
0.63645404577255249 0.12069828063249588 0.050503302365541458
0.71309596300125122 0.12415172904729843 0.043396968394517899
0.78424537181854248 0.12458168715238571 0.0359305739402771
0.85169947147369385 0.12336867302656174 0.029466995969414711
0.9180375337600708 0.12049711495637894 0.020908176898956299
0.96743941307067871 0.11944475024938583 0.013169830664992332
0.072908483445644379 0.13251212239265442 0.10248037427663803
0.099037066102027893 0.13445469737052917 0.1006561741232872
0.15640486776828766 0.14046992361545563 0.098596014082431793
0.24505019187927246 0.14826007187366486 0.096518121659755707
0.35970902442932129 0.15999962389469147 0.094539135694503784
0.47807168960571289 0.17361733317375183 0.089896135032176971
0.56818491220474243 0.17733310163021088 0.084284812211990356
0.65169441699981689 0.17904700338840485 0.0772567018866539
0.72593140602111816 0.17961984872817993 0.071889646351337433
0.79547035694122314 0.17591926455497742 0.064173124730587006
0.86213678121566772 0.17382811009883881 0.056547187268733978
0.92573368549346924 0.16534630954265594 0.042740378528833389
0.97392183542251587 0.15687473118305206 0.030909564346075058
0.099308580160140991 0.23435726761817932 0.14492121338844299
0.12624157965183258 0.23646080493927002 0.14383135735988617
0.18752777576446533 0.23943865299224854 0.14197368919849396
0.27883064746856689 0.24562698602676392 0.14001448452472687
0.3971354067325592 0.25673171877861023 0.13685990869998932
0.50608700513839722 0.26655119657516479 0.13308718800544739
0.59234297275543213 0.27115806937217712 0.12698191404342651
0.67114377021789551 0.2698110044002533 0.11806226521730423
0.74306988716125488 0.2633453905582428 0.11076886206865311
0.81159090995788574 0.26049938797950745 0.10363346338272095
0.87666863203048706 0.24511897563934326 0.090316697955131531
0.93894511461257935 0.22781962156295776 0.072713099420070648
0.98566961288452148 0.21617947518825531 0.059413999319076538
0.081502892076969147 0.35666054487228394 0.19505497813224792
0.12980912625789642 0.35938894748687744 0.19509078562259674
0.21305924654006958 0.36453202366828918 0.19415251910686493
0.31798771023750305 0.37097200751304626 0.19159571826457977
0.43747061491012573 0.38058817386627197 0.1877918541431427
0.53335464000701904 0.38302850723266602 0.18399019539356232
0.61704099178314209 0.38811841607093811 0.17771749198436737
0.69400316476821899 0.39223957061767578 0.16995950043201447
0.76699429750442505 0.38443726301193237 0.16078090667724609
0.8344617486000061 0.37323912978172302 0.15207394957542419
0.89723050594329834 0.35671114921569824 0.13940756022930145
0.96190398931503296 0.33221819996833801 0.11878036707639694
0.9946669340133667 0.3135407567024231 0.10294002294540405
0.11215566098690033 0.45772480964660645 0.24788998067378998
0.17275898158550262 0.4610542356967926 0.24801437556743622
0.25524362921714783 0.46790674328804016 0.24775299429893494
0.36768242716789246 0.47585150599479675 0.24453042447566986
0.4716135561466217 0.48339104652404785 0.24099075794219971
0.55971050262451172 0.49249681830406189 0.23637774586677551
0.64047110080718994 0.4986107349395752 0.23130974173545837
0.71278148889541626 0.49941357970237732 0.22611717879772186
0.78667670488357544 0.50090861320495605 0.21750643849372864
0.85637795925140381 0.49867540597915649 0.2084246426820755
0.92042684555053711 0.49063140153884888 0.19784341752529144
0.9803575873374939 0.47595077753067017 0.17752113938331604
0.99818557500839233 0.4559512734413147 0.16173535585403442
0.18588724732398987 0.54399693012237549 0.30262258648872375
0.24599321186542511 0.54824274778366089 0.30402067303657532
0.32954993844032288 0.55453896522521973 0.30283603072166443
0.42019462585449219 0.56216061115264893 0.30012938380241394
0.50200879573822021 0.56972777843475342 0.29659020900726318
0.58249270915985107 0.57628697156906128 0.29245731234550476
0.65791112184524536 0.58406811952590942 0.28993955254554749
0.72893357276916504 0.5891420841217041 0.28507703542709351
0.79848974943161011 0.59152239561080933 0.27848365902900696
0.8674616813659668 0.59250104427337646 0.26752954721450806
0.93422418832778931 0.59358388185501099 0.25587254762649536
0.98843169212341309 0.59441488981246948 0.24055388569831848
0.99855488538742065 0.5885004997253418 0.22812570631504059
0.29222142696380615 0.62285637855529785 0.36645296216011047
0.33739864826202393 0.62675613164901733 0.36471053957939148
0.39074671268463135 0.63105970621109009 0.3628082275390625
0.45795699954032898 0.63450956344604492 0.36398494243621826
0.52848273515701294 0.63892918825149536 0.36107990145683289
0.60134059190750122 0.64417564868927002 0.35668548941612244
0.66771483421325684 0.6507839560508728 0.3574923574924469
0.73714369535446167 0.65910148620605469 0.35272768139839172
0.80593597888946533 0.66512471437454224 0.34555843472480774
0.87415820360183716 0.66855037212371826 0.33266603946685791
0.94124430418014526 0.67200708389282227 0.32158759236335754
0.99194526672363281 0.67757374048233032 0.30724796652793884
0.99975854158401489 0.67682474851608276 0.29223018884658813
0.36870411038398743 0.68962019681930542 0.42989137768745422
0.39865046739578247 0.69371384382247925 0.42968878149986267
0.44037523865699768 0.69879168272018433 0.42719563841819763
0.49433496594429016 0.70211410522460938 0.4289308488368988
0.55375772714614868 0.7042432427406311 0.42764511704444885
0.61825698614120483 0.70949721336364746 0.42549431324005127
0.67867696285247803 0.71442389488220215 0.42754936218261719
0.74364447593688965 0.71991091966629028 0.42270705103874207
0.81084924936294556 0.72712266445159912 0.4151155948638916
0.87700331211090088 0.73215502500534058 0.40357989072799683
0.94382429122924805 0.73803240060806274 0.39198422431945801
0.99378037452697754 0.74388659000396729 0.37958979606628418
0.99995476007461548 0.74520313739776611 0.36317422986030579
0.42772796750068665 0.75322198867797852 0.49194583296775818
0.45342203974723816 0.75775027275085449 0.49175530672073364
0.48610004782676697 0.76197493076324463 0.4896731972694397
0.53186136484146118 0.76528549194335938 0.48790815472602844
0.58142173290252686 0.76850056648254395 0.487139493227005
0.63958573341369629 0.77440202236175537 0.48590350151062012
0.69805240631103516 0.77987313270568848 0.48360565304756165
0.75727462768554688 0.78315889835357666 0.47890055179595947
0.82047784328460693 0.78596466779708862 0.47147253155708313
0.88331067562103271 0.79160338640213013 0.46359103918075562
0.94798332452774048 0.80022972822189331 0.45343193411827087
0.99311208724975586 0.80702155828475952 0.44807183742523193
0.99966859817504883 0.81007677316665649 0.43813037872314453
0.48203602433204651 0.8183218240737915 0.54667031764984131
0.5040544867515564 0.82245612144470215 0.54612910747528076
0.52932584285736084 0.82566660642623901 0.54464054107666016
0.56676506996154785 0.82816040515899658 0.54210394620895386
0.61295592784881592 0.83146482706069946 0.53952914476394653
0.66573721170425415 0.83634263277053833 0.53867185115814209
0.7195623517036438 0.84157633781433105 0.53645271062850952
0.77229344844818115 0.84465354681015015 0.53202098608016968
0.83148062229156494 0.84702956676483154 0.52587747573852539
0.88993710279464722 0.85179054737091064 0.52003306150436401
0.95076942443847656 0.86062836647033691 0.51356363296508789
0.99255615472793579 0.86768078804016113 0.50925701856613159
0.99942123889923096 0.8721345067024231 0.50246185064315796
0.53212422132492065 0.88411694765090942 0.59763318300247192
0.54859763383865356 0.88668251037597656 0.59661859273910522
0.57007503509521484 0.88901305198669434 0.59576314687728882
0.60324698686599731 0.89145004749298096 0.59400475025177002
0.64399522542953491 0.89445036649703979 0.59108620882034302
0.69131898880004883 0.89843237400054932 0.59114474058151245
0.73768001794815063 0.9020313024520874 0.59111636877059937
0.78809511661529541 0.90543800592422485 0.58698922395706177
0.84442538022994995 0.90871924161911011 0.58170688152313232
0.9007219672203064 0.91355687379837036 0.57621783018112183
0.96005773544311523 0.92270690202713013 0.57015573978424072
0.99771690368652344 0.93064677715301514 0.56408685445785522
0.99997830390930176 0.93405866622924805 0.55825239419937134
0.57864725589752197 0.94562166929244995 0.64573580026626587
0.59005880355834961 0.94838804006576538 0.64550977945327759
0.60818725824356079 0.95002573728561401 0.644886314868927
0.63693088293075562 0.95201176404953003 0.64301574230194092
0.6714051365852356 0.95453345775604248 0.64109158515930176
0.71281927824020386 0.95750099420547485 0.6407085657119751
0.75584781169891357 0.96085494756698608 0.64122432470321655
0.80396771430969238 0.96618133783340454 0.639789879322052
0.85841244459152222 0.96971589326858521 0.63601744174957275
0.91411876678466797 0.97002887725830078 0.63107669353485107
0.97216075658798218 0.97675973176956177 0.6277458667755127
0.99846738576889038 0.98528444766998291 0.61943256855010986
1 0.98661774396896362 0.61413806676864624
0.010237734764814377 0.012610895559191704 0.071563258767127991
0.036465365439653397 0.01419531088322401 0.070150889456272125
0.096352145075798035 0.017922898754477501 0.074331022799015045
0.18860377371311188 0.023697003722190857 0.067507632076740265
0.30514276027679443 0.032363772392272949 0.06211230531334877
0.42941808700561523 0.043007571250200272 0.060113135725259781
0.52746236324310303 0.053349185734987259 0.057383965700864792
0.61350399255752563 0.063211999833583832 0.054575871676206589
0.69098567962646484 0.07142455130815506 0.05128948763012886
0.76645666360855103 0.079417616128921509 0.043611146509647369
0.83715027570724487 0.083447307348251343 0.034585181623697281
0.9084852933883667 0.094743333756923676 0.02697010338306427
0.96067577600479126 0.10476132482290268 0.021754350513219833
0.02180563285946846 0.049038305878639221 0.10609795153141022
0.052391290664672852 0.053718071430921555 0.1063222661614418
0.1149347797036171 0.061717372387647629 0.10512306541204453
0.20848697423934937 0.073825791478157043 0.10165338218212128
0.32548609375953674 0.085748575627803802 0.099445730447769165
0.44281208515167236 0.094739966094493866 0.094208948314189911
0.53755372762680054 0.10333769768476486 0.090689219534397125
0.62109470367431641 0.11161072552204132 0.08850579708814621
0.69656234979629517 0.11437699198722839 0.083000898361206055
0.7695462703704834 0.11570996791124344 0.074922271072864532
0.83874934911727905 0.11370352655649185 0.061845067888498306
0.9059070348739624 0.11024250835180283 0.048148076981306076
0.95504122972488403 0.10769329965114594 0.037472609430551529
0.055334579199552536 0.12213090062141418 0.14519624412059784
0.086619026958942413 0.12641105055809021 0.14488866925239563
0.14391542971134186 0.13109023869037628 0.14155884087085724
0.23044820129871368 0.1387554258108139 0.13947960734367371
0.34541109204292297 0.15178786218166351 0.13812971115112305
0.46146056056022644 0.16251717507839203 0.13307765126228333
0.55187112092971802 0.16698047518730164 0.12773698568344116
0.63431596755981445 0.16902154684066772 0.12224894762039185
0.70841813087463379 0.16837491095066071 0.11590605974197388
0.7784799337387085 0.16574756801128387 0.10634562373161316
0.84631919860839844 0.16406434774398804 0.096278063952922821
0.91084820032119751 0.15504923462867737 0.079783841967582703
0.96093451976776123 0.14564394950866699 0.064536795020103455
0.088547803461551666 0.2232401967048645 0.19042670726776123
0.11576838791370392 0.22619536519050598 0.19011937081813812
0.17151021957397461 0.23012726008892059 0.18835879862308502
0.26398608088493347 0.23844923079013824 0.18722410500049591
0.38347482681274414 0.24855946004390717 0.18362775444984436
0.48902314901351929 0.25655195116996765 0.17905455827713013
0.57454931735992432 0.26130285859107971 0.17555651068687439
0.65314656496047974 0.25901967287063599 0.16774992644786835
0.72485208511352539 0.25621834397315979 0.16142870485782623
0.79339540004730225 0.25122779607772827 0.15116468071937561
0.85874813795089722 0.23302766680717468 0.13462306559085846
0.91996818780899048 0.21654163300991058 0.117686927318573
0.96917545795440674 0.2057356983423233 0.1035168394446373
0.063896298408508301 0.34804016351699829 0.24416139721870422
0.10808411985635757 0.35115575790405273 0.24572975933551788
0.1920166015625 0.35476011037826538 0.24555690586566925
0.30460193753242493 0.36213773488998413 0.2433239221572876
0.41950032114982605 0.37087944149971008 0.23928207159042358
0.51578623056411743 0.37654197216033936 0.23450706899166107
0.59832066297531128 0.38082972168922424 0.23076629638671875
