luts/colorslide/kodak_ektachrome_100_vs.cube
# Created by: G'MIC (https://gmic.eu)
TITLE "kodak_ektachrome_100_vs"
# LUT size
LUT_3D_SIZE 13
# Data domain
DOMAIN_MIN 0.0 0.0 0.0
DOMAIN_MAX 1.0 1.0 1.0
# LUT data points
0.01514988299459219 0.01341400109231472 0.011329052038490772
0.038992580026388168 0.013211582787334919 0.010902180336415768
0.087417587637901306 0.013710545375943184 0.0099019967019557953
0.15685538947582245 0.013539692386984825 0.0071374629624187946
0.24408431351184845 0.0088338218629360199 0.0036866879090666771
0.34012198448181152 0.0092240730300545692 0.0032566443551331758
0.44596439599990845 0.009862532839179039 0.0035174351651221514
0.54927414655685425 0.0067988228984177113 0.0019251954508945346
0.65118813514709473 0.0042546289041638374 0.001856441143900156
0.74955236911773682 0.0017446181736886501 0.002198133384808898
0.84232449531555176 0.0014381258515641093 0.0028060614131391048
0.94062483310699463 0.00045504103763960302 0.0023673262912780046
0.98720282316207886 0 0.0018959195585921407
0.031489085406064987 0.050344176590442657 0.024966415017843246
0.060094855725765228 0.048312332481145859 0.022285386919975281
0.1176544651389122 0.048917956650257111 0.019488435238599777
0.19498512148857117 0.048498235642910004 0.01532426755875349
0.27911040186882019 0.041816264390945435 0.0085080163553357124
0.37268203496932983 0.039029859006404877 0.0058509977534413338
0.47254249453544617 0.034863956272602081 0.0052496069110929966
0.57272905111312866 0.025946209207177162 0.0039970548823475838
0.66794109344482422 0.017810238525271416 0.0028417399153113365
0.76112234592437744 0.012044644914567471 0.0024203131906688213
0.85345429182052612 0.0077774049714207649 0.0032075620256364346
0.9455190896987915 0.0041902880184352398 0.0010374779812991619
0.98797160387039185 0.0022796031553298235 7.2165094024967402e-05
0.057134978473186493 0.12028297036886215 0.055818118155002594
0.08740215003490448 0.11737201362848282 0.052117738872766495
0.14688868820667267 0.11834441870450974 0.047979749739170074
0.22350752353668213 0.11314622312784195 0.036974739283323288
0.30615845322608948 0.10589034110307693 0.024662930518388748
0.39677992463111877 0.099451757967472076 0.015483257360756397
0.49269792437553406 0.089213773608207703 0.01002578716725111
0.58889913558959961 0.076787717640399933 0.00982691440731287
0.68149900436401367 0.060276616364717484 0.0083989165723323822
0.77189677953720093 0.044277191162109375 0.0063180960714817047
0.86497032642364502 0.029062114655971527 0.0051455926150083542
0.95551484823226929 0.013120284304022789 0.0027711456641554832
0.99049252271652222 0.0081948228180408478 0.0024405685253441334
0.086785785853862762 0.20781901478767395 0.096048422157764435
0.12050969898700714 0.20747661590576172 0.092464476823806763
0.18030606210231781 0.20920553803443909 0.089370846748352051
0.25322511792182922 0.20241448283195496 0.077309839427471161
0.33256226778030396 0.19399631023406982 0.062855303287506104
0.41885945200920105 0.18520894646644592 0.046839307993650436
0.51292890310287476 0.1738429069519043 0.036708667874336243
0.60499340295791626 0.15910293161869049 0.029333196580410004
0.69262850284576416 0.14254835247993469 0.025281419977545738
0.78046208620071411 0.12030575424432755 0.022065853700041771
0.8727947473526001 0.090475089848041534 0.016781944781541824
0.9625934362411499 0.059599228203296661 0.011782432906329632
0.99588942527770996 0.044325422495603561 0.012116615660488605
0.11625780910253525 0.29725855588912964 0.13438966870307922
0.15664227306842804 0.29941847920417786 0.13122521340847015
0.2125696986913681 0.29912129044532776 0.12630815804004669
0.28597226738929749 0.29266342520713806 0.1157568097114563
0.36226651072502136 0.28460288047790527 0.10222814232110977
0.44566494226455688 0.27748051285743713 0.086855776607990265
0.53826522827148438 0.26615691184997559 0.075844615697860718
0.62496745586395264 0.25240975618362427 0.068312853574752808
0.70782500505447388 0.23917460441589355 0.060466542840003967
0.79340618848800659 0.22012539207935333 0.055819984525442123
0.88301676511764526 0.19081667065620422 0.055850457400083542
0.96716654300689697 0.15832799673080444 0.05083262175321579
0.99815165996551514 0.13048146665096283 0.048297088593244553
0.16804987192153931 0.39016267657279968 0.16546246409416199
0.20426245033740997 0.39322742819786072 0.16442148387432098
0.25453859567642212 0.3916972279548645 0.15768721699714661
0.32482156157493591 0.38636523485183716 0.14898583292961121
0.39748036861419678 0.37956351041793823 0.13776947557926178
0.47405335307121277 0.37497091293334961 0.12568870186805725
0.5601995587348938 0.36332994699478149 0.1157592311501503
0.64371699094772339 0.35407593846321106 0.10926216095685959
0.72500735521316528 0.34796178340911865 0.10433951020240784
0.80766576528549194 0.33385619521141052 0.10337314754724503
0.89301979541778564 0.31016138195991516 0.10859493166208267
0.972983717918396 0.28152740001678467 0.10928124934434891
0.9984171986579895 0.25787237286567688 0.10999226570129395
0.24373611807823181 0.48102352023124695 0.19066426157951355
0.26768791675567627 0.48526617884635925 0.19321519136428833
0.31607019901275635 0.48654133081436157 0.18563912808895111
0.3742099404335022 0.48315814137458801 0.17575153708457947
0.44278714060783386 0.47706252336502075 0.16451539099216461
0.51276302337646484 0.47141548991203308 0.15311138331890106
0.58855944871902466 0.4636940062046051 0.14284765720367432
0.66913890838623047 0.4572511613368988 0.13771671056747437
0.74857908487319946 0.4538600742816925 0.1340772956609726
0.82538628578186035 0.44639629125595093 0.13596144318580627
0.90667396783828735 0.42862033843994141 0.14682318270206451
0.98031967878341675 0.40465021133422852 0.15400844812393188
0.99934166669845581 0.38544368743896484 0.16118314862251282
0.32158675789833069 0.57092046737670898 0.21436414122581482
0.34644237160682678 0.57250869274139404 0.2144685834646225
0.38324931263923645 0.57521206140518188 0.21148231625556946
0.42902845144271851 0.57713967561721802 0.20257404446601868
0.48858910799026489 0.57387447357177734 0.19118137657642365
0.55667376518249512 0.56804323196411133 0.17790141701698303
0.62649315595626831 0.56306147575378418 0.16371250152587891
0.69905495643615723 0.55894547700881958 0.15440079569816589
0.7748836874961853 0.5561026930809021 0.14998932182788849
0.84980356693267822 0.54869365692138672 0.14783197641372681
0.9260522723197937 0.53501349687576294 0.16129621863365173
0.98728996515274048 0.51703363656997681 0.17955555021762848
0.9987604022026062 0.49962618947029114 0.19846616685390472
0.39777868986129761 0.65563386678695679 0.24163100123405457
0.41891360282897949 0.65918993949890137 0.24198707938194275
0.45219001173973083 0.66283214092254639 0.23889598250389099
0.49176228046417236 0.66696000099182129 0.23223049938678741
0.53887999057769775 0.66801506280899048 0.22206465899944305
0.60151118040084839 0.66496491432189941 0.2079058438539505
0.66909009218215942 0.66087073087692261 0.19080792367458344
0.7339712381362915 0.65689170360565186 0.17450983822345734
0.80346369743347168 0.65347456932067871 0.16567158699035645
0.87807232141494751 0.64549076557159424 0.16165806353092194
0.95102673768997192 0.63463026285171509 0.16427028179168701
0.9930717945098877 0.61897367238998413 0.18747349083423615
0.99926471710205078 0.60499626398086548 0.21584327518939972
0.47403180599212646 0.74064493179321289 0.27213665843009949
0.49137920141220093 0.74643349647521973 0.27264773845672607
0.51649647951126099 0.75109350681304932 0.27118876576423645
0.5542902946472168 0.75490337610244751 0.26481431722640991
0.60064816474914551 0.7548406720161438 0.25513789057731628
0.651192307472229 0.7532275915145874 0.24363753199577332
0.70947927236557007 0.75042790174484253 0.22819808125495911
0.76966595649719238 0.74749964475631714 0.21164430677890778
0.83628231287002563 0.74466997385025024 0.19751130044460297
0.90926873683929443 0.73917865753173828 0.18091578781604767
0.97614675760269165 0.73147642612457275 0.16721214354038239
0.99719911813735962 0.72014737129211426 0.18159501254558563
0.9998965859413147 0.7078436017036438 0.21323832869529724
0.55296659469604492 0.82882052659988403 0.30422279238700867
0.56853652000427246 0.83361846208572388 0.30499643087387085
0.58849376440048218 0.83773684501647949 0.30216166377067566
0.61850512027740479 0.83916687965393066 0.29611173272132874
0.66319870948791504 0.83966743946075439 0.28723001480102539
0.70649862289428711 0.83868753910064697 0.27796652913093567
0.75615471601486206 0.83658850193023682 0.26513025164604187
0.80835819244384766 0.83417743444442749 0.25022777915000916
0.86984407901763916 0.83166033029556274 0.23390971124172211
0.94034475088119507 0.82666009664535522 0.21090362966060638
0.98904240131378174 0.82031220197677612 0.18760526180267334
0.99880963563919067 0.81607693433761597 0.17546980082988739
1 0.80886560678482056 0.1862005740404129
0.64414143562316895 0.91437798738479614 0.33355420827865601
0.65591549873352051 0.91750049591064453 0.33317166566848755
0.67457413673400879 0.91935235261917114 0.33001613616943359
0.70208138227462769 0.91880828142166138 0.32392284274101257
0.738303542137146 0.9191131591796875 0.31672710180282593
0.76984894275665283 0.91972959041595459 0.30947351455688477
0.8102339506149292 0.91998279094696045 0.2995334267616272
0.85944736003875732 0.91588824987411499 0.28606602549552917
0.91350001096725464 0.91460675001144409 0.27205023169517517
0.96878021955490112 0.91143488883972168 0.25289931893348694
0.99485361576080322 0.90638625621795654 0.23084738850593567
0.99971723556518555 0.90573465824127197 0.20884586870670319
1 0.90613859891891479 0.19468854367733002
0.75667721033096313 0.98672026395797729 0.35947379469871521
0.76485639810562134 0.98578786849975586 0.35794305801391602
0.77611249685287476 0.98480099439620972 0.35500368475914001
0.79690426588058472 0.98550361394882202 0.35103562474250793
0.82427710294723511 0.98291033506393433 0.34576702117919922
0.85149502754211426 0.98433411121368408 0.33929118514060974
0.88345515727996826 0.98513197898864746 0.33151787519454956
0.92137753963470459 0.98330438137054443 0.32051318883895874
0.96330446004867554 0.98426598310470581 0.31046590209007263
0.99070566892623901 0.98378771543502808 0.29590585827827454
0.99846315383911133 0.98338639736175537 0.2801782488822937
1 0.98405420780181885 0.26239153742790222
1 0.98454093933105469 0.24818138778209686
0.010044786147773266 0.011763912625610828 0.031742800027132034
0.028192212805151939 0.011556318961083889 0.033222947269678116
0.072053231298923492 0.010042212903499603 0.03234264999628067
0.14437593519687653 0.010979521088302135 0.027662359178066254
0.23210491240024567 0.010810432955622673 0.023948654532432556
0.32441443204879761 0.0082872277125716209 0.018204692751169205
0.43217682838439941 0.0082285860553383827 0.011793787591159344
0.53685510158538818 0.0057293912395834923 0.0077315387316048145
0.64003580808639526 0.001766204833984375 0.0079963831230998039
0.73824906349182129 0.00018359914247412235 0.0092781214043498039
0.83414751291275024 0.00051128910854458809 0.009945170022547245
0.9303891658782959 2.7645335649140179e-05 0.0091581307351589203
0.98602467775344849 0 0.0077071543782949448
0.024089768528938293 0.048493776470422745 0.053559187799692154
0.048636775463819504 0.044209066778421402 0.048987206071615219
0.10496178269386292 0.042286381125450134 0.044709973037242889
0.18210682272911072 0.041463427245616913 0.037568110972642899
0.26777195930480957 0.03844858705997467 0.030388880521059036
0.35812023282051086 0.031957350671291351 0.022757437080144882
0.45866298675537109 0.028313970193266869 0.017513126134872437
0.5603334903717041 0.023032244294881821 0.0146128935739398
0.65612936019897461 0.016555905342102051 0.01104971207678318
0.74987101554870605 0.0088756633922457695 0.0068351295776665211
0.84502559900283813 0.0072540282271802425 0.0095436098054051399
0.93781238794326782 0.002656599972397089 0.006292260717600584
0.99162024259567261 0.00014368693518918008 0.0043518515303730965
0.050003260374069214 0.11858309805393219 0.084680519998073578
0.079452216625213623 0.11598251760005951 0.081207752227783203
0.13325710594654083 0.11428427696228027 0.076188839972019196
0.21176297962665558 0.11158517748117447 0.066786207258701324
0.29612630605697632 0.10557575523853302 0.055831026285886765
0.3853420615196228 0.0942106693983078 0.043775938451290131
0.47954821586608887 0.084128439426422119 0.0343514084815979
0.57636839151382446 0.072218485176563263 0.028769444674253464
0.66921210289001465 0.059597749263048172 0.023213524371385574
0.76292401552200317 0.042458657175302505 0.016305197030305862
0.85664278268814087 0.024485914036631584 0.014516702853143215
0.94746094942092896 0.013794902712106705 0.011871412396430969
0.99435710906982422 0.0071193771436810493 0.0096336212009191513
0.082626685500144958 0.20694883167743683 0.12142103910446167
0.10900427401065826 0.20426738262176514 0.11689408123493195
0.16684621572494507 0.20278346538543701 0.11297160387039185
0.24162411689758301 0.19926781952381134 0.10378772765398026
0.32249259948730469 0.19278301298618317 0.092258945107460022
0.40826600790023804 0.18330895900726318 0.080001801252365112
0.50051623582839966 0.17169389128684998 0.069504819810390472
0.59254807233810425 0.15778928995132446 0.061639599502086639
0.68223685026168823 0.13890869915485382 0.053867850452661514
0.77441436052322388 0.11404338479042053 0.044587679207324982
0.86580032110214233 0.086022935807704926 0.037087652832269669
0.9552033543586731 0.056749798357486725 0.030613334849476814
0.99697810411453247 0.034703828394412994 0.024535877630114555
0.1067073866724968 0.29648801684379578 0.15601462125778198
0.14135158061981201 0.2963460385799408 0.15054729580879211
0.20362669229507446 0.29396224021911621 0.14743183553218842
0.27592390775680542 0.28963133692741394 0.14029642939567566
0.3531506359577179 0.2831331193447113 0.12684428691864014
0.43656563758850098 0.27593666315078735 0.11347547173500061
0.52684742212295532 0.26527231931686401 0.10435310751199722
0.61261719465255737 0.25428473949432373 0.10144133865833282
0.69729322195053101 0.24142596125602722 0.098115332424640656
0.78840917348861694 0.21835167706012726 0.089801996946334839
0.87521988153457642 0.18807610869407654 0.083668649196624756
0.95859009027481079 0.15524144470691681 0.078768216073513031
0.9976838231086731 0.13076861202716827 0.072474956512451172
0.157119020819664 0.39070799946784973 0.18244323134422302
0.1933063268661499 0.39167389273643494 0.17956630885601044
0.25082865357398987 0.39002817869186401 0.17710408568382263
0.31682941317558289 0.38473391532897949 0.1706480085849762
0.39101395010948181 0.3777356743812561 0.15848879516124725
0.4684562087059021 0.37374746799468994 0.14682295918464661
0.55203825235366821 0.36452564597129822 0.13973736763000488
0.63507246971130371 0.35414305329322815 0.13879485428333282
0.7166866660118103 0.34705159068107605 0.13877750933170319
0.80194765329360962 0.33045637607574463 0.13580076396465302
0.88595902919769287 0.30545791983604431 0.13625316321849823
0.96709650754928589 0.27799192070960999 0.13646779954433441
0.99656569957733154 0.26180312037467957 0.13566233217716217
0.23972843587398529 0.48399466276168823 0.20158134400844574
0.26337844133377075 0.48588284850120544 0.20077952742576599
0.31016498804092407 0.48741787672042847 0.19751453399658203
0.36736628413200378 0.48336911201477051 0.19159984588623047
0.43672016263008118 0.47596234083175659 0.18145473301410675
0.50927448272705078 0.47066941857337952 0.17135654389858246
0.58169901371002197 0.46323502063751221 0.16501754522323608
0.66084980964660645 0.4560999870300293 0.16586650907993317
0.74042361974716187 0.45077639818191528 0.16649714112281799
0.81775987148284912 0.44275644421577454 0.16868416965007782
0.89868909120559692 0.42634779214859009 0.17853313684463501
0.97429168224334717 0.40404736995697021 0.18612372875213623
0.99616092443466187 0.3879304826259613 0.19021019339561462
0.32228043675422668 0.57591629028320312 0.21928681433200836
0.34710636734962463 0.57419341802597046 0.21989785134792328
0.38193795084953308 0.5760461688041687 0.21697522699832916
0.42530912160873413 0.57701343297958374 0.20995396375656128
0.48392429947853088 0.57270210981369019 0.20011621713638306
0.55111247301101685 0.56608849763870239 0.19129806756973267
0.61950480937957764 0.55866456031799316 0.18282045423984528
0.6910129189491272 0.5552789568901062 0.18189887702465057
0.76580232381820679 0.55258631706237793 0.17817375063896179
0.84142792224884033 0.54617977142333984 0.17766508460044861
0.91634869575500488 0.53374892473220825 0.19458545744419098
0.98387408256530762 0.51591330766677856 0.21334129571914673
0.99859607219696045 0.49817755818367004 0.23022383451461792
0.39767622947692871 0.65866166353225708 0.2455318421125412
0.41857558488845825 0.6610221266746521 0.24654567241668701
0.45205879211425781 0.66366821527481079 0.2438008189201355
0.490285724401474 0.66673558950424194 0.23543767631053925
0.53601068258285522 0.6667293906211853 0.2250155508518219
0.59579354524612427 0.66207426786422729 0.21515880525112152
0.66079461574554443 0.65575921535491943 0.20261375606060028
0.72843647003173828 0.65210497379302979 0.19442276656627655
0.79955083131790161 0.64947062730789185 0.18863289058208466
0.87131404876708984 0.64508384466171265 0.18403469026088715
0.94327729940414429 0.63525640964508057 0.19575539231300354
0.99043530225753784 0.61978757381439209 0.22012849152088165
0.99867022037506104 0.60465753078460693 0.24554175138473511
0.47438305616378784 0.74315953254699707 0.27567684650421143
0.49094054102897644 0.74740046262741089 0.27671179175376892
0.51578879356384277 0.75222182273864746 0.27685055136680603
0.55422753095626831 0.7559388279914856 0.26842448115348816
0.59914588928222656 0.75532102584838867 0.25803905725479126
0.64998620748519897 0.75209742784500122 0.24736358225345612
0.70801913738250732 0.74747580289840698 0.23282471299171448
0.76753240823745728 0.74546724557876587 0.21779592335224152
0.83479928970336914 0.74287039041519165 0.20624789595603943
0.90574431419372559 0.73936909437179565 0.19450050592422485
0.97196805477142334 0.73235005140304565 0.19013246893882751
0.99695378541946411 0.71871596574783325 0.21333768963813782
0.99965411424636841 0.70587927103042603 0.24750758707523346
0.55372995138168335 0.83173292875289917 0.30688780546188354
0.57088184356689453 0.83394306898117065 0.30615478754043579
0.59189176559448242 0.83832454681396484 0.30385544896125793
0.6207849383354187 0.8407101035118103 0.29741325974464417
0.66410332918167114 0.84045791625976562 0.28835827112197876
0.71006613969802856 0.83836644887924194 0.27959129214286804
0.76010650396347046 0.83482551574707031 0.26645538210868835
0.81192940473556519 0.83109825849533081 0.25137212872505188
0.87047713994979858 0.83057409524917603 0.23735392093658447
0.93792068958282471 0.82796227931976318 0.21861980855464935
0.98801475763320923 0.8231692910194397 0.19671478867530823
0.99975144863128662 0.81481277942657471 0.19791291654109955
1 0.80745112895965576 0.21605926752090454
0.64502787590026855 0.91558265686035156 0.33459773659706116
0.65958011150360107 0.91614878177642822 0.33237743377685547
0.67875069379806519 0.91911900043487549 0.32960999011993408
0.70000690221786499 0.92035990953445435 0.32455480098724365
0.7335701584815979 0.91967839002609253 0.31774803996086121
0.77233278751373291 0.92010247707366943 0.31032922863960266
0.8139680027961731 0.92025816440582275 0.29968786239624023
0.8615613579750061 0.91507101058959961 0.28606060147285461
0.91410660743713379 0.91397619247436523 0.27337378263473511
0.96711999177932739 0.91186195611953735 0.25542044639587402
0.99320524930953979 0.90782845020294189 0.23259931802749634
0.99999821186065674 0.90666258335113525 0.2144194096326828
1 0.90504097938537598 0.20529843866825104
0.75951868295669556 0.98454231023788452 0.35945278406143188
0.76650357246398926 0.98392093181610107 0.35804072022438049
0.78046685457229614 0.98426765203475952 0.35518872737884521
0.79939079284667969 0.9847031831741333 0.35141590237617493
0.82364767789840698 0.98314356803894043 0.34583669900894165
0.85236567258834839 0.98345887660980225 0.3399713933467865
0.8864625096321106 0.98368483781814575 0.33217677474021912
0.92410969734191895 0.98356258869171143 0.32143136858940125
0.96370118856430054 0.98520737886428833 0.30969628691673279
0.98890382051467896 0.98409748077392578 0.29406958818435669
0.99708443880081177 0.98265492916107178 0.27919921278953552
1 0.9832579493522644 0.26474639773368835
1 0.98281693458557129 0.25017610192298889
0.0035299414303153753 0.010618636384606361 0.077443145215511322
0.01919637992978096 0.01197370607405901 0.077337838709354401
0.05636889860033989 0.011266955174505711 0.077204719185829163
0.1303897351026535 0.010991443879902363 0.074045680463314056
0.21715201437473297 0.0097498726099729538 0.064697936177253723
0.31132763624191284 0.0073756948113441467 0.051163572818040848
0.42171165347099304 0.0063812555745244026 0.03975054994225502
0.52734476327896118 0.0044850818812847137 0.031415048986673355
0.6281437873840332 0.0033519519492983818 0.030972065404057503
0.72655558586120605 0.0012181600322946906 0.026748912408947945
0.82781243324279785 0.0005266974912956357 0.023985784500837326
0.92801719903945923 0 0.021509567275643349
0.98682636022567749 0 0.019088640809059143
0.014859846793115139 0.045651603490114212 0.096963085234165192
0.035431761294603348 0.043630339205265045 0.096539862453937531
0.089926823973655701 0.042389947921037674 0.093883112072944641
0.16474373638629913 0.039422336965799332 0.087658092379570007
0.24993687868118286 0.035846725106239319 0.076991304755210876
0.34103688597679138 0.028113540261983871 0.062805593013763428
0.44290620088577271 0.025526158511638641 0.05309518426656723
0.54616159200668335 0.020741796121001244 0.044005915522575378
0.64303100109100342 0.015166967175900936 0.039392448961734772
0.73989355564117432 0.0087100761011242867 0.032292190939188004
0.83770138025283813 0.0068812798708677292 0.028567010536789894
0.93469023704528809 0.0027945125475525856 0.022316113114356995
0.99073201417922974 0.00065690581686794758 0.019553540274500847
0.041355762630701065 0.11560986191034317 0.12551611661911011
0.067874535918235779 0.11471041291952133 0.12508998811244965
0.11642499268054962 0.11164300888776779 0.1208060011267662
0.19317358732223511 0.10938246548175812 0.11463380604982376
0.27748477458953857 0.1030023917555809 0.10342513769865036
0.36591750383377075 0.090628571808338165 0.088630229234695435
0.4616883397102356 0.07953750342130661 0.076623208820819855
0.56154483556747437 0.066903196275234222 0.065219536423683167
0.65596878528594971 0.052932243794202805 0.057205799967050552
0.75169873237609863 0.036433860659599304 0.048936881124973297
0.84736078977584839 0.022750061005353928 0.040433157235383987
0.94172507524490356 0.012275127694010735 0.033506475389003754
0.99209010601043701 0.0074680102989077568 0.030526943504810333
0.079404406249523163 0.20529370009899139 0.1592617928981781
0.097018256783485413 0.20170509815216064 0.15921603143215179
0.14856742322444916 0.19788768887519836 0.15441825985908508
0.22360101342201233 0.19468192756175995 0.14664711058139801
0.30617928504943848 0.1882716566324234 0.13536003232002258
0.3911445140838623 0.17964528501033783 0.12381886690855026
0.48228198289871216 0.16804899275302887 0.11376653611660004
0.57544577121734619 0.15600436925888062 0.10610590875148773
0.66896766424179077 0.13950107991695404 0.098788104951381683
0.76353615522384644 0.1125241294503212 0.085890918970108032
0.85591578483581543 0.085395753383636475 0.071836642920970917
0.94872653484344482 0.054908078163862228 0.059544388204813004
0.99605554342269897 0.031365606933832169 0.05121198296546936
0.097918100655078888 0.29513591527938843 0.19110842049121857
0.12039962410926819 0.29283842444419861 0.19018514454364777
0.18483379483222961 0.28828072547912598 0.1850525289773941
0.25939953327178955 0.2840099036693573 0.17814464867115021
0.33683237433433533 0.27934962511062622 0.16854226589202881
0.41970545053482056 0.27258419990539551 0.15836217999458313
