luts/colorslide/kodak_elite_chrome_200.cube
# Created by: G'MIC (https://gmic.eu)
TITLE "kodak_elite_chrome_200"
# LUT size
LUT_3D_SIZE 7
# Data domain
DOMAIN_MIN 0.0 0.0 0.0
DOMAIN_MAX 1.0 1.0 1.0
# LUT data points
0.02172636054456234 0.021808445453643799 0.018149610608816147
0.11227204650640488 0.012867378070950508 0.006054178811609745
0.24947673082351685 0.0069577083922922611 0.0014379762578755617
0.41102463006973267 0.0071228775195777416 0.00024746166309341788
0.57390314340591431 0.00012224982492625713 0
0.73153108358383179 0 0
0.87902563810348511 0.00028315524104982615 0.00025028901291079819
0.10426414012908936 0.16142334043979645 0.07205306738615036
0.17308099567890167 0.14350508153438568 0.056563671678304672
0.30300423502922058 0.12100216746330261 0.037313662469387054
0.45764845609664917 0.099368929862976074 0.013675031252205372
0.60983443260192871 0.061750136315822601 0.00073676015017554164
0.75120812654495239 0.01433715783059597 0
0.87611252069473267 0 0
0.15205179154872894 0.34278988838195801 0.13677592575550079
0.23895038664340973 0.32969215512275696 0.11839839071035385
0.37484267354011536 0.31022536754608154 0.095513977110385895
0.52652370929718018 0.28856810927391052 0.06352011114358902
0.67721694707870483 0.25713545083999634 0.031147466972470284
0.81738114356994629 0.19237683713436127 0.019163858145475388
0.92564296722412109 0.10450325906276703 0.0089071383699774742
0.26152485609054565 0.52443993091583252 0.19572658836841583
0.33954921364784241 0.51980429887771606 0.18343092501163483
0.46356859803199768 0.5097041130065918 0.16289816796779633
0.60631179809570312 0.49657171964645386 0.13619160652160645
0.75064820051193237 0.47674158215522766 0.11468863487243652
0.8965144157409668 0.44556400179862976 0.091297566890716553
0.99277299642562866 0.39282912015914917 0.06415838748216629
0.39874547719955444 0.69133049249649048 0.25751391053199768
0.45888826251029968 0.69039952754974365 0.25226080417633057
0.56087404489517212 0.68486452102661133 0.23421572148799896
0.68787270784378052 0.67728227376937866 0.21054787933826447
0.82266771793365479 0.66602635383605957 0.18871696293354034
0.95976567268371582 0.64515304565429688 0.15934628248214722
1 0.61197125911712646 0.14056164026260376
0.53642553091049194 0.83631104230880737 0.32101631164550781
0.57783174514770508 0.83712375164031982 0.31970465183258057
0.6587749719619751 0.83304476737976074 0.30579057335853577
0.76994121074676514 0.82896590232849121 0.28834432363510132
0.89612895250320435 0.82265651226043701 0.26464974880218506
0.99204468727111816 0.80851864814758301 0.24188952147960663
1 0.78622615337371826 0.221859410405159
0.68446093797683716 0.96432226896286011 0.36344587802886963
0.7105642557144165 0.96557950973510742 0.36081176996231079
0.77033692598342896 0.96354168653488159 0.35269403457641602
0.861519455909729 0.96314340829849243 0.34675142168998718
0.96387702226638794 0.95918518304824829 0.32903406023979187
1 0.94949102401733398 0.30414518713951111
0.99993431568145752 0.94104397296905518 0.29000350832939148
0.0037771635688841343 0.017076335847377777 0.097186952829360962
0.082832172513008118 0.013340534642338753 0.075348734855651855
0.22272635996341705 0.0062677422538399696 0.052857134491205215
0.38443586230278015 0.00071177765494212508 0.027583044022321701
0.54733330011367798 5.8880974393105134e-05 0.0056651546619832516
0.70124125480651855 0 0.00032955993083305657
0.84372401237487793 0.001018464332446456 0
0.075783610343933105 0.15100668370723724 0.1549580842256546
0.14901652932167053 0.14049617946147919 0.13807199895381927
0.27815946936607361 0.11430976539850235 0.11065268516540527
0.43078559637069702 0.082304216921329498 0.070423468947410583
0.57972031831741333 0.049985490739345551 0.042193572968244553
0.71670866012573242 0.011394500732421875 0.011032388545572758
0.83921569585800171 0.00010082768130814657 0.0026542213745415211
0.12328486889600754 0.33848720788955688 0.21776586771011353
0.20958365499973297 0.33187559247016907 0.20564025640487671
0.34904104471206665 0.31240835785865784 0.18489356338977814
0.50111907720565796 0.28326255083084106 0.15033735334873199
0.64766037464141846 0.24309027194976807 0.11348640918731689
0.78445315361022949 0.1883404552936554 0.081815250217914581
0.89555257558822632 0.1006581038236618 0.044877428561449051
0.22684335708618164 0.52731239795684814 0.28331470489501953
0.30162221193313599 0.52675944566726685 0.27466019988059998
0.43297034502029419 0.51791232824325562 0.25789394974708557
0.57993125915527344 0.5010915994644165 0.2311282753944397
0.72656881809234619 0.47755452990531921 0.20394665002822876
0.87224882841110229 0.44396781921386719 0.17528216540813446
0.98071777820587158 0.38531726598739624 0.14546911418437958
0.36333239078521729 0.69948333501815796 0.34594479203224182
0.42091584205627441 0.69882357120513916 0.34296479821205139
0.52716434001922607 0.69246178865432739 0.32618790864944458
0.65702313184738159 0.68294870853424072 0.30401501059532166
0.79495972394943237 0.66918504238128662 0.28297939896583557
0.93485790491104126 0.64890468120574951 0.25410982966423035
0.99857646226882935 0.61622434854507446 0.22725722193717957
0.50074076652526855 0.84287118911743164 0.40856599807739258
0.54529249668121338 0.84195590019226074 0.40305790305137634
0.62850284576416016 0.8371766209602356 0.38823571801185608
0.73852431774139404 0.83134222030639648 0.37391507625579834
0.86165684461593628 0.82260751724243164 0.35633891820907593
0.97636407613754272 0.81053024530410767 0.33305370807647705
1 0.79051607847213745 0.31222113966941833
0.64475768804550171 0.96962535381317139 0.45117637515068054
0.68061572313308716 0.96720439195632935 0.43893900513648987
0.74521470069885254 0.96416431665420532 0.42796415090560913
0.83832389116287231 0.96313071250915527 0.42468079924583435
0.94684064388275146 0.95932674407958984 0.40982300043106079
0.99945873022079468 0.95285725593566895 0.38982650637626648
1 0.94411307573318481 0.3777025043964386
0.001013393048197031 0.014664833433926105 0.20743460953235626
0.059675447642803192 0.0081378109753131866 0.19240376353263855
0.19006958603858948 0.0021213905420154333 0.1688200980424881
0.34715911746025085 0 0.13182196021080017
0.50734013319015503 0 0.097471140325069427
0.66159367561340332 0 0.067122079432010651
0.8058275580406189 0.0003078535373788327 0.041268937289714813
0.043548494577407837 0.14027749001979828 0.2692815363407135
0.11851581931114197 0.13093955814838409 0.25763291120529175
0.24252830445766449 0.10669521242380142 0.23207706212997437
0.39165398478507996 0.075924880802631378 0.19397380948066711
0.53781795501708984 0.040455374866724014 0.16136288642883301
0.67464828491210938 0.015659617260098457 0.12039367109537125
0.79808056354522705 0.00072531605837866664 0.087653093039989471
0.068748429417610168 0.3300691545009613 0.33779710531234741
0.16113580763339996 0.32515031099319458 0.32824286818504333
0.30932837724685669 0.30304184556007385 0.30734127759933472
0.4613281786441803 0.27050685882568359 0.27592408657073975
0.60455536842346191 0.23241271078586578 0.24334268271923065
0.73592710494995117 0.18090781569480896 0.20850363373756409
0.84648674726486206 0.090485066175460815 0.16697028279304504
0.14216707646846771 0.52611970901489258 0.40838354825973511
0.2347208708524704 0.5247306227684021 0.39918261766433716
0.38880094885826111 0.51359188556671143 0.38222992420196533
0.53836756944656372 0.49539375305175781 0.3585168719291687
0.68149679899215698 0.47361135482788086 0.333770751953125
0.81914061307907104 0.43780016899108887 0.30701053142547607
0.93832069635391235 0.37665069103240967 0.27301105856895447
0.29909715056419373 0.6984020471572876 0.47104677557945251
0.36102810502052307 0.69877415895462036 0.46643030643463135
0.47821864485740662 0.69309812784194946 0.45016586780548096
0.61139589548110962 0.6829146146774292 0.43142214417457581
0.7480318546295166 0.66894412040710449 0.41315224766731262
0.8843809962272644 0.64871644973754883 0.39063850045204163
0.98776096105575562 0.61704570055007935 0.36137095093727112
0.4465959370136261 0.84553837776184082 0.5267409086227417
0.49378740787506104 0.84486037492752075 0.52131915092468262
0.58216744661331177 0.84011638164520264 0.50549578666687012
0.69316780567169189 0.83292597532272339 0.49219384789466858
0.81663221120834351 0.82361137866973877 0.47955799102783203
0.94683873653411865 0.81327784061431885 0.46197223663330078
1 0.7932281494140625 0.43742614984512329
0.59493023157119751 0.9742964506149292 0.56348878145217896
0.63413012027740479 0.97228533029556274 0.55438685417175293
0.70135921239852905 0.96909034252166748 0.54324620962142944
0.7942543625831604 0.9655303955078125 0.53575026988983154
0.90066832304000854 0.96142566204071045 0.52579700946807861
0.98389381170272827 0.95775407552719116 0.51178324222564697
1 0.94855332374572754 0.49412399530410767
0.00029899747460149229 0.013579484075307846 0.33309632539749146
0.038487870246171951 0.0081087751314043999 0.31805920600891113
0.14989775419235229 0.0018587000668048859 0.29377967119216919
0.30450257658958435 0 0.26113918423652649
0.46330368518829346 0 0.2282993495464325
0.61688083410263062 0.0005700055044144392 0.19784620404243469
0.76059639453887939 0.0066603566519916058 0.17404621839523315
0.015183422714471817 0.12608020007610321 0.39594903588294983
0.086851604282855988 0.11606369167566299 0.38345777988433838
0.19889189302921295 0.092453718185424805 0.35894739627838135
0.34553328156471252 0.062107790261507034 0.32586562633514404
0.491710364818573 0.02955232560634613 0.2915685772895813
0.62911111116409302 0.010236628353595734 0.25681611895561218
0.7552027702331543 4.8110065108630806e-05 0.22642628848552704
0.044837787747383118 0.31747999787330627 0.4676358699798584
0.10937128961086273 0.30790770053863525 0.45874297618865967
0.25823011994361877 0.28248721361160278 0.43501719832420349
0.41407623887062073 0.24976110458374023 0.4055173397064209
0.55715209245681763 0.21278905868530273 0.37398141622543335
0.68499332666397095 0.15690127015113831 0.3388054370880127
0.79316800832748413 0.067969635128974915 0.29822137951850891
0.06215236708521843 0.51808387041091919 0.53795653581619263
0.18327167630195618 0.51381862163543701 0.5288388729095459
0.34062057733535767 0.50129169225692749 0.51142334938049316
0.49179813265800476 0.48436006903648376 0.48892247676849365
0.63508909940719604 0.46642979979515076 0.46456354856491089
0.76944971084594727 0.42862299084663391 0.43647783994674683
0.88334459066390991 0.35433483123779297 0.39883330464363098
0.23415778577327728 0.69699370861053467 0.60180073976516724
0.30499258637428284 0.69516640901565552 0.59548532962799072
0.42871525883674622 0.69050878286361694 0.58038640022277832
0.56397008895874023 0.68230533599853516 0.5625724196434021
0.70088768005371094 0.67129790782928467 0.54355794191360474
0.83771288394927979 0.65382331609725952 0.52119153738021851
0.95136368274688721 0.61127662658691406 0.48994660377502441
0.39343884587287903 0.84656864404678345 0.65297412872314453
0.44127285480499268 0.84657496213912964 0.64783710241317749
0.53018277883529663 0.84339344501495361 0.63422852754592896
0.64343535900115967 0.83644038438796997 0.61997312307357788
0.76800292730331421 0.82745146751403809 0.60548144578933716
0.89606022834777832 0.81745356321334839 0.58759182691574097
0.99088692665100098 0.79446280002593994 0.56210196018218994
0.54446923732757568 0.97603976726531982 0.68668174743652344
0.58165580034255981 0.97604137659072876 0.68111860752105713
0.64789992570877075 0.9745250940322876 0.67088198661804199
0.73987722396850586 0.96949905157089233 0.66128396987915039
0.84803646802902222 0.96448206901550293 0.65170663595199585
0.95800495147705078 0.96199840307235718 0.64023274183273315
1 0.95255428552627563 0.61940306425094604
0 0.008831278420984745 0.45972025394439697
0.0052907755598425865 0.006895910482853651 0.4430851936340332
0.11093360930681229 0.00034496831358410418 0.41894501447677612
0.27142730355262756 0 0.39038330316543579
0.42515254020690918 0.00048326977412216365 0.36199095845222473
0.57361680269241333 0.0092271389439702034 0.33597409725189209
0.71476626396179199 0.01391995046287775 0.31420102715492249
0.0017588597256690264 0.10341102629899979 0.51472288370132446
0.051752861589193344 0.089391149580478668 0.50016391277313232
0.16082784533500671 0.063660807907581329 0.47730585932731628
0.30536851286888123 0.040355250239372253 0.44778436422348022
0.44707560539245605 0.014911801554262638 0.4153670072555542
0.58197063207626343 0.0016381058376282454 0.38423320651054382
0.70996344089508057 6.1035157159494702e-06 0.35634303092956543
0.035442084074020386 0.28771799802780151 0.58074659109115601
0.10022508352994919 0.27876102924346924 0.57022225856781006
0.22458827495574951 0.25398358702659607 0.55077636241912842
0.37210279703140259 0.22124786674976349 0.52358198165893555
0.51075160503387451 0.18106122314929962 0.49160149693489075
0.63365477323532104 0.12318740785121918 0.45504423975944519
0.73801118135452271 0.037061683833599091 0.41171932220458984
0.033583097159862518 0.50644314289093018 0.65395599603652954
0.14625479280948639 0.50156086683273315 0.6478959321975708
0.29920089244842529 0.48728764057159424 0.63061553239822388
0.44944018125534058 0.47132629156112671 0.60879284143447876
0.59267145395278931 0.4519340991973877 0.58366018533706665
0.72365647554397583 0.41084593534469604 0.55324214696884155
0.83321726322174072 0.33123746514320374 0.5140259861946106
0.18351604044437408 0.69348359107971191 0.71649783849716187
0.25393348932266235 0.691398024559021 0.7140241265296936
0.38143661618232727 0.68869113922119141 0.70123201608657837
0.52039933204650879 0.68347078561782837 0.68390673398971558
0.65811854600906372 0.67049151659011841 0.66318464279174805
0.79372799396514893 0.64571231603622437 0.63804316520690918
0.91312319040298462 0.59662133455276489 0.60625863075256348
0.3412514328956604 0.84521853923797607 0.77264571189880371
0.38993051648139954 0.84773081541061401 0.7682499885559082
0.48058322072029114 0.84759050607681274 0.75609672069549561
0.59647494554519653 0.84198284149169922 0.74143856763839722
0.72124415636062622 0.83014267683029175 0.724834144115448
0.85433417558670044 0.81621658802032471 0.70506370067596436
0.97008240222930908 0.79187190532684326 0.67923414707183838
0.49953460693359375 0.9749457836151123 0.80750173330307007
0.53099346160888672 0.97828978300094604 0.80313879251480103
0.59667295217514038 0.97933226823806763 0.7931511402130127
0.68886929750442505 0.97544753551483154 0.78306245803833008
0.79772955179214478 0.96874582767486572 0.77302438020706177
0.91862547397613525 0.96850860118865967 0.76053535938262939
0.99478906393051147 0.95976352691650391 0.73926371335983276
0 0.00059465895174071193 0.57876825332641602
0.0017264123307541013 0.00026424633688293397 0.56136339902877808
0.093364492058753967 0 0.53823673725128174
0.2491384893655777 0.00029015634208917618 0.5127519965171814
0.39587870240211487 0.0044772578403353691 0.48679739236831665
0.53572756052017212 0.014270558021962643 0.46125632524490356
0.6687425971031189 0.018202584236860275 0.43576094508171082
0 0.061018191277980804 0.62075036764144897
0.020809952169656754 0.050904292613267899 0.60883563756942749
0.13333486020565033 0.038600936532020569 0.58619505167007446
0.27204102277755737 0.022859955206513405 0.55832493305206299
0.40887415409088135 0.0045545091852545738 0.52837854623794556
0.53892707824707031 0 0.49950256943702698
0.6658560037612915 0.0024601656477898359 0.47357240319252014
0.046708572655916214 0.2448420524597168 0.68571567535400391
0.091767825186252594 0.23860666155815125 0.67627984285354614
0.20712083578109741 0.21530693769454956 0.6536065936088562
0.33803924918174744 0.18029779195785522 0.62649965286254883
0.46756044030189514 0.13790331780910492 0.59575575590133667
0.58262521028518677 0.075146511197090149 0.55943870544433594
0.68601471185684204 0.011571502313017845 0.52160388231277466
0.035988379269838333 0.48248472809791565 0.75846576690673828
0.11769761890172958 0.47910782694816589 0.75087016820907593
0.26509737968444824 0.46234750747680664 0.7332690954208374
0.41832709312438965 0.44631940126419067 0.71360093355178833
0.5578303337097168 0.42727351188659668 0.69065946340560913
0.67887431383132935 0.368705153465271 0.65768635272979736
0.78262263536453247 0.27793452143669128 0.61795777082443237
0.1440703421831131 0.67890781164169312 0.81979548931121826
0.21625739336013794 0.67929363250732422 0.81734693050384521
0.34685596823692322 0.68097978830337524 0.80638992786407471
0.48979142308235168 0.67705482244491577 0.79106217622756958
0.62550216913223267 0.661609947681427 0.77092999219894409
0.75737237930297852 0.63059407472610474 0.74538779258728027
0.8773382306098938 0.57394528388977051 0.71326655149459839
0.30079853534698486 0.84233355522155762 0.88323605060577393
0.35360845923423767 0.84505867958068848 0.87615162134170532
0.44768503308296204 0.84796613454818726 0.8636481761932373
0.56391286849975586 0.84397679567337036 0.84960734844207764
0.68638497591018677 0.83044737577438354 0.8335106372833252
0.81933748722076416 0.81367498636245728 0.81452631950378418
0.94703388214111328 0.78600466251373291 0.79024010896682739
0.46672400832176208 0.97784721851348877 0.92070287466049194
0.49610805511474609 0.98116225004196167 0.9119001030921936
0.56392449140548706 0.98367565870285034 0.90127420425415039
0.65566480159759521 0.98155611753463745 0.8923027515411377
0.76167851686477661 0.97674727439880371 0.88331252336502075
0.88097763061523438 0.97533607482910156 0.87252628803253174
0.98723489046096802 0.96763902902603149 0.85541379451751709
0 0 0.68917405605316162
0.0011373931774869561 0 0.66838067770004272
0.07184726744890213 0 0.64782899618148804
0.22169257700443268 0.00016705381858628243 0.62600481510162354
0.3699098527431488 0.0059212180785834789 0.60170423984527588
0.50281727313995361 0.013921849429607391 0.57492291927337646
0.62962275743484497 0.011619417928159237 0.54856497049331665
0 0.016071947291493416 0.71309840679168701
0.0095804249867796898 0.010122755542397499 0.70065110921859741
0.10474729537963867 0.0099839605391025543 0.68257087469100952
0.23650051653385162 0.0060190837830305099 0.65727150440216064
0.37390792369842529 1.4361213288793806e-05 0.63176232576370239
0.50381529331207275 0.00019839417655020952 0.60674113035202026
0.62977153062820435 0.0018600164912641048 0.58309274911880493
0.057553280144929886 0.17003537714481354 0.76727360486984253
0.097364224493503571 0.16294868290424347 0.75748050212860107
0.19320178031921387 0.1499292254447937 0.73948323726654053
0.30463650822639465 0.11222205311059952 0.71262353658676147
0.42288824915885925 0.071127094328403473 0.68377089500427246
0.53246903419494629 0.021374527364969254 0.6499488353729248
0.63970702886581421 0.0021497090347111225 0.61674052476882935
0.069403268396854401 0.44096925854682922 0.84359055757522583
0.13461247086524963 0.43039140105247498 0.83506512641906738
0.26533177495002747 0.40982210636138916 0.81914538145065308
0.39675012230873108 0.38804537057876587 0.80062854290008545
0.51770186424255371 0.35257053375244141 0.77561354637145996
0.62998825311660767 0.29860326647758484 0.74314779043197632
0.72540020942687988 0.20218724012374878 0.70046228170394897
0.1641480028629303 0.65442514419555664 0.90952354669570923
0.23473106324672699 0.65422177314758301 0.90616858005523682
0.34591948986053467 0.65115129947662354 0.89516377449035645
0.47429344058036804 0.64257580041885376 0.88114959001541138
0.59681946039199829 0.62063455581665039 0.86153405904769897
0.72079497575759888 0.59416109323501587 0.83841961622238159
0.83068251609802246 0.52638477087020874 0.80563348531723022
0.31016480922698975 0.83274805545806885 0.97051769495010376
0.35910579562187195 0.83228540420532227 0.96307730674743652
0.44495898485183716 0.83212065696716309 0.95258313417434692
0.5503963828086853 0.82663208246231079 0.94141870737075806
0.66145634651184082 0.81238293647766113 0.92781609296798706
0.78346621990203857 0.79492849111557007 0.91204607486724854
0.90471524000167847 0.76044881343841553 0.89052397012710571
0.4666016697883606 0.97780007123947144 0.99612510204315186
0.49969565868377686 0.97850024700164795 0.99223440885543823
0.56047195196151733 0.97984963655471802 0.98884201049804688
0.64363479614257812 0.97824132442474365 0.98504269123077393
0.74029338359832764 0.97373265027999878 0.98002022504806519
0.85239869356155396 0.97075986862182617 0.97387111186981201
0.96576231718063354 0.96233773231506348 0.96297585964202881
