luts/colorslide/kodak_elite_chrome_200.cube
# Created by: G'MIC (https://gmic.eu)
TITLE "kodak_elite_chrome_200"
# LUT size
LUT_3D_SIZE 13
# Data domain
DOMAIN_MIN 0.0 0.0 0.0
DOMAIN_MAX 1.0 1.0 1.0
# LUT data points
0.02172636054456234 0.021808445453643799 0.018149610608816147
0.06023184210062027 0.017036452889442444 0.011245623230934143
0.11227204650640488 0.012867378070950508 0.006054178811609745
0.1761472076177597 0.0087598767131567001 0.0027162740007042885
0.24947673082351685 0.0069577083922922611 0.0014379762578755617
0.32889178395271301 0.0072340872138738632 0.00097554526291787624
0.41102463006973267 0.0071228775195777416 0.00024746166309341788
0.49311742186546326 0.0033233792055398226 0
0.57390314340591431 0.00012224982492625713 0
0.65337187051773071 0 0
0.73153108358383179 0 0
0.80775374174118042 0 0
0.87902563810348511 0.00028315524104982615 0.00025028901291079819
0.061854343861341476 0.084429554641246796 0.043038446456193924
0.094303220510482788 0.07667146623134613 0.035492558032274246
0.14077292382717133 0.067869774997234344 0.028434319421648979
0.20166470110416412 0.058107189834117889 0.021799484267830849
0.27321913838386536 0.050808507949113846 0.015486923046410084
0.35107779502868652 0.045895833522081375 0.0091396104544401169
0.43115606904029846 0.039578650146722794 0.0034381493460386992
0.51057547330856323 0.028950275853276253 0.00015695609909016639
0.58789551258087158 0.012501480989158154 0
0.66288900375366211 0.0010074091842398047 0
0.73693102598190308 0 0
0.80830508470535278 0 0
0.87430232763290405 0 0.00034130321000702679
0.10426414012908936 0.16142334043979645 0.07205306738615036
0.12987560033798218 0.15351994335651398 0.064382098615169525
0.17308099567890167 0.14350508153438568 0.056563671678304672
0.23261773586273193 0.13181678950786591 0.047723673284053802
0.30300423502922058 0.12100216746330261 0.037313662469387054
0.3792870044708252 0.11068810522556305 0.025375036522746086
0.45764845609664917 0.099368929862976074 0.013675031252205372
0.53515130281448364 0.084333814680576324 0.0047717224806547165
0.60983443260192871 0.061750136315822601 0.00073676015017554164
0.68162941932678223 0.034005586057901382 1.6156365745700896e-05
0.75120812654495239 0.01433715783059597 0
0.81667667627334595 0.0031345891766250134 0
0.87611252069473267 0 0
0.12856012582778931 0.24982282519340515 0.10456978529691696
0.15702210366725922 0.24299389123916626 0.095759265124797821
0.20406989753246307 0.23329944908618927 0.086792513728141785
0.26585772633552551 0.22185735404491425 0.076722025871276855
0.33684885501861572 0.21030093729496002 0.064270943403244019
0.41272038221359253 0.19877544045448303 0.049708601087331772
0.49002799391746521 0.18607492744922638 0.034094374626874924
0.56657296419143677 0.17075948417186737 0.019571088254451752
0.64095956087112427 0.14855866134166718 0.0081392321735620499
0.71196264028549194 0.1176951676607132 0.0033448762260377407
0.7788805365562439 0.083404839038848877 0.0017157461261376739
0.83958083391189575 0.048096016049385071 0.00056088017299771309
0.8920133113861084 0.015072841197252274 1.9387638531043194e-05
0.15205179154872894 0.34278988838195801 0.13677592575550079
0.18653853237628937 0.33769336342811584 0.12763839960098267
0.23895038664340973 0.32969215512275696 0.11839839071035385
0.30304670333862305 0.32016018033027649 0.10810157656669617
0.37484267354011536 0.31022536754608154 0.095513977110385895
0.45039835572242737 0.29997661709785461 0.080322504043579102
0.52652370929718018 0.28856810927391052 0.06352011114358902
0.60262787342071533 0.27527996897697449 0.046207800507545471
0.67721694707870483 0.25713545083999634 0.031147466972470284
0.74929863214492798 0.22876721620559692 0.023543249815702438
0.81738114356994629 0.19237683713436127 0.019163858145475388
0.87785440683364868 0.14995518326759338 0.0133400559425354
0.92564296722412109 0.10450325906276703 0.0089071383699774742
0.19902169704437256 0.43476280570030212 0.16629637777805328
0.23375707864761353 0.43190816044807434 0.15884007513523102
0.28449597954750061 0.42638963460922241 0.15056057274341583
0.34702950716018677 0.41946852207183838 0.14079788327217102
0.41724938154220581 0.41198185086250305 0.12878210842609406
0.49098744988441467 0.40386801958084106 0.11451444774866104
0.56572234630584717 0.39460587501525879 0.09854927659034729
0.64021021127700806 0.38367310166358948 0.083600379526615143
0.71409410238265991 0.36893162131309509 0.0709991455078125
0.78735584020614624 0.34799247980117798 0.062034051865339279
0.85898709297180176 0.32099553942680359 0.05224946141242981
0.92242372035980225 0.28932777047157288 0.040357403457164764
0.96649497747421265 0.24903376400470734 0.031881488859653473
0.26152485609054565 0.52443993091583252 0.19572658836841583
0.29384741187095642 0.52316164970397949 0.19008432328701019
0.33954921364784241 0.51980429887771606 0.18343092501163483
0.39725905656814575 0.51511949300765991 0.17448514699935913
0.46356859803199768 0.5097041130065918 0.16289816796779633
0.53425449132919312 0.50376826524734497 0.14949266612529755
0.60631179809570312 0.49657171964645386 0.13619160652160645
0.67836064100265503 0.48790821433067322 0.12421945482492447
0.75064820051193237 0.47674158215522766 0.11468863487243652
0.82353979349136353 0.46253591775894165 0.10622440278530121
0.8965144157409668 0.44556400179862976 0.091297566890716553
0.95815843343734741 0.42495515942573547 0.07437402755022049
0.99277299642562866 0.39282912015914917 0.06415838748216629
0.32954400777816772 0.61051011085510254 0.22590434551239014
0.35861232876777649 0.61024677753448486 0.22234681248664856
0.39894098043441772 0.60818338394165039 0.21722473204135895
0.45090380311012268 0.60493087768554688 0.20907960832118988
0.51225382089614868 0.60086381435394287 0.19788874685764313
0.57903915643692017 0.59629487991333008 0.18499669432640076
0.64758098125457764 0.59095919132232666 0.17311333119869232
0.71651017665863037 0.58447408676147461 0.16299016773700714
0.7873501181602478 0.57609224319458008 0.15391233563423157
0.85994911193847656 0.5654071569442749 0.14358201622962952
0.93151968717575073 0.5521119236946106 0.12640818953514099
0.98219621181488037 0.53589671850204468 0.10885974764823914
0.99920302629470825 0.51119226217269897 0.10098082572221756
0.39874547719955444 0.69133049249649048 0.25751391053199768
0.42398950457572937 0.69190806150436401 0.25604212284088135
0.45888826251029968 0.69039952754974365 0.25226080417633057
0.5049172043800354 0.68804198503494263 0.24484463036060333
0.56087404489517212 0.68486452102661133 0.23421572148799896
0.62326258420944214 0.68132936954498291 0.22199138998985291
0.68787270784378052 0.67728227376937866 0.21054787933826447
0.75402629375457764 0.67251104116439819 0.19979473948478699
0.82266771793365479 0.66602635383605957 0.18871696293354034
0.89411455392837524 0.65702235698699951 0.17592795193195343
0.95976567268371582 0.64515304565429688 0.15934628248214722
0.99672049283981323 0.63069808483123779 0.14488573372364044
1 0.61197125911712646 0.14056164026260376
0.46728286147117615 0.76655310392379761 0.29016497731208801
0.48810204863548279 0.76752769947052002 0.2904718816280365
0.51804441213607788 0.76653987169265747 0.28743231296539307
0.55880510807037354 0.76453131437301636 0.2805829644203186
0.60920363664627075 0.7619597315788269 0.27133524417877197
0.66635531187057495 0.75917965173721313 0.26079484820365906
0.72790670394897461 0.75628489255905151 0.24966572225093842
0.79171711206436157 0.75267541408538818 0.23775812983512878
0.85680073499679565 0.74772590398788452 0.22443611919879913
0.92282015085220337 0.74034309387207031 0.21229982376098633
0.97697317600250244 0.73022019863128662 0.19922257959842682
0.99956798553466797 0.71803426742553711 0.18741887807846069
1 0.70243239402770996 0.18132731318473816
0.53642553091049194 0.83631104230880737 0.32101631164550781
0.55251473188400269 0.83770430088043213 0.32290154695510864
0.57783174514770508 0.83712375164031982 0.31970465183258057
0.61402148008346558 0.83508914709091187 0.31297722458839417
0.6587749719619751 0.83304476737976074 0.30579057335853577
0.71095800399780273 0.83104068040847778 0.29805192351341248
0.76994121074676514 0.82896590232849121 0.28834432363510132
0.8328099250793457 0.82638436555862427 0.27660319209098816
0.89612895250320435 0.82265651226043701 0.26464974880218506
0.95442295074462891 0.81682956218719482 0.25406074523925781
0.99204468727111816 0.80851864814758301 0.24188952147960663
1 0.79861563444137573 0.22985373437404633
1 0.78622615337371826 0.221859410405159
0.60893338918685913 0.90160763263702393 0.34588843584060669
0.62031078338623047 0.90331071615219116 0.34872621297836304
0.64145064353942871 0.90267002582550049 0.34499567747116089
0.67309480905532837 0.90106165409088135 0.33779934048652649
0.71220642328262329 0.899505615234375 0.33328282833099365
0.75876104831695557 0.8986743688583374 0.32955417037010193
0.8148074746131897 0.89709717035293579 0.32189524173736572
0.87588983774185181 0.89547765254974365 0.31180456280708313
0.93552333116531372 0.89229649305343628 0.30231690406799316
0.98349088430404663 0.88761508464813232 0.29272621870040894
0.99958473443984985 0.88102728128433228 0.27871397137641907
1 0.87390023469924927 0.26624587178230286
1 0.86508846282958984 0.25827679038047791
0.68446093797683716 0.96432226896286011 0.36344587802886963
0.69366341829299927 0.96572893857955933 0.36477020382881165
0.7105642557144165 0.96557950973510742 0.36081176996231079
0.73693740367889404 0.96398180723190308 0.35475000739097595
0.77033692598342896 0.96354168653488159 0.35269403457641602
0.81168007850646973 0.96354168653488159 0.35160374641418457
0.861519455909729 0.96314340829849243 0.34675142168998718
0.91516470909118652 0.96180397272109985 0.33857417106628418
0.96387702226638794 0.95918518304824829 0.32903406023979187
0.99488586187362671 0.9547620415687561 0.31749093532562256
1 0.94949102401733398 0.30414518713951111
1 0.94581961631774902 0.29506489634513855
0.99993431568145752 0.94104397296905518 0.29000350832939148
0.011885279789566994 0.019310027360916138 0.052929732948541641
0.046301733702421188 0.015946421772241592 0.043197557330131531
0.097525440156459808 0.014063502661883831 0.032447695732116699
0.16192439198493958 0.012389134615659714 0.0217563696205616
0.23608723282814026 0.0084369583055377007 0.015579852275550365
0.3160693347454071 0.0044536963105201721 0.011048155836760998
0.3984544575214386 0.0026616863906383514 0.0046129412949085236
0.4809662401676178 0.0013424293138086796 0.00041484457324258983
0.56181812286376953 9.1911766503471881e-05 0
0.64031273126602173 0 0
0.71725380420684814 0 0
0.79216253757476807 0 0
0.86192268133163452 0.0017827501287683845 0
0.047936294227838516 0.079757362604141235 0.078637756407260895
0.079154148697853088 0.073966652154922485 0.070029273629188538
0.12644171714782715 0.067917704582214355 0.060256149619817734
0.18829329311847687 0.059603314846754074 0.049247052520513535
0.26047214865684509 0.049402095377445221 0.038346070796251297
0.33865493535995483 0.038351785391569138 0.02517884224653244
0.41868394613265991 0.029268855229020119 0.012372304685413837
0.49817335605621338 0.021803058683872223 0.0049262102693319321
0.57499641180038452 0.0097144776955246925 0.0012709075817838311
0.64932751655578613 0.0008071002084761858 5.9075449826195836e-05
0.72182536125183105 0 0
0.79137647151947021 0 0
0.85666096210479736 4.6673944780195598e-06 0
0.094197385013103485 0.15667837858200073 0.10834719985723495
0.11802823096513748 0.15092968940734863 0.10018260031938553
0.16077600419521332 0.14246699213981628 0.09111245721578598
0.22040948271751404 0.13116973638534546 0.080070123076438904
0.29109033942222595 0.11771377921104431 0.066053934395313263
0.36748391389846802 0.10319403558969498 0.048790067434310913
0.44531571865081787 0.089012399315834045 0.032040227204561234
0.52214634418487549 0.074931442737579346 0.0202610082924366
0.59635376930236816 0.055094566196203232 0.011310412548482418
0.66714954376220703 0.0309409499168396 0.0033904430456459522
0.73534971475601196 0.012888216413557529 0.00014181698497850448
0.79906243085861206 0.0038814470171928406 0
0.85838627815246582 0.00015976850409060717 0
0.12181953340768814 0.24675314128398895 0.14076124131679535
0.14530159533023834 0.24229583144187927 0.13225798308849335
0.19193573296070099 0.23357538878917694 0.12371446192264557
0.25397267937660217 0.22185893356800079 0.11286319047212601
0.32530513405799866 0.20882441103458405 0.098823249340057373
0.40119728446006775 0.19445395469665527 0.081272631883621216
0.47802436351776123 0.17918619513511658 0.062708713114261627
0.55372893810272217 0.16197997331619263 0.045969706028699875
0.62700635194778442 0.13944157958030701 0.031663782894611359
0.69701725244522095 0.11039704084396362 0.019686724990606308
0.76332789659500122 0.079284772276878357 0.010326116345822811
0.82368642091751099 0.048000261187553406 0.0044116899371147156
0.8767082691192627 0.018007555976510048 0.00077293248614296317
0.14064142107963562 0.34232529997825623 0.1724555641412735
0.17093898355960846 0.339498370885849 0.16468733549118042
0.22423920035362244 0.33187848329544067 0.15689438581466675
0.28985261917114258 0.32234299182891846 0.14727836847305298
0.3628537654876709 0.31179305911064148 0.13451190292835236
0.43901798129081726 0.30016234517097473 0.11832478642463684
0.51525485515594482 0.28612294793128967 0.099905543029308319
0.59053546190261841 0.27001002430915833 0.0814933180809021
0.66420668363571167 0.24935364723205566 0.064521968364715576
0.73580992221832275 0.22204203903675079 0.051841031759977341
0.80363887548446655 0.1883639395236969 0.041081611067056656
0.86381202936172485 0.14791086316108704 0.029721638187766075
0.91346496343612671 0.10341614484786987 0.018766589462757111
0.18578723073005676 0.43581315875053406 0.2036435604095459
0.21784447133541107 0.43462532758712769 0.19719156622886658
0.26824951171875 0.42990553379058838 0.19053512811660767
0.33254748582839966 0.42362597584724426 0.1818467378616333
0.40444737672805786 0.41604810953140259 0.17038290202617645
0.47970747947692871 0.40717780590057373 0.15595813095569611
0.55492293834686279 0.39587697386741638 0.13902319967746735
0.62925755977630615 0.3825562596321106 0.12239770591259003
0.70331603288650513 0.36608150601387024 0.10763042420148849
0.77702045440673828 0.34497734904289246 0.095167063176631927
0.84849840402603149 0.31842154264450073 0.082205228507518768
0.91109985113143921 0.28465673327445984 0.06784946471452713
0.95750808715820312 0.24249200522899628 0.055576130747795105
0.24734251201152802 0.52721548080444336 0.23469783365726471
0.27802318334579468 0.52692586183547974 0.22986164689064026
0.32293665409088135 0.52449452877044678 0.22433306276798248
0.38183963298797607 0.52026420831680298 0.21635501086711884
0.45000910758972168 0.51495093107223511 0.20530112087726593
0.52245545387268066 0.50830066204071045 0.19176581501960754
0.5952681303024292 0.49998784065246582 0.17763186991214752
0.66798269748687744 0.4898969829082489 0.16430675983428955
0.74158507585525513 0.47776225209236145 0.15234054625034332
0.81679624319076538 0.46297696232795715 0.14017140865325928
0.89010244607925415 0.44497281312942505 0.12440872192382812
0.95030617713928223 0.42084875702857971 0.1075793132185936
0.98802036046981812 0.38719794154167175 0.095641985535621643
0.31482160091400146 0.61492055654525757 0.26557934284210205
0.34260368347167969 0.61504644155502319 0.26278853416442871
0.3824123740196228 0.61338061094284058 0.25858697295188904
0.43482977151870728 0.61022043228149414 0.25088393688201904
0.49807488918304443 0.60608112812042236 0.23975385725498199
0.56649196147918701 0.60118043422698975 0.22654478251934052
0.63583457469940186 0.59508919715881348 0.21431595087051392
0.70568078756332397 0.58768200874328613 0.20338299870491028
0.77827060222625732 0.57874375581741333 0.1925310343503952
0.85399830341339111 0.56735825538635254 0.17937128245830536
0.92617261409759521 0.55354374647140503 0.16175033152103424
0.97761297225952148 0.53565347194671631 0.14418052136898041
0.99769413471221924 0.51063913106918335 0.13409040868282318
0.3845582902431488 0.69695377349853516 0.29704859852790833
0.40834486484527588 0.69716054201126099 0.29622450470924377
0.44251444935798645 0.69548135995864868 0.293142169713974
0.48921635746955872 0.69291526079177856 0.28597331047058105
0.54640185832977295 0.68948674201965332 0.2751413881778717
0.6101529598236084 0.68555700778961182 0.26221233606338501
0.67531144618988037 0.68106883764266968 0.25110676884651184
0.74165642261505127 0.67560690641403198 0.24083496630191803
0.81212157011032104 0.66850703954696655 0.22911445796489716
0.88609695434570312 0.65927618741989136 0.21506014466285706
0.95436793565750122 0.64743196964263916 0.19762319326400757
0.99442172050476074 0.63302510976791382 0.18218277394771576
0.99990564584732056 0.61423021554946899 0.17440265417098999
0.45258846879005432 0.77151530981063843 0.33014824986457825
0.47281649708747864 0.77213996648788452 0.33017763495445251
0.5024530291557312 0.77079135179519653 0.32712584733963013
0.54364269971847534 0.76847577095031738 0.32017001509666443
0.59468585252761841 0.76559901237487793 0.31071889400482178
0.65273332595825195 0.76246798038482666 0.30009675025939941
0.71413004398345947 0.75899612903594971 0.28967034816741943
0.77781105041503906 0.754830002784729 0.27841874957084656
0.84459549188613892 0.74939209222793579 0.26590380072593689
0.91337126493453979 0.7418016791343689 0.25277590751647949
0.97161763906478882 0.73222321271896362 0.23889252543449402
0.99894684553146362 0.72053438425064087 0.22627699375152588
1 0.70536202192306519 0.21853184700012207
0.52098667621612549 0.84014725685119629 0.36099010705947876
0.53811204433441162 0.84114021062850952 0.36101523041725159
0.56363368034362793 0.83982139825820923 0.35705104470252991
0.59993308782577515 0.83782362937927246 0.34997013211250305
0.64531266689300537 0.83532196283340454 0.34251463413238525
0.69800478219985962 0.83320844173431396 0.33501109480857849
0.75644904375076294 0.83059400320053101 0.32627192139625549
0.81834381818771362 0.82732510566711426 0.31599539518356323
0.88195759057998657 0.82307952642440796 0.30429562926292419
0.94228756427764893 0.81742137670516968 0.29257076978683472
0.98619687557220459 0.80980104207992554 0.28025296330451965
0.99998193979263306 0.80052560567855835 0.26892659068107605
1 0.78859591484069824 0.26084205508232117
0.59263437986373901 0.90463089942932129 0.38567882776260376
0.6066095232963562 0.90532433986663818 0.38472318649291992
0.62873607873916626 0.90417879819869995 0.37962144613265991
0.66064250469207764 0.90203636884689331 0.37212884426116943
0.70052850246429443 0.90063005685806274 0.3674255907535553
0.74816024303436279 0.89938235282897949 0.36358410120010376
0.80337738990783691 0.89771729707717896 0.35773056745529175
0.86349284648895264 0.89560914039611816 0.34903988242149353
0.92287582159042358 0.8921932578086853 0.33882349729537964
0.97110557556152344 0.88747704029083252 0.32732844352722168
0.99655210971832275 0.88158339262008667 0.31521546840667725
1 0.87518268823623657 0.30489566922187805
1 0.86703187227249146 0.29777076840400696
0.66634654998779297 0.96695351600646973 0.4043937623500824
0.67867177724838257 0.96702080965042114 0.40186911821365356
0.6975741982460022 0.96575671434402466 0.39494198560714722
0.72519427537918091 0.96399056911468506 0.38696205615997314
0.75986331701278687 0.96344304084777832 0.38475257158279419
0.80214565992355347 0.96354168653488159 0.3843681812286377
0.85240465402603149 0.96301698684692383 0.38176962733268738
0.90684562921524048 0.96164464950561523 0.37460356950759888
0.95778727531433105 0.959006667137146 0.36450076103210449
0.99149799346923828 0.95480471849441528 0.35247915983200073
0.99991023540496826 0.95019137859344482 0.34067431092262268
1 0.94691735506057739 0.33366525173187256
1 0.94222867488861084 0.32942479848861694
0.0037771635688841343 0.017076335847377777 0.097186952829360962
0.032221969217061996 0.014172079041600227 0.087275348603725433
0.082832172513008118 0.013340534642338753 0.075348734855651855
0.1480674147605896 0.011697043664753437 0.062588952481746674
0.22272635996341705 0.0062677422538399696 0.052857134491205215
0.30251032114028931 0.0019388535292819142 0.041883043944835663
0.38443586230278015 0.00071177765494212508 0.027583044022321701
0.46680322289466858 0.00069131288910284638 0.014395350590348244
0.54733330011367798 5.8880974393105134e-05 0.0056651546619832516
0.62502092123031616 0 0.002133343368768692
0.70124125480651855 0 0.00032955993083305657
0.77436846494674683 0 0
0.84372401237487793 0.001018464332446456 0
0.02891959436237812 0.075018800795078278 0.12419705837965012
0.061715532094240189 0.070173867046833038 0.11569629609584808
0.11108682304620743 0.06568165123462677 0.10538823902606964
0.17456351220607758 0.057914510369300842 0.093289270997047424
0.24736171960830688 0.045494332909584045 0.079803615808486938
0.32498094439506531 0.032382350414991379 0.061703640967607498
0.40427660942077637 0.023067759349942207 0.042542088776826859
0.48300331830978394 0.01761607825756073 0.029990177601575851
0.55930548906326294 0.0082988515496253967 0.019931105896830559
0.63287746906280518 0.00075164495501667261 0.010035735554993153
0.70441317558288574 0 0.0029242869932204485
0.77290332317352295 0 0.00082693662261590362
0.83782899379730225 3.8894953036106017e-07 0.00042960970313288271
0.075783610343933105 0.15100668370723724 0.1549580842256546
0.10376653075218201 0.1469402015209198 0.14717993140220642
0.14901652932167053 0.14049617946147919 0.13807199895381927
0.20827071368694305 0.12921559810638428 0.12628717720508575
0.27815946936607361 0.11430976539850235 0.11065268516540527
0.35373973846435547 0.097873538732528687 0.09057144820690155
0.43078559637069702 0.082304216921329498 0.070423468947410583
0.50661039352416992 0.068151958286762238 0.055239792913198471
0.57972031831741333 0.049985490739345551 0.042193572968244553
0.64964944124221802 0.028496326878666878 0.026056118309497833
0.71670866012573242 0.011394500732421875 0.011032388545572758
0.77974295616149902 0.0038828530814498663 0.0054396386258304119
0.83921569585800171 0.00010082768130814657 0.0026542213745415211
0.11200413107872009 0.24088481068611145 0.18745382130146027
0.13509237766265869 0.23917292058467865 0.17963209748268127
0.18146619200706482 0.23244266211986542 0.17163601517677307
0.24200047552585602 0.22109736502170563 0.16095580160617828
0.31239721179008484 0.20702536404132843 0.14658944308757782
0.387642502784729 0.19113893806934357 0.12791238725185394
0.46364510059356689 0.17356555163860321 0.10842781513929367
0.53793936967849731 0.15456600487232208 0.089810043573379517
0.60996145009994507 0.13211283087730408 0.073340773582458496
0.67860811948776245 0.10545148700475693 0.055082973092794418
0.74379891157150269 0.077671736478805542 0.037842560559511185
0.8035886287689209 0.048443648964166641 0.024788636714220047
0.85710805654525757 0.015107173472642899 0.010502714663743973
0.12328486889600754 0.33848720788955688 0.21776586771011353
0.15605585277080536 0.3374188244342804 0.21177896857261658
0.20958365499973297 0.33187559247016907 0.20564025640487671
0.27552551031112671 0.32306769490242004 0.19700714945793152
0.34904104471206665 0.31240835785865784 0.18489356338977814
0.4256901741027832 0.29964050650596619 0.16938252747058868
0.50111907720565796 0.28326255083084106 0.15033735334873199
0.57511228322982788 0.26426678895950317 0.13116510212421417
0.64766037464141846 0.24309027194976807 0.11348640918731689
0.71771794557571411 0.21794553101062775 0.097112290561199188
0.78445315361022949 0.1883404552936554 0.081815250217914581
0.8443717360496521 0.15041658282279968 0.065647482872009277
0.89555257558822632 0.1006581038236618 0.044877428561449051
0.16799864172935486 0.43414539098739624 0.24979037046432495
0.19906684756278992 0.43485605716705322 0.24493913352489471
0.24930110573768616 0.43133124709129333 0.24005736410617828
0.31511500477790833 0.4255516529083252 0.23284435272216797
0.38909539580345154 0.41838479042053223 0.22251395881175995
0.46535801887512207 0.40909266471862793 0.20914138853549957
