luts/colorslide/kodak_elite_chrome_400.cube
# Created by: G'MIC (https://gmic.eu)
TITLE "kodak_elite_chrome_400"
# LUT size
LUT_3D_SIZE 5
# Data domain
DOMAIN_MIN 0.0 0.0 0.0
DOMAIN_MAX 1.0 1.0 1.0
# LUT data points
0.020792882889509201 0.020527634769678116 0.018982920795679092
0.15010455250740051 0.017119478434324265 0.01047960203140974
0.38365179300308228 0.024178912863135338 0.0084787402302026749
0.65716612339019775 0.03718109056353569 0.0028723173309117556
0.87917673587799072 0.075390592217445374 0.0058204052038490772
0.12478386610746384 0.21137481927871704 0.086348243057727814
0.22947098314762115 0.20658551156520844 0.067716620862483978
0.4576973021030426 0.1866396963596344 0.03403618186712265
0.68357646465301514 0.12042300403118134 0.0072727277874946594
0.89485597610473633 0.073506161570549011 0.0018426933092996478
0.22403852641582489 0.50611960887908936 0.17462536692619324
0.34564477205276489 0.49595475196838379 0.16393552720546722
0.55424278974533081 0.50121253728866577 0.12144271284341812
0.75342881679534912 0.45129638910293579 0.050900820642709732
0.95266306400299072 0.31561267375946045 0.00046691895113326609
0.4606984555721283 0.74738174676895142 0.33532595634460449
0.51307296752929688 0.74861067533493042 0.32691517472267151
0.64049303531646729 0.74926471710205078 0.27570435404777527
0.81080293655395508 0.7553403377532959 0.18212346732616425
0.99232685565948486 0.72509855031967163 0.021725015714764595
0.66341406106948853 0.9605405330657959 0.54043948650360107
0.68797856569290161 0.96308016777038574 0.53399741649627686
0.76464325189590454 0.96612852811813354 0.5099480152130127
0.88511407375335693 0.97110480070114136 0.46453654766082764
0.99612468481063843 0.97785240411758423 0.25431537628173828
0.011098809540271759 0.02223389595746994 0.14759121835231781
0.12590664625167847 0.017513858154416084 0.12088523060083389
0.37125974893569946 0.01185112725943327 0.084445476531982422
0.64974111318588257 0.026538744568824768 0.027591496706008911
0.88613986968994141 0.080569244921207428 0.0031024408526718616
0.10058393329381943 0.21874317526817322 0.2243654876947403
0.20585012435913086 0.21213923394680023 0.20795169472694397
0.44503182172775269 0.18776322901248932 0.16473333537578583
0.6793786883354187 0.12185091525316238 0.083215273916721344
0.89625668525695801 0.064634360373020172 0.001599734416231513
0.18883524835109711 0.49818676710128784 0.32361492514610291
0.32270246744155884 0.49626711010932922 0.31443643569946289
0.53433525562286377 0.49184134602546692 0.26731365919113159
0.73670202493667603 0.45750781893730164 0.18651086091995239
0.94529563188552856 0.31407848000526428 0.046111535280942917
0.44347080588340759 0.74067789316177368 0.45453384518623352
0.5025562047958374 0.7453763484954834 0.44519305229187012
0.62667441368103027 0.74304783344268799 0.41409233212471008
0.79432076215744019 0.74487167596817017 0.35216888785362244
0.98272132873535156 0.7163703441619873 0.15761859714984894
0.6396293044090271 0.9576529860496521 0.60864174365997314
0.67561852931976318 0.96155166625976562 0.60151594877243042
0.75843006372451782 0.96468114852905273 0.58082592487335205
0.87125861644744873 0.97002023458480835 0.55026090145111084
0.99542796611785889 0.97327524423599243 0.41264665126800537
0.0041444068774580956 0.020929403603076935 0.33833450078964233
0.088682882487773895 0.015243395231664181 0.32158938050270081
0.35147026181221008 0.0093670859932899475 0.2856467068195343
0.62771683931350708 0.010775173082947731 0.19767202436923981
0.87903898954391479 0.063344217836856842 0.046635691076517105
0.065210215747356415 0.21799533069133759 0.43201562762260437
0.15497858822345734 0.21507759392261505 0.42266026139259338
0.41317856311798096 0.18580998480319977 0.39872491359710693
0.65001189708709717 0.11170846968889236 0.32841795682907104
0.8749157190322876 0.053427137434482574 0.17147843539714813
0.11303281784057617 0.49860110878944397 0.52221870422363281
0.27214190363883972 0.49675759673118591 0.51509791612625122
0.49807700514793396 0.48650413751602173 0.49278268218040466
0.70399504899978638 0.45210042595863342 0.44679436087608337
0.91499680280685425 0.31104284524917603 0.32186546921730042
0.40597599744796753 0.73431563377380371 0.60523897409439087
0.47540894150733948 0.74035263061523438 0.60500264167785645
0.59999483823776245 0.74070489406585693 0.59083044528961182
0.76115065813064575 0.73396092653274536 0.5617976188659668
0.95551937818527222 0.69833028316497803 0.46399956941604614
0.62424826622009277 0.95072847604751587 0.71717220544815063
0.66142463684082031 0.9551355242729187 0.71096909046173096
0.73709022998809814 0.95944929122924805 0.70026111602783203
0.84960359334945679 0.965617835521698 0.67463940382003784
0.9936632513999939 0.96583849191665649 0.60403680801391602
2.1003274014219642e-05 0.02334696426987648 0.55306136608123779
0.051666513085365295 0.011399183422327042 0.54688519239425659
0.30090805888175964 0.0086502972990274429 0.53060942888259888
0.57383626699447632 0.0001590504398336634 0.49022567272186279
0.82660114765167236 0.019806476309895515 0.38785377144813538
0.019817667081952095 0.24487267434597015 0.62037712335586548
0.11447372287511826 0.22781647741794586 0.61570644378662109
0.36189067363739014 0.20145805180072784 0.61172795295715332
0.60986852645874023 0.12844328582286835 0.58673185110092163
0.82402664422988892 0.014410759322345257 0.50951755046844482
0.018069382756948471 0.50185525417327881 0.68570625782012939
0.18945424258708954 0.5039483904838562 0.68239563703536987
0.45405194163322449 0.49675798416137695 0.67563718557357788
0.67272073030471802 0.46912062168121338 0.65384531021118164
0.87635266780853271 0.33969646692276001 0.60088396072387695
0.35647398233413696 0.73377746343612671 0.75704073905944824
0.43092635273933411 0.73851770162582397 0.75521868467330933
0.56553953886032104 0.74014592170715332 0.74672979116439819
0.73028147220611572 0.73278546333312988 0.72985601425170898
0.92688083648681641 0.6990358829498291 0.68216043710708618
0.59818071126937866 0.94242596626281738 0.83953315019607544
0.63699138164520264 0.94626027345657349 0.83543610572814941
0.71056300401687622 0.95206999778747559 0.83299589157104492
0.82825332880020142 0.96102619171142578 0.82364797592163086
0.98386979103088379 0.95528668165206909 0.78225362300872803
6.0676124121528119e-05 0.038936525583267212 0.72591263055801392
0.0054105869494378567 0.029533760622143745 0.72213596105575562
0.24859142303466797 0.019139667972922325 0.72095614671707153
0.53333508968353271 0.0062200808897614479 0.70138543844223022
0.78418159484863281 0.0014575883978977799 0.65855151414871216
0.0046866773627698421 0.27711230516433716 0.78451478481292725
0.055157978087663651 0.27310085296630859 0.78399920463562012
0.30738648772239685 0.24896523356437683 0.77833336591720581
0.581268310546875 0.17565518617630005 0.76580119132995605
0.79358738660812378 0.026464246213436127 0.73551517724990845
0.0014680749736726284 0.51399606466293335 0.84419351816177368
0.035117968916893005 0.51497697830200195 0.84287077188491821
0.4002460241317749 0.51877862215042114 0.83765095472335815
0.63525503873825073 0.49720123410224915 0.8284761905670166
0.84934765100479126 0.38931435346603394 0.80819648504257202
0.2340577095746994 0.73457854986190796 0.9017755389213562
0.33120757341384888 0.73806118965148926 0.90337830781936646
0.51072955131530762 0.74137598276138306 0.90026754140853882
0.6862945556640625 0.73663103580474854 0.89708143472671509
0.89209228754043579 0.70929104089736938 0.87824803590774536
0.57970702648162842 0.93735027313232422 0.96316343545913696
0.60686063766479492 0.94102627038955688 0.96749687194824219
0.69393527507781982 0.94973862171173096 0.9729771614074707
0.80556446313858032 0.96328812837600708 0.97794181108474731
0.95856916904449463 0.96130967140197754 0.96037393808364868
