luts/colorslide/kodak_elite_extracolor_100.cube
# Created by: G'MIC (https://gmic.eu)
TITLE "kodak_elite_extracolor_100"
# LUT size
LUT_3D_SIZE 5
# Data domain
DOMAIN_MIN 0.0 0.0 0.0
DOMAIN_MAX 1.0 1.0 1.0
# LUT data points
0.039727065712213516 0.031361181288957596 0.027583522722125053
0.19257570803165436 0.024275582283735275 0.024298334494233131
0.39812776446342468 0.0088622299954295158 0.012287304736673832
0.63639569282531738 0.0042604184709489346 0.0089705819264054298
0.8056456446647644 0 0.0032819411717355251
0.12434075772762299 0.23316268622875214 0.08752092719078064
0.25017452239990234 0.21185439825057983 0.074966982007026672
0.46107256412506104 0.18191197514533997 0.050109025090932846
0.67977619171142578 0.11582149565219879 0.018816405907273293
0.82799166440963745 0.015387770719826221 0.0018517138669267297
0.17972585558891296 0.51012611389160156 0.12826278805732727
0.32463037967681885 0.50272399187088013 0.11353092640638351
0.54943752288818359 0.47244131565093994 0.09482855349779129
0.77031558752059937 0.41387766599655151 0.054445289075374603
0.92522317171096802 0.30302602052688599 0.011439020745456219
0.29448923468589783 0.80670100450515747 0.057720109820365906
0.43576565384864807 0.80274134874343872 0.053249567747116089
0.67225342988967896 0.79376071691513062 0.041461046785116196
0.88187873363494873 0.77465426921844482 0.032245021313428879
0.99494415521621704 0.73507183790206909 0.019623475149273872
0.49011841416358948 0.99729150533676147 0
0.60226494073867798 0.99554461240768433 0
0.79005730152130127 0.99732112884521484 0
0.96819573640823364 0.99720638990402222 0
1 0.99212014675140381 0
0.019250622019171715 0.033505592495203018 0.17648968100547791
0.15349005162715912 0.02545725554227829 0.1615755558013916
0.37993204593658447 0.012114341370761395 0.13889738917350769
0.61546164751052856 0.0012430078350007534 0.10058607161045074
0.79880183935165405 0 0.053495969623327255
0.10088592022657394 0.22447493672370911 0.22132329642772675
0.21005560457706451 0.21620564162731171 0.21456028521060944
0.43895813822746277 0.18573297560214996 0.1890658438205719
0.66441339254379272 0.11996199935674667 0.14056204259395599
0.80870240926742554 0.013894937932491302 0.069257296621799469
0.10286920517683029 0.50280100107192993 0.26092585921287537
0.27692285180091858 0.49811384081840515 0.25113081932067871
0.52742385864257812 0.47325000166893005 0.22944116592407227
0.75000417232513428 0.41993516683578491 0.1940532773733139
0.9099993109703064 0.3145713210105896 0.12438572943210602
0.21041321754455566 0.79834729433059692 0.24406768381595612
0.37997099757194519 0.79245775938034058 0.22674074769020081
0.64428263902664185 0.78753739595413208 0.19922921061515808
0.85984283685684204 0.77161264419555664 0.16562406718730927
0.99585175514221191 0.72585225105285645 0.11011171340942383
0.46790274977684021 0.99818438291549683 0.020628791302442551
0.58657717704772949 0.99830442667007446 0.01583314873278141
0.78304743766784668 0.99824893474578857 0.010228310711681843
0.96923965215682983 0.9983595609664917 0.002770397812128067
1 0.98640471696853638 0.0044985753484070301
0.0084341010078787804 0.033952631056308746 0.35409533977508545
0.11477889865636826 0.025814086198806763 0.34116852283477783
0.33814337849617004 0.015801418572664261 0.32988876104354858
0.58521413803100586 0.0040175043977797031 0.2899002730846405
0.76540547609329224 0 0.24695493280887604
0.060132674872875214 0.23203098773956299 0.42569121718406677
0.15069450438022614 0.21956793963909149 0.4174138605594635
0.39758029580116272 0.19103588163852692 0.39738437533378601
0.62695479393005371 0.11815676093101501 0.358936607837677
0.77922028303146362 0.015229199081659317 0.29688921570777893
0.011189150623977184 0.5066409707069397 0.49734508991241455
0.15887132287025452 0.49707233905792236 0.49497172236442566
0.47119644284248352 0.47751691937446594 0.47612234950065613
0.7147032618522644 0.42937374114990234 0.44869759678840637
0.87657415866851807 0.31203275918960571 0.38569378852844238
0.017440062016248703 0.78418111801147461 0.5393604040145874
0.24952296912670135 0.77860492467880249 0.53268581628799438
0.56694912910461426 0.77100348472595215 0.5212104320526123
0.80835628509521484 0.75607562065124512 0.49755194783210754
0.97957295179367065 0.71303051710128784 0.45154425501823425
0.29330360889434814 0.9952731728553772 0.41690602898597717
0.45942571759223938 0.99383926391601562 0.40983644127845764
0.70567613840103149 0.99441802501678467 0.39156460762023926
0.91666114330291748 0.99427855014801025 0.36460423469543457
0.99982732534408569 0.99125033617019653 0.28415802121162415
0.0019423989579081535 0.050499681383371353 0.56476718187332153
0.056502923369407654 0.034477353096008301 0.55821484327316284
0.28604215383529663 0.017312008887529373 0.54406642913818359
0.54337829351425171 0.0031749650370329618 0.52048313617706299
0.72383517026901245 0.00010340073640691116 0.48320016264915466
0.007352492306381464 0.25112470984458923 0.64621138572692871
0.087289907038211823 0.23907572031021118 0.63795596361160278
0.32816335558891296 0.20831181108951569 0.61977404356002808
0.58987122774124146 0.14670164883136749 0.58910256624221802
0.74605953693389893 0.018811259418725967 0.54322808980941772
2.1003274014219642e-05 0.52089440822601318 0.721324622631073
0.017590181902050972 0.51358824968338013 0.71850782632827759
0.38437741994857788 0.49113726615905762 0.70151007175445557
0.66796481609344482 0.45638948678970337 0.6741940975189209
0.84582614898681641 0.33156463503837585 0.63959914445877075
0.0017401003278791904 0.77674603462219238 0.7761874794960022
0.028062557801604271 0.77537161111831665 0.78199213743209839
0.47184339165687561 0.76908671855926514 0.76762694120407104
0.74493050575256348 0.75150537490844727 0.74391466379165649
0.94333887100219727 0.70911014080047607 0.72489553689956665
0.007443117443472147 0.98041844367980957 0.7851024866104126
0.16434620320796967 0.98143219947814941 0.78673738241195679
0.57259678840637207 0.97549682855606079 0.7643398642539978
0.8234749436378479 0.98094773292541504 0.75548052787780762
0.99489712715148926 0.97571587562561035 0.73478060960769653
0 0.081187576055526733 0.7368924617767334
0.010171643458306789 0.061105929315090179 0.73043304681777954
0.22964431345462799 0.035571932792663574 0.71542036533355713
0.50861257314682007 0.011723117902874947 0.6829954981803894
0.69011521339416504 3.0338062060764059e-05 0.65571433305740356
0.00069348205579444766 0.29307058453559875 0.81156438589096069
0.021010499447584152 0.27928245067596436 0.80432140827178955
0.24586491286754608 0.25129041075706482 0.78849601745605469
0.56418478488922119 0.18790136277675629 0.75989538431167603
0.73333990573883057 0.045722618699073792 0.72075039148330688
2.6927275030175224e-05 0.5578351616859436 0.88967478275299072
0.0012213613372296095 0.54646247625350952 0.88172429800033569
0.24930289387702942 0.5354689359664917 0.87373560667037964
0.62867242097854614 0.50194233655929565 0.84874004125595093
0.82748186588287354 0.39331617951393127 0.8185310959815979
0 0.78510922193527222 0.95134133100509644
0.0021419301629066467 0.78437197208404541 0.94913256168365479
0.28670504689216614 0.78045797348022461 0.94137221574783325
0.68522787094116211 0.76570087671279907 0.91616237163543701
0.91110968589782715 0.72755104303359985 0.90362370014190674
0 0.96080249547958374 0.99061876535415649
4.2006548028439283e-05 0.96519631147384644 0.98528754711151123
0.32097461819648743 0.9702075719833374 0.98815631866455078
0.7236626148223877 0.96902680397033691 0.97061765193939209
0.96629345417022705 0.96843105554580688 0.96370613574981689
