luts/colorslide/kodak_e-100_gx_ektachrome_100.cube
# Created by: G'MIC (https://gmic.eu)
TITLE "kodak_e-100_gx_ektachrome_100"
# LUT size
LUT_3D_SIZE 7
# Data domain
DOMAIN_MIN 0.0 0.0 0.0
DOMAIN_MAX 1.0 1.0 1.0
# LUT data points
0.027322746813297272 0.027193225920200348 0.023143678903579712
0.12087049335241318 0.018098719418048859 0.019212460145354271
0.24472583830356598 0.012475989758968353 0.011646660044789314
0.39805740118026733 0.008648337796330452 0.0080423392355442047
0.54637229442596436 0.0028243421111255884 0.0038681928999722004
0.68885684013366699 0.0039215688593685627 0.0076231863349676132
0.82710140943527222 0.0066193225793540478 0.00082650280091911554
0.10458311438560486 0.16246846318244934 0.077786885201931
0.18250496685504913 0.15071825683116913 0.06957843154668808
0.2995937168598175 0.12722766399383545 0.053855806589126587
0.43702375888824463 0.094458863139152527 0.037266615778207779
0.57308399677276611 0.04913807287812233 0.020171355456113815
0.69968771934509277 0.010641179978847504 0.0094719231128692627
0.82652187347412109 0.0041432697325944901 0.0065626255236566067
0.16805680096149445 0.32378622889518738 0.14028686285018921
0.24559962749481201 0.31840246915817261 0.13620458543300629
0.36426675319671631 0.3007102906703949 0.12426029145717621
0.49496757984161377 0.27036139369010925 0.1096748486161232
0.62371701002120972 0.22337107360363007 0.091462694108486176
0.74197483062744141 0.13817478716373444 0.061884548515081406
0.83947592973709106 0.031435515731573105 0.029149552807211876
0.27342033386230469 0.49898338317871094 0.21167579293251038
0.33565786480903625 0.49703693389892578 0.20747703313827515
0.43873441219329834 0.49022811651229858 0.19987170398235321
0.55452442169189453 0.47009211778640747 0.18460182845592499
0.67957937717437744 0.44357785582542419 0.17295561730861664
0.80028802156448364 0.38773834705352783 0.1527770608663559
0.89969015121459961 0.27575397491455078 0.12330376356840134
0.40081626176834106 0.67184418439865112 0.29626688361167908
0.43926137685775757 0.66453999280929565 0.29239591956138611
0.52000206708908081 0.66148978471755981 0.28610515594482422
0.62449336051940918 0.65190660953521729 0.27563497424125671
0.73715460300445557 0.63539391756057739 0.26132464408874512
0.85269355773925781 0.60912066698074341 0.2461417019367218
0.95678967237472534 0.55144089460372925 0.22557304799556732
0.52996742725372314 0.82062751054763794 0.39036750793457031
0.55927979946136475 0.81575077772140503 0.388531893491745
0.61868852376937866 0.81244099140167236 0.3814316987991333
0.70103335380554199 0.81126409769058228 0.37841182947158813
0.79971623420715332 0.80246484279632568 0.36818808317184448
0.89965051412582397 0.79000794887542725 0.35338488221168518
0.99128252267837524 0.76342093944549561 0.33466491103172302
0.68166428804397583 0.94898021221160889 0.49280110001564026
0.70061671733856201 0.94869399070739746 0.4916379451751709
0.73733413219451904 0.94603216648101807 0.48928871750831604
0.79620778560638428 0.94810634851455688 0.48532474040985107
0.86972981691360474 0.95003223419189453 0.47964257001876831
0.94886529445648193 0.94320511817932129 0.46842974424362183
0.99780803918838501 0.93718558549880981 0.45601966977119446
0.020782411098480225 0.032815221697092056 0.11644207686185837
0.10368387401103973 0.027093296870589256 0.10747899115085602
0.2340892106294632 0.01724853552877903 0.095193393528461456
0.38540446758270264 0.0082279732450842857 0.080774016678333282
0.54137706756591797 0.0039177541621029377 0.058497872203588486
0.68511748313903809 0.0036668067332357168 0.040380872786045074
0.81881392002105713 0.0039215688593685627 0.022196616977453232
0.096725717186927795 0.16832554340362549 0.17598606646060944
0.16333562135696411 0.15920920670032501 0.16778413951396942
0.2890135645866394 0.13974621891975403 0.15670932829380035
0.42781758308410645 0.10402350127696991 0.13790975511074066
0.5654524564743042 0.053593937307596207 0.11364134401082993
0.69258779287338257 0.010761919431388378 0.089186333119869232
0.81554222106933594 0.0041362689808011055 0.067698441445827484
0.14458489418029785 0.33367696404457092 0.23279598355293274
0.22751396894454956 0.32695701718330383 0.22758534550666809
0.35245609283447266 0.31201741099357605 0.22014670073986053
0.48505929112434387 0.27469870448112488 0.20300732553005219
0.61765450239181519 0.23184165358543396 0.18654035031795502
0.73506790399551392 0.14689207077026367 0.15730713307857513
0.83061009645462036 0.03214467316865921 0.1219310536980629
0.25416278839111328 0.50251168012619019 0.29791030287742615
0.319886714220047 0.50489288568496704 0.29522901773452759
0.42675408720970154 0.49454942345619202 0.28943803906440735
0.54524093866348267 0.47447732090950012 0.27559089660644531
0.67446506023406982 0.44503870606422424 0.26401689648628235
0.79596376419067383 0.39471334218978882 0.2409331202507019
0.89486408233642578 0.2832283079624176 0.21171464025974274
0.38249754905700684 0.67440116405487061 0.37615630030632019
0.42749470472335815 0.67189168930053711 0.37021327018737793
0.51240754127502441 0.66728657484054565 0.36530303955078125
0.61631947755813599 0.6523137092590332 0.35583949089050293
0.72872185707092285 0.63890522718429565 0.35059031844139099
0.8425673246383667 0.60989469289779663 0.33354085683822632
0.94965678453445435 0.55242174863815308 0.30849054455757141
0.52065271139144897 0.82423675060272217 0.45573776960372925
0.55237722396850586 0.8199535608291626 0.45198842883110046
0.61374753713607788 0.81773501634597778 0.45062512159347534
0.69837015867233276 0.81408584117889404 0.44283822178840637
0.79311233758926392 0.80545252561569214 0.43775743246078491
0.89265137910842896 0.79327601194381714 0.42442360520362854
0.98575019836425781 0.76481813192367554 0.40389153361320496
0.67505598068237305 0.94769203662872314 0.54689019918441772
0.6898687481880188 0.94851118326187134 0.5422661304473877
0.72851884365081787 0.9474068284034729 0.541534423828125
0.78763675689697266 0.94997704029083252 0.53876215219497681
0.86205285787582397 0.94862633943557739 0.53508013486862183
0.94470417499542236 0.9458458423614502 0.52648258209228516
0.99758034944534302 0.93944752216339111 0.51568222045898438
0.013311812654137611 0.039787277579307556 0.2381245344877243
0.081794574856758118 0.032251246273517609 0.2288222461938858
0.21802741289138794 0.020615521818399429 0.2182961106300354
0.37026858329772949 0.0093434052541851997 0.2042299211025238
0.52233189344406128 0.0036824394483119249 0.18703016638755798
0.67005497217178345 0.0026823754888027906 0.16470468044281006
0.80487442016601562 0.0037224264815449715 0.14370141923427582
0.073246404528617859 0.18734440207481384 0.30036157369613647
0.14101728796958923 0.17046943306922913 0.29101783037185669
0.26781660318374634 0.14675670862197876 0.278564453125
0.4094393253326416 0.11359287053346634 0.26223653554916382
0.55147659778594971 0.06411336362361908 0.24279701709747314
0.67961931228637695 0.013285094872117043 0.21841095387935638
0.80235189199447632 0.0039215688593685627 0.19687604904174805
0.10505182296037674 0.34270244836807251 0.35814177989959717
0.19140248000621796 0.33606395125389099 0.35234248638153076
0.32862791419029236 0.32576131820678711 0.34543037414550781
0.46305876970291138 0.29597076773643494 0.33232927322387695
0.5989106297492981 0.24606414139270782 0.31358689069747925
0.72355157136917114 0.16025619208812714 0.29144939780235291
0.81977361440658569 0.033382058143615723 0.25672811269760132
0.21260188519954681 0.50807672739028931 0.42405566573143005
0.28512799739837646 0.50915044546127319 0.41787001490592957
0.40306165814399719 0.50686657428741455 0.41134420037269592
0.52857404947280884 0.48752695322036743 0.40151873230934143
0.65780341625213623 0.45578154921531677 0.38599696755409241
0.78224033117294312 0.39833253622055054 0.36688429117202759
0.88240528106689453 0.29234617948532104 0.3418307900428772
0.35277253389358521 0.67529410123825073 0.49168235063552856
0.40381750464439392 0.6742289662361145 0.485748291015625
0.49219274520874023 0.67195051908493042 0.47778177261352539
0.59989386796951294 0.65957260131835938 0.46818390488624573
0.71755057573318481 0.64431667327880859 0.46042567491531372
0.83169960975646973 0.61696964502334595 0.44422975182533264
0.93773800134658813 0.56145840883255005 0.4298064112663269
0.50390803813934326 0.82544326782226562 0.55662143230438232
0.5331195592880249 0.82305765151977539 0.55197745561599731
0.59946078062057495 0.82238024473190308 0.55104547739028931
0.68407028913497925 0.81889194250106812 0.54506546258926392
0.78095805644989014 0.80994886159896851 0.53686279058456421
0.88072806596755981 0.79544967412948608 0.52850782871246338
0.97296744585037231 0.7681955099105835 0.51547110080718994
0.66356229782104492 0.94875288009643555 0.63112348318099976
0.68096059560775757 0.94910448789596558 0.6321532130241394
0.71973568201065063 0.9519079327583313 0.63043403625488281
0.7770649790763855 0.95207643508911133 0.62455099821090698
0.85121935606002808 0.95139569044113159 0.62065881490707397
0.93350303173065186 0.947906494140625 0.61632680892944336
0.99592643976211548 0.93945389986038208 0.60455417633056641
0.0085489461198449135 0.049124922603368759 0.37680146098136902
0.060393165796995163 0.035995319485664368 0.36442700028419495
0.19781948626041412 0.032370518893003464 0.35939091444015503
0.3507782518863678 0.012572403997182846 0.34344649314880371
0.50617474317550659 0.0048202215693891048 0.32875394821166992
0.65321069955825806 0.0026868034619837999 0.31174516677856445
0.78751301765441895 0 0.29079520702362061
0.051143750548362732 0.19713766872882843 0.43732541799545288
0.11646327376365662 0.18262496590614319 0.42685776948928833
0.24014629423618317 0.16879864037036896 0.42109870910644531
0.39010697603225708 0.12849090993404388 0.40307143330574036
0.538063645362854 0.074057362973690033 0.38553225994110107
0.6652645468711853 0.017503850162029266 0.36190283298492432
0.7874494194984436 0.0009305168641731143 0.34225860238075256
0.052515756338834763 0.35654440522193909 0.49204018712043762
0.1407075971364975 0.35175889730453491 0.48799461126327515
0.29225289821624756 0.33998161554336548 0.48250308632850647
0.43952122330665588 0.31276378035545349 0.47077882289886475
0.58173590898513794 0.25948235392570496 0.45402079820632935
0.70841109752655029 0.17248018085956573 0.42988008260726929
0.80733340978622437 0.042566906660795212 0.39862191677093506
0.14696915447711945 0.52085030078887939 0.55152827501296997
0.23821571469306946 0.52249181270599365 0.54918462038040161
0.36370319128036499 0.51058202981948853 0.53820031881332397
0.50180715322494507 0.49568131566047668 0.52960419654846191
0.63929164409637451 0.46792453527450562 0.52080774307250977
0.76655805110931396 0.41555938124656677 0.50077360868453979
0.87153857946395874 0.30965885519981384 0.47852411866188049
0.31160470843315125 0.67735582590103149 0.60862445831298828
0.35965061187744141 0.67972689867019653 0.61035805940628052
0.45878148078918457 0.67232036590576172 0.60031938552856445
0.57953923940658569 0.6643492579460144 0.59180659055709839
0.69391083717346191 0.65030688047409058 0.58525586128234863
0.8138231635093689 0.62409466505050659 0.57239115238189697
0.92546379566192627 0.5714946985244751 0.5561332106590271
0.47087222337722778 0.82700270414352417 0.66788160800933838
0.50552105903625488 0.82695704698562622 0.66380387544631958
0.57212114334106445 0.82799166440963745 0.66742187738418579
0.6658942699432373 0.82148569822311401 0.65986442565917969
0.75828063488006592 0.81363475322723389 0.64773547649383545
0.86534976959228516 0.79906195402145386 0.63972574472427368
0.9634547233581543 0.77290093898773193 0.62875163555145264
0.63876855373382568 0.94740110635757446 0.72737711668014526
0.66482627391815186 0.95176178216934204 0.72791516780853271
0.70441365242004395 0.952503502368927 0.72660320997238159
0.76474142074584961 0.95313924551010132 0.72427785396575928
0.83835417032241821 0.95039427280426025 0.71880131959915161
0.92088824510574341 0.94712549448013306 0.71278607845306396
0.99146378040313721 0.93907874822616577 0.7037779688835144
0.0031225166749209166 0.059174437075853348 0.51767164468765259
0.034656643867492676 0.044957105070352554 0.51037156581878662
0.16678419709205627 0.037812519818544388 0.49763840436935425
0.33044731616973877 0.019611537456512451 0.48574990034103394
0.4918670654296875 0.0045861038379371166 0.46959367394447327
0.63804590702056885 0.00049703259719535708 0.45338428020477295
0.77012455463409424 0 0.43991675972938538
0.030006542801856995 0.21515505015850067 0.57616370916366577
0.086933836340904236 0.2047068327665329 0.56913340091705322
0.21100524067878723 0.18818095326423645 0.56019449234008789
0.37058195471763611 0.15406385064125061 0.54562300443649292
0.52141004800796509 0.094729416072368622 0.52587378025054932
0.64978903532028198 0.026047276332974434 0.50204414129257202
0.76809132099151611 0.0018634123262017965 0.48702129721641541
0.015937641263008118 0.37125962972640991 0.62790989875793457
0.071701958775520325 0.36721888184547424 0.62564772367477417
0.24666468799114227 0.35607370734214783 0.61654955148696899
0.41192984580993652 0.32894298434257507 0.60328507423400879
0.56444162130355835 0.28547564148902893 0.58796042203903198
0.69469523429870605 0.19884695112705231 0.56586277484893799
0.79601520299911499 0.061194565147161484 0.53655672073364258
0.058650042861700058 0.53528076410293579 0.67969256639480591
0.16513542830944061 0.53253060579299927 0.67677438259124756
0.32077458500862122 0.52279627323150635 0.66924887895584106
0.47363623976707458 0.50890922546386719 0.65926462411880493
0.61880964040756226 0.48277246952056885 0.645355224609375
0.7521899938583374 0.43192586302757263 0.6296800971031189
0.85953903198242188 0.33687153458595276 0.60809344053268433
0.25139686465263367 0.69213789701461792 0.73151963949203491
0.31292992830276489 0.6918560266494751 0.72745877504348755
0.41906121373176575 0.68180572986602783 0.72271114587783813
0.54928809404373169 0.67340952157974243 0.71292328834533691
0.6751326322555542 0.66208654642105103 0.70138323307037354
0.79900336265563965 0.63227993249893188 0.68924945592880249
0.91338866949081421 0.58410638570785522 0.67853337526321411
0.4340808093547821 0.83180826902389526 0.78237253427505493
0.46981421113014221 0.83262753486633301 0.7780754566192627
0.54187697172164917 0.83098143339157104 0.7759852409362793
0.63807076215744019 0.82649344205856323 0.77061378955841064
0.7365381121635437 0.82027101516723633 0.7589646577835083
0.85103189945220947 0.80574971437454224 0.75062483549118042
0.95082700252532959 0.78111952543258667 0.74275863170623779
0.62449103593826294 0.95434015989303589 0.8319847583770752
0.63645720481872559 0.95406579971313477 0.8274531364440918
0.6824953556060791 0.95580244064331055 0.82812076807022095
0.74420022964477539 0.95577162504196167 0.82428461313247681
0.82343196868896484 0.95368969440460205 0.81977128982543945
0.90746873617172241 0.95113378763198853 0.81355416774749756
0.98674690723419189 0.9454188346862793 0.80576044321060181
0.0005345961544662714 0.081264540553092957 0.65629690885543823
0.013541217893362045 0.069357119500637054 0.65046066045761108
0.13211683928966522 0.050715159624814987 0.63627088069915771
0.30700588226318359 0.031925499439239502 0.62119090557098389
0.46999296545982361 0.0099326791241765022 0.60484087467193604
0.61847603321075439 0.00076763675315305591 0.59451234340667725
0.755115807056427 0 0.57504004240036011
0.0094484062865376472 0.24180117249488831 0.70461219549179077
0.04701131209731102 0.23346221446990967 0.69896292686462402
0.16544894874095917 0.21891807019710541 0.68910574913024902
0.34381386637687683 0.18634219467639923 0.67501676082611084
0.50450289249420166 0.12815293669700623 0.65250229835510254
0.63718235492706299 0.045124262571334839 0.63243263959884644
0.7531014084815979 0.001438081031665206 0.61693978309631348
0.0029052135068923235 0.39333590865135193 0.75258582830429077
0.017457731068134308 0.39022845029830933 0.75117981433868408
0.18779803812503815 0.38085591793060303 0.74216055870056152
0.38416489958763123 0.35767370462417603 0.72956091165542603
0.54708081483840942 0.31476545333862305 0.7115790843963623
0.68409782648086548 0.2352031022310257 0.690868079662323
0.78771728277206421 0.086412392556667328 0.66467744112014771
0.0074590048752725124 0.55245912075042725 0.80038702487945557
0.060886412858963013 0.55126160383224487 0.799449622631073
0.25726455450057983 0.54284584522247314 0.79247581958770752
0.43370363116264343 0.52961677312850952 0.77874428033828735
0.59157752990722656 0.5022275447845459 0.76367992162704468
0.73610490560531616 0.46132579445838928 0.75188708305358887
0.85225760936737061 0.36750519275665283 0.73243707418441772
0.14744299650192261 0.70292192697525024 0.84714215993881226
0.23300795257091522 0.70126676559448242 0.84379839897155762
0.36569440364837646 0.69626647233963013 0.83875554800033569
0.51130431890487671 0.69119125604629517 0.82923018932342529
0.64726591110229492 0.67729908227920532 0.81652438640594482
0.78054505586624146 0.6539924144744873 0.80679261684417725
0.89998495578765869 0.60236054658889771 0.79489737749099731
0.37037244439125061 0.83791720867156982 0.88873970508575439
0.41203892230987549 0.83858180046081543 0.88687729835510254
0.49566912651062012 0.83783745765686035 0.88373774290084839
0.60142666101455688 0.83836430311203003 0.87735766172409058
0.71446281671524048 0.83088743686676025 0.8695911169052124
0.82762795686721802 0.8150448203086853 0.85937702655792236
0.93571436405181885 0.78758305311203003 0.85045260190963745
0.58989602327346802 0.95813488960266113 0.92781424522399902
0.6111520528793335 0.95872586965560913 0.92887955904006958
0.6477242112159729 0.95774388313293457 0.92527538537979126
0.71880084276199341 0.9596746563911438 0.92117011547088623
0.80296796560287476 0.95984041690826416 0.91900724172592163
0.89169806241989136 0.95990645885467529 0.91301810741424561
0.97701287269592285 0.94930058717727661 0.904674232006073
0 0.11360867321491241 0.75181162357330322
0.0050862180069088936 0.096111387014389038 0.74504202604293823
0.10143450647592545 0.077240198850631714 0.73570036888122559
0.28566247224807739 0.046868883073329926 0.71455889940261841
0.45278918743133545 0.017456818372011185 0.69804686307907104
0.60445290803909302 0.0009228874696418643 0.68116652965545654
0.74380642175674438 0 0.66844391822814941
0.0014137866673991084 0.2687777578830719 0.79706358909606934
0.021536314859986305 0.26009994745254517 0.79388892650604248
0.12664896249771118 0.24643902480602264 0.78515094518661499
0.32015261054039001 0.21146348118782043 0.76708841323852539
0.4908481240272522 0.15571458637714386 0.74554669857025146
0.62880998849868774 0.067268252372741699 0.72542929649353027
0.74237072467803955 0.0033869126345962286 0.70573574304580688
0.0010416667209938169 0.41599032282829285 0.84676516056060791
0.0022532145958393812 0.41302892565727234 0.84098005294799805
0.11885389685630798 0.4040893018245697 0.83393782377243042
0.35668981075286865 0.38369014859199524 0.81647831201553345
0.53203004598617554 0.33874630928039551 0.79956203699111938
0.67502003908157349 0.26881429553031921 0.78326565027236938
0.78193992376327515 0.12199097871780396 0.75612014532089233
1.2925092050863896e-05 0.56873011589050293 0.89112097024917603
0.0051368116401135921 0.56866472959518433 0.88746732473373413
0.18611802160739899 0.56176841259002686 0.87894147634506226
0.40646475553512573 0.55016076564788818 0.8647695779800415
0.57312190532684326 0.52602630853652954 0.8529285192489624
0.7216792106628418 0.48402160406112671 0.83781898021697998
0.84567165374755859 0.39661422371864319 0.8195796012878418
0.032896272838115692 0.71432143449783325 0.93026256561279297
0.12014994770288467 0.71364206075668335 0.92868697643280029
0.31744936108589172 0.71081322431564331 0.91874760389328003
0.48100179433822632 0.70694977045059204 0.91371637582778931
0.6257549524307251 0.6912839412689209 0.90123540163040161
0.76720750331878662 0.66972774267196655 0.8889506459236145
0.88909351825714111 0.62417542934417725 0.87851113080978394
0.30340883135795593 0.84850257635116577 0.96643227338790894
0.3563685417175293 0.84678846597671509 0.96204072237014771
0.45219099521636963 0.84655451774597168 0.95778340101242065
0.57111179828643799 0.84636515378952026 0.95176941156387329
0.69121628999710083 0.83980363607406616 0.94522237777709961
0.81464219093322754 0.82821685075759888 0.93506580591201782
0.92384594678878784 0.80188512802124023 0.92540037631988525
0.55034118890762329 0.95942991971969604 0.99422848224639893
0.57341223955154419 0.96187865734100342 0.99420392513275146
0.62182831764221191 0.96157687902450562 0.99085944890975952
0.69446831941604614 0.96342068910598755 0.99016004800796509
0.77960199117660522 0.96397686004638672 0.98711693286895752
0.87562566995620728 0.96374565362930298 0.98234182596206665
0.9701656699180603 0.9575691819190979 0.97974151372909546
