luts/colorslide/kodak_kodachrome_64_generic.cube
# Created by: G'MIC (https://gmic.eu)
TITLE "kodak_kodachrome_64_generic"
# LUT size
LUT_3D_SIZE 13
# Data domain
DOMAIN_MIN 0.0 0.0 0.0
DOMAIN_MAX 1.0 1.0 1.0
# LUT data points
0.022678166627883911 0.01655883714556694 0.015427563339471817
0.060320895165205002 0.016263041645288467 0.015626316890120506
0.11590495705604553 0.016878359019756317 0.016208767890930176
0.19088970124721527 0.020989496260881424 0.020841546356678009
0.29034221172332764 0.021153917536139488 0.028657412156462669
0.41150015592575073 0.023430079221725464 0.022579073905944824
0.52666360139846802 0.025118390098214149 0.020421450957655907
0.64045888185501099 0.028719360008835793 0.026083463802933693
0.75287872552871704 0.035304304212331772 0.035675182938575745
0.86117994785308838 0.037597790360450745 0.037126980721950531
0.96064597368240356 0.035881191492080688 0.029661456122994423
0.99634337425231934 0.038085907697677612 0.028547549620270729
0.99874895811080933 0.03896007314324379 0.028338877484202385
0.027909612283110619 0.052820242941379547 0.020041253417730331
0.05993511900305748 0.054775044322013855 0.020518822595477104
0.11776360869407654 0.058446861803531647 0.022455044090747833
0.19167128205299377 0.060490135103464127 0.02478446252644062
0.28916355967521667 0.06316046416759491 0.027078457176685333
0.40814071893692017 0.070599935948848724 0.028311502188444138
0.52444815635681152 0.073474541306495667 0.027610151097178459
0.64146935939788818 0.076102748513221741 0.029220325872302055
0.75623250007629395 0.080878570675849915 0.035539872944355011
0.86207473278045654 0.08399219810962677 0.03819134458899498
0.95776212215423584 0.085956498980522156 0.034917838871479034
0.99540591239929199 0.088932529091835022 0.035182774066925049
0.9987940788269043 0.092007502913475037 0.037202782928943634
0.044812072068452835 0.10625383257865906 0.026627065613865852
0.072329156100749969 0.10829772800207138 0.02743225172162056
0.12148658931255341 0.11122643202543259 0.028852859511971474
0.19614033401012421 0.11566974222660065 0.031901653856039047
0.29396507143974304 0.11777281016111374 0.03531372919678688
0.41218101978302002 0.12128876149654388 0.034337602555751801
0.52529245615005493 0.12675139307975769 0.035208728164434433
0.64272809028625488 0.1319032609462738 0.036515090614557266
0.75771570205688477 0.13304829597473145 0.036699719727039337
0.86272114515304565 0.13516829907894135 0.038813557475805283
0.95784324407577515 0.13776303827762604 0.040294136852025986
0.99579614400863647 0.14293290674686432 0.04293491318821907
0.99902999401092529 0.14664919674396515 0.044695403426885605
0.05593109130859375 0.17858694493770599 0.035235177725553513
0.078368179500102997 0.18490973114967346 0.037409208714962006
0.12033242732286453 0.18346662819385529 0.036998674273490906
0.19066295027732849 0.18516871333122253 0.039885159581899643
0.29953193664550781 0.19142483174800873 0.047505233436822891
0.41355964541435242 0.19078506529331207 0.044231638312339783
0.52445369958877563 0.19511951506137848 0.044223889708518982
0.64288121461868286 0.20014308393001556 0.04481881856918335
0.75595134496688843 0.20251011848449707 0.046831663697957993
0.85457390546798706 0.20532038807868958 0.050191063433885574
0.95007586479187012 0.20980267226696014 0.052487272769212723
0.99453127384185791 0.21401186287403107 0.053761813789606094
0.99875575304031372 0.21585884690284729 0.05483703687787056
0.039311442524194717 0.27726846933364868 0.048799507319927216
0.058098062872886658 0.27944496273994446 0.048500403761863708
0.08708624541759491 0.28034725785255432 0.049520231783390045
0.16117401421070099 0.28632691502571106 0.052201632410287857
0.28761476278305054 0.28935301303863525 0.056026920676231384
0.40631702542304993 0.28608414530754089 0.056218735873699188
0.51843488216400146 0.29099127650260925 0.058569036424160004
0.63530868291854858 0.29879048466682434 0.060939580202102661
0.74875092506408691 0.30062040686607361 0.06179504469037056
0.84442228078842163 0.30150362849235535 0.06465911865234375
0.9387211799621582 0.30614832043647766 0.066465876996517181
0.99186009168624878 0.31003573536872864 0.066891223192214966
0.99714493751525879 0.30956330895423889 0.068108715116977692
0.0054039298556745052 0.38047513365745544 0.059881649911403656
0.0088317720219492912 0.38171136379241943 0.060491733253002167
0.024767827242612839 0.38422852754592896 0.063019409775733948
0.12761643528938293 0.38835078477859497 0.063689485192298889
0.2737574577331543 0.39052519202232361 0.066107280552387238
0.39578455686569214 0.39106053113937378 0.069585822522640228
0.5130806565284729 0.39550173282623291 0.072637163102626801
0.62841188907623291 0.402170330286026 0.07398165762424469
0.7389797568321228 0.40613254904747009 0.074102930724620819
0.83797711133956909 0.40685489773750305 0.077495843172073364
0.92792320251464844 0.41079699993133545 0.079080365598201752
0.9882349967956543 0.41490304470062256 0.080288857221603394
0.99610179662704468 0.41566401720046997 0.08328692615032196
0 0.48368537425994873 0.066526316106319427
0.0016326006734743714 0.48570573329925537 0.069694668054580688
0.0087782172486186028 0.49007821083068848 0.072973988950252533
0.090655401349067688 0.49266993999481201 0.073333010077476501
0.24671410024166107 0.49203789234161377 0.074351727962493896
0.38225579261779785 0.49279013276100159 0.07524687796831131
0.50369834899902344 0.49787569046020508 0.078655079007148743
0.61961323022842407 0.50058227777481079 0.080907575786113739
0.7265089750289917 0.50395387411117554 0.082178883254528046
0.82755190134048462 0.50628113746643066 0.084452353417873383
0.91205912828445435 0.51304143667221069 0.088603243231773376
0.97958248853683472 0.51866292953491211 0.09472937136888504
0.99562519788742065 0.52142071723937988 0.094987042248249054
0 0.58497047424316406 0.072389893233776093
0.00024231555289588869 0.58692842721939087 0.075990952551364899
0.0053122574463486671 0.59096693992614746 0.078640416264533997
0.052505522966384888 0.59453439712524414 0.079574465751647949
0.19640596210956573 0.59132945537567139 0.079311937093734741
0.35765424370765686 0.59000438451766968 0.078431136906147003
0.48846295475959778 0.59492915868759155 0.079857513308525085
0.6081165075302124 0.59902745485305786 0.083189420402050018
0.71831673383712769 0.60263228416442871 0.08481241762638092
0.81403499841690063 0.60657346248626709 0.085914343595504761
0.89766550064086914 0.61232304573059082 0.08687051385641098
0.96392494440078735 0.61794465780258179 0.089509852230548859
0.99118471145629883 0.620036780834198 0.089397072792053223
0 0.6826750636100769 0.075880177319049835
0.0024306653067469597 0.68243485689163208 0.07733955979347229
0.0045880484394729137 0.68395256996154785 0.077699817717075348
0.019135149195790291 0.68841010332107544 0.076948679983615875
0.16330415010452271 0.68728154897689819 0.077103771269321442
0.34396287798881531 0.68565785884857178 0.07793533056974411
0.48021742701530457 0.68885982036590576 0.076982088387012482
0.59925746917724609 0.69358998537063599 0.079070538282394409
0.70755946636199951 0.70041489601135254 0.079527668654918671
0.80106818675994873 0.70417767763137817 0.080718323588371277
0.8843349814414978 0.70867830514907837 0.081091970205307007
0.94895237684249878 0.7126084566116333 0.081204600632190704
0.99014085531234741 0.71430659294128418 0.080619305372238159
0.00037805893225595355 0.76747971773147583 0.064270228147506714
0.0037727805320173502 0.76829034090042114 0.064089953899383545
0.0041512432508170605 0.77100175619125366 0.063769832253456116
0.013488081283867359 0.77576631307601929 0.063209816813468933
0.1659894585609436 0.77558988332748413 0.064128607511520386
0.3456416130065918 0.77456873655319214 0.063451223075389862
0.47939902544021606 0.77832210063934326 0.063760168850421906
0.59043341875076294 0.78154319524765015 0.064556524157524109
0.69748467206954956 0.78690201044082642 0.063780002295970917
0.78977948427200317 0.78975468873977661 0.064178705215454102
0.87117266654968262 0.79129159450531006 0.063106581568717957
0.93496662378311157 0.79233872890472412 0.061007168143987656
0.98401057720184326 0.79427701234817505 0.061933569610118866
4.6673943870700896e-05 0.83521676063537598 0.036161713302135468
0.0028516880702227354 0.83697295188903809 0.035422708839178085
0.0059241200797259808 0.84072184562683105 0.03588167205452919
0.033796332776546478 0.84662145376205444 0.035235818475484848
0.20451180636882782 0.8470999002456665 0.035072851926088333
0.3672698438167572 0.84535914659500122 0.034861143678426743
0.4913947582244873 0.8475639820098877 0.032944235950708389
0.5990414023399353 0.85164648294448853 0.035089828073978424
0.69838631153106689 0.85499918460845947 0.032921377569437027
0.78684043884277344 0.85566073656082153 0.030175004154443741
0.86084520816802979 0.85572928190231323 0.028968989849090576
0.92040258646011353 0.85855495929718018 0.02773621492087841
0.97348600625991821 0.86144548654556274 0.036888569593429565
0 0.9010242223739624 0.011823841370642185
0.00073319976218044758 0.90120953321456909 0.011505486443638802
0.012537863105535507 0.90274053812026978 0.011351656168699265
0.11112202703952789 0.90371322631835938 0.012549546547234058
0.27414587140083313 0.90651869773864746 0.010770012624561787
0.40559709072113037 0.90759295225143433 0.010149922221899033
0.51520830392837524 0.91011512279510498 0.011398883536458015
0.61519020795822144 0.91142231225967407 0.015098601579666138
0.7055785059928894 0.9149208664894104 0.015291132032871246
0.78631514310836792 0.91616249084472656 0.015479128807783127
0.85260283946990967 0.91579222679138184 0.016356045380234718
0.91413015127182007 0.92016232013702393 0.018437150865793228
0.97780263423919678 0.92301255464553833 0.027721809223294258
0 0.96767789125442505 0.039312176406383514
0.002391815185546875 0.96886521577835083 0.038233034312725067
0.036959197372198105 0.96988970041275024 0.040561482310295105
0.16696703433990479 0.96898871660232544 0.039842195808887482
0.30784222483634949 0.96988320350646973 0.040520027279853821
0.42481863498687744 0.97211712598800659 0.043416250497102737
0.52738142013549805 0.97200483083724976 0.046473558992147446
0.62113511562347412 0.97105932235717773 0.049465447664260864
0.70551091432571411 0.97172921895980835 0.052796665579080582
0.77922290563583374 0.97343593835830688 0.054049007594585419
0.84219205379486084 0.97544896602630615 0.054603487253189087
0.90937024354934692 0.97902572154998779 0.057958148419857025
0.98222070932388306 0.97969156503677368 0.061911400407552719
0.018812395632266998 0.015641305595636368 0.051191724836826324
0.06265220046043396 0.016074730083346367 0.051481358706951141
0.11860179156064987 0.014670069329440594 0.052339173853397369
0.19385446608066559 0.016818102449178696 0.053908240050077438
0.28815966844558716 0.019795317202806473 0.05550689622759819
0.41037991642951965 0.023688731715083122 0.059957332909107208
0.52774924039840698 0.025014540180563927 0.060574520379304886
0.64292752742767334 0.027643719688057899 0.06402944028377533
0.75829911231994629 0.031410995870828629 0.068613775074481964
0.86560600996017456 0.033968336880207062 0.070936627686023712
0.96060365438461304 0.034889012575149536 0.070383511483669281
0.99255675077438354 0.038036763668060303 0.073063239455223083
0.99767392873764038 0.038415346294641495 0.073165148496627808
0.028026880696415901 0.052339889109134674 0.056461766362190247
0.06280314177274704 0.055319365113973618 0.057188641279935837
0.11677324026823044 0.057652328163385391 0.05758647620677948
0.18964214622974396 0.059289567172527313 0.059121493250131607
0.2892269492149353 0.063385382294654846 0.062305346131324768
0.40968644618988037 0.069760866463184357 0.067553006112575531
0.52845299243927002 0.072178587317466736 0.067326627671718597
0.64512544870376587 0.074396006762981415 0.068524904549121857
0.75909727811813354 0.07839617133140564 0.071482174098491669
0.86493384838104248 0.08145509660243988 0.073851354420185089
0.95682621002197266 0.085172809660434723 0.076266191899776459
0.99408096075057983 0.088008388876914978 0.077819764614105225
0.99754416942596436 0.090263321995735168 0.079917445778846741
0.044545445591211319 0.10608882457017899 0.062887333333492279
0.07444927841424942 0.10936888307332993 0.06427823007106781
0.11780133843421936 0.10912466794252396 0.063388973474502563
0.19191673398017883 0.11264275759458542 0.065634705126285553
0.29460585117340088 0.11695640534162521 0.069298148155212402
0.41265690326690674 0.12286276370286942 0.073177054524421692
0.52631580829620361 0.12502004206180573 0.073100730776786804
0.64397376775741577 0.12827466428279877 0.073673397302627563
0.75764793157577515 0.13356141746044159 0.075816087424755096
0.86255699396133423 0.13592132925987244 0.078001014888286591
0.95707488059997559 0.13868972659111023 0.080429717898368835
0.99564570188522339 0.14370891451835632 0.083684556186199188
0.99766963720321655 0.14776125550270081 0.087425515055656433
0.058177348226308823 0.17811432480812073 0.071510344743728638
0.08255188912153244 0.18146820366382599 0.072682835161685944
0.12150275707244873 0.17967084050178528 0.071232862770557404
0.19031909108161926 0.18431064486503601 0.074918083846569061
0.2999383807182312 0.19000312685966492 0.076875291764736176
0.41359397768974304 0.1906355619430542 0.078144758939743042
0.5235670804977417 0.19567076861858368 0.080958709120750427
0.64248180389404297 0.20063923299312592 0.081843338906764984
0.75585192441940308 0.20176959037780762 0.083136782050132751
0.8569711446762085 0.2057628333568573 0.086012132465839386
0.95278674364089966 0.2080027163028717 0.087682895362377167
0.99492865800857544 0.21423880755901337 0.091064721345901489
0.99886941909790039 0.219495490193367 0.095663957297801971
0.043085537850856781 0.27684703469276428 0.081727825105190277
0.055947203189134598 0.27734649181365967 0.081872902810573578
0.091287247836589813 0.2792603075504303 0.081105999648571014
0.1590292751789093 0.28512892127037048 0.085861146450042725
0.28719720244407654 0.28711056709289551 0.088239334523677826
0.40665736794471741 0.28804829716682434 0.089043878018856049
0.51946407556533813 0.29174575209617615 0.092186063528060913
0.63607078790664673 0.29574355483055115 0.092285066843032837
0.74668014049530029 0.29980406165122986 0.092882849276065826
0.84631383419036865 0.30262103676795959 0.09633210301399231
0.94100916385650635 0.30528467893600464 0.098161511123180389
0.99215197563171387 0.3096168041229248 0.099829986691474915
0.99839979410171509 0.31324410438537598 0.10189463198184967
0.0082358717918395996 0.37970402836799622 0.091615773737430573
0.0086540225893259048 0.38160604238510132 0.089562691748142242
0.026399485766887665 0.38336062431335449 0.090741373598575592
0.12758728861808777 0.38791042566299438 0.094387322664260864
0.26934796571731567 0.3917902410030365 0.10026140511035919
0.39156147837638855 0.39428684115409851 0.10120125859975815
0.51096421480178833 0.39648869633674622 0.10291379690170288
0.62703001499176025 0.40183913707733154 0.10195967555046082
0.73903882503509521 0.40523061156272888 0.10132308304309845
0.83553212881088257 0.4074975848197937 0.10523621737957001
0.92892539501190186 0.41049125790596008 0.10585394501686096
0.98871845006942749 0.41478276252746582 0.10669543594121933
0.99675250053405762 0.41814103722572327 0.1081424206495285
0 0.48597821593284607 0.09476904571056366
0.00021407182794064283 0.48809114098548889 0.096046745777130127
0.0062612495385110378 0.49035769701004028 0.098374336957931519
0.093074187636375427 0.49286681413650513 0.099242478609085083
0.24093461036682129 0.49624419212341309 0.1038336381316185
0.37698444724082947 0.49759885668754578 0.10447342693805695
0.50223469734191895 0.49960458278656006 0.10731478035449982
0.61900383234024048 0.5022740364074707 0.10834247618913651
0.72772425413131714 0.50515514612197876 0.10668007284402847
0.82563978433609009 0.50802516937255859 0.10951296985149384
0.91769635677337646 0.51201224327087402 0.10972137749195099
0.9848666787147522 0.51730155944824219 0.1105387955904007
0.99604892730712891 0.52163815498352051 0.11371452361345291
0 0.58923470973968506 0.095605708658695221
1.2670779142354149e-05 0.59149736166000366 0.09861176460981369
0.0027160195168107748 0.59343802928924561 0.10057133436203003
0.050369877368211746 0.59541451930999756 0.099707752466201782
0.20066943764686584 0.59467756748199463 0.10149294137954712
0.36160364747047424 0.59684473276138306 0.10280527174472809
0.49236378073692322 0.60023850202560425 0.1053120493888855
0.61142188310623169 0.60043692588806152 0.10946144908666611
0.71881735324859619 0.60383039712905884 0.10874538123607635
0.81475687026977539 0.60826951265335083 0.10893209278583527
0.89943993091583252 0.61265510320663452 0.10942074656486511
0.966716468334198 0.61856985092163086 0.11014001816511154
0.99149876832962036 0.62034523487091064 0.11197987198829651
0 0.68600249290466309 0.095016166567802429
0.00027389527531340718 0.68608283996582031 0.094552792608737946
0.0023538926616311073 0.68591773509979248 0.094153657555580139
0.019749615341424942 0.6883927583694458 0.093690834939479828
0.16595610976219177 0.68899452686309814 0.095561444759368896
0.34974238276481628 0.6908574104309082 0.097054168581962585
0.48382285237312317 0.69396501779556274 0.098061278462409973
0.60198742151260376 0.69625174999237061 0.099876493215560913
0.70814430713653564 0.70037508010864258 0.10079513490200043
0.80329400300979614 0.70577448606491089 0.10177524387836456
0.88538342714309692 0.70919930934906006 0.1012176051735878
0.95038527250289917 0.71270233392715454 0.10222303867340088
0.98802310228347778 0.71312797069549561 0.10290181636810303
0 0.77160835266113281 0.080452971160411835
0.00067174574360251427 0.77205568552017212 0.080599494278430939
0.002771774074062705 0.77274394035339355 0.078880727291107178
0.018017472699284554 0.77555936574935913 0.078696727752685547
0.1707620769739151 0.77636730670928955 0.078509144484996796
0.34784671664237976 0.77569872140884399 0.079774670302867889
0.48061782121658325 0.77769201993942261 0.082093648612499237
0.59395837783813477 0.78229707479476929 0.082738004624843597
0.69881266355514526 0.78646445274353027 0.081231586635112762
0.79193115234375 0.78879261016845703 0.083481043577194214
0.87207162380218506 0.79033786058425903 0.079477198421955109
0.9367644190788269 0.79147762060165405 0.080986380577087402
0.98555231094360352 0.79429054260253906 0.079359434545040131
0 0.84120917320251465 0.05880921334028244
7.1073045546654612e-05 0.84090059995651245 0.057534746825695038
0.0011912178015336394 0.84293931722640991 0.057133693248033524
0.034886874258518219 0.84746724367141724 0.055824220180511475
0.20687033236026764 0.84794348478317261 0.055286318063735962
0.36627849936485291 0.8473057746887207 0.056038428097963333
0.49019244313240051 0.84972560405731201 0.056325651705265045
0.59946131706237793 0.85316771268844604 0.062064781785011292
0.69872570037841797 0.85402774810791016 0.063929401338100433
0.78742021322250366 0.85512024164199829 0.06138509139418602
0.86025363206863403 0.8562658429145813 0.062031853944063187
0.92240685224533081 0.85873526334762573 0.062403213232755661
0.97965210676193237 0.86408025026321411 0.06295514851808548
0 0.90495020151138306 0.055427387356758118
3.4392112866044044e-05 0.90446460247039795 0.052076391875743866
0.013735363259911537 0.90393638610839844 0.053636841475963593
0.11569856852293015 0.90390181541442871 0.056755512952804565
0.27522709965705872 0.90622854232788086 0.055513627827167511
0.40315684676170349 0.90797632932662964 0.058084689080715179
0.51238864660263062 0.91085988283157349 0.06069202721118927
0.61103630065917969 0.9139711856842041 0.064779691398143768
0.70404064655303955 0.91484540700912476 0.065182976424694061
0.78329938650131226 0.91518974304199219 0.066066667437553406
0.85016560554504395 0.91584688425064087 0.068722337484359741
0.91386705636978149 0.91923457384109497 0.074316345155239105
0.97860360145568848 0.92306900024414062 0.082696281373500824
0 0.96940869092941284 0.086555972695350647
0.0030009699985384941 0.97048026323318481 0.087714925408363342
0.036540746688842773 0.96987384557723999 0.088854804635047913
0.16718290746212006 0.96891176700592041 0.089820757508277893
0.30700081586837769 0.9703860878944397 0.09233526885509491
0.42229589819908142 0.97027075290679932 0.09499002993106842
0.5258486270904541 0.97093814611434937 0.096054360270500183
0.61902880668640137 0.97085744142532349 0.098400205373764038
0.70491248369216919 0.97437846660614014 0.099118269979953766
0.77776980400085449 0.97328305244445801 0.099539630115032196
0.83997130393981934 0.97437047958374023 0.10258077085018158
0.90873509645462036 0.97971802949905396 0.10522725433111191
0.98073005676269531 0.98111528158187866 0.10760254412889481
0.020376751199364662 0.021744508296251297 0.10548102855682373
0.063052460551261902 0.018910203129053116 0.10330431908369064
0.12018518149852753 0.016087550669908524 0.10312929004430771
0.19304700195789337 0.016965918242931366 0.10505759716033936
0.29135826230049133 0.01990172453224659 0.10809125751256943
0.4105927050113678 0.022543709725141525 0.10961101949214935
0.52863317728042603 0.024428512901067734 0.11214898526668549
0.64884620904922485 0.026916354894638062 0.11795907467603683
0.76463061571121216 0.028497479856014252 0.11863303184509277
0.86900597810745239 0.030417587608098984 0.1185331791639328
0.96231722831726074 0.032852262258529663 0.12020669132471085
0.99321818351745605 0.035747140645980835 0.12327641248703003
0.99810141324996948 0.035167276859283447 0.12312015891075134
0.026439473032951355 0.052152223885059357 0.10632162541151047
0.061954617500305176 0.054328814148902893 0.10692296922206879
0.11602231115102768 0.055703707039356232 0.10821938514709473
0.18907660245895386 0.057259712368249893 0.10838258266448975
0.29182273149490356 0.061945896595716476 0.11291049420833588
0.40959945321083069 0.06564968079328537 0.1165388822555542
0.5285186767578125 0.068415261805057526 0.11636649072170258
0.65013784170150757 0.072982802987098694 0.12253417819738388
0.76396793127059937 0.076315499842166901 0.12335231900215149
0.86781913042068481 0.079146593809127808 0.12252318114042282
0.95785284042358398 0.0838179811835289 0.12534935772418976
0.99406909942626953 0.086400322616100311 0.12732791900634766
0.99734872579574585 0.087663702666759491 0.12870657444000244
0.044526629149913788 0.10890869796276093 0.1160791739821434
0.071841314435005188 0.10920136421918869 0.11466448754072189
0.11651898920536041 0.10892161726951599 0.11405029147863388
0.19009310007095337 0.11162196099758148 0.11456409841775894
0.29563173651695251 0.11704487353563309 0.11853855848312378
0.41206490993499756 0.12001478672027588 0.12140817195177078
0.52610307931900024 0.1224435567855835 0.12118473649024963
0.64648723602294922 0.12761203944683075 0.12466135621070862
0.75889396667480469 0.13183729350566864 0.12621194124221802
0.86395621299743652 0.13473629951477051 0.1269100159406662
0.95782357454299927 0.13820934295654297 0.12816402316093445
0.99508762359619141 0.14190968871116638 0.13146041333675385
0.99744319915771484 0.14410372078418732 0.13450469076633453
0.05830872431397438 0.17806151509284973 0.12016968429088593
0.080210894346237183 0.17992015182971954 0.12029242515563965
0.11974196881055832 0.18377423286437988 0.12166867405176163
0.19059278070926666 0.18262556195259094 0.12252102792263031
0.3000062108039856 0.18738283216953278 0.12446793168783188
0.41402840614318848 0.19098331034183502 0.12851296365261078
0.52586936950683594 0.19516056776046753 0.12955281138420105
0.64459002017974854 0.19744260609149933 0.12898877263069153
0.75496834516525269 0.2020716667175293 0.13203279674053192
0.8599778413772583 0.20566289126873016 0.13289257884025574
0.95244836807250977 0.209100142121315 0.13531924784183502
0.99599510431289673 0.21352328360080719 0.13839921355247498
0.99943035840988159 0.21526831388473511 0.14241857826709747
0.038961879909038544 0.27515634894371033 0.12655879557132721
0.056405909359455109 0.27655419707298279 0.12605929374694824
0.092238456010818481 0.27998089790344238 0.12842647731304169
0.16082620620727539 0.28179427981376648 0.13352461159229279
