luts/colorslide/kodak_kodachrome_64.cube
# Created by: G'MIC (https://gmic.eu)
TITLE "kodak_kodachrome_64"
# LUT size
LUT_3D_SIZE 5
# Data domain
DOMAIN_MIN 0.0 0.0 0.0
DOMAIN_MAX 1.0 1.0 1.0
# LUT data points
0.018587583675980568 0.016993863508105278 0.015286180190742016
0.20707271993160248 0.030349252745509148 0.013738609850406647
0.54690879583358765 0.067682631313800812 0.010566785931587219
0.78518319129943848 0.0902695432305336 0.0049171894788742065
0.9795498251914978 0.12057720869779587 0.0012510411906987429
0.10836341977119446 0.24063961207866669 0.11376429349184036
0.28803953528404236 0.25095978379249573 0.10639655590057373
0.60363268852233887 0.27639320492744446 0.094819419085979462
0.82277446985244751 0.2640758752822876 0.071305684745311737
0.99259811639785767 0.2221517413854599 0.034063033759593964
0.20567041635513306 0.54979813098907471 0.26814764738082886
0.43146094679832458 0.56771665811538696 0.26668250560760498
0.67053449153900146 0.58931529521942139 0.25232741236686707
0.8833051323890686 0.59967339038848877 0.22677147388458252
0.99975943565368652 0.59475111961364746 0.18861912190914154
0.44066658616065979 0.75979912281036377 0.46587827801704407
0.54292815923690796 0.76920586824417114 0.46218562126159668
0.71027266979217529 0.78611510992050171 0.45854425430297852
0.89463561773300171 0.79652386903762817 0.43380314111709595
1 0.81838154792785645 0.40318214893341064
0.5834583044052124 0.9484286904335022 0.63294863700866699
0.64308935403823853 0.95253169536590576 0.62949484586715698
0.76226121187210083 0.96662592887878418 0.62842530012130737
0.92387551069259644 0.97160011529922485 0.61905586719512939
1 0.98842394351959229 0.59650397300720215
0.0046725105494260788 0.0088334772735834122 0.11754649877548218
0.17006115615367889 0.01959972083568573 0.11786256730556488
0.51081579923629761 0.0420672707259655 0.10653278231620789
0.74816250801086426 0.068888105452060699 0.090010322630405426
0.94153255224227905 0.090263441205024719 0.058194015175104141
0.069524772465229034 0.21221806108951569 0.25210905075073242
0.24201203882694244 0.22644752264022827 0.25078588724136353
0.5499337911605835 0.24722503125667572 0.23693819344043732
0.76808100938796997 0.23257149755954742 0.21209485828876495
0.94351953268051147 0.18773148953914642 0.16534341871738434
0.097816154360771179 0.52189821004867554 0.42369523644447327
0.36888644099235535 0.53809458017349243 0.418905109167099
0.60740846395492554 0.55461132526397705 0.41171997785568237
0.81738805770874023 0.56294190883636475 0.39473241567611694
0.98881822824478149 0.55851143598556519 0.36516973376274109
0.3990323543548584 0.74145150184631348 0.55299413204193115
0.50201457738876343 0.74932169914245605 0.55442136526107788
0.66500014066696167 0.76327472925186157 0.55473035573959351
0.85400676727294922 0.77861309051513672 0.53667771816253662
0.99583691358566284 0.78829973936080933 0.52580690383911133
0.55753952264785767 0.93699485063552856 0.68726116418838501
0.61727750301361084 0.94225919246673584 0.68461900949478149
0.73527288436889648 0.95637702941894531 0.68581479787826538
0.89855140447616577 0.96539145708084106 0.67825019359588623
0.99957281351089478 0.98103779554367065 0.65984904766082764
0 0.0019827450159937143 0.32385402917861938
0.086740799248218536 0.0014523225836455822 0.32216542959213257
0.41817712783813477 0.0090051386505365372 0.31591957807540894
0.64902007579803467 0.01399154681712389 0.3066399097442627
0.83443665504455566 0.023540211841464043 0.29044225811958313
0.021630246192216873 0.17499794065952301 0.4389708936214447
0.1798490583896637 0.19234690070152283 0.438963383436203
0.47442644834518433 0.20653843879699707 0.43067973852157593
0.6827666163444519 0.18581528961658478 0.41223660111427307
0.8484567403793335 0.129902184009552 0.38087061047554016
0.067453376948833466 0.49594268202781677 0.56561601161956787
0.31668421626091003 0.50849491357803345 0.56353026628494263
0.55233085155487061 0.52548015117645264 0.55711036920547485
0.75377702713012695 0.53193092346191406 0.54642015695571899
0.93077981472015381 0.52025097608566284 0.53369712829589844
0.3528684675693512 0.72401350736618042 0.66852837800979614
0.45340830087661743 0.72394627332687378 0.66681963205337524
0.62010103464126587 0.73399609327316284 0.66081207990646362
0.80596035718917847 0.75114810466766357 0.65352380275726318
0.98103624582290649 0.76332551240921021 0.64853096008300781
0.52239596843719482 0.92285776138305664 0.77379268407821655
0.58181083202362061 0.93152427673339844 0.77705568075180054
0.70482778549194336 0.94045662879943848 0.77612006664276123
0.8599129319190979 0.95950031280517578 0.77127039432525635
0.99677860736846924 0.96853494644165039 0.76382231712341309
0 0.0027623046189546585 0.47221383452415466
0.051143437623977661 0.00010340073640691116 0.47030508518218994
0.36141002178192139 0.0046408860944211483 0.46628263592720032
0.58413851261138916 0.004276275634765625 0.46109193563461304
0.76683127880096436 0.0017722335178405046 0.45333626866340637
0.011344820261001587 0.15469197928905487 0.57499498128890991
0.16250048577785492 0.17266662418842316 0.57155632972717285
0.42959874868392944 0.18034705519676208 0.56573408842086792
0.63005167245864868 0.15891118347644806 0.55030345916748047
0.78817975521087646 0.092853114008903503 0.52406048774719238
0.08665543794631958 0.47952845692634583 0.6859775185585022
0.29302504658699036 0.48998808860778809 0.68577069044113159
0.5125693678855896 0.50109624862670898 0.67935448884963989
0.70720577239990234 0.51145362854003906 0.6746295690536499
0.88065296411514282 0.4924982488155365 0.65876823663711548
0.33272981643676758 0.70446532964706421 0.77612066268920898
0.42649799585342407 0.71195268630981445 0.77961832284927368
0.580730140209198 0.71997725963592529 0.77616959810256958
0.76563817262649536 0.73193717002868652 0.77332234382629395
0.93608671426773071 0.7381131649017334 0.76450711488723755
0.49629336595535278 0.9119231104850769 0.87558978796005249
0.55122041702270508 0.91650617122650146 0.87541455030441284
0.6664850115776062 0.92818963527679443 0.87627154588699341
0.8249746561050415 0.94477921724319458 0.87441718578338623
0.98960685729980469 0.96158301830291748 0.86759859323501587
0 0.00048074161168187857 0.57344275712966919
0.047774102538824081 6.8395274865906686e-05 0.56579720973968506
0.33298793435096741 0.0013318529818207026 0.57041174173355103
0.54263955354690552 0.0022153817117214203 0.55781096220016479
0.72181934118270874 0 0.5516323447227478
0.0095179388299584389 0.14512519538402557 0.66540646553039551
0.16759420931339264 0.15904439985752106 0.66443264484405518
0.40388992428779602 0.16692148149013519 0.65700274705886841
0.59823322296142578 0.13858681917190552 0.64491486549377441
0.74976652860641479 0.065737888216972351 0.61985123157501221
0.11565180867910385 0.46810877323150635 0.77446651458740234
0.28361836075782776 0.47949093580245972 0.77159172296524048
0.48804196715354919 0.49287736415863037 0.76806807518005371
0.67915266752243042 0.50006103515625 0.76681655645370483
0.8467177152633667 0.47646808624267578 0.75445818901062012
0.31750446557998657 0.69310152530670166 0.86432349681854248
0.40563857555389404 0.70006692409515381 0.86229604482650757
0.56190651655197144 0.71070295572280884 0.85919523239135742
0.73430788516998291 0.71856492757797241 0.85809504985809326
0.90285378694534302 0.72127377986907959 0.85459119081497192
0.48243528604507446 0.89846312999725342 0.95871609449386597
0.53368979692459106 0.90865129232406616 0.95864331722259521
0.64092153310775757 0.91212654113769531 0.95745211839675903
0.79310315847396851 0.93325316905975342 0.96726852655410767
0.97002911567687988 0.94436711072921753 0.96752816438674927
