luts/colorslide/kodak_elite_chrome_400.cube
# Created by: G'MIC (https://gmic.eu)
TITLE "kodak_elite_chrome_400"
# LUT size
LUT_3D_SIZE 7
# Data domain
DOMAIN_MIN 0.0 0.0 0.0
DOMAIN_MAX 1.0 1.0 1.0
# LUT data points
0.020792882889509201 0.020527634769678116 0.018982920795679092
0.095718085765838623 0.017085835337638855 0.012522140517830849
0.2159249484539032 0.018521446734666824 0.0092729153111577034
0.38365179300308228 0.024178912863135338 0.0084787402302026749
0.5749356746673584 0.034043900668621063 0.0047793071717023849
0.73201936483383179 0.044348157942295074 0.0029280269518494606
0.87917673587799072 0.075390592217445374 0.0058204052038490772
0.098425529897212982 0.13413916528224945 0.062003489583730698
0.15132658183574677 0.13020883500576019 0.05265330895781517
0.26875302195549011 0.12418223172426224 0.036255136132240295
0.42994916439056396 0.11004146188497543 0.019743436947464943
0.59520536661148071 0.086853384971618652 0.0099344886839389801
0.73999089002609253 0.053189042955636978 0.0026033290196210146
0.88709837198257446 0.074360668659210205 0.0046512680128216743
0.13712608814239502 0.30585944652557373 0.11251087486743927
0.19800575077533722 0.29943835735321045 0.10397389531135559
0.33099228143692017 0.2970825731754303 0.082533009350299835
0.48877173662185669 0.28576701879501343 0.057225320488214493
0.63679963350296021 0.24532091617584229 0.030239973217248917
0.77199757099151611 0.16891194880008698 0.0031738730613142252
0.90759521722793579 0.085903406143188477 0.0001971974124899134
0.22403852641582489 0.50611960887908936 0.17462536692619324
0.29034820199012756 0.49676457047462463 0.17070102691650391
0.4111575186252594 0.49762675166130066 0.15251247584819794
0.55424278974533081 0.50121253728866577 0.12144271284341812
0.68838590383529663 0.47623637318611145 0.077599138021469116
0.82024937868118286 0.41836163401603699 0.026684509590268135
0.95266306400299072 0.31561267375946045 0.00046691895113326609
0.39437481760978699 0.6720588207244873 0.27198898792266846
0.42434117197990417 0.671092689037323 0.26967957615852356
0.5026734471321106 0.67184937000274658 0.25302338600158691
0.60978108644485474 0.6720588207244873 0.21065965294837952
0.72773009538650513 0.66959142684936523 0.15355254709720612
0.86144661903381348 0.66537505388259888 0.080990731716156006
0.987892746925354 0.61988461017608643 0.011563439853489399
0.51841366291046143 0.82026058435440063 0.40416601300239563
0.54530066251754761 0.82100582122802734 0.39895015954971313
0.59741359949111938 0.82166355848312378 0.38598626852035522
0.67624038457870483 0.82349330186843872 0.35087579488754272
0.77283191680908203 0.82811272144317627 0.30168336629867554
0.89246058464050293 0.83109891414642334 0.20720168948173523
0.9967341423034668 0.81739145517349243 0.030552374199032784
0.66341406106948853 0.9605405330657959 0.54043948650360107
0.67452025413513184 0.96262216567993164 0.53648161888122559
0.70786076784133911 0.96360296010971069 0.52904152870178223
0.76464325189590454 0.96612852811813354 0.5099480152130127
0.83953279256820679 0.96913802623748779 0.48395654559135437
0.93525528907775879 0.97376620769500732 0.43326678872108459
0.99612468481063843 0.97785240411758423 0.25431537628173828
0.011709040962159634 0.020528022199869156 0.098792538046836853
0.081501513719558716 0.017088258638978004 0.083470799028873444
0.20144157111644745 0.016032051295042038 0.066635504364967346
0.376007080078125 0.015601004473865032 0.048583101481199265
0.5673598051071167 0.02089976891875267 0.025871859863400459
0.73043376207351685 0.044656626880168915 0.0034812926314771175
0.88490694761276245 0.081257104873657227 0.0049702064134180546
0.082365594804286957 0.13852046430110931 0.14628373086452484
0.14077703654766083 0.13209852576255798 0.13339698314666748
0.25627562403678894 0.12623709440231323 0.11209637671709061
0.42321723699569702 0.10960153490304947 0.085098043084144592
0.59385937452316284 0.082462266087532043 0.050952311605215073
0.74187928438186646 0.058644730597734451 0.01347789354622364
0.89234435558319092 0.07652968168258667 0.0042822593823075294
0.12446293234825134 0.30945095419883728 0.1961548924446106
0.18401812016963959 0.30363428592681885 0.18898756802082062
0.31861308217048645 0.30021992325782776 0.16737990081310272
0.48114475607872009 0.28656798601150513 0.13287457823753357
0.63249695301055908 0.2468048632144928 0.08822987973690033
0.77097678184509277 0.17681355774402618 0.029791947454214096
0.90981686115264893 0.088430501520633698 0.0011014003539457917
0.20531934499740601 0.50192064046859741 0.26438137888908386
0.27331799268722534 0.49871599674224854 0.25969865918159485
0.40006256103515625 0.49934709072113037 0.23909565806388855
0.54481953382492065 0.49808791279792786 0.20018331706523895
0.6784319281578064 0.47575950622558594 0.15292723476886749
0.81490594148635864 0.42413797974586487 0.082385927438735962
0.94949829578399658 0.31360548734664917 0.014597514644265175
0.38264384865760803 0.66751229763031006 0.35665646195411682
0.41538366675376892 0.66996502876281738 0.35086357593536377
0.49525946378707886 0.67168742418289185 0.33366453647613525
0.60076308250427246 0.67041712999343872 0.29832914471626282
0.7175336480140686 0.6677936315536499 0.25073450803756714
0.8536078929901123 0.659076988697052 0.17001557350158691
0.9795413613319397 0.60630178451538086 0.055992141366004944
0.51440024375915527 0.81724786758422852 0.46236741542816162
0.53762423992156982 0.82045191526412964 0.45694786310195923
0.59237110614776611 0.8213006854057312 0.44584676623344421
0.66997522115707397 0.8211061954498291 0.41938707232475281
0.76652741432189941 0.82412070035934448 0.38178405165672302
0.8891640305519104 0.82802242040634155 0.30636954307556152
0.99159151315689087 0.81186789274215698 0.12202616780996323
0.64678668975830078 0.95923018455505371 0.5815243124961853
0.6625828742980957 0.96167904138565063 0.5767638087272644
0.70148205757141113 0.96344858407974243 0.5697484016418457
0.76058709621429443 0.96542572975158691 0.55206519365310669
0.83411192893981934 0.96794992685317993 0.52972710132598877
0.92432022094726562 0.97463697195053101 0.48498436808586121
0.99648714065551758 0.97792130708694458 0.35094067454338074
0.012414655648171902 0.022805696353316307 0.20321653783321381
0.065214522182941437 0.019796991720795631 0.18630534410476685
0.18328492343425751 0.016273977234959602 0.16607142984867096
0.36657774448394775 0.009987550787627697 0.13647918403148651
0.56414419412612915 0.0090275928378105164 0.093141011893749237
0.72414308786392212 0.041792403906583786 0.027325095608830452
0.88607347011566162 0.077255547046661377 0.0010815040441229939
0.065278716385364532 0.14016202092170715 0.25868818163871765
0.11541857570409775 0.13632915914058685 0.24859216809272766
0.23559369146823883 0.12853571772575378 0.23163871467113495
0.41206040978431702 0.10664680600166321 0.20235209167003632
0.5869438648223877 0.074102930724620819 0.15221038460731506
0.73380535840988159 0.049813110381364822 0.076017566025257111
0.8893657922744751 0.065682984888553619 0.0093658147379755974
0.076403222978115082 0.3092004656791687 0.3185935914516449
0.15339177846908569 0.30741941928863525 0.31397619843482971
0.29569333791732788 0.30102318525314331 0.29909041523933411
0.46478253602981567 0.28237363696098328 0.26935657858848572
0.61923456192016602 0.24274078011512756 0.21884959936141968
0.75767308473587036 0.17217490077018738 0.1380811482667923
0.90232044458389282 0.085006102919578552 0.036913465708494186
0.16906379163265228 0.49783772230148315 0.38879603147506714
0.24746052920818329 0.49681803584098816 0.38836783170700073
0.38037809729576111 0.49402603507041931 0.37311717867851257
0.52276694774627686 0.48705610632896423 0.34343141317367554
0.65862619876861572 0.47048869729042053 0.30144229531288147
0.79652911424636841 0.42702943086624146 0.22563672065734863
0.93910467624664307 0.31215983629226685 0.10882106423377991
0.34572902321815491 0.6611601710319519 0.46545952558517456
0.39748960733413696 0.66455507278442383 0.46455401182174683
0.48242858052253723 0.66553008556365967 0.45215937495231628
0.58371317386627197 0.6620822548866272 0.43094915151596069
0.6964612603187561 0.65688240528106689 0.40284717082977295
0.83198601007461548 0.65196400880813599 0.33431383967399597
0.97082674503326416 0.606514573097229 0.19542686641216278
0.49819311499595642 0.81247764825820923 0.54482793807983398
0.52813929319381714 0.81640195846557617 0.54110020399093628
0.58426767587661743 0.81764841079711914 0.53425449132919312
0.65913307666778564 0.8155827522277832 0.5191921591758728
0.75127863883972168 0.81529605388641357 0.49780362844467163
0.86724269390106201 0.815773606300354 0.45660382509231567
0.985787034034729 0.80009198188781738 0.34031203389167786
0.63453370332717896 0.95557588338851929 0.64140492677688599
0.65404689311981201 0.95866352319717407 0.63614809513092041
0.69490784406661987 0.96090912818908691 0.63049948215484619
0.75327551364898682 0.96341449022293091 0.61671382188796997
0.82340645790100098 0.96646863222122192 0.60118746757507324
0.90871989727020264 0.97129404544830322 0.5740351676940918
0.99526447057723999 0.96966439485549927 0.48243245482444763
0.0041444068774580956 0.020929403603076935 0.33833450078964233
0.038541171699762344 0.019308201968669891 0.32340189814567566
0.16122500598430634 0.011257815174758434 0.31762710213661194
0.35147026181221008 0.0093670859932899475 0.2856467068195343
0.5454413890838623 0.0087654115632176399 0.23291237652301788
0.70820969343185425 0.021377399563789368 0.15267467498779297
0.87903898954391479 0.063344217836856842 0.046635691076517105
0.042552903294563293 0.13965240120887756 0.39939486980438232
0.085122339427471161 0.1370726078748703 0.39376950263977051
0.20617708563804626 0.12608139216899872 0.38674220442771912
0.38871920108795166 0.10558396577835083 0.36399012804031372
0.56301558017730713 0.068528912961483002 0.32042130827903748
0.71092861890792847 0.030490905046463013 0.24380376935005188
0.87407368421554565 0.053321525454521179 0.12436385452747345
0.049806691706180573 0.3124898374080658 0.46344712376594543
0.11306611448526382 0.31193095445632935 0.45719736814498901
0.25957533717155457 0.30209425091743469 0.44773125648498535
0.44109666347503662 0.28204670548439026 0.43120560050010681
0.59772408008575439 0.24111349880695343 0.39531236886978149
0.73575001955032349 0.17103055119514465 0.33242306113243103
0.88254356384277344 0.085715092718601227 0.22337189316749573
0.11303281784057617 0.49860110878944397 0.52221870422363281
0.19937515258789062 0.49903878569602966 0.51825392246246338
0.34825596213340759 0.49389958381652832 0.50943845510482788
0.49807700514793396 0.48650413751602173 0.49278268218040466
0.63632428646087646 0.46875524520874023 0.46605640649795532
0.77267229557037354 0.42360314726829529 0.41979783773422241
0.91499680280685425 0.31104284524917603 0.32186546921730042
0.32067045569419861 0.65799415111541748 0.5751844048500061
0.36700859665870667 0.66154301166534424 0.57728523015975952
0.45796322822570801 0.66421568393707275 0.57128489017486572
0.56300026178359985 0.66344976425170898 0.55791306495666504
0.67717790603637695 0.65859270095825195 0.53984743356704712
0.80700957775115967 0.64494264125823975 0.50373631715774536
0.9434046745300293 0.59808319807052612 0.41762807965278625
0.4811733067035675 0.80854439735412598 0.63862055540084839
0.51303470134735107 0.81232994794845581 0.63735824823379517
0.56767886877059937 0.8142281174659729 0.63331758975982666
0.64101839065551758 0.81434684991836548 0.62386739253997803
0.73213428258895874 0.81336104869842529 0.60788983106613159
0.84449046850204468 0.80768805742263794 0.57943171262741089
0.96870237588882446 0.78985822200775146 0.51052343845367432
0.62424826622009277 0.95072847604751587 0.71717220544815063
0.64454931020736694 0.95382535457611084 0.7127569317817688
0.68276053667068481 0.95646065473556519 0.70853286981582642
0.73709022998809814 0.95944929122924805 0.70026111602783203
0.80741065740585327 0.96364784240722656 0.68593877553939819
0.89686757326126099 0.96852344274520874 0.66026800870895386
0.9936632513999939 0.96583849191665649 0.60403680801391602
0.00060454721096903086 0.021455457434058189 0.48653179407119751
0.021169999614357948 0.014621719717979431 0.4780879020690918
0.13428747653961182 0.006597601342946291 0.47999423742294312
0.31931433081626892 0.0068763880990445614 0.45580324530601501
0.50761932134628296 0.0018338670488446951 0.42235499620437622
0.67300629615783691 0.0020835129544138908 0.36694923043251038
0.84850627183914185 0.035195879638195038 0.25906336307525635
0.017602059990167618 0.15298300981521606 0.53885006904602051
0.060952086001634598 0.14176973700523376 0.53496754169464111
0.17632491886615753 0.12751743197441101 0.53515100479125977
0.35537764430046082 0.1096852645277977 0.52364391088485718
0.52892923355102539 0.069901004433631897 0.50255244970321655
0.67827779054641724 0.026486340910196304 0.45776522159576416
0.83922761678695679 0.023224489763379097 0.36380577087402344
0.029125094413757324 0.32576489448547363 0.58381444215774536
0.059371408075094223 0.32186886668205261 0.58080798387527466
0.21842844784259796 0.30917012691497803 0.57880812883377075
0.40550228953361511 0.28966051340103149 0.57295000553131104
0.57044357061386108 0.25176259875297546 0.55545467138290405
0.71114492416381836 0.18344578146934509 0.51958620548248291
0.84831547737121582 0.064443506300449371 0.4519849419593811
0.038036301732063293 0.50038135051727295 0.62998026609420776
0.13538667559623718 0.50065892934799194 0.62860000133514404
0.31018072366714478 0.49855580925941467 0.62662220001220703
0.46929499506950378 0.49189466238021851 0.61935305595397949
0.61436992883682251 0.47629588842391968 0.60448998212814331
0.74993103742599487 0.43553453683853149 0.57788991928100586
0.88564074039459229 0.3232819139957428 0.52524828910827637
0.27280578017234802 0.65645396709442139 0.67829954624176025
0.32946294546127319 0.66065138578414917 0.68053406476974487
0.42895027995109558 0.66421568393707275 0.67784130573272705
0.54060631990432739 0.66421568393707275 0.66938173770904541
0.65777760744094849 0.66071105003356934 0.65645551681518555
0.78664755821228027 0.64157432317733765 0.63109618425369263
0.92147380113601685 0.5984535813331604 0.58483046293258667
0.45353710651397705 0.80563205480575562 0.73453611135482788
0.48577749729156494 0.80934000015258789 0.73303753137588501
0.54354721307754517 0.81167852878570557 0.73011749982833862
0.61848902702331543 0.81277889013290405 0.72373604774475098
0.71233129501342773 0.81143999099731445 0.71292436122894287
0.82656049728393555 0.803577721118927 0.69216161966323853
0.95309555530548096 0.78588002920150757 0.6466984748840332
0.60672521591186523 0.94529765844345093 0.79852688312530518
0.62691539525985718 0.94814634323120117 0.79507303237915039
0.66613209247589111 0.95075184106826782 0.79209834337234497
0.71903717517852783 0.95473039150238037 0.7883613109588623
0.79175823926925659 0.95990931987762451 0.78032475709915161
0.88520437479019165 0.96282112598419189 0.76275694370269775
0.98894584178924561 0.95714408159255981 0.72242569923400879
0 0.026703210547566414 0.61319798231124878
0.0031604990363121033 0.018778422847390175 0.60807269811630249
0.09611065685749054 0.012902248650789261 0.60656052827835083
0.28310790657997131 0.011751781217753887 0.59738218784332275
0.47804605960845947 0.006506048608571291 0.57916772365570068
0.63739949464797974 0 0.55240792036056519
0.80869102478027344 0.009846826083958149 0.49131390452384949
0.0033652959391474724 0.17163579165935516 0.65611481666564941
0.034627921879291534 0.15973493456840515 0.65233308076858521
0.13954873383045197 0.14725135266780853 0.65225112438201904
0.3237672746181488 0.12923701107501984 0.64779716730117798
0.5062682032585144 0.087822124361991882 0.63518071174621582
0.65017282962799072 0.031392086297273636 0.61281871795654297
0.80631810426712036 0.0050154891796410084 0.5637814998626709
0.0028431164100766182 0.3399747908115387 0.69679862260818481
0.033386513590812683 0.33762410283088684 0.69455975294113159
0.14999295771121979 0.33007901906967163 0.69346380233764648
0.37112131714820862 0.31149473786354065 0.68788212537765503
0.55064272880554199 0.2747989296913147 0.67831408977508545
0.68980592489242554 0.20358963310718536 0.65838325023651123
0.82620012760162354 0.074350781738758087 0.61639142036437988
0.0026415206957608461 0.50218206644058228 0.73948007822036743
0.051131170243024826 0.50582754611968994 0.73862141370773315
0.24901099503040314 0.50826597213745117 0.73669600486755371
0.43850800395011902 0.50335079431533813 0.72953283786773682
0.59363859891891479 0.48985883593559265 0.71978878974914551
0.73027104139328003 0.45327135920524597 0.70239901542663574
0.86746245622634888 0.354632169008255 0.67130404710769653
0.21115623414516449 0.66028398275375366 0.78393840789794922
0.27567768096923828 0.66401022672653198 0.78329187631607056
0.39855122566223145 0.66432183980941772 0.7803959846496582
0.5141376256942749 0.66692817211151123 0.77351933717727661
0.63273066282272339 0.66288834810256958 0.76541078090667725
0.76265603303909302 0.64774298667907715 0.75119304656982422
0.90121155977249146 0.60888707637786865 0.72295659780502319
0.41542375087738037 0.80310738086700439 0.83025282621383667
0.45015430450439453 0.80717951059341431 0.82806813716888428
0.51320469379425049 0.80851191282272339 0.82550829648971558
0.59254324436187744 0.8102295994758606 0.82188647985458374
0.68863075971603394 0.81096941232681274 0.81694096326828003
0.80384057760238647 0.80597293376922607 0.80562615394592285
0.93153864145278931 0.78935599327087402 0.77678400278091431
0.59283125400543213 0.939811110496521 0.87999087572097778
0.61095267534255981 0.94243425130844116 0.87811601161956787
0.65264135599136353 0.94465893507003784 0.87733227014541626
0.70437085628509521 0.95001614093780518 0.87816214561462402
0.77644127607345581 0.95731216669082642 0.87747752666473389
0.86870330572128296 0.96127527952194214 0.86842340230941772
0.97606360912322998 0.95632588863372803 0.84167402982711792
6.0676124121528119e-05 0.038936525583267212 0.72591263055801392
0 0.032860219478607178 0.72286331653594971
0.049999747425317764 0.026073306798934937 0.72243934869766235
0.24859142303466797 0.019139667972922325 0.72095614671707153
0.45565420389175415 0.0091708311811089516 0.71083515882492065
0.61127066612243652 0.0030477636028081179 0.69144183397293091
0.78418159484863281 0.0014575883978977799 0.65855151414871216
0.0040646274574100971 0.19338072836399078 0.76529723405838013
0.022149598225951195 0.18707434833049774 0.76433825492858887
0.095794618129730225 0.17961664497852325 0.76433825492858887
0.28906753659248352 0.15974292159080505 0.76029855012893677
0.48811936378479004 0.11945652961730957 0.75162297487258911
0.63287842273712158 0.061592251062393188 0.73788809776306152
0.78635770082473755 0.0054863276891410351 0.71195465326309204
0.001181493978947401 0.36043503880500793 0.80404657125473022
0.0070053250528872013 0.35887354612350464 0.80422872304916382
0.063208304345607758 0.35996979475021362 0.80373513698577881
0.33138510584831238 0.34233477711677551 0.79719150066375732
0.52696782350540161 0.30761131644248962 0.79098266363143921
0.66962170600891113 0.2435295581817627 0.78129661083221436
0.80788683891296387 0.10395541042089462 0.75928503274917603
0.0014680749736726284 0.51399606466293335 0.84419351816177368
0.0015275543555617332 0.51407653093338013 0.84381711483001709
0.14218656718730927 0.51734083890914917 0.84254848957061768
0.4002460241317749 0.51877862215042114 0.83765095472335815
0.56339752674102783 0.50701433420181274 0.8321107029914856
0.70652836561203003 0.48080259561538696 0.82370686531066895
0.84934765100479126 0.38931435346603394 0.80819648504257202
0.081948645412921906 0.66328001022338867 0.88275671005249023
0.16059552133083344 0.66508340835571289 0.88231176137924194
0.32407295703887939 0.66723275184631348 0.88213801383972168
0.47097653150558472 0.67036443948745728 0.87855416536331177
0.59582173824310303 0.66695141792297363 0.87549227476119995
0.73408043384552002 0.65146440267562866 0.86969500780105591
0.87870645523071289 0.61890459060668945 0.85521358251571655
0.35276135802268982 0.80307823419570923 0.92128318548202515
0.38427543640136719 0.8065340518951416 0.92378449440002441
0.46205514669418335 0.80844473838806152 0.92372256517410278
0.56089025735855103 0.81100940704345703 0.92256438732147217
0.6609073281288147 0.81301605701446533 0.9231187105178833
0.77913802862167358 0.81010359525680542 0.91938477754592896
0.90872406959533691 0.79522645473480225 0.90288054943084717
0.57970702648162842 0.93735027313232422 0.96316343545913696
0.58652412891387939 0.94080954790115356 0.96659582853317261
0.63737761974334717 0.94193166494369507 0.96766471862792969
0.69393527507781982 0.94973862171173096 0.9729771614074707
0.76283836364746094 0.95940309762954712 0.97782140970230103
0.85266155004501343 0.96519607305526733 0.9759143590927124
0.95856916904449463 0.96130967140197754 0.96037393808364868
