luts/colorslide/kodak_ektachrome_100_vs_generic.cube
# Created by: G'MIC (https://gmic.eu)
TITLE "kodak_ektachrome_100_vs_generic"
# LUT size
LUT_3D_SIZE 13
# Data domain
DOMAIN_MIN 0.0 0.0 0.0
DOMAIN_MAX 1.0 1.0 1.0
# LUT data points
0.026470378041267395 0.020545331761240959 0.020854352042078972
0.0857057124376297 0.020761003717780113 0.019925959408283234
0.15585818886756897 0.017826514318585396 0.016532210633158684
0.23823638260364532 0.01518325787037611 0.015566552989184856
0.34416276216506958 0.014305129647254944 0.016768136993050575
0.46646398305892944 0.01346200704574585 0.015457602217793465
0.5906144380569458 0.0096299266442656517 0.012548977509140968
0.72578662633895874 0.0071569108404219151 0.01135355606675148
0.8548126220703125 0.0069443797692656517 0.0079337172210216522
0.96221518516540527 0.0049415137618780136 0.0087279072031378746
0.99519908428192139 0.0027828740421682596 0.0094821108505129814
1 0.0015614229487255216 0.0087246764451265335
1 0.003898426191881299 0.0098889963701367378
0.034104980528354645 0.070596657693386078 0.025787727907299995
0.079770110547542572 0.069254450500011444 0.024665577337145805
0.14967344701290131 0.066398710012435913 0.024413598701357841
0.23352605104446411 0.062282860279083252 0.022546207532286644
0.33798050880432129 0.058129794895648956 0.021889839321374893
0.45954543352127075 0.053153887391090393 0.020221395418047905
0.58388406038284302 0.046683784574270248 0.016028638929128647
0.71996134519577026 0.042637500911951065 0.01432489138096571
0.84848946332931519 0.034524116665124893 0.011160652153193951
0.95720142126083374 0.030932541936635971 0.010564004071056843
0.99535739421844482 0.028739031404256821 0.010869044810533524
1 0.025948064401745796 0.011000943370163441
1 0.023504877462983131 0.010243853554129601
0.049109738320112228 0.13375476002693176 0.035712685436010361
0.087466657161712646 0.13293848931789398 0.036460742354393005
0.14551551640033722 0.12914222478866577 0.035209581255912781
0.22655904293060303 0.12285254895687103 0.030786866322159767
0.33569353818893433 0.11822333186864853 0.029192741960287094
0.45744749903678894 0.11393588036298752 0.028191300109028816
0.57946836948394775 0.10633691400289536 0.024073014035820961
0.71401375532150269 0.10205459594726562 0.023034429177641869
0.84091085195541382 0.095312111079692841 0.019298987463116646
0.95003408193588257 0.089213773608207703 0.016039006412029266
0.99663996696472168 0.08336937427520752 0.013920518569648266
0.9999508261680603 0.079133681952953339 0.013376347720623016
1 0.079602263867855072 0.014196448028087616
0.057052716612815857 0.20209378004074097 0.046827968209981918
0.088529370725154877 0.20247805118560791 0.047395803034305573
0.13573683798313141 0.20196840167045593 0.047624953091144562
0.21442475914955139 0.19535844027996063 0.04319426417350769
0.33116629719734192 0.1890895813703537 0.040651731193065643
0.45311716198921204 0.18387079238891602 0.037653185427188873
0.57392644882202148 0.17980110645294189 0.035230088979005814
0.707691490650177 0.17231057584285736 0.032595496624708176
0.83347880840301514 0.16729801893234253 0.028128007426857948
0.94410020112991333 0.16166459023952484 0.023615280166268349
0.99557334184646606 0.15856041014194489 0.023388462141156197
0.9990571141242981 0.15666405856609344 0.025433888658881187
1 0.15491244196891785 0.024232422932982445
0.035428635776042938 0.29691281914710999 0.061759769916534424
0.056365907192230225 0.29650172591209412 0.062521643936634064
0.09226372092962265 0.29427015781402588 0.061602737754583359
0.18296615779399872 0.28956329822540283 0.059607934206724167
0.31718912720680237 0.28300482034683228 0.05649426206946373
0.44618940353393555 0.27598050236701965 0.052872944623231888
0.57139581441879272 0.27177590131759644 0.052691292017698288
0.6988179087638855 0.26444295048713684 0.047624729573726654
0.81726741790771484 0.26093253493309021 0.044228691607713699
0.92861223220825195 0.25650995969772339 0.040767565369606018
0.99257266521453857 0.25111603736877441 0.038942523300647736
0.99646472930908203 0.24863690137863159 0.040295291692018509
0.99870020151138306 0.24527271091938019 0.038385353982448578
0.0058635040186345577 0.40078675746917725 0.076562963426113129
0.0081181097775697708 0.39985349774360657 0.077391229569911957
0.020091323181986809 0.39522120356559753 0.076731614768505096
0.14212502539157867 0.39050620794296265 0.076386786997318268
0.29296118021011353 0.38465782999992371 0.073974013328552246
0.42729473114013672 0.37883907556533813 0.070509515702724457
0.56157082319259644 0.37343475222587585 0.066984109580516815
0.6855396032333374 0.3678363561630249 0.065175332129001617
0.80051440000534058 0.36393755674362183 0.063990436494350433
0.91153973340988159 0.36087986826896667 0.059922896325588226
0.98767399787902832 0.35607185959815979 0.056699115782976151
0.99610662460327148 0.35357019305229187 0.056801799684762955
0.99590283632278442 0.35003489255905151 0.054759815335273743
0.002404381288215518 0.50621306896209717 0.088940910995006561
0.002996167866513133 0.50399494171142578 0.090796589851379395
0.0093805203214287758 0.4992377758026123 0.091264538466930389
0.071279875934123993 0.49739593267440796 0.088592037558555603
0.23948389291763306 0.49288618564605713 0.086458586156368256
0.391550213098526 0.4894823431968689 0.083861194550991058
0.53609102964401245 0.48472431302070618 0.080285012722015381
0.66628599166870117 0.47922617197036743 0.078625969588756561
0.7802269458770752 0.47431066632270813 0.077985964715480804
0.89152473211288452 0.46806430816650391 0.073996014893054962
0.9762158989906311 0.4635671079158783 0.070308834314346313
0.9931073784828186 0.46115410327911377 0.07036406546831131
0.99243462085723877 0.45884141325950623 0.070136144757270813
1.6335879990947433e-05 0.61015099287033081 0.096192270517349243
0.0015696057816967368 0.60591471195220947 0.095822185277938843
0.0038905423134565353 0.60470479726791382 0.094240568578243256
0.020997859537601471 0.60587006807327271 0.09218299388885498
0.16014796495437622 0.6031227707862854 0.091296404600143433
0.35416781902313232 0.59768295288085938 0.08974805474281311
0.51085704565048218 0.59359878301620483 0.087919734418392181
0.64499497413635254 0.58949631452560425 0.086082667112350464
0.7597241997718811 0.58232498168945312 0.086847908794879913
0.86849433183670044 0.57517307996749878 0.086453996598720551
0.95664149522781372 0.57293641567230225 0.081374600529670715
0.98850125074386597 0.56937235593795776 0.080385498702526093
0.98957145214080811 0.56622868776321411 0.080724664032459259
0 0.7034839391708374 0.089519664645195007
0 0.70165872573852539 0.089002825319766998
0.0011255900608375669 0.7007489800453186 0.088311165571212769
0.0051379334181547165 0.70096325874328613 0.088524550199508667
0.094801329076290131 0.70119619369506836 0.087161079049110413
0.32687288522720337 0.69492393732070923 0.086808189749717712
0.48943758010864258 0.68925786018371582 0.08596280962228775
0.62006568908691406 0.68566417694091797 0.084268935024738312
0.74020624160766602 0.68016177415847778 0.08510926365852356
0.84140175580978394 0.67415046691894531 0.084190517663955688
0.93289715051651001 0.6717841625213623 0.080752536654472351
0.98595243692398071 0.66752678155899048 0.080982580780982971
0.99130535125732422 0.66385740041732788 0.081907697021961212
0 0.78825819492340088 0.071079522371292114
0 0.78795617818832397 0.069346681237220764
0.00015752455510664731 0.78665268421173096 0.071434170007705688
0.0031097412575036287 0.78496825695037842 0.07111649215221405
0.072042651474475861 0.78725087642669678 0.070814855396747589
0.30844920873641968 0.78203386068344116 0.0706215500831604
0.4750925600528717 0.77710443735122681 0.071065150201320648
0.60553514957427979 0.77121323347091675 0.070329643785953522
0.72162187099456787 0.76859700679779053 0.069948665797710419
0.81535661220550537 0.76539373397827148 0.07130151242017746
0.90583032369613647 0.76278746128082275 0.071105048060417175
0.98147350549697876 0.75913393497467041 0.07083556056022644
0.99549895524978638 0.753257155418396 0.070366203784942627
0 0.86810857057571411 0.047318402677774429
0 0.86779427528381348 0.045246273279190063
0.00035131117329001427 0.86463671922683716 0.045345980674028397
0.0010754902614280581 0.86238032579421997 0.043513190001249313
0.076152205467224121 0.86279553174972534 0.041882399469614029
0.30739358067512512 0.85795122385025024 0.041333425790071487
0.47230604290962219 0.85260027647018433 0.039380390197038651
0.60084718465805054 0.84700149297714233 0.039710924029350281
0.70994234085083008 0.84566521644592285 0.04253074899315834
0.80391097068786621 0.84372633695602417 0.042061839252710342
0.89181357622146606 0.83921104669570923 0.041875444352626801
0.97447800636291504 0.83398127555847168 0.040928620845079422
0.99676030874252319 0.8308950662612915 0.039055079221725464
0 0.93876302242279053 0.066910445690155029
0 0.93817538022994995 0.064103789627552032
0.00098185823298990726 0.93738663196563721 0.063489444553852081
0.0037952796556055546 0.93340212106704712 0.060798346996307373
0.094976089894771576 0.93081307411193848 0.054921332746744156
0.31447812914848328 0.92788589000701904 0.051419112831354141
0.46737933158874512 0.92576295137405396 0.04519328847527504
0.59208601713180542 0.92223179340362549 0.039011366665363312
0.69877767562866211 0.9194837212562561 0.036953721195459366
0.79359239339828491 0.91736090183258057 0.029310967773199081
0.88089001178741455 0.91367721557617188 0.025771541520953178
0.97094577550888062 0.90913820266723633 0.022267913445830345
0.99852573871612549 0.90881705284118652 0.021677937358617783
0 0.99270749092102051 0.096160382032394409
0 0.99188655614852905 0.095692276954650879
2.154182038793806e-05 0.99331891536712646 0.095854662358760834
0.0052429051138460636 0.9919050931930542 0.096443653106689453
0.10512752085924149 0.99067550897598267 0.093816407024860382
0.3136785626411438 0.98684346675872803 0.092489399015903473
0.45568239688873291 0.98780530691146851 0.087278865277767181
0.5750044584274292 0.98681437969207764 0.082687735557556152
0.67934340238571167 0.98593664169311523 0.082691013813018799
0.77171683311462402 0.98487430810928345 0.075340315699577332
0.86077028512954712 0.98566204309463501 0.067873738706111908
0.96109509468078613 0.9834282398223877 0.062779523432254791
0.99712377786636353 0.98284226655960083 0.06210683286190033
0.026304133236408234 0.020969705656170845 0.062721908092498779
0.085534684360027313 0.020779643207788467 0.061007913202047348
0.15620976686477661 0.020374149084091187 0.058816470205783844
0.24052311480045319 0.017440631985664368 0.056533873081207275
0.345508873462677 0.01507415808737278 0.055524293333292007
0.46712180972099304 0.01366583164781332 0.050632312893867493
0.59090238809585571 0.0097804348915815353 0.047290951013565063
0.72350412607192993 0.0085820220410823822 0.044597357511520386
0.8532181978225708 0.010012921877205372 0.040881887078285217
0.96266114711761475 0.0051671792753040791 0.035295359790325165
0.99901574850082397 0.0035678937565535307 0.034507438540458679
1 0.0028859006706625223 0.032304935157299042
1 0.0028499828185886145 0.029696894809603691
0.032084029167890549 0.070958353579044342 0.069404721260070801
0.07862149178981781 0.069556310772895813 0.069271013140678406
0.14792579412460327 0.067330226302146912 0.067345321178436279
0.23482288420200348 0.063419654965400696 0.064586564898490906
0.33868053555488586 0.058195840567350388 0.06218758225440979
0.45826512575149536 0.05252571776509285 0.057335708290338516
0.58133161067962646 0.045325394719839096 0.052607845515012741
0.71657478809356689 0.041165910661220551 0.049553770571947098
0.84676212072372437 0.035012174397706985 0.044930029660463333
0.95567500591278076 0.031510595232248306 0.041855979710817337
0.99884188175201416 0.028245260939002037 0.041283655911684036
1 0.02635040320456028 0.040733996778726578
1 0.024213962256908417 0.03779437392950058
0.051798682659864426 0.13247063755989075 0.079064451158046722
0.087370522320270538 0.1306411474943161 0.078780800104141235
0.14234007894992828 0.1266559511423111 0.07521374523639679
0.22715085744857788 0.12301719188690186 0.072504036128520966
0.33595648407936096 0.11896117031574249 0.070810906589031219
0.45670825242996216 0.11339684575796127 0.067531853914260864
0.57832163572311401 0.10608677566051483 0.061972688883543015
0.71365630626678467 0.10234183818101883 0.060472942888736725
0.84122759103775024 0.098756216466426849 0.056776471436023712
0.94788199663162231 0.092016004025936127 0.052261862903833389
0.99494308233261108 0.084174960851669312 0.050183899700641632
0.99935221672058105 0.079470627009868622 0.047466892749071121
1 0.08037199079990387 0.047920078039169312
0.060735873878002167 0.20175985991954803 0.086855567991733551
0.089142352342605591 0.2011437863111496 0.088240109384059906
0.13532806932926178 0.20027612149715424 0.08643043041229248
0.2163441926240921 0.19510827958583832 0.083203427493572235
0.33111020922660828 0.19048279523849487 0.080632001161575317
0.45033016800880432 0.18582087755203247 0.077465757727622986
0.57346129417419434 0.17983712255954742 0.07358282059431076
0.70628243684768677 0.17599672079086304 0.07362404465675354
0.83321255445480347 0.17081645131111145 0.068772457540035248
0.94317221641540527 0.16209791600704193 0.061513476073741913
0.99442452192306519 0.15737563371658325 0.059514347463846207
0.99855047464370728 0.15374167263507843 0.058443721383810043
1 0.15410810708999634 0.05866757407784462
0.040938492864370346 0.29710012674331665 0.09857630729675293
0.054196346551179886 0.29639193415641785 0.099117174744606018
0.093047812581062317 0.29306444525718689 0.097047217190265656
0.18779344856739044 0.28900325298309326 0.095017500221729279
0.31631511449813843 0.28494587540626526 0.09224904328584671
0.43814495205879211 0.28007584810256958 0.088609896600246429
0.56743133068084717 0.27385702729225159 0.086564473807811737
0.69791972637176514 0.27057236433029175 0.085517719388008118
0.81823700666427612 0.26602411270141602 0.080874904990196228
0.92827475070953369 0.25734850764274597 0.075560532510280609
0.99193596839904785 0.25187200307846069 0.074117369949817657
0.99622398614883423 0.25165876746177673 0.0746750608086586
0.99834668636322021 0.2487616240978241 0.075869724154472351
0.0061528673395514488 0.40025722980499268 0.10856034606695175
0.0067536598071455956 0.39715185761451721 0.10920486599206924
0.017824793234467506 0.3943311870098114 0.10689025372266769
0.13737525045871735 0.3908308744430542 0.10560416430234909
0.29086515307426453 0.38679516315460205 0.10386337339878082
0.42236968874931335 0.38494867086410522 0.10089483857154846
0.55944669246673584 0.37777715921401978 0.098704680800437927
0.68596994876861572 0.37304627895355225 0.096873551607131958
0.80296915769577026 0.36725342273712158 0.093041181564331055
0.91138583421707153 0.36125442385673523 0.089392445981502533
0.98588341474533081 0.35692271590232849 0.087684363126754761
0.99312126636505127 0.35553988814353943 0.090248554944992065
0.99598008394241333 0.35172557830810547 0.091054104268550873
0.00071557739283889532 0.50693982839584351 0.11344800144433975
7.7894619607832283e-05 0.50403636693954468 0.11492598056793213
0.0056918873451650143 0.49911761283874512 0.11359190195798874
0.072094395756721497 0.49720224738121033 0.11275507509708405
0.23760120570659637 0.49356076121330261 0.11168999969959259
0.38971364498138428 0.49178239703178406 0.10874698311090469
0.53723210096359253 0.48511412739753723 0.10624442249536514
0.66787505149841309 0.48065251111984253 0.10409560799598694
0.78420782089233398 0.474639892578125 0.10191117972135544
0.88954001665115356 0.46904906630516052 0.09936213493347168
0.97302985191345215 0.46667540073394775 0.097550183534622192
0.99195164442062378 0.46229735016822815 0.09843628853559494
0.99302065372467041 0.45877355337142944 0.099616691470146179
0 0.61161226034164429 0.11528564244508743
0.00018047257617581636 0.60785597562789917 0.11524694412946701
0.0035906175617128611 0.60343289375305176 0.11502869427204132
0.019271178171038628 0.60496348142623901 0.11466895043849945
0.16102956235408783 0.60227674245834351 0.11372825503349304
0.35667330026626587 0.59630405902862549 0.11164119839668274
0.51213186979293823 0.59272551536560059 0.10976038873195648
0.64534503221511841 0.58938813209533691 0.10955264419317245
0.76221215724945068 0.58326172828674316 0.10640227049589157
0.86673802137374878 0.57804083824157715 0.10430405288934708
0.95580559968948364 0.57360029220581055 0.1028398871421814
0.98934447765350342 0.56882756948471069 0.10295435786247253
0.99218690395355225 0.56638658046722412 0.10396381467580795
0 0.70563489198684692 0.11152298748493195
0 0.70313018560409546 0.110964335501194
0.001109643024392426 0.7017328143119812 0.10949705541133881
0.0036413604393601418 0.70119976997375488 0.10823458433151245
0.093100681900978088 0.70096176862716675 0.10697107017040253
0.32537057995796204 0.69435864686965942 0.10684521496295929
0.48899859189987183 0.69191974401473999 0.1058957427740097
0.62107819318771362 0.6860194206237793 0.10573311895132065
0.74190688133239746 0.67927998304367065 0.10201996564865112
0.84383434057235718 0.67615902423858643 0.10058996081352234
0.93167650699615479 0.67328572273254395 0.10041043162345886
0.98794960975646973 0.66953760385513306 0.10127206146717072
0.99298381805419922 0.66600680351257324 0.10499249398708344
0 0.79146867990493774 0.10176589339971542
0 0.79025536775588989 0.098892256617546082
0.00083476048894226551 0.78861653804779053 0.095875680446624756
0.0038650662172585726 0.78639137744903564 0.095441810786724091
0.074023120105266571 0.78772085905075073 0.092846840620040894
0.30734851956367493 0.78329616785049438 0.092531196773052216
0.47289621829986572 0.77937334775924683 0.092990145087242126
0.6064532995223999 0.77361881732940674 0.090277202427387238
0.72359293699264526 0.76913779973983765 0.087318360805511475
0.82232707738876343 0.76783233880996704 0.088810577988624573
0.90914148092269897 0.76438546180725098 0.089728385210037231
0.98022371530532837 0.75845187902450562 0.090666875243186951
0.99560171365737915 0.75308829545974731 0.090986840426921844
0 0.86894720792770386 0.1011294350028038
0 0.86701291799545288 0.10082099586725235
0.0025497735477983952 0.86433017253875732 0.097725763916969299
0.0054680020548403263 0.86269813776016235 0.092448979616165161
0.076270908117294312 0.86287248134613037 0.086898386478424072
0.30728417634963989 0.85904860496520996 0.085753284394741058
0.46905559301376343 0.85483413934707642 0.082658834755420685
0.59895884990692139 0.84998393058776855 0.081103123724460602
0.71117722988128662 0.84737199544906616 0.077966295182704926
0.80723470449447632 0.84592020511627197 0.076998330652713776
0.89400726556777954 0.84150236845016479 0.07682635635137558
0.97398227453231812 0.83472079038619995 0.073467105627059937
0.99634212255477905 0.83081364631652832 0.070490896701812744
0 0.93836724758148193 0.1171453446149826
0 0.93804478645324707 0.11565794050693512
0.0030866586603224277 0.93588268756866455 0.11363502591848373
0.0079156169667840004 0.93233734369277954 0.11036493629217148
0.095905080437660217 0.93118435144424438 0.10488446056842804
0.31442326307296753 0.9280514121055603 0.10157186537981033
0.46521410346031189 0.92659765481948853 0.097405709326267242
0.58890765905380249 0.92333996295928955 0.093857966363430023
0.69616144895553589 0.92237430810928345 0.092526786029338837
0.79086923599243164 0.92025625705718994 0.088003270328044891
0.88008576631546021 0.91676425933837891 0.081883929669857025
0.96797841787338257 0.91200947761535645 0.077791102230548859
0.99690479040145874 0.91036295890808105 0.075863391160964966
0 0.99100476503372192 0.13471056520938873
0 0.99137097597122192 0.13260096311569214
0.00031792136724106967 0.99247872829437256 0.13103365898132324
0.0041238972917199135 0.99054461717605591 0.1312730461359024
0.10298198461532593 0.99112844467163086 0.1265023946762085
0.3074735701084137 0.98756808042526245 0.1255633682012558
0.45437455177307129 0.9862968921661377 0.12216649949550629
0.57350879907608032 0.98401409387588501 0.11867916584014893
0.67854374647140503 0.98614895343780518 0.11736170202493668
0.77115744352340698 0.98739898204803467 0.11362124979496002
0.86205315589904785 0.98605483770370483 0.10997117310762405
0.95950949192047119 0.98353612422943115 0.10727939754724503
0.99781006574630737 0.98239564895629883 0.10889036953449249
0.025306850671768188 0.018702547997236252 0.11375994235277176
0.086208775639533997 0.019983239471912384 0.11247744411230087
0.15873251855373383 0.019737273454666138 0.11121842265129089
0.24030156433582306 0.016224490478634834 0.10769399255514145
0.34416434168815613 0.014894552528858185 0.10398927330970764
0.46520435810089111 0.013266320340335369 0.10184533894062042
0.58837366104125977 0.012061922810971737 0.10003310441970825
0.7212480902671814 0.010331247001886368 0.095903433859348297
0.85273534059524536 0.0086544705554842949 0.091018348932266235
0.96180504560470581 0.0053992327302694321 0.08609403669834137
0.9992179274559021 0.0050550871528685093 0.084028966724872589
1 0.0054023442789912224 0.081775963306427002
1 0.0045106178149580956 0.082899279892444611
0.031754184514284134 0.069587752223014832 0.12153621017932892
0.078416250646114349 0.069405525922775269 0.12104549258947372
0.14940328896045685 0.067432686686515808 0.11991578340530396
0.23531641066074371 0.063262417912483215 0.11621537804603577
0.33798745274543762 0.058332659304141998 0.11250893026590347
0.45665743947029114 0.053435098379850388 0.10990271717309952
0.5778127908706665 0.047374323010444641 0.10646393895149231
0.71160662174224854 0.041544042527675629 0.10364355891942978
0.84283661842346191 0.036195315420627594 0.099916167557239532
0.95242184400558472 0.032374110072851181 0.095076799392700195
0.99637621641159058 0.029386527836322784 0.093736119568347931
0.99956333637237549 0.026784485206007957 0.092725701630115509
1 0.024426808580756187 0.08977789431810379
0.047358985990285873 0.13205224275588989 0.12961849570274353
0.085783384740352631 0.13091859221458435 0.12978476285934448
0.14325179159641266 0.12698657810688019 0.12675437331199646
0.22879813611507416 0.12416937202215195 0.12507066130638123
0.33602440357208252 0.12065324932336807 0.12368020415306091
0.45574197173118591 0.11498879641294479 0.12098454684019089
0.57713615894317627 0.10754641145467758 0.11503931879997253
0.71240484714508057 0.10089688748121262 0.11101573705673218
0.83945566415786743 0.098242737352848053 0.10929263383150101
0.94815182685852051 0.089744225144386292 0.10411123931407928
0.99465137720108032 0.084646604955196381 0.10231694579124451
0.99928957223892212 0.083780817687511444 0.103044293820858
1 0.080010555684566498 0.098657272756099701
0.05555063858628273 0.20239676535129547 0.13785748183727264
0.086060002446174622 0.20265653729438782 0.13750208914279938
0.13742142915725708 0.19833998382091522 0.13485266268253326
0.21612608432769775 0.19381529092788696 0.1318480372428894
0.32903194427490234 0.19204933941364288 0.13135106861591339
0.44998279213905334 0.18845131993293762 0.13067294657230377
0.57618856430053711 0.1818779855966568 0.12436731159687042
0.70863980054855347 0.17533069849014282 0.12126970291137695
0.83414387702941895 0.16791258752346039 0.11660880595445633
0.94158321619033813 0.16084447503089905 0.11170687526464462
0.99521011114120483 0.15583409368991852 0.10947376489639282
0.99908876419067383 0.15349933505058289 0.11130372434854507
1 0.15242083370685577 0.11006590723991394
0.033648651093244553 0.29652002453804016 0.14555211365222931
0.056554965674877167 0.29427647590637207 0.14498256146907806
0.093111865222454071 0.29145908355712891 0.14256934821605682
0.18363212049007416 0.28700113296508789 0.14035533368587494
0.31437906622886658 0.28418335318565369 0.1393355131149292
0.43883684277534485 0.2797107994556427 0.13664378225803375
0.56980013847351074 0.27382171154022217 0.13349853456020355
0.69931811094284058 0.27137637138366699 0.13340190052986145
0.81935065984725952 0.26603531837463379 0.12965188920497894
0.92677527666091919 0.25611758232116699 0.12357161194086075
0.99050110578536987 0.24938477575778961 0.12166743725538254
