luts/colorslide/kodak_kodachrome_200.cube
# Created by: G'MIC (https://gmic.eu)
TITLE "kodak_kodachrome_200"
# LUT size
LUT_3D_SIZE 7
# Data domain
DOMAIN_MIN 0.0 0.0 0.0
DOMAIN_MAX 1.0 1.0 1.0
# LUT data points
0.020950032398104668 0.017410997301340103 0.014215192757546902
0.12017344683408737 0.020845988765358925 0.017067553475499153
0.29149332642555237 0.022024895995855331 0.022729208692908287
0.49650722742080688 0.019324926659464836 0.02507336251437664
0.66827797889709473 0.016400132328271866 0.025392076000571251
0.80465340614318848 0.010073837824165821 0.021823553368449211
0.91414302587509155 0.010414452292025089 0.017459660768508911
0.072294645011425018 0.14080674946308136 0.075228370726108551
0.15707571804523468 0.13845920562744141 0.076199688017368317
0.3290189802646637 0.13495387136936188 0.080407127737998962
0.52262008190155029 0.13207621872425079 0.084630526602268219
0.68377113342285156 0.12356413155794144 0.080562174320220947
0.81535857915878296 0.11008130013942719 0.066802069544792175
0.92482823133468628 0.091970346868038177 0.045531284064054489
0.068798437714576721 0.33668717741966248 0.16098254919052124
0.18351183831691742 0.34058520197868347 0.16418863832950592
0.36933925747871399 0.33470332622528076 0.16955871880054474
0.54824542999267578 0.33285266160964966 0.16585399210453033
0.69461411237716675 0.3273262083530426 0.16039940714836121
0.82494163513183594 0.30805045366287231 0.14148233830928802
0.93358057737350464 0.29120156168937683 0.11918515712022781
0.14975844323635101 0.52178066968917847 0.27391088008880615
0.27259907126426697 0.5198180079460144 0.27707910537719727
0.42311406135559082 0.52148187160491943 0.2783261239528656
0.57383722066879272 0.52235710620880127 0.27587485313415527
0.70544141530990601 0.51934611797332764 0.26503607630729675
0.82846742868423462 0.51742279529571533 0.23530732095241547
0.94039362668991089 0.50810486078262329 0.19710753858089447
0.3365456759929657 0.6646084189414978 0.40190285444259644
0.38642725348472595 0.65841370820999146 0.39870738983154297
0.49150019884109497 0.65858203172683716 0.40081313252449036
0.60719889402389526 0.66470903158187866 0.40043118596076965
0.72310596704483032 0.66442418098449707 0.38711032271385193
0.83345949649810791 0.66054105758666992 0.35817846655845642
0.94108712673187256 0.65719974040985107 0.31125783920288086
0.47080340981483459 0.78555852174758911 0.52474641799926758
0.50499248504638672 0.78330415487289429 0.52295595407485962
0.56093066930770874 0.78243863582611084 0.51910239458084106
0.64420783519744873 0.78393751382827759 0.52106094360351562
0.74363696575164795 0.78612804412841797 0.51399326324462891
0.84148812294006348 0.78337699174880981 0.49153950810432434
0.94698983430862427 0.7751203179359436 0.45005959272384644
0.56881225109100342 0.90916693210601807 0.63576740026473999
0.58851659297943115 0.91195762157440186 0.63777166604995728
0.6269037127494812 0.9081261157989502 0.63690537214279175
0.68996310234069824 0.91593420505523682 0.64052551984786987
0.76734626293182373 0.9151914119720459 0.63655555248260498
0.86055278778076172 0.91733324527740479 0.63044315576553345
0.97169166803359985 0.91369724273681641 0.60250145196914673
0.018477302044630051 0.020171985030174255 0.070748239755630493
0.11109894514083862 0.020204745233058929 0.067665442824363708
0.28962287306785583 0.021033089607954025 0.073529034852981567
0.49694016575813293 0.018738331273198128 0.079485185444355011
0.6674191951751709 0.015789825469255447 0.076434701681137085
0.80147624015808105 0.012033499777317047 0.06511872261762619
0.91583240032196045 0.0082670627161860466 0.042154453694820404
0.06592356413602829 0.13653881847858429 0.13943716883659363
0.15017615258693695 0.13613638281822205 0.14318089187145233
0.32843667268753052 0.1335509866476059 0.1485104113817215
0.51830375194549561 0.13170528411865234 0.1504361480474472
0.68103587627410889 0.12264511734247208 0.14159852266311646
0.8116568922996521 0.11031243950128555 0.1236349493265152
0.92474210262298584 0.088253960013389587 0.094193615019321442
0.051395028829574585 0.33824354410171509 0.23540480434894562
0.17739005386829376 0.33445197343826294 0.23817276954650879
0.3646857738494873 0.32956123352050781 0.24247616529464722
0.54379165172576904 0.33344200253486633 0.24221488833427429
0.69002878665924072 0.32204049825668335 0.23271794617176056
0.81970798969268799 0.30691945552825928 0.20235295593738556
0.93016350269317627 0.29214873909950256 0.1717028021812439
0.13327644765377045 0.52534210681915283 0.345560222864151
0.2550303041934967 0.51884311437606812 0.35004404187202454
0.41455408930778503 0.52063095569610596 0.34879672527313232
0.56935745477676392 0.51868635416030884 0.34888818860054016
0.69885849952697754 0.52205032110214233 0.34253913164138794
0.82156604528427124 0.51183760166168213 0.30967214703559875
0.93494987487792969 0.50548279285430908 0.26883682608604431
0.32500109076499939 0.66415977478027344 0.4601956307888031
0.38597136735916138 0.66501283645629883 0.46584388613700867
0.48345625400543213 0.66267514228820801 0.45997855067253113
0.59985882043838501 0.66142278909683228 0.45914319157600403
0.71743327379226685 0.6612933874130249 0.45468643307685852
0.82834941148757935 0.65825611352920532 0.43072563409805298
0.9337310791015625 0.65037673711776733 0.39158809185028076
0.46309912204742432 0.78656554222106934 0.56366562843322754
0.50241249799728394 0.78781664371490479 0.56577706336975098
0.556415855884552 0.78516000509262085 0.56255203485488892
0.64141345024108887 0.78652322292327881 0.5629158616065979
0.73570436239242554 0.78363889455795288 0.55572032928466797
0.8420289158821106 0.78235530853271484 0.54268616437911987
0.94554334878921509 0.77674669027328491 0.51376020908355713
0.56600332260131836 0.91530740261077881 0.66465920209884644
0.58684593439102173 0.91762620210647583 0.66632884740829468
0.62548047304153442 0.91555482149124146 0.66474860906600952
0.68664056062698364 0.91723698377609253 0.66555261611938477
0.76341420412063599 0.91366863250732422 0.66369175910949707
0.85875242948532104 0.91795182228088379 0.65670871734619141
0.96795201301574707 0.91628736257553101 0.63716673851013184
0.016202425584197044 0.019034741446375847 0.16151115298271179
0.10064912587404251 0.016874561086297035 0.16550907492637634
0.28077447414398193 0.019398469477891922 0.17599861323833466
0.49157175421714783 0.016422078013420105 0.17567534744739532
0.66367268562316895 0.013109693303704262 0.16739244759082794
0.79905241727828979 0.010304798372089863 0.14232178032398224
0.91382962465286255 0.0063406103290617466 0.11236186325550079
0.053370323032140732 0.13726194202899933 0.24703624844551086
0.13536238670349121 0.13590002059936523 0.24986529350280762
0.31259042024612427 0.13136740028858185 0.24982663989067078
0.51258641481399536 0.12579061090946198 0.25538375973701477
0.672527015209198 0.1176619753241539 0.24828056991100311
0.80477392673492432 0.10560162365436554 0.22344350814819336
0.91781824827194214 0.085335567593574524 0.18334038555622101
0.048253018409013748 0.33610406517982483 0.34286850690841675
0.15555059909820557 0.33409440517425537 0.34391582012176514
0.35613533854484558 0.33325189352035522 0.34604367613792419
0.53155279159545898 0.32607674598693848 0.35061115026473999
0.68110817670822144 0.31748881936073303 0.34526169300079346
0.80941861867904663 0.29979252815246582 0.31557503342628479
0.92467218637466431 0.28865891695022583 0.28785747289657593
0.10339578241109848 0.52712959051132202 0.44229945540428162
0.236768439412117 0.52508378028869629 0.44586336612701416
0.40366092324256897 0.52369171380996704 0.44396138191223145
0.55746555328369141 0.5256117582321167 0.44700717926025391
0.69210809469223022 0.51966315507888794 0.44373726844787598
0.81456863880157471 0.51274913549423218 0.42414623498916626
0.92333298921585083 0.5002976655960083 0.40295916795730591
0.30645495653152466 0.663982093334198 0.53347587585449219
0.37546059489250183 0.66813856363296509 0.53529101610183716
0.47038125991821289 0.66471987962722778 0.53130972385406494
0.5891144871711731 0.66032445430755615 0.5329134464263916
0.70137989521026611 0.66070812940597534 0.53496003150939941
0.81837093830108643 0.65675681829452515 0.52081292867660522
0.92633658647537231 0.6549917459487915 0.50088727474212646
0.45323601365089417 0.7878609299659729 0.61918586492538452
0.49093300104141235 0.78827893733978271 0.61917978525161743
0.5485416054725647 0.78985249996185303 0.61837190389633179
0.63392823934555054 0.78977423906326294 0.62231075763702393
0.72879838943481445 0.78677749633789062 0.62079697847366333
0.83383959531784058 0.78589248657226562 0.61497658491134644
0.93772238492965698 0.7807002067565918 0.59836810827255249
0.56091123819351196 0.92022210359573364 0.70827603340148926
0.58052808046340942 0.91956859827041626 0.70635926723480225
0.61948680877685547 0.91491454839706421 0.7027173638343811
0.68301749229431152 0.91928112506866455 0.70855402946472168
0.75888234376907349 0.91654503345489502 0.70578145980834961
0.8536916971206665 0.92016571760177612 0.70315629243850708
0.96767419576644897 0.92379927635192871 0.69442570209503174
0.0066642910242080688 0.014154545962810516 0.28294572234153748
0.083311818540096283 0.013762201182544231 0.28773412108421326
0.26178911328315735 0.013432402163743973 0.29444321990013123
0.47490561008453369 0.013086550869047642 0.30066940188407898
0.6523735523223877 0.010144372470676899 0.29636883735656738
0.79047089815139771 0.010000371374189854 0.27902376651763916
0.90412795543670654 0.0035038217902183533 0.24783945083618164
0.041263431310653687 0.12960773706436157 0.35790133476257324
0.11920841038227081 0.12513111531734467 0.36031755805015564
0.30370473861694336 0.12346990406513214 0.36636888980865479
0.50001007318496704 0.11743665486574173 0.37286403775215149
0.66295462846755981 0.11054336279630661 0.37272274494171143
0.79576569795608521 0.096788100898265839 0.35775619745254517
0.90842670202255249 0.074473753571510315 0.334157794713974
0.041366741061210632 0.32908061146736145 0.44287225604057312
0.13093478977680206 0.32857102155685425 0.44537138938903809
0.34039372205734253 0.32779622077941895 0.45189252495765686
0.5214424729347229 0.32367339730262756 0.46006283164024353
0.67103785276412964 0.31027898192405701 0.4573948085308075
0.8030393123626709 0.29609376192092896 0.44354221224784851
0.91417443752288818 0.28529155254364014 0.42748671770095825
0.064371682703495026 0.52738136053085327 0.5308040976524353
0.20765884220600128 0.52550911903381348 0.53084886074066162
0.38995173573493958 0.52170062065124512 0.53030359745025635
0.54807591438293457 0.52079916000366211 0.54092293977737427
0.682606041431427 0.51607072353363037 0.53964006900787354
0.8071790337562561 0.50947350263595581 0.53479969501495361
0.91693621873855591 0.50598961114883423 0.52367484569549561
0.2832658588886261 0.66405105590820312 0.60546976327896118
0.34311559796333313 0.66633456945419312 0.60884523391723633
0.45951861143112183 0.66189420223236084 0.60489439964294434
0.57947385311126709 0.65941011905670166 0.61012029647827148
0.69613075256347656 0.65715503692626953 0.60940849781036377
0.81674337387084961 0.65644156932830811 0.609447181224823
0.92123818397521973 0.6584128737449646 0.60239523649215698
0.43966791033744812 0.78790169954299927 0.67647695541381836
0.47577330470085144 0.78706532716751099 0.68054509162902832
0.54035872220993042 0.79106724262237549 0.6780935525894165
0.62688010931015015 0.79004156589508057 0.68148934841156006
0.72126215696334839 0.79039013385772705 0.68042820692062378
0.83223217725753784 0.78621649742126465 0.6788179874420166
0.93664324283599854 0.78424644470214844 0.67392677068710327
0.55491292476654053 0.91952407360076904 0.75258058309555054
0.57356822490692139 0.92318391799926758 0.75580286979675293
0.61490321159362793 0.92700749635696411 0.75573885440826416
0.67753905057907104 0.92207634449005127 0.75445616245269775
0.75353384017944336 0.92586761713027954 0.75686419010162354
0.8535531759262085 0.92469185590744019 0.75654131174087524
0.96728497743606567 0.92623770236968994 0.75384855270385742
0.0048350016586482525 0.014302361756563187 0.38816270232200623
0.061400230973958969 0.010226515121757984 0.39511939883232117
0.24470682442188263 0.0143471360206604 0.405051589012146
0.46476775407791138 0.010057875886559486 0.41330313682556152
0.64309173822402954 0.0059501198120415211 0.41636854410171509
0.77938753366470337 0.0064010918140411377 0.41170820593833923
0.89030361175537109 0.0039338204078376293 0.39830496907234192
0.025775820016860962 0.11433251947164536 0.45052748918533325
0.099057503044605255 0.11469880491495132 0.45585420727729797
0.28318709135055542 0.11379209160804749 0.46470090746879578
0.48577004671096802 0.10294267535209656 0.47095343470573425
0.65249890089035034 0.096919313073158264 0.47381001710891724
0.78602606058120728 0.081113852560520172 0.46946501731872559
0.89699870347976685 0.063705310225486755 0.46085265278816223
0.038320176303386688 0.31695941090583801 0.52536553144454956
0.11049481481313705 0.31817805767059326 0.52936112880706787
0.32348227500915527 0.31876012682914734 0.5376429557800293
0.51006525754928589 0.30665308237075806 0.54325979948043823
0.66170060634613037 0.29584559798240662 0.5416138768196106
0.79569417238235474 0.28497636318206787 0.54151099920272827
0.90540140867233276 0.25988224148750305 0.53187805414199829
0.034162931144237518 0.52332258224487305 0.60243839025497437
0.18667130172252655 0.52103018760681152 0.60612589120864868
0.37302985787391663 0.51649892330169678 0.60883599519729614
0.53993910551071167 0.50867849588394165 0.61567419767379761
0.6759192943572998 0.50730782747268677 0.61578673124313354
0.79921472072601318 0.50573718547821045 0.61793458461761475
0.90861886739730835 0.4913584291934967 0.61101561784744263
0.25803080201148987 0.6631244421005249 0.66840380430221558
0.3329719603061676 0.66298985481262207 0.67199927568435669
0.44944676756858826 0.65833348035812378 0.67297470569610596
0.5655098557472229 0.66139894723892212 0.67946147918701172
0.69144350290298462 0.654102623462677 0.67744642496109009
0.80988889932632446 0.65470200777053833 0.68063545227050781
0.91164475679397583 0.65403342247009277 0.67796188592910767
0.4177623987197876 0.78795838356018066 0.73113512992858887
0.46240341663360596 0.78494536876678467 0.73420959711074829
0.5281481146812439 0.78526133298873901 0.73681312799453735
0.61276513338088989 0.79020553827285767 0.74032974243164062
0.71395760774612427 0.78567308187484741 0.74115508794784546
0.82852727174758911 0.78572481870651245 0.744759202003479
0.93156379461288452 0.78513115644454956 0.74508190155029297
0.54266858100891113 0.93029344081878662 0.80616748332977295
0.56231248378753662 0.92703092098236084 0.80574077367782593
0.60624688863754272 0.92756223678588867 0.80819141864776611
0.66877442598342896 0.93148601055145264 0.8123241662979126
0.74762266874313354 0.92883497476577759 0.81237053871154785
0.8482552170753479 0.92783880233764648 0.8124164342880249
0.96676737070083618 0.93021166324615479 0.81188815832138062
0.0020268009975552559 0.0084162242710590363 0.47067153453826904
0.043273478746414185 0.0093353716656565666 0.47559118270874023
0.21939302980899811 0.0075146094895899296 0.48563802242279053
0.44636622071266174 0.0061435922980308533 0.50283324718475342
0.62542730569839478 0.0052734971977770329 0.50889235734939575
0.76840066909790039 0.0047610565088689327 0.50863957405090332
0.88434118032455444 0.0017059925012290478 0.50471258163452148
0.015645554289221764 0.095470324158668518 0.52098375558853149
0.078851677477359772 0.09594244509935379 0.52566647529602051
0.26148724555969238 0.091068625450134277 0.53530788421630859
0.47072559595108032 0.082525886595249176 0.54375827312469482
0.6408882737159729 0.076256424188613892 0.54921656847000122
0.77668839693069458 0.063220381736755371 0.55050754547119141
0.8888545036315918 0.045188184827566147 0.54679113626480103
0.033378943800926208 0.29900822043418884 0.58888047933578491
0.096324488520622253 0.29611968994140625 0.59325069189071655
0.2986912727355957 0.28857067227363586 0.60049480199813843
0.49740427732467651 0.28548899292945862 0.61072242259979248
0.6567884087562561 0.27686452865600586 0.61512273550033569
0.78850525617599487 0.26131534576416016 0.61547046899795532
0.90116912126541138 0.23480518162250519 0.61299055814743042
0.012352707795798779 0.51380342245101929 0.66435199975967407
0.13031084835529327 0.51201945543289185 0.66929048299789429
0.34835311770439148 0.50751090049743652 0.6744391918182373
0.52082175016403198 0.50151067972183228 0.68025779724121094
0.66693365573883057 0.50308334827423096 0.68519169092178345
0.79247212409973145 0.49382713437080383 0.68873274326324463
0.90636146068572998 0.48284393548965454 0.68702214956283569
0.21139779686927795 0.66205662488937378 0.73042351007461548
0.30094677209854126 0.65769201517105103 0.73118877410888672
0.42664596438407898 0.65728354454040527 0.73613685369491577
0.5516960620880127 0.65903681516647339 0.74381560087203979
0.68205493688583374 0.65179002285003662 0.74708205461502075
0.79953461885452271 0.6521870493888855 0.74926769733428955
0.91175144910812378 0.64737093448638916 0.74855607748031616
0.39260542392730713 0.78571021556854248 0.79021918773651123
0.437376469373703 0.7834283709526062 0.79383987188339233
0.51155143976211548 0.78687822818756104 0.79844468832015991
0.60122585296630859 0.79017180204391479 0.80440282821655273
0.70782554149627686 0.7861139178276062 0.80837804079055786
0.8161616325378418 0.7853204607963562 0.81127643585205078
0.92750316858291626 0.78326141834259033 0.81259393692016602
0.52464288473129272 0.93019914627075195 0.86241024732589722
0.54607415199279785 0.9315754771232605 0.86477768421173096
0.59091317653656006 0.93101918697357178 0.86595433950424194
0.65561294555664062 0.92835372686386108 0.86816847324371338
0.73947036266326904 0.93455547094345093 0.87525862455368042
0.83762705326080322 0.92851036787033081 0.87524795532226562
0.9659920334815979 0.93461078405380249 0.87911868095397949
0.0016205431893467903 0.0052017662674188614 0.53244262933731079
0.026918074116110802 0.0039198333397507668 0.53434735536575317
0.19614283740520477 0.0015978495357558131 0.54295653104782104
0.43599721789360046 0.0047743255272507668 0.55156826972961426
0.6125149130821228 0.0049194633029401302 0.56607663631439209
0.76113051176071167 0.001356715802103281 0.57518398761749268
0.88065409660339355 0.0017140855779871345 0.5726616382598877
0.0052736620418727398 0.07380136102437973 0.57052099704742432
0.049828339368104935 0.067855894565582275 0.57670509815216064
0.23374451696872711 0.06653372198343277 0.58590030670166016
0.45867609977722168 0.062690958380699158 0.59689807891845703
0.63112813234329224 0.057822566479444504 0.60568547248840332
0.77079254388809204 0.039397250860929489 0.60748147964477539
0.88421887159347534 0.028017560020089149 0.60686099529266357
0.029370835050940514 0.26998364925384521 0.63293802738189697
0.08256058394908905 0.26841408014297485 0.63854742050170898
0.27551424503326416 0.26567339897155762 0.64929652214050293
0.49247655272483826 0.2568531334400177 0.66026782989501953
0.64772659540176392 0.24926464259624481 0.66532236337661743
0.78184366226196289 0.2282741367816925 0.66708791255950928
0.89608478546142578 0.19787369668483734 0.66669625043869019
0.0033399844542145729 0.49578851461410522 0.71150439977645874
0.063674300909042358 0.49863961338996887 0.71942079067230225
0.3242860734462738 0.49555659294128418 0.72273504734039307
0.5118098258972168 0.49453997611999512 0.73247683048248291
0.65475869178771973 0.48960435390472412 0.73736411333084106
0.78725135326385498 0.48120978474617004 0.74387234449386597
0.90346348285675049 0.46904602646827698 0.74459844827651978
0.13955777883529663 0.65514445304870605 0.78042089939117432
0.25783205032348633 0.65317463874816895 0.7826608419418335
0.39899909496307373 0.65191811323165894 0.78688591718673706
0.54527872800827026 0.65375798940658569 0.79266870021820068
0.67056399583816528 0.64982104301452637 0.80048775672912598
0.79268330335617065 0.64437699317932129 0.80368924140930176
0.90801346302032471 0.64135861396789551 0.80960184335708618
0.36264121532440186 0.78452879190444946 0.84191536903381348
0.40739980340003967 0.78339850902557373 0.84905827045440674
0.48509585857391357 0.78149890899658203 0.84764003753662109
0.58541756868362427 0.78300046920776367 0.85625338554382324
0.69860434532165527 0.78286194801330566 0.86336857080459595
0.80812567472457886 0.77646762132644653 0.86411011219024658
0.92537254095077515 0.78030508756637573 0.87079215049743652
0.49954798817634583 0.93086773157119751 0.92365926504135132
0.52193218469619751 0.93583226203918457 0.92691534757614136
0.570453941822052 0.93199485540390015 0.92668122053146362
0.63841116428375244 0.9354667067527771 0.93390464782714844
0.72494548559188843 0.93396508693695068 0.94123607873916626
0.82807940244674683 0.93506008386611938 0.94751685857772827
0.9676511287689209 0.93987655639648438 0.95747506618499756
