luts/colorslide/kodak_kodachrome_64_generic.cube
# Created by: G'MIC (https://gmic.eu)
TITLE "kodak_kodachrome_64_generic"
# LUT size
LUT_3D_SIZE 7
# Data domain
DOMAIN_MIN 0.0 0.0 0.0
DOMAIN_MAX 1.0 1.0 1.0
# LUT data points
0.022678166627883911 0.01655883714556694 0.015427563339471817
0.11590495705604553 0.016878359019756317 0.016208767890930176
0.29034221172332764 0.021153917536139488 0.028657412156462669
0.52666360139846802 0.025118390098214149 0.020421450957655907
0.75287872552871704 0.035304304212331772 0.035675182938575745
0.96064597368240356 0.035881191492080688 0.029661456122994423
0.99874895811080933 0.03896007314324379 0.028338877484202385
0.044812072068452835 0.10625383257865906 0.026627065613865852
0.12148658931255341 0.11122643202543259 0.028852859511971474
0.29396507143974304 0.11777281016111374 0.03531372919678688
0.52529245615005493 0.12675139307975769 0.035208728164434433
0.75771570205688477 0.13304829597473145 0.036699719727039337
0.95784324407577515 0.13776303827762604 0.040294136852025986
0.99902999401092529 0.14664919674396515 0.044695403426885605
0.039311442524194717 0.27726846933364868 0.048799507319927216
0.08708624541759491 0.28034725785255432 0.049520231783390045
0.28761476278305054 0.28935301303863525 0.056026920676231384
0.51843488216400146 0.29099127650260925 0.058569036424160004
0.74875092506408691 0.30062040686607361 0.06179504469037056
0.9387211799621582 0.30614832043647766 0.066465876996517181
0.99714493751525879 0.30956330895423889 0.068108715116977692
0 0.48368537425994873 0.066526316106319427
0.0087782172486186028 0.49007821083068848 0.072973988950252533
0.24671410024166107 0.49203789234161377 0.074351727962493896
0.50369834899902344 0.49787569046020508 0.078655079007148743
0.7265089750289917 0.50395387411117554 0.082178883254528046
0.91205912828445435 0.51304143667221069 0.088603243231773376
0.99562519788742065 0.52142071723937988 0.094987042248249054
0 0.6826750636100769 0.075880177319049835
0.0045880484394729137 0.68395256996154785 0.077699817717075348
0.16330415010452271 0.68728154897689819 0.077103771269321442
0.48021742701530457 0.68885982036590576 0.076982088387012482
0.70755946636199951 0.70041489601135254 0.079527668654918671
0.8843349814414978 0.70867830514907837 0.081091970205307007
0.99014085531234741 0.71430659294128418 0.080619305372238159
4.6673943870700896e-05 0.83521676063537598 0.036161713302135468
0.0059241200797259808 0.84072184562683105 0.03588167205452919
0.20451180636882782 0.8470999002456665 0.035072851926088333
0.4913947582244873 0.8475639820098877 0.032944235950708389
0.69838631153106689 0.85499918460845947 0.032921377569437027
0.86084520816802979 0.85572928190231323 0.028968989849090576
0.97348600625991821 0.86144548654556274 0.036888569593429565
0 0.96767789125442505 0.039312176406383514
0.036959197372198105 0.96988970041275024 0.040561482310295105
0.30784222483634949 0.96988320350646973 0.040520027279853821
0.52738142013549805 0.97200483083724976 0.046473558992147446
0.70551091432571411 0.97172921895980835 0.052796665579080582
0.84219205379486084 0.97544896602630615 0.054603487253189087
0.98222070932388306 0.97969156503677368 0.061911400407552719
0.020376751199364662 0.021744508296251297 0.10548102855682373
0.12018518149852753 0.016087550669908524 0.10312929004430771
0.29135826230049133 0.01990172453224659 0.10809125751256943
0.52863317728042603 0.024428512901067734 0.11214898526668549
0.76463061571121216 0.028497479856014252 0.11863303184509277
0.96231722831726074 0.032852262258529663 0.12020669132471085
0.99810141324996948 0.035167276859283447 0.12312015891075134
0.044526629149913788 0.10890869796276093 0.1160791739821434
0.11651898920536041 0.10892161726951599 0.11405029147863388
0.29563173651695251 0.11704487353563309 0.11853855848312378
0.52610307931900024 0.1224435567855835 0.12118473649024963
0.75889396667480469 0.13183729350566864 0.12621194124221802
0.95782357454299927 0.13820934295654297 0.12816402316093445
0.99744319915771484 0.14410372078418732 0.13450469076633453
0.038961879909038544 0.27515634894371033 0.12655879557132721
0.092238456010818481 0.27998089790344238 0.12842647731304169
0.28628784418106079 0.28519085049629211 0.13533167541027069
0.51988840103149414 0.29237920045852661 0.13590767979621887
0.74449211359024048 0.30193212628364563 0.14094707369804382
0.93978619575500488 0.30596926808357239 0.14295056462287903
0.99904400110244751 0.31273072957992554 0.14739090204238892
2.4773093173280358e-05 0.48643794655799866 0.13788856565952301
0.010811525397002697 0.49145990610122681 0.13990072906017303
0.23761102557182312 0.49611741304397583 0.14907577633857727
0.5050048828125 0.49885815382003784 0.14418153464794159
0.72757315635681152 0.50565749406814575 0.14697873592376709
0.91659033298492432 0.51273190975189209 0.14967197179794312
0.99769490957260132 0.51917469501495361 0.15189580619335175
0 0.68700516223907471 0.13304345309734344
0.00099419988691806793 0.6856309175491333 0.13426491618156433
0.17271578311920166 0.69031357765197754 0.13561278581619263
0.48651158809661865 0.69664138555526733 0.13817939162254333
0.70667439699172974 0.70077276229858398 0.14333018660545349
0.88626915216445923 0.7081494927406311 0.14329320192337036
0.98919832706451416 0.71060043573379517 0.14802552759647369
4.6673943870700896e-05 0.84231841564178467 0.14132110774517059
0.0025375664699822664 0.84387975931167603 0.13527829945087433
0.20889420807361603 0.84776014089584351 0.13352884352207184
0.48447304964065552 0.84779232740402222 0.14145572483539581
0.69708192348480225 0.85308760404586792 0.14836925268173218
0.85803663730621338 0.85331493616104126 0.146745964884758
0.98115164041519165 0.8607373833656311 0.14992611110210419
0 0.97092080116271973 0.16270731389522552
0.038871392607688904 0.96993535757064819 0.16642995178699493
0.30501472949981689 0.96744257211685181 0.17016902565956116
0.52648794651031494 0.97115933895111084 0.170916348695755
0.70228534936904907 0.97299337387084961 0.17537571489810944
0.83789432048797607 0.9757121205329895 0.17417608201503754
0.98180913925170898 0.97924333810806274 0.17879858613014221
0.019981309771537781 0.015089461579918861 0.2639712393283844
0.12316232174634933 0.017115604132413864 0.27042213082313538
0.29197674989700317 0.018736178055405617 0.27235832810401917
0.52988547086715698 0.027514873072504997 0.27331915497779846
0.76717770099639893 0.028634374961256981 0.27957552671432495
0.96493494510650635 0.030254827812314034 0.28777343034744263
0.99649804830551147 0.03482653945684433 0.2896115779876709
0.042550615966320038 0.10876619070768356 0.27484676241874695
0.11736640334129333 0.10339456051588058 0.27639856934547424
0.2938193678855896 0.11075440794229507 0.28027135133743286
0.52946162223815918 0.12110909819602966 0.28325676918029785
0.75619339942932129 0.12788908183574677 0.28802132606506348
0.95783513784408569 0.135456383228302 0.29345905780792236
0.99607223272323608 0.1387932300567627 0.29221436381340027
0.033769272267818451 0.27659597992897034 0.29229864478111267
0.09277363121509552 0.27672263979911804 0.28849926590919495
0.2842690646648407 0.27995947003364563 0.29747322201728821
0.52440541982650757 0.28561833500862122 0.29497957229614258
0.74926376342773438 0.29264390468597412 0.30280020833015442
0.9428446888923645 0.30108070373535156 0.3073694109916687
0.99652469158172607 0.30641087889671326 0.30512437224388123
0.00074729172047227621 0.48293522000312805 0.3039957582950592
0.012228976935148239 0.4856511652469635 0.30980080366134644
0.25275975465774536 0.48561054468154907 0.31147953867912292
0.50555014610290527 0.49408066272735596 0.3118845522403717
0.72868591547012329 0.50167477130889893 0.31888049840927124
0.91583555936813354 0.50866377353668213 0.32313179969787598
0.9954952597618103 0.51823920011520386 0.32305029034614563
0.00020937452791258693 0.68053561449050903 0.31803840398788452
0.0059323627501726151 0.68433612585067749 0.32378765940666199
0.17970104515552521 0.68638688325881958 0.32785525918006897
0.48643031716346741 0.69152247905731201 0.32742571830749512
0.70483565330505371 0.69595509767532349 0.3309997022151947
0.88893216848373413 0.70022368431091309 0.33816438913345337
0.99332314729690552 0.70937848091125488 0.33894684910774231
0.00015079273725859821 0.83590024709701538 0.33815708756446838
0.0064199110493063927 0.83900398015975952 0.34358265995979309
0.21496464312076569 0.8425368070602417 0.34608083963394165
0.49559512734413147 0.84183627367019653 0.34592270851135254
0.70058077573776245 0.84783405065536499 0.35054236650466919
0.85838186740875244 0.85536307096481323 0.35391673445701599
0.98117321729660034 0.85936087369918823 0.35287767648696899
0.00056767184287309647 0.96582931280136108 0.36624854803085327
0.045206811279058456 0.96366393566131592 0.367330402135849
0.3125702440738678 0.96411633491516113 0.37157189846038818
0.52589583396911621 0.96159034967422485 0.36538004875183105
0.706573486328125 0.97140622138977051 0.37019318342208862
0.84009379148483276 0.97354191541671753 0.37195229530334473
0.98142457008361816 0.97735631465911865 0.3767954409122467
0.019859343767166138 0.013724188320338726 0.46470588445663452
0.11885970085859299 0.018423281610012054 0.46525591611862183
0.28782156109809875 0.015174043364822865 0.46903190016746521
0.52342450618743896 0.021479543298482895 0.47118133306503296
0.7644234299659729 0.025614690035581589 0.47228708863258362
0.96428877115249634 0.028185555711388588 0.47952473163604736
0.99692070484161377 0.030930537730455399 0.48609450459480286
0.043481387197971344 0.10116323083639145 0.47428995370864868
0.11808061599731445 0.0995369553565979 0.47481372952461243
0.29211512207984924 0.10728472471237183 0.48212924599647522
0.52558594942092896 0.11359602957963943 0.4849560558795929
0.75461256504058838 0.12513233721256256 0.48354423046112061
0.95741671323776245 0.13041417300701141 0.4885009229183197
0.99606692790985107 0.13976101577281952 0.49035066366195679
0.039416547864675522 0.26847606897354126 0.49247932434082031
0.095239095389842987 0.27065956592559814 0.49043911695480347
0.2912960946559906 0.2725834846496582 0.49018362164497375
0.5240362286567688 0.27963671088218689 0.49004361033439636
0.74853473901748657 0.28933441638946533 0.49810263514518738
0.94285237789154053 0.29817354679107666 0.50206214189529419
0.99634230136871338 0.30668336153030396 0.50097399950027466
0.0038526346907019615 0.47455832362174988 0.50684857368469238
0.0099924271926283836 0.48106637597084045 0.50695973634719849
0.25215193629264832 0.48680001497268677 0.50711512565612793
0.50284808874130249 0.49134331941604614 0.50602513551712036
0.73143935203552246 0.49538549780845642 0.51154261827468872
0.91936784982681274 0.50399935245513916 0.51822376251220703
0.99445468187332153 0.50906246900558472 0.51606911420822144
0 0.66979187726974487 0.51815307140350342
0.0018167683156207204 0.67694425582885742 0.51893669366836548
0.18521334230899811 0.68360441923141479 0.52631974220275879
0.48812636733055115 0.68423342704772949 0.52440565824508667
0.7091941237449646 0.68860268592834473 0.53089910745620728
0.88797307014465332 0.69326597452163696 0.53636294603347778
0.99174046516418457 0.70178705453872681 0.53244978189468384
0 0.82925224304199219 0.53686368465423584
0.0047054514288902283 0.83255988359451294 0.53929424285888672
0.22465062141418457 0.83703649044036865 0.54285275936126709
0.49307319521903992 0.84163302183151245 0.54319709539413452
0.69952523708343506 0.84596484899520874 0.54670041799545288
0.86324590444564819 0.84893780946731567 0.54700064659118652
0.9848518967628479 0.85208439826965332 0.54588288068771362
0 0.95867359638214111 0.56294405460357666
0.060637515038251877 0.96174222230911255 0.56077224016189575
0.31842237710952759 0.96321207284927368 0.55992573499679565
0.5315515398979187 0.96713948249816895 0.56290686130523682
0.70672029256820679 0.96830958127975464 0.56258916854858398
0.84263598918914795 0.9707639217376709 0.5651620626449585
0.98193413019180298 0.97518569231033325 0.56979501247406006
0.022798845544457436 0.010801187716424465 0.64691019058227539
0.12317373603582382 0.01485812570899725 0.64716857671737671
0.29111886024475098 0.015085960738360882 0.65103179216384888
0.52428960800170898 0.019278582185506821 0.65189945697784424
0.76261818408966064 0.022320780903100967 0.65727472305297852
0.96081364154815674 0.026477962732315063 0.65901672840118408
0.99823963642120361 0.027058783918619156 0.66375160217285156
0.049073852598667145 0.09845656156539917 0.65144771337509155
0.12087864428758621 0.094970554113388062 0.65967065095901489
0.29634350538253784 0.10138890892267227 0.66232091188430786
0.52418851852416992 0.11195369064807892 0.66385805606842041
0.75701576471328735 0.11838550865650177 0.66695308685302734
0.95937061309814453 0.12602855265140533 0.67009431123733521
0.99938035011291504 0.13233302533626556 0.67387109994888306
0.050305955111980438 0.26359814405441284 0.66868746280670166
0.098047085106372833 0.26578414440155029 0.6710280179977417
0.29215547442436218 0.27189475297927856 0.67015308141708374
0.52298438549041748 0.27772760391235352 0.67711001634597778
0.74546247720718384 0.28665575385093689 0.67933589220046997
0.94546800851821899 0.29601797461509705 0.68290376663208008
0.99669790267944336 0.29560264945030212 0.68857204914093018
0 0.47446665167808533 0.68316251039505005
0.017348136752843857 0.47745481133460999 0.68887472152709961
0.26163414120674133 0.47717896103858948 0.68954277038574219
0.50450992584228516 0.48788851499557495 0.68977165222167969
0.73054057359695435 0.49219539761543274 0.69274669885635376
0.91703552007675171 0.50019121170043945 0.69919174909591675
0.99878609180450439 0.5007367730140686 0.69956040382385254
0 0.66862362623214722 0.69606608152389526
0.00088674505241215229 0.67289155721664429 0.70458459854125977
0.19745631515979767 0.68094640970230103 0.70671778917312622
0.48988422751426697 0.68522727489471436 0.70514529943466187
0.70836508274078369 0.68586480617523193 0.71070075035095215
0.89147752523422241 0.68924409151077271 0.7141411304473877
0.99134337902069092 0.69536638259887695 0.71252155303955078
0 0.83160489797592163 0.71694618463516235
0.0039229746907949448 0.83261531591415405 0.71997672319412231
0.23301704227924347 0.83655363321304321 0.72107207775115967
0.49958908557891846 0.83663761615753174 0.7152373194694519
0.7046547532081604 0.83911979198455811 0.72196841239929199
0.86726081371307373 0.84454596042633057 0.72486525774002075
0.98650002479553223 0.85230720043182373 0.72845113277435303
0.0013634625356644392 0.95482420921325684 0.73338818550109863
0.069519370794296265 0.95908176898956299 0.73666685819625854
0.32611986994743347 0.9598732590675354 0.73516178131103516
0.53475719690322876 0.96308082342147827 0.7355613112449646
0.70799809694290161 0.96794247627258301 0.73685592412948608
0.84132903814315796 0.97030490636825562 0.73848861455917358
0.98411113023757935 0.97311872243881226 0.74333292245864868
0.023980967700481415 0.008821539580821991 0.79286372661590576
0.12245825678110123 0.012353889644145966 0.79099553823471069
0.291473388671875 0.015870291739702225 0.78989255428314209
0.52498102188110352 0.016173597425222397 0.79658389091491699
0.76156049966812134 0.019684929400682449 0.80419450998306274
0.96353697776794434 0.02468179352581501 0.80898368358612061
0.99924957752227783 0.025927599519491196 0.81061029434204102
0.047163031995296478 0.093114994466304779 0.79736769199371338
0.12172523885965347 0.093936324119567871 0.79863405227661133
0.30091983079910278 0.097018435597419739 0.80281496047973633
0.5267443060874939 0.10780662298202515 0.80830842256546021
0.75840502977371216 0.11992567777633667 0.811992347240448
0.95691841840744019 0.12264567613601685 0.812458336353302
1 0.12768055498600006 0.80779588222503662
0.048612091690301895 0.26093792915344238 0.81253784894943237
0.097873881459236145 0.26398041844367981 0.81179076433181763
0.29720413684844971 0.26705574989318848 0.81568610668182373
0.52769708633422852 0.27053296566009521 0.81873136758804321
0.75435471534729004 0.2838989794254303 0.82027637958526611
0.94586348533630371 0.28865879774093628 0.82655918598175049
0.99642372131347656 0.29615277051925659 0.82666999101638794
0.00063427194254472852 0.47389242053031921 0.82721281051635742
0.01833781786262989 0.47385716438293457 0.82777947187423706
0.26374554634094238 0.48017904162406921 0.82981085777282715
0.50936084985733032 0.48295110464096069 0.83146208524703979
0.73107755184173584 0.4841802716255188 0.83455073833465576
0.9249647855758667 0.49174797534942627 0.83899617195129395
0.99674797058105469 0.50168293714523315 0.84203237295150757
0 0.67232680320739746 0.84274125099182129
0.0050118239596486092 0.67327487468719482 0.84302914142608643
0.1965336799621582 0.67648208141326904 0.84495383501052856
0.49187079071998596 0.6813960075378418 0.84471052885055542
0.70824098587036133 0.6817324161529541 0.84976756572723389
0.88968807458877563 0.68411159515380859 0.85052359104156494
0.99416553974151611 0.69366377592086792 0.85581046342849731
0.0028622646350413561 0.82464039325714111 0.85818827152252197
0.0088484520092606544 0.82668024301528931 0.85589271783828735
0.23774315416812897 0.83028274774551392 0.85662835836410522
0.50276452302932739 0.8335760235786438 0.85758513212203979
0.70332294702529907 0.83759129047393799 0.86127567291259766
0.86350852251052856 0.84463763236999512 0.85937881469726562
0.98475128412246704 0.84396868944168091 0.8626713752746582
0.0038084143307060003 0.95545923709869385 0.86882978677749634
0.083283700048923492 0.95606207847595215 0.8679078221321106
0.33010107278823853 0.95040333271026611 0.86586123704910278
0.53609472513198853 0.95757919549942017 0.86691778898239136
0.70808082818984985 0.96268337965011597 0.86815023422241211
0.84146934747695923 0.96878451108932495 0.87331366539001465
0.98393499851226807 0.97228986024856567 0.87651574611663818
0.023271868005394936 0.0060395481996238232 0.89695119857788086
0.12136112153530121 0.0084436750039458275 0.90092933177947998
0.28446105122566223 0.0098373712971806526 0.90497285127639771
0.52547377347946167 0.013151939027011395 0.90790420770645142
0.75424343347549438 0.022889485582709312 0.91240018606185913
0.96402204036712646 0.023611599579453468 0.91580331325531006
0.99916762113571167 0.025198513641953468 0.91234636306762695
0.047322738915681839 0.088850729167461395 0.90751630067825317
0.12141390144824982 0.088183686137199402 0.90830725431442261
0.30098766088485718 0.10221898555755615 0.90999573469161987
0.5296933650970459 0.1067599281668663 0.91586184501647949
0.75979816913604736 0.12218617647886276 0.91948491334915161
0.95917201042175293 0.12084462493658066 0.92338615655899048
0.99981564283370972 0.12427881360054016 0.92560946941375732
0.053552336990833282 0.25897431373596191 0.92043191194534302
0.10226148366928101 0.26016563177108765 0.91972160339355469
0.29436871409416199 0.270713210105896 0.92514121532440186
0.52714765071868896 0.27939498424530029 0.92375212907791138
0.75271368026733398 0.28265085816383362 0.9319920539855957
0.94288021326065063 0.29083120822906494 0.93548256158828735
0.99948877096176147 0.29723557829856873 0.93862241506576538
0.00012610940029844642 0.47195130586624146 0.93470382690429688
0.017070380970835686 0.47210443019866943 0.93498390913009644
0.26631590723991394 0.47695136070251465 0.93935436010360718
0.50948238372802734 0.48289817571640015 0.94117408990859985
0.73167890310287476 0.48558524250984192 0.94404613971710205
0.92278873920440674 0.4923001229763031 0.95044338703155518
0.99931484460830688 0.49781399965286255 0.95088660717010498
0 0.66585755348205566 0.95262616872787476
0.0035330979153513908 0.66991806030273438 0.95156681537628174
0.20287419855594635 0.6740068793296814 0.95417147874832153
0.49106898903846741 0.6716572642326355 0.95450323820114136
0.70894891023635864 0.67832857370376587 0.95855748653411865
0.88071596622467041 0.68156415224075317 0.95946896076202393
0.9872816801071167 0.6796906590461731 0.96106094121932983
7.1985581598710269e-05 0.82225501537322998 0.96448588371276855
0.0049500260502099991 0.82487636804580688 0.96300232410430908
0.24481847882270813 0.831531822681427 0.96818971633911133
0.50488942861557007 0.83265572786331177 0.97093772888183594
0.70610499382019043 0.83278119564056396 0.97112572193145752
0.86330509185791016 0.83677870035171509 0.97182542085647583
0.98518437147140503 0.84434974193572998 0.97538977861404419
0.00038057216443121433 0.95405328273773193 0.97489088773727417
0.085777506232261658 0.95334440469741821 0.97790414094924927
0.33758383989334106 0.95444661378860474 0.98235541582107544
0.54241150617599487 0.95909565687179565 0.98301643133163452
0.71348971128463745 0.96128576993942261 0.98073697090148926
0.84684658050537109 0.96722579002380371 0.98484700918197632
0.98314112424850464 0.97070163488388062 0.98599016666412354
