luts/colorslide/kodak_e-100_gx_ektachrome_100.cube
# Created by: G'MIC (https://gmic.eu)
TITLE "kodak_e-100_gx_ektachrome_100"
# LUT size
LUT_3D_SIZE 13
# Data domain
DOMAIN_MIN 0.0 0.0 0.0
DOMAIN_MAX 1.0 1.0 1.0
# LUT data points
0.027322746813297272 0.027193225920200348 0.023143678903579712
0.066221170127391815 0.022683970630168915 0.023008517920970917
0.12087049335241318 0.018098719418048859 0.019212460145354271
0.17880502343177795 0.014897918328642845 0.014455279335379601
0.24472583830356598 0.012475989758968353 0.011646660044789314
0.31909257173538208 0.010341794230043888 0.010328046046197414
0.39805740118026733 0.008648337796330452 0.0080423392355442047
0.47396177053451538 0.0063914130441844463 0.0075929379090666771
0.54637229442596436 0.0028243421111255884 0.0038681928999722004
0.61641788482666016 0.0032971100881695747 0.0055681713856756687
0.68885684013366699 0.0039215688593685627 0.0076231863349676132
0.76208746433258057 0.0044522904790937901 0.0043377145193517208
0.82710140943527222 0.0066193225793540478 0.00082650280091911554
0.063408374786376953 0.08635171502828598 0.045810669660568237
0.098480358719825745 0.082193098962306976 0.043377790600061417
0.15174481272697449 0.075672432780265808 0.040258698165416718
0.20860452950000763 0.065945178270339966 0.034343808889389038
0.27187857031822205 0.05710233747959137 0.028225230053067207
0.34208151698112488 0.047343011945486069 0.022131077945232391
0.41284802556037903 0.033878758549690247 0.016757367178797722
0.48352771997451782 0.019612465053796768 0.011963265016674995
0.55517971515655518 0.011965942569077015 0.010068856179714203
0.6237519383430481 0.0082032745704054832 0.0087905731052160263
0.69277042150497437 0.0042932098731398582 0.0078984275460243225
0.76379907131195068 0.004047782626003027 0.0059028174728155136
0.82674157619476318 0.0039266250096261501 0.001636071247048676
0.10458311438560486 0.16246846318244934 0.077786885201931
0.13351520895957947 0.15769034624099731 0.073406234383583069
0.18250496685504913 0.15071825683116913 0.06957843154668808
0.23822824656963348 0.13994914293289185 0.062045708298683167
0.2995937168598175 0.12722766399383545 0.053855806589126587
0.36834985017776489 0.11271446198225021 0.046279024332761765
0.43702375888824463 0.094458863139152527 0.037266615778207779
0.50513267517089844 0.072096608579158783 0.030247977003455162
0.57308399677276611 0.04913807287812233 0.020171355456113815
0.63708585500717163 0.025598727166652679 0.01276053674519062
0.69968771934509277 0.010641179978847504 0.0094719231128692627
0.76704514026641846 0.0064313700422644615 0.0099262315779924393
0.82652187347412109 0.0041432697325944901 0.0065626255236566067
0.13587492704391479 0.2407124787569046 0.10908686369657516
0.16688358783721924 0.23636007308959961 0.10568268597126007
0.21328039467334747 0.23077449202537537 0.1022799015045166
0.26770144701004028 0.22151270508766174 0.095146194100379944
0.33142262697219849 0.20989467203617096 0.087909355759620667
0.3967343270778656 0.19525432586669922 0.079017013311386108
0.46539521217346191 0.17618970572948456 0.070207826793193817
0.53177350759506226 0.15224221348762512 0.060381375253200531
0.59682011604309082 0.12255247682332993 0.048176199197769165
0.65840727090835571 0.086896501481533051 0.035453438758850098
0.71651160717010498 0.04880993440747261 0.025025954470038414
0.77452129125595093 0.017467783764004707 0.01648305170238018
0.82956385612487793 0.0071469475515186787 0.010374211706221104
0.16805680096149445 0.32378622889518738 0.14028686285018921
0.19992290437221527 0.32216587662696838 0.13960207998752594
0.24559962749481201 0.31840246915817261 0.13620458543300629
0.30256772041320801 0.31010657548904419 0.1308397650718689
0.36426675319671631 0.3007102906703949 0.12426029145717621
0.42852547764778137 0.2882329523563385 0.11715739965438843
0.49496757984161377 0.27036139369010925 0.1096748486161232
0.55957990884780884 0.25159060955047607 0.10202155262231827
0.62371701002120972 0.22337107360363007 0.091462694108486176
0.68446654081344604 0.18572801351547241 0.077767357230186462
0.74197483062744141 0.13817478716373444 0.061884548515081406
0.79439735412597656 0.080074340105056763 0.044078916311264038
0.83947592973709106 0.031435515731573105 0.029149552807211876
0.21665742993354797 0.41229984164237976 0.1754753440618515
0.24296361207962036 0.41055119037628174 0.17383246123790741
0.28480225801467896 0.40897151827812195 0.17151385545730591
0.34193497896194458 0.40448248386383057 0.16910901665687561
0.40079799294471741 0.39628857374191284 0.16207458078861237
0.45951774716377258 0.38452613353729248 0.1540982574224472
0.52257317304611206 0.36922118067741394 0.147725909948349
0.58732146024703979 0.35425090789794922 0.14041440188884735
0.65183073282241821 0.33380317687988281 0.13211303949356079
0.71054136753082275 0.30352932214736938 0.123892642557621
0.77050614356994629 0.25871467590332031 0.10909558832645416
0.82426536083221436 0.19608567655086517 0.090278193354606628
0.86572998762130737 0.12461830675601959 0.069754429161548615
0.27342033386230469 0.49898338317871094 0.21167579293251038
0.29628118872642517 0.49632412195205688 0.21019059419631958
0.33565786480903625 0.49703693389892578 0.20747703313827515
0.38348183035850525 0.49686932563781738 0.2039782702922821
0.43873441219329834 0.49022811651229858 0.19987170398235321
0.49447008967399597 0.47974002361297607 0.1932675838470459
0.55452442169189453 0.47009211778640747 0.18460182845592499
0.61652183532714844 0.45831197500228882 0.17796282470226288
0.67957937717437744 0.44357785582542419 0.17295561730861664
0.73986881971359253 0.42285218834877014 0.16530510783195496
0.80028802156448364 0.38773834705352783 0.1527770608663559
0.85682195425033569 0.33929461240768433 0.1385372132062912
0.89969015121459961 0.27575397491455078 0.12330376356840134
0.33825287222862244 0.58759891986846924 0.2528250515460968
0.35543343424797058 0.58526933193206787 0.25016191601753235
0.38763105869293213 0.58339232206344604 0.24668757617473602
0.42799821496009827 0.58239233493804932 0.24425706267356873
0.47673395276069641 0.5813366174697876 0.23929177224636078
0.53010904788970947 0.57395988702774048 0.23434272408485413
0.58787566423416138 0.56410437822341919 0.22823452949523926
0.64679437875747681 0.55347049236297607 0.2193874716758728
0.70862847566604614 0.54386001825332642 0.21153536438941956
0.76815938949584961 0.52723228931427002 0.20529511570930481
0.82829117774963379 0.50552016496658325 0.19631516933441162
0.88532131910324097 0.47192052006721497 0.18490196764469147
0.93228358030319214 0.4269329309463501 0.17171241343021393
0.40081626176834106 0.67184418439865112 0.29626688361167908
0.41450044512748718 0.66854804754257202 0.29450494050979614
0.43926137685775757 0.66453999280929565 0.29239591956138611
0.47500035166740417 0.66357630491256714 0.29000610113143921
0.52000206708908081 0.66148978471755981 0.28610515594482422
0.57110261917114258 0.65550702810287476 0.28081148862838745
0.62449336051940918 0.65190660953521729 0.27563497424125671
0.67943376302719116 0.64333915710449219 0.26857122778892517
0.73715460300445557 0.63539391756057739 0.26132464408874512
0.79441308975219727 0.62392812967300415 0.25304996967315674
0.85269355773925781 0.60912066698074341 0.2461417019367218
0.9103582501411438 0.58399254083633423 0.23717886209487915
0.95678967237472534 0.55144089460372925 0.22557304799556732
0.46332827210426331 0.74903655052185059 0.34246370196342468
0.4749055802822113 0.74812859296798706 0.3416496217250824
0.49547669291496277 0.74436348676681519 0.34096097946166992
0.52635389566421509 0.73951667547225952 0.33799552917480469
0.56745904684066772 0.73528093099594116 0.33309456706047058
0.61510616540908813 0.7305980920791626 0.32920986413955688
0.66093075275421143 0.73044276237487793 0.32703205943107605
0.71357560157775879 0.72714799642562866 0.32202890515327454
0.76842206716537476 0.72175061702728271 0.31447041034698486
0.82047039270401001 0.71066248416900635 0.30718937516212463
0.87646228075027466 0.700611412525177 0.29962152242660522
0.93076342344284058 0.68414527177810669 0.29144287109375
0.97690689563751221 0.66140305995941162 0.27967414259910583
0.52996742725372314 0.82062751054763794 0.39036750793457031
0.54201614856719971 0.81912755966186523 0.38981658220291138
0.55927979946136475 0.81575077772140503 0.388531893491745
0.58467990159988403 0.81270885467529297 0.38570797443389893
0.61868852376937866 0.81244099140167236 0.3814316987991333
0.65965348482131958 0.81078922748565674 0.37940794229507446
0.70103335380554199 0.81126409769058228 0.37841182947158813
0.74895352125167847 0.80940455198287964 0.37441560626029968
0.79971623420715332 0.80246484279632568 0.36818808317184448
0.84852391481399536 0.79650098085403442 0.36235973238945007
0.89965051412582397 0.79000794887542725 0.35338488221168518
0.95024681091308594 0.77672523260116577 0.3447858989238739
0.99128252267837524 0.76342093944549561 0.33466491103172302
0.60187184810638428 0.88668638467788696 0.44173866510391235
0.61026579141616821 0.88719797134399414 0.43771111965179443
0.62800109386444092 0.88467949628829956 0.43680950999259949
0.6527329683303833 0.88225924968719482 0.43453642725944519
0.67723166942596436 0.88527548313140869 0.43283015489578247
0.70913487672805786 0.88431137800216675 0.43196570873260498
0.74750536680221558 0.88399434089660645 0.43071997165679932
0.787497878074646 0.88587397336959839 0.42940446734428406
0.83253014087677002 0.88278287649154663 0.423563152551651
0.87855571508407593 0.87679493427276611 0.4155876636505127
0.92423295974731445 0.87132686376571655 0.40821617841720581
0.96875292062759399 0.86420285701751709 0.40000176429748535
0.9952356219291687 0.85650855302810669 0.39374193549156189
0.68166428804397583 0.94898021221160889 0.49280110001564026
0.68618804216384888 0.9492536187171936 0.49062225222587585
0.70061671733856201 0.94869399070739746 0.4916379451751709
0.71722173690795898 0.94483679533004761 0.48962479829788208
0.73733413219451904 0.94603216648101807 0.48928871750831604
0.7646746039390564 0.94708156585693359 0.48760059475898743
0.79620778560638428 0.94810634851455688 0.48532474040985107
0.83192086219787598 0.94865930080413818 0.48358860611915588
0.86972981691360474 0.95003223419189453 0.47964257001876831
0.90830439329147339 0.94589769840240479 0.47345957159996033
0.94886529445648193 0.94320511817932129 0.46842974424362183
0.9844135046005249 0.94172310829162598 0.462027907371521
0.99780803918838501 0.93718558549880981 0.45601966977119446
0.02299957349896431 0.029580343514680862 0.062768690288066864
0.059660352766513824 0.026203319430351257 0.060674119740724564
0.11369690299034119 0.024328852072358131 0.057366345077753067
0.17321951687335968 0.019067008048295975 0.051128551363945007
0.23896817862987518 0.013883733190596104 0.043425541371107101
0.31303820013999939 0.010619428940117359 0.03809751570224762
0.39101085066795349 0.0075567355379462242 0.032532606273889542
0.4675997793674469 0.0052943360060453415 0.024900399148464203
0.54409980773925781 0.0024655810557305813 0.017524240538477898
0.61685740947723389 0.0024972355458885431 0.015532864257693291
0.68842417001724243 0.0038787841331213713 0.011608483269810677
0.75793659687042236 0.00392176304012537 0.0066275354474782944
0.8211553692817688 0.0039415997453033924 0.0033555871341377497
0.058275662362575531 0.091995373368263245 0.093977533280849457
0.091049909591674805 0.086907409131526947 0.089836433529853821
0.14388635754585266 0.08128279447555542 0.0863761305809021
0.20251058042049408 0.070986941456794739 0.079762615263462067
0.267738938331604 0.062295202165842056 0.073079906404018402
0.33840122818946838 0.050229974091053009 0.064812786877155304
0.4097350537776947 0.035877976566553116 0.054014842957258224
0.48044624924659729 0.021873189136385918 0.044269770383834839
0.55225265026092529 0.0099722323939204216 0.034808274358510971
0.62207895517349243 0.0062876981683075428 0.028509477153420448
0.69174182415008545 0.0039468505419790745 0.020346652716398239
0.75829946994781494 0.0039215688593685627 0.014927583746612072
0.82069951295852661 0.0039215688593685627 0.0081902146339416504
0.10128893703222275 0.16609489917755127 0.12463444471359253
0.12739278376102448 0.16210067272186279 0.12127482146024704
0.17451107501983643 0.15428610146045685 0.1156008243560791
0.23154394328594208 0.14397592842578888 0.10732263326644897
0.29557177424430847 0.13256652653217316 0.10031799972057343
0.36549550294876099 0.11757535487413406 0.092292949557304382
0.43396914005279541 0.097844965755939484 0.082609899342060089
0.50309371948242188 0.075866386294364929 0.073058076202869415
0.57010173797607422 0.051165800541639328 0.058794926851987839
0.63394397497177124 0.026552775874733925 0.047592610120773315
0.69639647006988525 0.0084133520722389221 0.037278328090906143
0.75994139909744263 0.0042639491148293018 0.029600420966744423
0.82098156213760376 0.0039449054747819901 0.020289896056056023
0.12956739962100983 0.2458634227514267 0.15274550020694733
0.15774847567081451 0.2415987104177475 0.15010210871696472
0.20578543841838837 0.23469549417495728 0.14683102071285248
0.26435241103172302 0.22802296280860901 0.13979817926883698
0.32839563488960266 0.21796563267707825 0.13248401880264282
0.39529913663864136 0.20233552157878876 0.12506689131259918
0.46231299638748169 0.18182502686977386 0.11578460037708282
0.52904689311981201 0.15473657846450806 0.10490868985652924
0.59382641315460205 0.12462065368890762 0.092223837971687317
0.65569740533828735 0.090492010116577148 0.081092849373817444
0.71337324380874634 0.04971211776137352 0.064460739493370056
0.76955026388168335 0.018101874738931656 0.04953702911734581
0.82317793369293213 0.006472898181527853 0.039043635129928589
0.15835104882717133 0.32963502407073975 0.18052834272384644
0.19241397082805634 0.32755193114280701 0.17928424477577209
0.23828867077827454 0.32357800006866455 0.17576143145561218
0.29873305559158325 0.31654560565948486 0.17184950411319733
0.36055776476860046 0.30692169070243835 0.16488765180110931
0.42569822072982788 0.29090550541877747 0.15724249184131622
0.49071869254112244 0.27351167798042297 0.15009516477584839
0.55642670392990112 0.25255605578422546 0.1422850489616394
0.62172794342041016 0.22414843738079071 0.13101053237915039
0.68299657106399536 0.18976593017578125 0.11994549632072449
0.73921370506286621 0.142258420586586 0.10416176170110703
0.79139214754104614 0.084431186318397522 0.085126973688602448
0.83384108543395996 0.032534729689359665 0.068871438503265381
0.21065586805343628 0.41536340117454529 0.21218270063400269
0.23814240097999573 0.41469079256057739 0.21175432205200195
0.27779966592788696 0.41322967410087585 0.20725241303443909
0.33664825558662415 0.40747752785682678 0.20460027456283569
0.39467605948448181 0.39951092004776001 0.19787418842315674
0.4553992748260498 0.38559392094612122 0.1913968026638031
0.51911365985870361 0.37196382880210876 0.18495570123195648
0.58403462171554565 0.35892951488494873 0.17912699282169342
0.65022975206375122 0.33638077974319458 0.16998173296451569
0.71172124147415161 0.30713087320327759 0.16105526685714722
0.76933747529983521 0.26429581642150879 0.14665138721466064
0.82242298126220703 0.20230326056480408 0.12904573976993561
0.86363953351974487 0.12755155563354492 0.10876007378101349
0.26641210913658142 0.49970799684524536 0.24573130905628204
0.29367956519126892 0.49916169047355652 0.24605490267276764
0.33041843771934509 0.49994036555290222 0.24151426553726196
0.37923702597618103 0.49739736318588257 0.23819337785243988
0.43385288119316101 0.49084249138832092 0.23525099456310272
0.49084699153900146 0.48048633337020874 0.22831587493419647
0.55161112546920776 0.47215330600738525 0.22031669318675995
0.6138489842414856 0.46140393614768982 0.21507012844085693
0.67766445875167847 0.4442501962184906 0.21055422723293304
0.73950701951980591 0.4230092465877533 0.20047713816165924
0.79997169971466064 0.39242163300514221 0.18674686551094055
0.85592055320739746 0.34387856721878052 0.17335064709186554
0.89683431386947632 0.281331866979599 0.15810349583625793
0.33002510666847229 0.58712446689605713 0.28856918215751648
0.35083392262458801 0.58559542894363403 0.28603857755661011
0.38333529233932495 0.58475559949874878 0.28064334392547607
0.42322394251823425 0.58377373218536377 0.27648597955703735
0.47148904204368591 0.58186513185501099 0.2725166380405426
0.5262569785118103 0.57317280769348145 0.26800751686096191
0.58456903696060181 0.56246495246887207 0.26386508345603943
0.64350193738937378 0.55510658025741577 0.25757333636283875
0.70488816499710083 0.54474437236785889 0.25148093700408936
0.76502531766891479 0.52705496549606323 0.2427460253238678
0.8251844048500061 0.50651544332504272 0.23308205604553223
0.88316631317138672 0.4725881814956665 0.22238488495349884
0.93059265613555908 0.42879986763000488 0.20685039460659027
0.393483966588974 0.67286223173141479 0.33144849538803101
0.4084618091583252 0.67007607221603394 0.32902640104293823
0.43475216627120972 0.66586583852767944 0.32583847641944885
0.47257980704307556 0.66389071941375732 0.32290351390838623
0.51897764205932617 0.66239708662033081 0.31861093640327454
0.56802195310592651 0.65684646368026733 0.31441840529441833
0.61960619688034058 0.64902967214584351 0.3123633861541748
0.6762201189994812 0.64202141761779785 0.30435347557067871
0.73274743556976318 0.63497871160507202 0.29807913303375244
0.79012429714202881 0.6241142749786377 0.2897287905216217
0.847431480884552 0.60819727182388306 0.28209096193313599
0.90642642974853516 0.58451062440872192 0.27179744839668274
0.95423537492752075 0.55227357149124146 0.25889641046524048
0.45880734920501709 0.75018799304962158 0.37329754233360291
0.47105121612548828 0.74777078628540039 0.37139642238616943
0.49185535311698914 0.74471908807754517 0.36994403600692749
0.52332282066345215 0.74099969863891602 0.36759099364280701
0.56801319122314453 0.73752290010452271 0.36493104696273804
0.6145746111869812 0.73343998193740845 0.36123776435852051
0.65954965353012085 0.73116445541381836 0.35967668890953064
0.71196901798248291 0.72589832544326782 0.35448190569877625
0.76444727182388306 0.71912169456481934 0.34866601228713989
0.81604892015457153 0.7107434868812561 0.33921384811401367
0.87056726217269897 0.70033174753189087 0.33117961883544922
0.92751985788345337 0.68497395515441895 0.32228368520736694
0.9727516770362854 0.66127502918243408 0.31115221977233887
0.5280347466468811 0.82189184427261353 0.41709959506988525
0.53863096237182617 0.81999599933624268 0.41548377275466919
0.55567759275436401 0.81587058305740356 0.41336226463317871
0.58059394359588623 0.81310892105102539 0.4111081063747406
0.61675894260406494 0.81439739465713501 0.40869477391242981
0.65923905372619629 0.8121025562286377 0.40661728382110596
0.70024794340133667 0.81144982576370239 0.40546205639839172
0.74788177013397217 0.80894953012466431 0.4014701247215271
0.79755353927612305 0.80279254913330078 0.39476123452186584
0.84569388628005981 0.79878896474838257 0.38678109645843506
0.89560562372207642 0.79103279113769531 0.37951555848121643
0.94637858867645264 0.7770041823387146 0.37287437915802002
0.9880107045173645 0.76270490884780884 0.36323803663253784
0.60010421276092529 0.8902708888053894 0.46020203828811646
0.6078295111656189 0.8882676362991333 0.4603428840637207
0.62391996383666992 0.88657099008560181 0.45946094393730164
0.64768636226654053 0.88333988189697266 0.45740872621536255
0.67394697666168213 0.88607728481292725 0.45600700378417969
0.70683008432388306 0.88560312986373901 0.45493307709693909
0.74531286954879761 0.88552016019821167 0.45370236039161682
0.78491991758346558 0.88644081354141235 0.45227953791618347
0.83104604482650757 0.88080626726150513 0.44746077060699463
0.87594097852706909 0.87488728761672974 0.43984588980674744
0.92012631893157959 0.87033665180206299 0.43401387333869934
0.96576684713363647 0.86358654499053955 0.42588528990745544
0.99464273452758789 0.85783416032791138 0.42035725712776184
0.67885762453079224 0.94878131151199341 0.51207160949707031
0.6845698356628418 0.9492495059967041 0.51206034421920776
0.69517326354980469 0.94847428798675537 0.51058036088943481
0.71461540460586548 0.94713509082794189 0.50956135988235474
0.73556667566299438 0.94754719734191895 0.50942778587341309
0.76190978288650513 0.94796717166900635 0.50716686248779297
0.79417794942855835 0.94867461919784546 0.50553399324417114
0.82799196243286133 0.9494471549987793 0.50394695997238159
0.86767870187759399 0.94919252395629883 0.50140506029129028
0.90592837333679199 0.94510257244110107 0.49619570374488831
0.94763809442520142 0.94322437047958374 0.49133089184761047
0.98270624876022339 0.94095754623413086 0.48507529497146606
0.99756383895874023 0.93841290473937988 0.48045617341995239
0.020782411098480225 0.032815221697092056 0.11644207686185837
0.053718611598014832 0.03087342157959938 0.11270929872989655
0.10368387401103973 0.027093296870589256 0.10747899115085602
0.16823570430278778 0.021928869187831879 0.1046343669295311
0.2340892106294632 0.01724853552877903 0.095193393528461456
0.30750736594200134 0.013261922635138035 0.087578870356082916
0.38540446758270264 0.0082279732450842857 0.080774016678333282
0.46412909030914307 0.0061466740444302559 0.070166915655136108
0.54137706756591797 0.0039177541621029377 0.058497872203588486
0.61476010084152222 0.0027059218846261501 0.050264321267604828
0.68511748313903809 0.0036668067332357168 0.040380872786045074
0.75479066371917725 0.0039215688593685627 0.030798863619565964
0.81881392002105713 0.0039215688593685627 0.022196616977453232
0.053581535816192627 0.097072198987007141 0.1493389904499054
0.085913971066474915 0.093274675309658051 0.14566540718078613
0.13540992140769958 0.087693020701408386 0.14031283557415009
0.19806155562400818 0.07761199027299881 0.13633325695991516
0.26154929399490356 0.066050224006175995 0.12849193811416626
0.33199241757392883 0.052633516490459442 0.11917675286531448
0.40435144305229187 0.038251690566539764 0.10698367655277252
0.4776817262172699 0.024278977885842323 0.09633897989988327
0.54940509796142578 0.015006884001195431 0.086276620626449585
0.61887466907501221 0.0090147126466035843 0.075693748891353607
0.68663871288299561 0.0039788638241589069 0.06459343433380127
0.75399637222290039 0.0039215688593685627 0.055706728249788284
0.81628471612930298 0.0039215688593685627 0.043217975646257401
0.096725717186927795 0.16832554340362549 0.17598606646060944
0.120436891913414 0.16466151177883148 0.17263805866241455
0.16333562135696411 0.15920920670032501 0.16778413951396942
0.22342205047607422 0.15103895962238312 0.16199345886707306
0.2890135645866394 0.13974621891975403 0.15670932829380035
0.35743862390518188 0.1235896572470665 0.14914147555828094
0.42781758308410645 0.10402350127696991 0.13790975511074066
0.49822080135345459 0.078876346349716187 0.1256062388420105
0.5654524564743042 0.053593937307596207 0.11364134401082993
0.62903398275375366 0.029532622545957565 0.10164830833673477
0.69258779287338257 0.010761919431388378 0.089186333119869232
0.75765848159790039 0.0057491525076329708 0.079615183174610138
0.81554222106933594 0.0041362689808011055 0.067698441445827484
0.12189176678657532 0.24798358976840973 0.2038588672876358
0.14835722744464874 0.24345700442790985 0.20080041885375977
0.19214165210723877 0.23716506361961365 0.19614313542842865
0.25500386953353882 0.23212389647960663 0.19171142578125
0.32063102722167969 0.22396863996982574 0.18752096593379974
0.38779672980308533 0.20746731758117676 0.1802917867898941
0.45577570796012878 0.18440687656402588 0.16997352242469788
0.52358251810073853 0.15651035308837891 0.15812294185161591
0.5898776650428772 0.13043875992298126 0.14833356440067291
0.6516726016998291 0.093458674848079681 0.1356828361749649
0.70890247821807861 0.054768446832895279 0.1205555647611618
0.76576370000839233 0.020277330651879311 0.10452590882778168
0.81846290826797485 0.0062504038214683533 0.09124360978603363
0.14458489418029785 0.33367696404457092 0.23279598355293274
0.18062564730644226 0.33058187365531921 0.23054106533527374
0.22751396894454956 0.32695701718330383 0.22758534550666809
0.28802177309989929 0.32031577825546265 0.22452352941036224
