luts/colorslide/kodak_e-100_gx_ektachrome_100.cube
# Created by: G'MIC (https://gmic.eu)
TITLE "kodak_e-100_gx_ektachrome_100"
# LUT size
LUT_3D_SIZE 5
# Data domain
DOMAIN_MIN 0.0 0.0 0.0
DOMAIN_MAX 1.0 1.0 1.0
# LUT data points
0.027322746813297272 0.027193225920200348 0.023143678903579712
0.17880502343177795 0.014897918328642845 0.014455279335379601
0.39805740118026733 0.008648337796330452 0.0080423392355442047
0.61641788482666016 0.0032971100881695747 0.0055681713856756687
0.82710140943527222 0.0066193225793540478 0.00082650280091911554
0.13587492704391479 0.2407124787569046 0.10908686369657516
0.26770144701004028 0.22151270508766174 0.095146194100379944
0.46539521217346191 0.17618970572948456 0.070207826793193817
0.65840727090835571 0.086896501481533051 0.035453438758850098
0.82956385612487793 0.0071469475515186787 0.010374211706221104
0.27342033386230469 0.49898338317871094 0.21167579293251038
0.38348183035850525 0.49686932563781738 0.2039782702922821
0.55452442169189453 0.47009211778640747 0.18460182845592499
0.73986881971359253 0.42285218834877014 0.16530510783195496
0.89969015121459961 0.27575397491455078 0.12330376356840134
0.46332827210426331 0.74903655052185059 0.34246370196342468
0.52635389566421509 0.73951667547225952 0.33799552917480469
0.66093075275421143 0.73044276237487793 0.32703205943107605
0.82047039270401001 0.71066248416900635 0.30718937516212463
0.97690689563751221 0.66140305995941162 0.27967414259910583
0.68166428804397583 0.94898021221160889 0.49280110001564026
0.71722173690795898 0.94483679533004761 0.48962479829788208
0.79620778560638428 0.94810634851455688 0.48532474040985107
0.90830439329147339 0.94589769840240479 0.47345957159996033
0.99780803918838501 0.93718558549880981 0.45601966977119446
0.017921971157193184 0.035319056361913681 0.17507356405258179
0.1580321192741394 0.022493654862046242 0.16154231131076813
0.37892541289329529 0.010131685994565487 0.14111064374446869
0.60470563173294067 0.0028779571875929832 0.10920605808496475
0.81278795003890991 0.0039215688593685627 0.075105316936969757
0.10957897454500198 0.25536167621612549 0.26365086436271667
0.242497518658638 0.23820954561233521 0.25267088413238525
0.44682621955871582 0.19064192473888397 0.23049956560134888
0.64494353532791138 0.10035336017608643 0.20039071142673492
0.81277835369110107 0.0056594698689877987 0.15531893074512482
0.23691035807132721 0.50485086441040039 0.36063957214355469
0.35663780570030212 0.50838220119476318 0.3529512882232666
0.53903239965438843 0.48059171438217163 0.33740592002868652
0.73099178075790405 0.42896777391433716 0.31390687823295593
0.8898279070854187 0.28668615221977234 0.2754347026348114
0.44018447399139404 0.75297278165817261 0.46821388602256775
0.51109093427658081 0.74885958433151245 0.45831280946731567
0.65139091014862061 0.73914843797683716 0.44802898168563843
0.8099980354309082 0.71873873472213745 0.43910893797874451
0.96510934829711914 0.66582691669464111 0.41135320067405701
0.67056429386138916 0.94751870632171631 0.58697831630706787
0.70299863815307617 0.94877058267593384 0.58458912372589111
0.78155207633972168 0.95069259405136108 0.57891368865966797
0.89878308773040771 0.94856637716293335 0.57329171895980835
0.99663960933685303 0.9392697811126709 0.55891191959381104
0.0085489461198449135 0.049124922603368759 0.37680146098136902
0.12460189312696457 0.034505341202020645 0.36300539970397949
0.3507782518863678 0.012572403997182846 0.34344649314880371
0.58160877227783203 0.0051626916974782944 0.32124298810958862
0.78751301765441895 0 0.29079520702362061
0.07330545037984848 0.27565139532089233 0.46508800983428955
0.18709743022918701 0.25879281759262085 0.45609301328659058
0.41311225295066833 0.22014531493186951 0.43671697378158569
0.62448960542678833 0.11815532296895981 0.40758657455444336
0.79103493690490723 0.0042737177573144436 0.3681296706199646
0.14696915447711945 0.52085030078887939 0.55152827501296997
0.29818564653396606 0.51772159337997437 0.5441175103187561
0.50180715322494507 0.49568131566047668 0.52960419654846191
0.70348089933395386 0.44489386677742004 0.51146554946899414
0.87153857946395874 0.30965885519981384 0.47852411866188049
0.39039605855941772 0.75166243314743042 0.63838642835617065
0.46677964925765991 0.75292789936065674 0.63512140512466431
0.62350672483444214 0.74394106864929199 0.62723904848098755
0.78067350387573242 0.72307521104812622 0.61111092567443848
0.9453238844871521 0.67806804180145264 0.5931929349899292
0.63876855373382568 0.94740110635757446 0.72737711668014526
0.68039441108703613 0.95099377632141113 0.72683250904083252
0.76474142074584961 0.95313924551010132 0.72427785396575928
0.87881350517272949 0.94928759336471558 0.71564078330993652
0.99146378040313721 0.93907874822616577 0.7037779688835144
0.0012576533481478691 0.070409350097179413 0.58911228179931641
0.076932050287723541 0.04805857315659523 0.57681387662887573
0.31868553161621094 0.024092430248856544 0.55580651760101318
0.55740517377853394 0.0033283608499914408 0.5364081859588623
0.76240313053131104 0 0.50911754369735718
0.02219422347843647 0.30262911319732666 0.6676105260848999
0.11406244337558746 0.29402622580528259 0.65871167182922363
0.37633031606674194 0.25339171290397644 0.64074349403381348
0.60243707895278931 0.15999707579612732 0.61011254787445068
0.76835924386978149 0.0084751797839999199 0.57435619831085205
0.026054248213768005 0.5440068244934082 0.74160671234130859
0.20550888776779175 0.53669452667236328 0.7352173924446106
0.45306164026260376 0.51727533340454102 0.71975910663604736
0.67771339416503906 0.47292646765708923 0.69863450527191162
0.85602152347564697 0.35012295842170715 0.67015033960342407
0.30613276362419128 0.76647204160690308 0.81442052125930786
0.4052034318447113 0.76570546627044678 0.80888336896896362
0.57297360897064209 0.76015114784240723 0.80028414726257324
0.75271260738372803 0.73942619562149048 0.78127717971801758
0.92655324935913086 0.69238066673278809 0.76765042543411255
0.61131399869918823 0.95663356781005859 0.8813895583152771
0.64443540573120117 0.95755016803741455 0.87921619415283203
0.7319832444190979 0.95694363117218018 0.87347567081451416
0.85662782192230225 0.95716863870620728 0.86837285757064819
0.9814574122428894 0.94570577144622803 0.85491698980331421
0 0.11360867321491241 0.75181162357330322
0.032831139862537384 0.088154718279838562 0.74274605512619019
0.28566247224807739 0.046868883073329926 0.71455889940261841
0.53052389621734619 0.0062467087991535664 0.68931341171264648
0.74380642175674438 0 0.66844391822814941
0.0037482916377484798 0.34177097678184509 0.8213573694229126
0.036516360938549042 0.33391135931015015 0.81711894273757935
0.33827751874923706 0.29754930734634399 0.79324370622634888
0.58421963453292847 0.20736496150493622 0.76185148954391479
0.75737220048904419 0.028360778465867043 0.72873169183731079
1.2925092050863896e-05 0.56873011589050293 0.89112097024917603
0.059446044266223907 0.56612706184387207 0.88570606708526611
0.40646475553512573 0.55016076564788818 0.8647695779800415
0.64998471736907959 0.5112680196762085 0.84534794092178345
0.84567165374755859 0.39661422371864319 0.8195796012878418
0.16478845477104187 0.78306549787521362 0.94771450757980347
0.30701982975006104 0.77955609560012817 0.94382381439208984
0.52604752779006958 0.77908903360366821 0.93246859312057495
0.72243654727935791 0.76077663898468018 0.91861200332641602
0.90594160556793213 0.7185370922088623 0.90269953012466431
0.55034118890762329 0.95942991971969604 0.99422848224639893
0.59346485137939453 0.96298158168792725 0.99392819404602051
0.69446831941604614 0.96342068910598755 0.99016004800796509
0.82757085561752319 0.96309065818786621 0.98431360721588135
0.9701656699180603 0.9575691819190979 0.97974151372909546
