luts/colorslide/kodak_kodachrome_25.cube
# Created by: G'MIC (https://gmic.eu)
TITLE "kodak_kodachrome_25"
# LUT size
LUT_3D_SIZE 13
# Data domain
DOMAIN_MIN 0.0 0.0 0.0
DOMAIN_MAX 1.0 1.0 1.0
# LUT data points
0.016567589715123177 0.017919562757015228 0.020870702341198921
0.041698485612869263 0.01992340013384819 0.023643912747502327
0.079292058944702148 0.019628981128334999 0.020698398351669312
0.12406010180711746 0.016665440052747726 0.018421158194541931
0.19077947735786438 0.016668505966663361 0.016640381887555122
0.2968408465385437 0.011850468814373016 0.0092339161783456802
0.44609397649765015 0.011962816119194031 0.0060664010234177113
0.63100475072860718 0.015963250771164894 0.0056445105001330376
0.85145235061645508 0.011465977877378464 0.0009520587045699358
0.98335593938827515 0.031563747674226761 0.0034884433262050152
0.99601060152053833 0.075714394450187683 0.020606664940714836
0.99827736616134644 0.16612042486667633 0.07239978015422821
1 0.27732053399085999 0.16284084320068359
0.038227785378694534 0.061007585376501083 0.034846510738134384
0.068428054451942444 0.064832426607608795 0.038845106959342957
0.11410082876682281 0.067035689949989319 0.03261706605553627
0.18043383955955505 0.066337704658508301 0.029968934133648872
0.27787232398986816 0.063851930201053619 0.024476667866110802
0.39106374979019165 0.06447996199131012 0.021803703159093857
0.52203607559204102 0.076143734157085419 0.018351566046476364
0.70200479030609131 0.080387026071548462 0.013914863578975201
0.87062591314315796 0.087133444845676422 0.010553517378866673
0.96245038509368896 0.13335238397121429 0.028462084010243416
0.98452568054199219 0.20595887303352356 0.075094513595104218
0.9907260537147522 0.28387469053268433 0.13340176641941071
0.99872505664825439 0.36212643980979919 0.19638802111148834
0.068819575011730194 0.14404413104057312 0.071007594466209412
0.098942071199417114 0.14441570639610291 0.072705559432506561
0.1550891101360321 0.15060360729694366 0.067961134016513824
0.23630939424037933 0.15584316849708557 0.06639803946018219
0.3289247453212738 0.15726557374000549 0.062891401350498199
0.44140473008155823 0.16505081951618195 0.06156589463353157
0.58294206857681274 0.16423971951007843 0.046548433601856232
0.72994840145111084 0.17465855181217194 0.042282402515411377
0.83451420068740845 0.20545078814029694 0.060102798044681549
0.90324664115905762 0.25419881939888 0.089046791195869446
0.94532537460327148 0.31380513310432434 0.13310477137565613
0.97825944423675537 0.36898434162139893 0.17359426617622375
0.99570316076278687 0.4238618016242981 0.22147086262702942
0.094955146312713623 0.2584526538848877 0.12686620652675629
0.1209549680352211 0.26128265261650085 0.126040980219841
0.18924508988857269 0.26532286405563354 0.12449153512716293
0.274587482213974 0.27065056562423706 0.12201325595378876
0.37219879031181335 0.2706085741519928 0.11504024267196655
0.49318045377731323 0.27749127149581909 0.11046509444713593
0.6027492880821228 0.28234580159187317 0.10578794032335281
0.69834297895431519 0.30567213892936707 0.11442332714796066
0.78429991006851196 0.33569732308387756 0.13087588548660278
0.84972566366195679 0.37128019332885742 0.15093807876110077
0.90683424472808838 0.40958437323570251 0.17642855644226074
0.95562678575515747 0.44455939531326294 0.20340871810913086
0.98689663410186768 0.48108655214309692 0.23986364901065826
0.099658176302909851 0.4015166163444519 0.19688819348812103
0.15569500625133514 0.40022444725036621 0.19304151833057404
0.24270585179328918 0.39644107222557068 0.1890285462141037
0.33861148357391357 0.39654648303985596 0.18387492001056671
0.43211525678634644 0.39570850133895874 0.17822973430156708
0.52283263206481934 0.39401432871818542 0.17106251418590546
0.60488110780715942 0.4032885730266571 0.17148202657699585
0.68632239103317261 0.42382863163948059 0.17453691363334656
0.75610929727554321 0.44023376703262329 0.17969052493572235
0.82451713085174561 0.46094018220901489 0.18944382667541504
0.88808494806289673 0.48233076930046082 0.20250685513019562
0.94077861309051514 0.50425529479980469 0.22168777883052826
0.97928059101104736 0.53159373998641968 0.24768373370170593
0.30029129981994629 0.51424616575241089 0.24679616093635559
0.32901269197463989 0.51338940858840942 0.24460291862487793
0.38207539916038513 0.50900721549987793 0.23906233906745911
0.43710777163505554 0.5080106258392334 0.23370957374572754
0.49122291803359985 0.50447762012481689 0.2303614467382431
0.55794471502304077 0.49892020225524902 0.22691954672336578
0.62277442216873169 0.50103205442428589 0.22363318502902985
0.6931576132774353 0.50813204050064087 0.21773135662078857
0.75309580564498901 0.52156877517700195 0.21638935804367065
0.81107223033905029 0.5394589900970459 0.21881702542304993
0.87116390466690063 0.55304014682769775 0.22787539660930634
0.92894041538238525 0.56614553928375244 0.2378498911857605
0.97877031564712524 0.5834384560585022 0.24912348389625549
0.43868711590766907 0.5956428050994873 0.28362247347831726
0.45558035373687744 0.59793639183044434 0.28340718150138855
0.48509803414344788 0.59587502479553223 0.2799835205078125
0.51770514249801636 0.59488767385482788 0.27522531151771545
0.55383563041687012 0.59482192993164062 0.27228400111198425
0.60173988342285156 0.59177732467651367 0.26910847425460815
0.65193003416061401 0.58846360445022583 0.2645365297794342
0.70723980665206909 0.59019643068313599 0.26024255156517029
0.76331204175949097 0.59902966022491455 0.25606909394264221
0.81663650274276733 0.60824322700500488 0.25262400507926941
0.8705672025680542 0.61761796474456787 0.25526830554008484
0.92601072788238525 0.6291239857673645 0.25905439257621765
0.97762060165405273 0.64159888029098511 0.26008236408233643
0.53385108709335327 0.66113132238388062 0.31287375092506409
0.54070562124252319 0.6636507511138916 0.31454315781593323
0.55679470300674438 0.66505604982376099 0.31395035982131958
0.58521312475204468 0.6651378870010376 0.31021243333816528
0.61165034770965576 0.66700208187103271 0.30768468976020813
0.64324831962585449 0.66675078868865967 0.30521437525749207
0.68490177392959595 0.66385114192962646 0.30140075087547302
0.72906643152236938 0.66286391019821167 0.2977275550365448
0.78049576282501221 0.66494470834732056 0.29233711957931519
0.833118736743927 0.67084705829620361 0.289560467004776
0.8827747106552124 0.6792113184928894 0.28992143273353577
0.93434238433837891 0.68863099813461304 0.29001873731613159
0.98085719347000122 0.69676250219345093 0.28831306099891663
0.603546142578125 0.72331434488296509 0.34282806515693665
0.60564655065536499 0.72437924146652222 0.34437650442123413
0.61857146024703979 0.72686934471130371 0.3449101448059082
0.64288288354873657 0.72748267650604248 0.34200111031532288
0.66382044553756714 0.72980988025665283 0.3409767746925354
0.68748170137405396 0.73106592893600464 0.33953112363815308
0.72280424833297729 0.72887343168258667 0.33598044514656067
0.75678128004074097 0.72823202610015869 0.33214035630226135
0.79853302240371704 0.72889727354049683 0.32792341709136963
0.84856486320495605 0.7346077561378479 0.32550695538520813
0.89682459831237793 0.74111789464950562 0.32441934943199158
0.94382160902023315 0.74602353572845459 0.32164302468299866
0.98568767309188843 0.75114428997039795 0.31939786672592163
0.66374045610427856 0.78884804248809814 0.37598040699958801
0.6665111780166626 0.78929424285888672 0.3768002986907959
0.67964911460876465 0.79072290658950806 0.3767293393611908
0.69936347007751465 0.7915269136428833 0.37506014108657837
0.71482783555984497 0.79272282123565674 0.37383142113685608
0.73131507635116577 0.79395776987075806 0.37306377291679382
0.76040714979171753 0.79376119375228882 0.37054532766342163
0.79138141870498657 0.79379826784133911 0.36714944243431091
0.82271158695220947 0.79322266578674316 0.36271622776985168
0.86571061611175537 0.79780906438827515 0.36072057485580444
0.91376173496246338 0.80322223901748657 0.35836371779441833
0.95874631404876709 0.80520224571228027 0.3541032075881958
0.9932783842086792 0.80733585357666016 0.35048505663871765
0.72928744554519653 0.85670632123947144 0.41024404764175415
0.72827118635177612 0.85687452554702759 0.41072824597358704
0.74017935991287231 0.85806882381439209 0.41054177284240723
0.75868302583694458 0.85872012376785278 0.4090997576713562
0.77342933416366577 0.85985136032104492 0.40797862410545349
0.78442126512527466 0.8595702052116394 0.40677911043167114
0.80154269933700562 0.85910028219223022 0.40450131893157959
0.83457553386688232 0.86055475473403931 0.40161165595054626
0.86633181571960449 0.86053752899169922 0.39768347144126892
0.89934629201889038 0.86416113376617432 0.39614021778106689
0.9420931339263916 0.86846774816513062 0.39377108216285706
0.98067295551300049 0.86938858032226562 0.3889823853969574
0.99696105718612671 0.86995726823806763 0.38550052046775818
0.8055349588394165 0.92481088638305664 0.44248148798942566
0.80322575569152832 0.92373931407928467 0.44242408871650696
0.81384533643722534 0.92600387334823608 0.44273155927658081
0.82833713293075562 0.92568033933639526 0.44124886393547058
0.83978921175003052 0.92567044496536255 0.44026303291320801
0.85015445947647095 0.92571419477462769 0.4390718936920166
0.86473298072814941 0.92635577917098999 0.43787667155265808
0.89074653387069702 0.92570871114730835 0.43441635370254517
0.91546189785003662 0.92547953128814697 0.43101269006729126
0.94026148319244385 0.92957586050033569 0.43054193258285522
0.97313892841339111 0.93401139974594116 0.42933923006057739
0.99343150854110718 0.93424111604690552 0.42503055930137634
0.99726128578186035 0.93632602691650391 0.4221947193145752
0.86795508861541748 0.97735297679901123 0.46788915991783142
0.86769783496856689 0.97565698623657227 0.46669799089431763
0.87301433086395264 0.97719115018844604 0.46668887138366699
0.87851643562316895 0.97411125898361206 0.46443745493888855
0.88758713006973267 0.97349071502685547 0.46341162919998169
0.89989382028579712 0.97506213188171387 0.46340206265449524
0.91445654630661011 0.97721409797668457 0.46260473132133484
0.93123519420623779 0.9742203950881958 0.45878556370735168
0.95084011554718018 0.97367781400680542 0.45636960864067078
0.97238463163375854 0.97694873809814453 0.4556368887424469
0.99182701110839844 0.98196762800216675 0.45530611276626587
0.99610096216201782 0.98213255405426025 0.45131897926330566
0.99926453828811646 0.98541486263275146 0.44884470105171204
0.012729494832456112 0.015018613077700138 0.053411059081554413
0.031354162842035294 0.016376988962292671 0.053557377308607101
0.06892317533493042 0.018546175211668015 0.061166740953922272
0.10900294035673141 0.015253852121531963 0.057517495006322861
0.1778186559677124 0.016885256394743919 0.06049366295337677
0.2755068838596344 0.010238946415483952 0.049367494881153107
0.42783251404762268 0.0096122147515416145 0.03403167799115181
0.61494439840316772 0.014630441553890705 0.024594191461801529
0.83498060703277588 0.011144107207655907 0.014142069965600967
0.97707265615463257 0.029239654541015625 0.022610817104578018
0.99394261837005615 0.068973258137702942 0.060654226690530777
0.9980233907699585 0.15712568163871765 0.1386469304561615
1 0.27466669678688049 0.23380082845687866
0.030882727354764938 0.057763133198022842 0.063147768378257751
0.056203354150056839 0.058354292064905167 0.066158115863800049
0.10391922295093536 0.063782215118408203 0.069983974099159241
0.1681177020072937 0.062386427074670792 0.06254202127456665
0.26438251137733459 0.060681961476802826 0.059151742607355118
0.37889888882637024 0.060165762901306152 0.056529056280851364
0.51984637975692749 0.06859666109085083 0.04902026429772377
0.69592410326004028 0.073855787515640259 0.040089745074510574
0.86265021562576294 0.081200197339057922 0.037790708243846893
0.95481640100479126 0.12314265966415405 0.070475168526172638
0.97713249921798706 0.19913884997367859 0.13281381130218506
0.98966223001480103 0.28514799475669861 0.19960272312164307
0.99890166521072388 0.35834863781929016 0.2625020444393158
0.059536397457122803 0.13616672158241272 0.093916691839694977
0.089862436056137085 0.13643419742584229 0.095046654343605042
0.14753824472427368 0.14728067815303802 0.10169650614261627
0.2266765832901001 0.15222755074501038 0.096355929970741272
0.32033383846282959 0.15194079279899597 0.092364728450775146
0.43487539887428284 0.15768781304359436 0.094094417989253998
0.5777968168258667 0.1586235910654068 0.081462040543556213
0.72599846124649048 0.16735059022903442 0.075939074158668518
0.82772946357727051 0.19916239380836487 0.094126909971237183
0.89600908756256104 0.24701425433158875 0.13382941484451294
0.93658870458602905 0.30980408191680908 0.18936485052108765
0.96583652496337891 0.37045407295227051 0.23638598620891571
0.99003857374191284 0.41809490323066711 0.2809898853302002
0.088290616869926453 0.2527763843536377 0.14560726284980774
0.11377885192632675 0.2566910982131958 0.14746649563312531
0.18114639818668365 0.26318186521530151 0.14809365570545197
0.26382854580879211 0.26893606781959534 0.14658385515213013
0.36404335498809814 0.26680663228034973 0.14249970018863678
0.48152932524681091 0.27076259255409241 0.13802781701087952
0.60276585817337036 0.27325809001922607 0.13045249879360199
0.69856292009353638 0.29298496246337891 0.14100141823291779
0.77835756540298462 0.32658123970031738 0.1576911062002182
0.84668266773223877 0.36592656373977661 0.18599811196327209
0.89836537837982178 0.40435025095939636 0.22718614339828491
0.94507312774658203 0.4412035346031189 0.26085445284843445
0.98149973154067993 0.47700491547584534 0.29635044932365417
0.093097507953643799 0.39868420362472534 0.20764996111392975
0.14560535550117493 0.39599591493606567 0.20632381737232208
0.23586823046207428 0.39628663659095764 0.20280236005783081
0.32733157277107239 0.39521202445030212 0.19964084029197693
0.42083656787872314 0.39293822646141052 0.19670510292053223
0.51238280534744263 0.39845311641693115 0.19024890661239624
0.60153055191040039 0.40275299549102783 0.18910275399684906
0.68035638332366943 0.41616758704185486 0.19662274420261383
0.75354409217834473 0.43867737054824829 0.20454221963882446
0.81867969036102295 0.45950061082839966 0.216535285115242
0.87881147861480713 0.48162153363227844 0.23984040319919586
0.93181747198104858 0.50620776414871216 0.26580679416656494
0.97741687297821045 0.5310901403427124 0.29114875197410583
0.2942541241645813 0.5137752890586853 0.24895912408828735
0.32397633790969849 0.51200205087661743 0.25033986568450928
0.37448844313621521 0.51002788543701172 0.24359564483165741
0.43028771877288818 0.5078737735748291 0.23991143703460693
0.49107730388641357 0.50600934028625488 0.2394871711730957
0.55320459604263306 0.50611186027526855 0.23650515079498291
0.61287385225296021 0.50487905740737915 0.23320242762565613
0.68534106016159058 0.51083695888519287 0.22977373003959656
0.75042581558227539 0.52401351928710938 0.2311205118894577
0.80733585357666016 0.53955787420272827 0.23749534785747528
0.86537039279937744 0.55251449346542358 0.25240561366081238
0.92266386747360229 0.56787204742431641 0.26742076873779297
0.97787213325500488 0.58438611030578613 0.27943515777587891
0.43265625834465027 0.59384274482727051 0.28389996290206909
0.45460298657417297 0.59795653820037842 0.28515803813934326
0.47708457708358765 0.59366351366043091 0.28101986646652222
0.50873678922653198 0.59303224086761475 0.27742666006088257
0.55224043130874634 0.59577375650405884 0.27646884322166443
0.59776347875595093 0.59202784299850464 0.27384769916534424
0.64613956212997437 0.58988326787948608 0.27041709423065186
0.70171219110488892 0.59437102079391479 0.26496323943138123
0.75876957178115845 0.60221284627914429 0.26120007038116455
0.81244528293609619 0.60829383134841919 0.25939810276031494
0.86631280183792114 0.61632281541824341 0.26661622524261475
0.92192673683166504 0.62904113531112671 0.27583217620849609
0.97516512870788574 0.63992565870285034 0.28125932812690735
0.52924948930740356 0.66009187698364258 0.31472653150558472
0.53614819049835205 0.66175746917724609 0.31623268127441406
0.55205810070037842 0.66185504198074341 0.31551778316497803
0.57973575592041016 0.66163641214370728 0.31227096915245056
0.60873162746429443 0.66526919603347778 0.31071436405181885
0.64185816049575806 0.66569787263870239 0.30775362253189087
0.68543452024459839 0.66548418998718262 0.30391207337379456
0.72819048166275024 0.66677582263946533 0.30011260509490967
0.77564215660095215 0.66765183210372925 0.29538512229919434
0.8271864652633667 0.67034947872161865 0.29253208637237549
0.87728190422058105 0.67824059724807739 0.29213210940361023
0.92854201793670654 0.68737310171127319 0.29209461808204651
0.97873461246490479 0.69357603788375854 0.29032495617866516
0.60000240802764893 0.72337764501571655 0.34473294019699097
0.60475897789001465 0.72304791212081909 0.34577551484107971
0.61757266521453857 0.72502225637435913 0.34638792276382446
0.64075881242752075 0.72599256038665771 0.34418490529060364
0.66196495294570923 0.72876060009002686 0.34338188171386719
0.68663686513900757 0.73027771711349487 0.34172320365905762
0.72226202487945557 0.72936356067657471 0.33716243505477905
0.75760221481323242 0.7296796441078186 0.33348670601844788
0.79707854986190796 0.73018473386764526 0.32952874898910522
0.84406489133834839 0.73392492532730103 0.32704472541809082
0.89258086681365967 0.74120157957077026 0.32559987902641296
0.94043707847595215 0.74566590785980225 0.32231923937797546
0.98491090536117554 0.74933487176895142 0.31694197654724121
0.66170531511306763 0.78981071710586548 0.37676611542701721
0.66672277450561523 0.78899604082107544 0.37766832113265991
0.67947685718536377 0.78969258069992065 0.37817883491516113
0.69930201768875122 0.79131096601486206 0.37690004706382751
0.71471673250198364 0.79299962520599365 0.37632891535758972
0.73228597640991211 0.79441291093826294 0.37553009390830994
0.76091957092285156 0.79459333419799805 0.37201866507530212
0.79271095991134644 0.79489260911941528 0.36854761838912964
0.82663220167160034 0.79497843980789185 0.3652101457118988
0.86787682771682739 0.79838353395462036 0.36268192529678345
0.9145703911781311 0.80397194623947144 0.36095473170280457
0.95792508125305176 0.80667197704315186 0.35684868693351746
0.99048399925231934 0.80949860811233521 0.352783203125
0.72566330432891846 0.85840022563934326 0.41052970290184021
0.7316666841506958 0.85779434442520142 0.41068175435066223
0.74367386102676392 0.85796290636062622 0.41124597191810608
0.76018297672271729 0.85833334922790527 0.41014584898948669
0.77524113655090332 0.85992777347564697 0.40915396809577942
0.78795480728149414 0.86083203554153442 0.40816342830657959
0.80542236566543579 0.8608744740486145 0.40667125582695007
0.83541536331176758 0.86207860708236694 0.4040219783782959
0.86865502595901489 0.86288666725158691 0.40014529228210449
0.90252536535263062 0.86600053310394287 0.39782950282096863
0.94366443157196045 0.86949163675308228 0.39567643404006958
0.97874361276626587 0.87164425849914551 0.39190739393234253
0.99474811553955078 0.8742411732673645 0.38936197757720947
0.80455517768859863 0.92541873455047607 0.4424494206905365
0.8072744607925415 0.92373561859130859 0.44190871715545654
0.81371027231216431 0.92361503839492798 0.44134688377380371
0.82617795467376709 0.92596513032913208 0.4418635368347168
0.83996289968490601 0.92751342058181763 0.44125527143478394
0.8502841591835022 0.92545199394226074 0.43916356563568115
0.86275565624237061 0.92393010854721069 0.43701106309890747
0.88590842485427856 0.92570579051971436 0.43526846170425415
0.91431272029876709 0.9265332818031311 0.43245550990104675
0.94139337539672852 0.93002206087112427 0.43110013008117676
0.97307282686233521 0.93343997001647949 0.4299757182598114
0.99203836917877197 0.93622386455535889 0.42678970098495483
0.99617201089859009 0.93794888257980347 0.42427650094032288
0.86833524703979492 0.97676283121109009 0.46749979257583618
0.86712789535522461 0.97339868545532227 0.46476727724075317
0.86923021078109741 0.97227072715759277 0.46439951658248901
0.87842863798141479 0.97553128004074097 0.46475604176521301
0.88897025585174561 0.97673749923706055 0.4647519588470459
0.89889591932296753 0.97380590438842773 0.46199148893356323
0.91130435466766357 0.97238045930862427 0.46036124229431152
0.92915451526641846 0.97280299663543701 0.4583258330821991
0.94917213916778564 0.97353875637054443 0.45655176043510437
0.97050386667251587 0.97543329000473022 0.4551568329334259
0.98929023742675781 0.9782068133354187 0.4530828595161438
0.9958919882774353 0.98001855611801147 0.45099750161170959
0.99895352125167847 0.9827803373336792 0.44879958033561707
0.0097436942160129547 0.014936335384845734 0.11405600607395172
0.022118048742413521 0.017294116318225861 0.11898849904537201
0.048965901136398315 0.016348730772733688 0.12133551388978958
0.097029760479927063 0.016655521467328072 0.12263215333223343
0.15712225437164307 0.014468966983258724 0.12389897555112839
0.25451579689979553 0.0085552884265780449 0.11793354898691177
0.40620076656341553 0.0084428228437900543 0.10332798957824707
0.5936894416809082 0.015132365748286247 0.086685359477996826
0.81877446174621582 0.012126653455197811 0.064488925039768219
0.97196847200393677 0.022139830514788628 0.072630561888217926
0.99594402313232422 0.064397551119327545 0.11587639898061752
0.99867802858352661 0.15227639675140381 0.1936304122209549
0.99997848272323608 0.26699733734130859 0.27927109599113464
0.026539865881204605 0.059495918452739716 0.12289596349000931
0.047371763736009598 0.058172129094600677 0.12518493831157684
0.083838924765586853 0.058376476168632507 0.12555442750453949
0.1532224714756012 0.057902123779058456 0.12434321641921997
0.2461870014667511 0.055888861417770386 0.12215175479650497
0.35854965448379517 0.051499985158443451 0.11487802118062973
0.49659243226051331 0.063818700611591339 0.11338448524475098
0.68295252323150635 0.069292150437831879 0.10140078514814377
0.84605211019515991 0.079676277935504913 0.10193602740764618
0.94220215082168579 0.11859068274497986 0.13786867260932922
0.97614651918411255 0.19903717935085297 0.19931364059448242
0.99039840698242188 0.27949503064155579 0.25899836421012878
0.99782043695449829 0.35035070776939392 0.31450200080871582
0.051252774894237518 0.12973757088184357 0.14166827499866486
0.079506412148475647 0.13234367966651917 0.14732269942760468
0.12531161308288574 0.13538083434104919 0.1487952321767807
0.20961461961269379 0.14434972405433655 0.14938569068908691
0.30311089754104614 0.14552292227745056 0.14835441112518311
0.41654053330421448 0.14854080975055695 0.14730507135391235
0.55787968635559082 0.15065264701843262 0.1401773989200592
0.71107381582260132 0.16215546429157257 0.1389748752117157
0.81403821706771851 0.19452479481697083 0.158299520611763
0.88149255514144897 0.24571360647678375 0.20142558217048645
0.92961364984512329 0.30926099419593811 0.25234386324882507
0.96225106716156006 0.3637559711933136 0.29699006676673889
0.98786109685897827 0.41662624478340149 0.34593889117240906
0.08486669510602951 0.24554933607578278 0.18223972618579865
0.10761743038892746 0.24856157600879669 0.18747496604919434
0.16260765492916107 0.2544456422328949 0.19046838581562042
0.25460749864578247 0.25839382410049438 0.18661406636238098
0.35663279891014099 0.26170644164085388 0.18672426044940948
0.47453704476356506 0.26159495115280151 0.18508151173591614
0.58788752555847168 0.26644358038902283 0.18469633162021637
0.68977326154708862 0.28691896796226501 0.19485849142074585
0.76581805944442749 0.32268619537353516 0.2180844247341156
0.83337652683258057 0.36249229311943054 0.25282341241836548
0.88717228174209595 0.40089711546897888 0.29017823934555054
0.93524503707885742 0.43727341294288635 0.32407295703887939
0.97801321744918823 0.47444465756416321 0.36309978365898132
0.075407497584819794 0.39395090937614441 0.24038845300674438
0.12633191049098969 0.3936905562877655 0.23988109827041626
0.21758046746253967 0.39322671294212341 0.23970977962017059
0.32384678721427917 0.39298802614212036 0.23511636257171631
0.41902288794517517 0.39330971240997314 0.23143675923347473
0.50767594575881958 0.39567261934280396 0.2340436577796936
0.59229421615600586 0.39768451452255249 0.23615875840187073
