luts/colorslide/lomography_x-pro_slide_200.cube
# Created by: G'MIC (https://gmic.eu)
TITLE "lomography_x-pro_slide_200"
# LUT size
LUT_3D_SIZE 5
# Data domain
DOMAIN_MIN 0.0 0.0 0.0
DOMAIN_MAX 1.0 1.0 1.0
# LUT data points
0.030203860253095627 0.028509804978966713 0.021267984062433243
0.1839623898267746 0.033752039074897766 0.028902254998683929
0.43610641360282898 0.057200457900762558 0.036130357533693314
0.76354295015335083 0.09784311056137085 0.042594820261001587
0.97946727275848389 0.19953477382659912 0.033410914242267609
0.10504202544689178 0.21581897139549255 0.083098441362380981
0.21732170879840851 0.2337268739938736 0.093063637614250183
0.47025018930435181 0.2592979371547699 0.098725788295269012
0.78211265802383423 0.30579578876495361 0.10441187024116516
0.97197878360748291 0.39807787537574768 0.083628818392753601
0.05170421302318573 0.51372551918029785 0.14459362626075745
0.2330729067325592 0.52758198976516724 0.15114215016365051
0.51943439245223999 0.54410809278488159 0.16014863550662994
0.79285961389541626 0.57623100280761719 0.1532440185546875
0.95400649309158325 0.63749253749847412 0.11805976182222366
0.22684285044670105 0.79880452156066895 0.26695454120635986
0.37940376996994019 0.79721498489379883 0.27126094698905945
0.61820113658905029 0.80035954713821411 0.28005537390708923
0.81004190444946289 0.80262410640716553 0.2768840491771698
0.94064772129058838 0.82187390327453613 0.24706871807575226
0.64897280931472778 0.93406617641448975 0.50102835893630981
0.68807899951934814 0.93340891599655151 0.49811112880706787
0.7665550708770752 0.93376457691192627 0.50957411527633667
0.85921782255172729 0.93427032232284546 0.4967401921749115
0.9549565315246582 0.94052451848983765 0.47299438714981079
0.02854481153190136 0.022092422470450401 0.14644405245780945
0.18503478169441223 0.030456932261586189 0.15612867474555969
0.43465539813041687 0.041120193898677826 0.16600079834461212
0.76794934272766113 0.0864434614777565 0.17543897032737732
0.98139780759811401 0.19251313805580139 0.15628233551979065
0.10642000287771225 0.20545876026153564 0.21145050227642059
0.22400495409965515 0.22258764505386353 0.22734437882900238
0.47486191987991333 0.24835577607154846 0.2307555079460144
0.78416955471038818 0.29789978265762329 0.23466764390468597
0.97492289543151855 0.39467832446098328 0.21158395707607269
0.054645746946334839 0.51152288913726807 0.28518706560134888
0.24067848920822144 0.51745444536209106 0.29430961608886719
0.51681196689605713 0.53636902570724487 0.30204036831855774
0.79779362678527832 0.57312262058258057 0.30390146374702454
0.95387262105941772 0.64113146066665649 0.27829253673553467
0.22333745658397675 0.80039530992507935 0.40136471390724182
0.38074707984924316 0.79981744289398193 0.40654513239860535
0.62247550487518311 0.80211400985717773 0.42043450474739075
0.81269437074661255 0.80900323390960693 0.42183545231819153
0.94038975238800049 0.82922327518463135 0.40259617567062378
0.64628630876541138 0.93855708837509155 0.6027025580406189
0.68799048662185669 0.93856263160705566 0.60902023315429688
0.76560807228088379 0.94048774242401123 0.61446511745452881
0.85788881778717041 0.94237840175628662 0.61325192451477051
0.94964790344238281 0.94605547189712524 0.5953795313835144
0.031570930033922195 0.015444198623299599 0.32722377777099609
0.18207322061061859 0.023434508591890335 0.33725553750991821
0.44122809171676636 0.03315836563706398 0.35254475474357605
0.77392470836639404 0.072712093591690063 0.36961075663566589
0.98503202199935913 0.17485231161117554 0.35570293664932251
0.099489517509937286 0.18725326657295227 0.4128759503364563
0.22356781363487244 0.20165812969207764 0.42004182934761047
0.4830930233001709 0.22693593800067902 0.44081717729568481
0.79034608602523804 0.28198334574699402 0.45048314332962036
0.97748398780822754 0.3759443461894989 0.43732282519340515
0.054458260536193848 0.49896705150604248 0.50466340780258179
0.24433140456676483 0.51212579011917114 0.51607030630111694
0.52994167804718018 0.52595531940460205 0.52952688932418823
0.80142688751220703 0.55913758277893066 0.53765451908111572
0.95660585165023804 0.63668084144592285 0.52315205335617065
0.21127571165561676 0.80489790439605713 0.62102305889129639
0.3757568895816803 0.80090039968490601 0.6215699315071106
0.6208299994468689 0.80071854591369629 0.63221311569213867
0.81417393684387207 0.81075644493103027 0.63836145401000977
0.9371103048324585 0.82919800281524658 0.62752407789230347
0.64366298913955688 0.94504737854003906 0.74883252382278442
0.68423688411712646 0.94626885652542114 0.74962133169174194
0.76766020059585571 0.94555914402008057 0.7562263011932373
0.85655874013900757 0.94910061359405518 0.7602992057800293
0.95198118686676025 0.95607858896255493 0.75831383466720581
0.025173217058181763 0.0046492633409798145 0.57353705167770386
0.17168930172920227 0.0079035293310880661 0.5883602499961853
0.43469914793968201 0.016697019338607788 0.61180835962295532
0.77204036712646484 0.037195034325122833 0.6262848973274231
0.98483896255493164 0.14071980118751526 0.62785375118255615
0.10154397785663605 0.14728769659996033 0.66462135314941406
0.22029483318328857 0.1606200784444809 0.67215240001678467
0.47584226727485657 0.17963819205760956 0.69021177291870117
0.79093670845031738 0.23187640309333801 0.70873039960861206
0.98000138998031616 0.3389286994934082 0.70678800344467163
0.08101634681224823 0.46461042761802673 0.73927241563796997
0.25715893507003784 0.47707274556159973 0.74197995662689209
0.53316962718963623 0.48977264761924744 0.75168490409851074
0.80284231901168823 0.52932673692703247 0.76584571599960327
0.96197819709777832 0.60558104515075684 0.76465988159179688
0.1950928121805191 0.79794752597808838 0.78949236869812012
0.3681986927986145 0.79774397611618042 0.79360175132751465
0.62657469511032104 0.80111247301101685 0.80367815494537354
0.81563806533813477 0.80939620733261108 0.81079500913619995
0.94067734479904175 0.83185422420501709 0.81166011095046997
0.64501118659973145 0.95086658000946045 0.85186296701431274
0.6748650074005127 0.94976842403411865 0.85361337661743164
0.7662166953086853 0.95146685838699341 0.85669541358947754
0.8556365966796875 0.95581674575805664 0.86371618509292603
0.95868539810180664 0.9622233510017395 0.86447042226791382
0.01491337176412344 0.0039215688593685627 0.79620563983917236
0.15077421069145203 0.0039215688593685627 0.80298221111297607
0.42438551783561707 0.0023174360394477844 0.82448983192443848
0.77005302906036377 0.0094337016344070435 0.84853649139404297
0.98680752515792847 0.069395653903484344 0.85388839244842529
0.085399121046066284 0.072351567447185516 0.84028321504592896
0.2065252959728241 0.073985591530799866 0.84911149740219116
0.46940571069717407 0.094173535704612732 0.86388951539993286
0.79705274105072021 0.13780216872692108 0.88127744197845459
0.98192512989044189 0.24999073147773743 0.88402640819549561
0.12785276770591736 0.37883523106575012 0.87349063158035278
0.27421349287033081 0.38712725043296814 0.87701326608657837
0.54237544536590576 0.41374343633651733 0.88757503032684326
0.81975191831588745 0.44975131750106812 0.90328299999237061
0.973949134349823 0.54361283779144287 0.90479129552841187
0.1702028214931488 0.76968663930892944 0.89277219772338867
0.36091849207878113 0.77187144756317139 0.89546549320220947
0.61875021457672119 0.77486681938171387 0.90585947036743164
0.8177952766418457 0.78366011381149292 0.9128461480140686
0.94607007503509521 0.80807113647460938 0.91911202669143677
0.62784987688064575 0.95363414287567139 0.93298542499542236
0.67091023921966553 0.95221942663192749 0.93642842769622803
0.76284432411193848 0.95340150594711304 0.94399935007095337
0.85582756996154785 0.95647776126861572 0.952350914478302
0.96316325664520264 0.96598738431930542 0.964133620262146
