luts/colorslide/lomography_x-pro_slide_200.cube
# Created by: G'MIC (https://gmic.eu)
TITLE "lomography_x-pro_slide_200"
# LUT size
LUT_3D_SIZE 13
# Data domain
DOMAIN_MIN 0.0 0.0 0.0
DOMAIN_MAX 1.0 1.0 1.0
# LUT data points
0.030203860253095627 0.028509804978966713 0.021267984062433243
0.073647439479827881 0.029767055064439774 0.024152209982275963
0.12340237200260162 0.031773615628480911 0.027081942185759544
0.1839623898267746 0.033752039074897766 0.028902254998683929
0.25409197807312012 0.039046075195074081 0.030712157487869263
0.34065747261047363 0.052131548523902893 0.034470546990633011
0.43610641360282898 0.057200457900762558 0.036130357533693314
0.53932458162307739 0.05873432382941246 0.036705121397972107
0.65121263265609741 0.07486242800951004 0.039278276264667511
0.76354295015335083 0.09784311056137085 0.042594820261001587
0.85784357786178589 0.12178368866443634 0.04253719374537468
0.92871296405792236 0.15536946058273315 0.039438989013433456
0.97946727275848389 0.19953477382659912 0.033410914242267609
0.052700132131576538 0.084729842841625214 0.03735148161649704
0.086122997105121613 0.087975457310676575 0.040187280625104904
0.13256612420082092 0.090463124215602875 0.04268372431397438
0.19443418085575104 0.094901993870735168 0.045040279626846313
0.26675626635551453 0.10084123909473419 0.050094261765480042
0.34673622250556946 0.1080511063337326 0.051605958491563797
0.44165122509002686 0.11815362423658371 0.053299412131309509
0.54916673898696899 0.12939146161079407 0.058557666838169098
0.65906494855880737 0.14586907625198364 0.061908543109893799
0.76941764354705811 0.16662497818470001 0.065697565674781799
0.85888248682022095 0.19318647682666779 0.064663350582122803
0.92737370729446411 0.22684060037136078 0.060964114964008331
0.97550630569458008 0.26608413457870483 0.052625872194766998
0.083804592490196228 0.14674308896064758 0.060906458646059036
0.10886874049901962 0.15028633177280426 0.062520183622837067
0.14466127753257751 0.15490904450416565 0.065130390226840973
0.20664225518703461 0.1628066748380661 0.071189805865287781
0.28104224801063538 0.1689511239528656 0.074578382074832916
0.36155790090560913 0.17428329586982727 0.074857555329799652
0.45322933793067932 0.18379847705364227 0.077364422380924225
0.55764663219451904 0.19714705646038055 0.078527055680751801
0.66682463884353638 0.21273168921470642 0.083169005811214447
0.77529138326644897 0.23216143250465393 0.087196916341781616
0.86060190200805664 0.25821736454963684 0.08362000435590744
0.92750662565231323 0.29019644856452942 0.077147841453552246
0.97507447004318237 0.32876983284950256 0.067515365779399872
0.10504202544689178 0.21581897139549255 0.083098441362380981
0.12536093592643738 0.22194975614547729 0.08607076108455658
0.15630188584327698 0.22722440958023071 0.088617168366909027
0.21732170879840851 0.2337268739938736 0.093063637614250183
0.29476630687713623 0.24368225038051605 0.098828770220279694
0.37803596258163452 0.25055566430091858 0.099416010081768036
0.47025018930435181 0.2592979371547699 0.098725788295269012
0.57252925634384155 0.27268761396408081 0.099383890628814697
0.67866736650466919 0.28698676824569702 0.10221916437149048
0.78211265802383423 0.30579578876495361 0.10441187024116516
0.861827552318573 0.33113241195678711 0.10071633756160736
0.92546063661575317 0.3617994487285614 0.092766225337982178
0.97197878360748291 0.39807787537574768 0.083628818392753601
0.085503354668617249 0.30454692244529724 0.10705225169658661
0.11324602365493774 0.30760908126831055 0.10827542841434479
0.15669585764408112 0.31035909056663513 0.10851884633302689
0.22601206600666046 0.31803613901138306 0.11263683438301086
0.3043455183506012 0.32491764426231384 0.11736586689949036
0.38757246732711792 0.33132538199424744 0.11863791942596436
0.48596742749214172 0.34375035762786865 0.11950364708900452
0.58710008859634399 0.35460227727890015 0.12089017778635025
0.69083583354949951 0.36583611369132996 0.1209125742316246
0.78751683235168457 0.38444620370864868 0.11975271254777908
0.86271560192108154 0.40931788086891174 0.11678771674633026
0.92266309261322021 0.43897509574890137 0.11051863431930542
0.96560937166213989 0.47184538841247559 0.10344022512435913
0.070199497044086456 0.4012332558631897 0.12627121806144714
0.1056997999548912 0.40468594431877136 0.12835775315761566
0.15390247106552124 0.40919026732444763 0.12929767370223999
0.23083385825157166 0.41538691520690918 0.13200873136520386
0.3154970109462738 0.4231073260307312 0.13550062477588654
0.40377461910247803 0.43063563108444214 0.13896554708480835
0.50047945976257324 0.43590769171714783 0.13782629370689392
0.60076099634170532 0.4464242160320282 0.13827824592590332
0.70342659950256348 0.46056720614433289 0.1385071873664856
0.78946828842163086 0.4766274094581604 0.13604681193828583
0.86112815141677856 0.49500426650047302 0.13117067515850067
0.91958415508270264 0.51965558528900146 0.12277448922395706
0.9611659049987793 0.5511975884437561 0.11181359738111496
0.05170421302318573 0.51372551918029785 0.14459362626075745
0.090646006166934967 0.5152631402015686 0.14684794843196869
0.14943417906761169 0.52197611331939697 0.14946652948856354
0.2330729067325592 0.52758198976516724 0.15114215016365051
0.32509195804595947 0.53408342599868774 0.15591071546077728
0.42168554663658142 0.53973633050918579 0.16191208362579346
0.51943439245223999 0.54410809278488159 0.16014863550662994
0.61550980806350708 0.55145668983459473 0.1573522686958313
0.71272397041320801 0.56290280818939209 0.15854443609714508
0.79285961389541626 0.57623100280761719 0.1532440185546875
0.85965704917907715 0.59241366386413574 0.14363895356655121
0.91157609224319458 0.61183679103851318 0.13253673911094666
0.95400649309158325 0.63749253749847412 0.11805976182222366
0.037743721157312393 0.63188374042510986 0.16835813224315643
0.073781080543994904 0.63210880756378174 0.16930912435054779
0.14751964807510376 0.63217586278915405 0.17369483411312103
0.24157625436782837 0.63509589433670044 0.17512628436088562
0.34089013934135437 0.63815361261367798 0.18224716186523438
0.44109669327735901 0.64025449752807617 0.19060985743999481
0.53701287508010864 0.64707016944885254 0.18926724791526794
0.632282555103302 0.65704655647277832 0.18523433804512024
0.71986520290374756 0.66470164060592651 0.18345469236373901
0.79792684316635132 0.67289543151855469 0.17732284963130951
0.85736173391342163 0.68416619300842285 0.17059420049190521
0.90339756011962891 0.69841259717941284 0.15790805220603943
0.94598311185836792 0.71575659513473511 0.13773645460605621
0.07645580917596817 0.73115217685699463 0.20966909825801849
0.12105045467615128 0.72814381122589111 0.21076948940753937
0.19718576967716217 0.72511458396911621 0.21451738476753235
0.28793314099311829 0.72783422470092773 0.21597309410572052
0.3820309042930603 0.7293088436126709 0.22041472792625427
0.47540423274040222 0.73092234134674072 0.22496166825294495
0.5673668384552002 0.73489284515380859 0.22564530372619629
0.65877145528793335 0.7403445839881897 0.22466997802257538
0.73549669981002808 0.74478179216384888 0.22399543225765228
0.80215758085250854 0.74817174673080444 0.22047148644924164
0.85536080598831177 0.75413662195205688 0.21666581928730011
0.89928251504898071 0.76250433921813965 0.20512136816978455
0.94084495306015015 0.77396273612976074 0.18865855038166046
0.22684285044670105 0.79880452156066895 0.26695454120635986
0.25916323065757751 0.79700267314910889 0.26809614896774292
0.3135857880115509 0.79652196168899536 0.27092349529266357
0.37940376996994019 0.79721498489379883 0.27126094698905945
0.45458605885505676 0.79847967624664307 0.273488849401474
0.5369146466255188 0.79922622442245483 0.2772800624370575
0.61820113658905029 0.80035954713821411 0.28005537390708923
0.69086199998855591 0.8015894889831543 0.28135731816291809
0.75615531206130981 0.80503171682357788 0.27860698103904724
0.81004190444946289 0.80262410640716553 0.2768840491771698
0.85851627588272095 0.80323851108551025 0.27412736415863037
0.9016730785369873 0.81112569570541382 0.26255631446838379
0.94064772129058838 0.82187390327453613 0.24706871807575226
0.38524085283279419 0.8494260311126709 0.33597981929779053
0.40873605012893677 0.8499111533164978 0.33724698424339294
0.44287964701652527 0.85047262907028198 0.3373655378818512
0.48873379826545715 0.84935688972473145 0.33668914437294006
0.54506224393844604 0.84793788194656372 0.33974888920783997
0.60848754644393921 0.84841948747634888 0.34430089592933655
0.66503375768661499 0.84993433952331543 0.35071572661399841
0.72718679904937744 0.85062569379806519 0.3513297438621521
0.78169375658035278 0.85217469930648804 0.34583178162574768
0.82384443283081055 0.84995049238204956 0.34122171998023987
0.86782944202423096 0.85025817155838013 0.33761483430862427
0.90645474195480347 0.85674357414245605 0.32680138945579529
0.94239127635955811 0.86376321315765381 0.3131013810634613
0.53440713882446289 0.89359593391418457 0.41466042399406433
0.54853206872940063 0.89429664611816406 0.4147193431854248
0.56703174114227295 0.89428830146789551 0.41299876570701599
0.59937262535095215 0.89314007759094238 0.41231685876846313
0.63717746734619141 0.8928186297416687 0.41493082046508789
0.67382723093032837 0.89192551374435425 0.42448922991752625
0.71602171659469604 0.89296633005142212 0.43189454078674316
0.76838821172714233 0.89329469203948975 0.43076631426811218
0.8077884316444397 0.89153015613555908 0.42365342378616333
0.84197050333023071 0.89225214719772339 0.41500741243362427
0.87881791591644287 0.89412897825241089 0.40762120485305786
0.91379934549331665 0.89668554067611694 0.39776408672332764
0.94770735502243042 0.90116351842880249 0.38796320557594299
0.64897280931472778 0.93406617641448975 0.50102835893630981
0.6551780104637146 0.93350863456726074 0.50007683038711548
0.66917461156845093 0.93517237901687622 0.50057917833328247
0.68807899951934814 0.93340891599655151 0.49811112880706787
0.71162551641464233 0.93365758657455444 0.50040560960769653
0.73610478639602661 0.93354171514511108 0.50700229406356812
0.7665550708770752 0.93376457691192627 0.50957411527633667
0.80228298902511597 0.93233025074005127 0.50473535060882568
0.83028852939605713 0.93083846569061279 0.49789378046989441
0.85921782255172729 0.93427032232284546 0.4967401921749115
0.89046621322631836 0.93627870082855225 0.49179640412330627
0.92297601699829102 0.93689286708831787 0.48069530725479126
0.9549565315246582 0.94052451848983765 0.47299438714981079
0.0287920031696558 0.026163887232542038 0.058360438793897629
0.072700515389442444 0.029807146638631821 0.062533646821975708
0.12399951368570328 0.030720369890332222 0.064902029931545258
0.18432867527008057 0.032124508172273636 0.068393602967262268
0.25576639175415039 0.037244684994220734 0.071372345089912415
0.34015592932701111 0.048548560589551926 0.07588069885969162
0.43516868352890015 0.054334916174411774 0.078305967152118683
0.5404697060585022 0.058367576450109482 0.080755464732646942
0.65258097648620605 0.068184979259967804 0.08389551192522049
0.76515763998031616 0.086852118372917175 0.087474793195724487
0.86072039604187012 0.11726343631744385 0.087259389460086823
0.93085604906082153 0.15029175579547882 0.083052769303321838
0.98235899209976196 0.1967102438211441 0.073568098247051239
0.053499199450016022 0.081531405448913574 0.077584452927112579
0.08674989640712738 0.084620937705039978 0.079470165073871613
0.13741052150726318 0.089767321944236755 0.084814541041851044
0.19806239008903503 0.09284432977437973 0.08829207718372345
0.26869505643844604 0.09713687002658844 0.090617254376411438
0.34921050071716309 0.1051972359418869 0.094180040061473846
0.44169902801513672 0.11303817480802536 0.097086437046527863
0.54774641990661621 0.12431434541940689 0.099723652005195618
0.65792739391326904 0.14023458957672119 0.1018681675195694
0.76829922199249268 0.16208994388580322 0.10483631491661072
0.86021453142166138 0.18917645514011383 0.1034558042883873
0.92810505628585815 0.22421950101852417 0.098421730101108551
0.97672528028488159 0.26541483402252197 0.088569626212120056
0.084995746612548828 0.14388680458068848 0.099850960075855255
0.11027821898460388 0.14750970900058746 0.10072378814220428
0.14842714369297028 0.14960882067680359 0.10320501774549484
0.20777742564678192 0.15484137833118439 0.10700544714927673
0.28147605061531067 0.16189217567443848 0.10956603288650513
0.36335185170173645 0.16986933350563049 0.11222358793020248
0.45374006032943726 0.17874662578105927 0.11479984223842621
0.55970662832260132 0.19479595124721527 0.11893086135387421
0.66737163066864014 0.21193526685237885 0.12048409879207611
0.77379804849624634 0.23261585831642151 0.12166307866573334
0.85999214649200439 0.25677049160003662 0.11779813468456268
0.92719393968582153 0.28850254416465759 0.11109725385904312
0.97531819343566895 0.32797196507453918 0.10039855539798737
0.10414770990610123 0.21387618780136108 0.11873564124107361
0.12253712862730026 0.22098825871944427 0.12118133902549744
0.156057208776474 0.22678561508655548 0.12383093684911728
0.22059682011604309 0.23091951012611389 0.12681771814823151
0.29404088854789734 0.2354339212179184 0.12699119746685028
0.37901121377944946 0.24475367367267609 0.12958043813705444
0.47161468863487244 0.25656473636627197 0.13262005150318146
0.57502526044845581 0.27077680826187134 0.13493499159812927
0.68096858263015747 0.29024139046669006 0.13663627207279205
0.78309482336044312 0.30639278888702393 0.1352723240852356
0.86483728885650635 0.32842192053794861 0.13167934119701385
0.92579925060272217 0.358592689037323 0.12475298345088959
0.9730374813079834 0.39587381482124329 0.11261852830648422
0.082952983677387238 0.30353766679763794 0.13824079930782318
0.10837715119123459 0.30649030208587646 0.13789932429790497
0.15554475784301758 0.3104611337184906 0.14031395316123962
0.22795294225215912 0.31745228171348572 0.14385455846786499
0.30667325854301453 0.32271161675453186 0.14576354622840881
0.39320915937423706 0.32796069979667664 0.14845356345176697
0.48756778240203857 0.33881041407585144 0.14971789717674255
0.58917272090911865 0.35092192888259888 0.1510469913482666
0.69440740346908569 0.36601236462593079 0.15112484991550446
0.78803139925003052 0.38688385486602783 0.15071704983711243
0.86379551887512207 0.41074514389038086 0.14739006757736206
0.92311155796051025 0.43595564365386963 0.13864235579967499
0.96920174360275269 0.47004365921020508 0.12561438977718353
0.072991311550140381 0.40120819211006165 0.1552937924861908
0.10682332515716553 0.40489161014556885 0.15626566112041473
0.15650518238544464 0.40960028767585754 0.15871381759643555
0.23379391431808472 0.41532570123672485 0.16051854193210602
0.31787973642349243 0.42082962393760681 0.16375935077667236
0.40825989842414856 0.42573174834251404 0.16821658611297607
0.5022580623626709 0.43274953961372375 0.16944287717342377
0.60367310047149658 0.44490158557891846 0.16867643594741821
0.70588105916976929 0.45922258496284485 0.16802266240119934
0.79428732395172119 0.47505015134811401 0.1656886488199234
0.86431056261062622 0.4940202534198761 0.15973937511444092
0.91957265138626099 0.51962554454803467 0.15058517456054688
0.96384024620056152 0.5509369969367981 0.13638098537921906
0.053070202469825745 0.51372551918029785 0.17471881210803986
0.089722380042076111 0.51459711790084839 0.17671491205692291
0.15058524906635284 0.51907986402511597 0.18078075349330902
0.23637174069881439 0.52314966917037964 0.18291124701499939
0.32847616076469421 0.52685433626174927 0.18620856106281281
0.42221271991729736 0.53221511840820312 0.19210103154182434
0.51841223239898682 0.53937059640884399 0.19261975586414337
0.61730176210403442 0.55121868848800659 0.19208177924156189
0.71412801742553711 0.56376069784164429 0.19235040247440338
0.79690629243850708 0.57477813959121704 0.18812112510204315
0.85986101627349854 0.59199255704879761 0.180225670337677
0.91187256574630737 0.61386281251907349 0.16670402884483337
0.95452064275741577 0.640167236328125 0.14952211081981659
0.03908206894993782 0.63195919990539551 0.20273195207118988
0.075595617294311523 0.63198721408843994 0.20379127562046051
0.14773187041282654 0.63243579864501953 0.20791509747505188
0.2444140613079071 0.63384109735488892 0.21148779988288879
0.34116339683532715 0.63607323169708252 0.21435777842998505
0.43629667162895203 0.64058756828308105 0.21858566999435425
0.53478914499282837 0.64621686935424805 0.21999123692512512
0.63443994522094727 0.65637868642807007 0.21926873922348022
0.72306591272354126 0.66467165946960449 0.22012794017791748
0.79841899871826172 0.67396610975265503 0.21673625707626343
0.8557504415512085 0.68586272001266479 0.21029062569141388
0.90250712633132935 0.70095652341842651 0.1985836923122406
0.94624501466751099 0.71976053714752197 0.1797175407409668
0.075495898723602295 0.73087459802627563 0.24296678602695465
0.12088066339492798 0.72954171895980835 0.2441059798002243
0.20083153247833252 0.72847491502761841 0.24752788245677948
0.28986063599586487 0.72881948947906494 0.24988722801208496
0.38274228572845459 0.72874563932418823 0.2528899610042572
0.47404956817626953 0.7308925986289978 0.25653171539306641
0.56850999593734741 0.73382568359375 0.2599233090877533
0.66100257635116577 0.74015229940414429 0.26122677326202393
0.7388986349105835 0.74580997228622437 0.26011627912521362
0.80278873443603516 0.75030308961868286 0.25769451260566711
0.85492998361587524 0.75604879856109619 0.25203809142112732
0.89835351705551147 0.76574897766113281 0.24272570013999939
0.94056403636932373 0.77746385335922241 0.22920960187911987
0.22494228184223175 0.79667478799819946 0.29858496785163879
0.26142024993896484 0.79882335662841797 0.2985433042049408
0.31579840183258057 0.79891973733901978 0.30197316408157349
0.38076692819595337 0.79925227165222168 0.30184975266456604
0.45628142356872559 0.79906690120697021 0.30331018567085266
0.53744065761566162 0.79915010929107666 0.30888837575912476
0.62229824066162109 0.79978758096694946 0.31241145730018616
0.69486981630325317 0.80235487222671509 0.31389787793159485
0.75670379400253296 0.80453503131866455 0.31233802437782288
0.8114774227142334 0.80512398481369019 0.30977317690849304
0.85763764381408691 0.80671048164367676 0.3054409921169281
0.90065920352935791 0.81457465887069702 0.29591020941734314
0.94056695699691772 0.82436412572860718 0.2840820848941803
0.38375800848007202 0.84748202562332153 0.36707603931427002
0.4044417142868042 0.84940838813781738 0.36747574806213379
0.44432187080383301 0.85008931159973145 0.36906197667121887
0.49372383952140808 0.8494909405708313 0.36923527717590332
0.54600119590759277 0.84863913059234619 0.37050163745880127
0.6115487813949585 0.84929436445236206 0.37121272087097168
0.67373275756835938 0.85078984498977661 0.37310826778411865
0.72821921110153198 0.85105431079864502 0.37527406215667725
0.78095096349716187 0.85262328386306763 0.37291762232780457
0.82475364208221436 0.85412287712097168 0.36922058463096619
0.8650515079498291 0.854866623878479 0.3646196722984314
0.90492212772369385 0.8590051531791687 0.35712358355522156
0.94291132688522339 0.86473202705383301 0.34629034996032715
0.53060626983642578 0.89307725429534912 0.43813985586166382
0.54332226514816284 0.89308446645736694 0.43990704417228699
0.56795358657836914 0.89364266395568848 0.43972581624984741
0.6015440821647644 0.89311885833740234 0.44017496705055237
0.637317955493927 0.89260858297348022 0.44210970401763916
0.68089836835861206 0.89315760135650635 0.44474110007286072
0.72078204154968262 0.8943292498588562 0.4488525390625
0.76618283987045288 0.89363652467727661 0.44906529784202576
0.80701100826263428 0.89385563135147095 0.44762042164802551
0.84164524078369141 0.89413034915924072 0.44299396872520447
0.8782733678817749 0.89641702175140381 0.43777632713317871
0.91418731212615967 0.89963257312774658 0.42861968278884888
0.94853907823562622 0.90282487869262695 0.41755220293998718
0.64835631847381592 0.93548601865768433 0.5203474760055542
0.65753865242004395 0.93504416942596436 0.52008318901062012
0.6691209077835083 0.9348483681678772 0.52161151170730591
0.68800497055053711 0.9337536096572876 0.52125388383865356
0.71260017156600952 0.93339729309082031 0.52144229412078857
0.7391965389251709 0.93468070030212402 0.52528709173202515
0.76795369386672974 0.93493545055389404 0.52647286653518677
0.80038034915924072 0.93444812297821045 0.52652484178543091
0.82976162433624268 0.93406176567077637 0.52513211965560913
0.85927122831344604 0.93573230504989624 0.52283984422683716
0.89010775089263916 0.93658769130706787 0.51604735851287842
0.92276418209075928 0.93883079290390015 0.50692117214202881
0.95521777868270874 0.94176340103149414 0.49895298480987549
0.030166147276759148 0.024633593857288361 0.10102587193250656
0.072605922818183899 0.02797221764922142 0.10417963564395905
0.12677130103111267 0.032340522855520248 0.10918878018856049
0.1866055428981781 0.033332180231809616 0.11315111815929413
0.2572970986366272 0.035131342709064484 0.11541037261486053
0.33862444758415222 0.039880175143480301 0.11708763241767883
0.43284642696380615 0.047341067343950272 0.12106557935476303
0.53968775272369385 0.053783714771270752 0.12507304549217224
0.65259027481079102 0.065643414855003357 0.12785790860652924
0.766285240650177 0.083193987607955933 0.12921829521656036
0.86131888628005981 0.11277624219655991 0.12790858745574951
0.9315180778503418 0.14861546456813812 0.12266012281179428
0.98192524909973145 0.19660386443138123 0.11250373721122742
0.051575366407632828 0.07492363452911377 0.12001439929008484
0.087109722197055817 0.079919181764125824 0.12246249616146088
0.13983221352100372 0.086128577589988708 0.12765158712863922
0.19816191494464874 0.088462740182876587 0.13163115084171295
0.26922145485877991 0.092836253345012665 0.13352695107460022
0.35079497098922729 0.10120813548564911 0.13565787672996521
0.44421875476837158 0.10901757329702377 0.14001758396625519
0.55087214708328247 0.11879646778106689 0.1428477019071579
0.65965265035629272 0.13562287390232086 0.14480353891849518
0.76783138513565063 0.15559954941272736 0.14667990803718567
0.85992872714996338 0.18565583229064941 0.14478985965251923
0.92743986845016479 0.22325673699378967 0.13891017436981201
0.9783012866973877 0.266722172498703 0.1268884688615799
0.08333192765712738 0.1374688595533371 0.13998034596443176
0.11001349240541458 0.14119824767112732 0.1425665020942688
0.15019826591014862 0.14467856287956238 0.14768074452877045
0.20861785113811493 0.14965987205505371 0.15152394771575928
0.28273308277130127 0.15757936239242554 0.15228106081485748
0.36374327540397644 0.16592809557914734 0.15220192074775696
0.45819583535194397 0.17575854063034058 0.15678218007087708
0.56258994340896606 0.18872596323490143 0.15978959202766418
0.6690254807472229 0.20752902328968048 0.16225910186767578
0.77361798286437988 0.22660923004150391 0.1622546911239624
0.86089670658111572 0.25284615159034729 0.16032533347606659
0.92694175243377686 0.28998813033103943 0.15499401092529297
0.97585666179656982 0.33009755611419678 0.14269140362739563
0.10601046681404114 0.20911145210266113 0.15909659862518311
0.12570393085479736 0.21438932418823242 0.16186225414276123
0.16303326189517975 0.22221943736076355 0.16989877820014954
0.22387115657329559 0.22689202427864075 0.17372596263885498
0.29614850878715515 0.23150771856307983 0.17267371714115143
0.37809434533119202 0.24106776714324951 0.17293883860111237
0.47116684913635254 0.25065654516220093 0.17439226806163788
0.57675951719284058 0.26497155427932739 0.17748585343360901
0.68238323926925659 0.28489363193511963 0.17994315922260284
0.78326880931854248 0.30261185765266418 0.17871540784835815
0.8651123046875 0.32512709498405457 0.17514055967330933
0.92751419544219971 0.35705772042274475 0.16719105839729309
0.97317147254943848 0.39543601870536804 0.15745595097541809
0.09335058182477951 0.29902753233909607 0.17942503094673157
0.11305154860019684 0.30209046602249146 0.18105851113796234
0.16231806576251984 0.30981266498565674 0.1899232417345047
0.23175519704818726 0.31389281153678894 0.19346992671489716
0.30788818001747131 0.31793296337127686 0.19262920320034027
0.39294281601905823 0.32482954859733582 0.19543485343456268
0.48726260662078857 0.33401405811309814 0.19601671397686005
