luts/colorslide/lomography_x-pro_slide_200.cube
# Created by: G'MIC (https://gmic.eu)
TITLE "lomography_x-pro_slide_200"
# LUT size
LUT_3D_SIZE 7
# Data domain
DOMAIN_MIN 0.0 0.0 0.0
DOMAIN_MAX 1.0 1.0 1.0
# LUT data points
0.030203860253095627 0.028509804978966713 0.021267984062433243
0.12340237200260162 0.031773615628480911 0.027081942185759544
0.25409197807312012 0.039046075195074081 0.030712157487869263
0.43610641360282898 0.057200457900762558 0.036130357533693314
0.65121263265609741 0.07486242800951004 0.039278276264667511
0.85784357786178589 0.12178368866443634 0.04253719374537468
0.97946727275848389 0.19953477382659912 0.033410914242267609
0.083804592490196228 0.14674308896064758 0.060906458646059036
0.14466127753257751 0.15490904450416565 0.065130390226840973
0.28104224801063538 0.1689511239528656 0.074578382074832916
0.45322933793067932 0.18379847705364227 0.077364422380924225
0.66682463884353638 0.21273168921470642 0.083169005811214447
0.86060190200805664 0.25821736454963684 0.08362000435590744
0.97507447004318237 0.32876983284950256 0.067515365779399872
0.085503354668617249 0.30454692244529724 0.10705225169658661
0.15669585764408112 0.31035909056663513 0.10851884633302689
0.3043455183506012 0.32491764426231384 0.11736586689949036
0.48596742749214172 0.34375035762786865 0.11950364708900452
0.69083583354949951 0.36583611369132996 0.1209125742316246
0.86271560192108154 0.40931788086891174 0.11678771674633026
0.96560937166213989 0.47184538841247559 0.10344022512435913
0.05170421302318573 0.51372551918029785 0.14459362626075745
0.14943417906761169 0.52197611331939697 0.14946652948856354
0.32509195804595947 0.53408342599868774 0.15591071546077728
0.51943439245223999 0.54410809278488159 0.16014863550662994
0.71272397041320801 0.56290280818939209 0.15854443609714508
0.85965704917907715 0.59241366386413574 0.14363895356655121
0.95400649309158325 0.63749253749847412 0.11805976182222366
0.07645580917596817 0.73115217685699463 0.20966909825801849
0.19718576967716217 0.72511458396911621 0.21451738476753235
0.3820309042930603 0.7293088436126709 0.22041472792625427
0.5673668384552002 0.73489284515380859 0.22564530372619629
0.73549669981002808 0.74478179216384888 0.22399543225765228
0.85536080598831177 0.75413662195205688 0.21666581928730011
0.94084495306015015 0.77396273612976074 0.18865855038166046
0.38524085283279419 0.8494260311126709 0.33597981929779053
0.44287964701652527 0.85047262907028198 0.3373655378818512
0.54506224393844604 0.84793788194656372 0.33974888920783997
0.66503375768661499 0.84993433952331543 0.35071572661399841
0.78169375658035278 0.85217469930648804 0.34583178162574768
0.86782944202423096 0.85025817155838013 0.33761483430862427
0.94239127635955811 0.86376321315765381 0.3131013810634613
0.64897280931472778 0.93406617641448975 0.50102835893630981
0.66917461156845093 0.93517237901687622 0.50057917833328247
0.71162551641464233 0.93365758657455444 0.50040560960769653
0.7665550708770752 0.93376457691192627 0.50957411527633667
0.83028852939605713 0.93083846569061279 0.49789378046989441
0.89046621322631836 0.93627870082855225 0.49179640412330627
0.9549565315246582 0.94052451848983765 0.47299438714981079
0.030166147276759148 0.024633593857288361 0.10102587193250656
0.12677130103111267 0.032340522855520248 0.10918878018856049
0.2572970986366272 0.035131342709064484 0.11541037261486053
0.43284642696380615 0.047341067343950272 0.12106557935476303
0.65259027481079102 0.065643414855003357 0.12785790860652924
0.86131888628005981 0.11277624219655991 0.12790858745574951
0.98192524909973145 0.19660386443138123 0.11250373721122742
0.08333192765712738 0.1374688595533371 0.13998034596443176
0.15019826591014862 0.14467856287956238 0.14768074452877045
0.28273308277130127 0.15757936239242554 0.15228106081485748
0.45819583535194397 0.17575854063034058 0.15678218007087708
0.6690254807472229 0.20752902328968048 0.16225910186767578
0.86089670658111572 0.25284615159034729 0.16032533347606659
0.97585666179656982 0.33009755611419678 0.14269140362739563
0.09335058182477951 0.29902753233909607 0.17942503094673157
0.16231806576251984 0.30981266498565674 0.1899232417345047
0.30788818001747131 0.31793296337127686 0.19262920320034027
0.48726260662078857 0.33401405811309814 0.19601671397686005
0.69565218687057495 0.36404797434806824 0.19687765836715698
0.86434012651443481 0.40974149107933044 0.19520273804664612
0.97010022401809692 0.46870130300521851 0.17328117787837982
0.049964170902967453 0.51314187049865723 0.22589299082756042
0.15323194861412048 0.51766836643218994 0.23070761561393738
0.32871076464653015 0.52224457263946533 0.23653648793697357
0.5171167254447937 0.53676700592041016 0.24566112458705902
0.71236979961395264 0.56257551908493042 0.24518822133541107
0.857371985912323 0.59183371067047119 0.23748648166656494
0.95375537872314453 0.64049476385116577 0.2097465991973877
0.076938852667808533 0.73002415895462036 0.29245772957801819
0.20162196457386017 0.72938287258148193 0.29667976498603821
0.38282677531242371 0.73086702823638916 0.30088883638381958
0.5701221227645874 0.73356395959854126 0.30890175700187683
0.74034726619720459 0.74537748098373413 0.31080493330955505
0.85359615087509155 0.76006811857223511 0.30649867653846741
0.94049787521362305 0.77951657772064209 0.28910079598426819
0.37872201204299927 0.84850281476974487 0.40726730227470398
0.44528007507324219 0.8490186333656311 0.41328835487365723
0.55112636089324951 0.84996014833450317 0.41518509387969971
0.67484086751937866 0.85096347332000732 0.42060390114784241
0.7794182300567627 0.8518984317779541 0.4233705997467041
0.8673170804977417 0.85780352354049683 0.41487374901771545
0.94308590888977051 0.86687541007995605 0.39732187986373901
0.64737343788146973 0.9367249608039856 0.55557018518447876
0.66746062040328979 0.93630081415176392 0.55887734889984131
0.71301829814910889 0.93656647205352783 0.56123298406600952
0.76809608936309814 0.93679940700531006 0.56274056434631348
0.82917702198028564 0.93701803684234619 0.56306803226470947
0.88912558555603027 0.94047164916992188 0.55717027187347412
0.95412933826446533 0.94371491670608521 0.54013776779174805
0.028665894642472267 0.019046200439333916 0.19867469370365143
0.12369804829359055 0.028153738006949425 0.20410273969173431
0.25691878795623779 0.029595872387290001 0.21205969154834747
0.4383997917175293 0.039738405495882034 0.22140252590179443
0.65817165374755859 0.068368621170520782 0.23208914697170258
0.86326879262924194 0.10698334872722626 0.22827880084514618
0.98400264978408813 0.18712455034255981 0.21020402014255524
0.084148392081260681 0.12877628207206726 0.25139409303665161
0.1478533148765564 0.13640880584716797 0.25162479281425476
0.28490272164344788 0.14907151460647583 0.26105460524559021
0.46381735801696777 0.16603843867778778 0.26895835995674133
0.67777508497238159 0.20058780908584595 0.27837458252906799
0.86283993721008301 0.24762211740016937 0.2756575345993042
0.97681319713592529 0.32257533073425293 0.2553350031375885
0.092031292617321014 0.29245069622993469 0.29824188351631165
0.16440701484680176 0.2991548478603363 0.30312678217887878
0.30917507410049438 0.30877882242202759 0.30995297431945801
0.49133455753326416 0.32927605509757996 0.31809064745903015
0.69757640361785889 0.35819524526596069 0.32195475697517395
0.87139856815338135 0.39961841702461243 0.31949594616889954
0.97178703546524048 0.46529978513717651 0.29898586869239807
0.050857454538345337 0.50912809371948242 0.35024982690811157
0.15602368116378784 0.51406413316726685 0.35678249597549438
0.33092737197875977 0.51914024353027344 0.36251544952392578
0.52100348472595215 0.53354066610336304 0.36993098258972168
0.72034525871276855 0.55368304252624512 0.37530091404914856
0.86090534925460815 0.592018723487854 0.37473917007446289
0.95492279529571533 0.64116841554641724 0.35385876893997192
0.068749718368053436 0.73207825422286987 0.42013499140739441
0.20131541788578033 0.73060768842697144 0.42602843046188354
0.38378098607063293 0.72711753845214844 0.43004143238067627
0.57314282655715942 0.73666071891784668 0.43703961372375488
0.74060982465744019 0.7436181902885437 0.44274598360061646
0.85534006357192993 0.76019591093063354 0.44232547283172607
0.94106030464172363 0.77981334924697876 0.43314749002456665
0.37926432490348816 0.8554147481918335 0.52498042583465576
0.4371027946472168 0.85002034902572632 0.52985715866088867
0.55252158641815186 0.85329210758209229 0.53220957517623901
0.67506963014602661 0.85483109951019287 0.54291683435440063
0.77683055400848389 0.8531498908996582 0.54273688793182373
0.86971849203109741 0.85928845405578613 0.54377615451812744
0.94268488883972168 0.87018245458602905 0.53458297252655029
0.64657336473464966 0.94211965799331665 0.65754348039627075
0.66764003038406372 0.94147300720214844 0.6560065746307373
0.71185851097106934 0.94195735454559326 0.6635887622833252
0.76517236232757568 0.94065845012664795 0.66439461708068848
0.82657772302627563 0.94282817840576172 0.66493833065032959
0.88703960180282593 0.94507980346679688 0.65959447622299194
0.95055615901947021 0.95085591077804565 0.65474754571914673
0.031570930033922195 0.015444198623299599 0.32722377777099609
0.12242144346237183 0.022982727736234665 0.33562329411506653
0.25764405727386475 0.025685986503958702 0.3418254554271698
0.44122809171676636 0.03315836563706398 0.35254475474357605
0.66545599699020386 0.060984771698713303 0.36855342984199524
0.86486697196960449 0.095878005027770996 0.36699873208999634
0.98503202199935913 0.17485231161117554 0.35570293664932251
0.077410556375980377 0.11248158663511276 0.38560378551483154
0.14617237448692322 0.12231329828500748 0.38813647627830505
0.28353312611579895 0.13344742357730865 0.3962397575378418
0.46726310253143311 0.15023215115070343 0.41073530912399292
0.68165606260299683 0.182440385222435 0.41891220211982727
0.86545580625534058 0.23087967932224274 0.42020139098167419
0.9799734354019165 0.3072497546672821 0.40816894173622131
0.10320676863193512 0.27623558044433594 0.44098326563835144
0.16751521825790405 0.28422138094902039 0.44705650210380554
0.31161096692085266 0.2981199324131012 0.45760166645050049
0.49714097380638123 0.31505569815635681 0.47152641415596008
0.7014763355255127 0.34435340762138367 0.47921386361122131
0.8705560564994812 0.3866998553276062 0.4761548638343811
0.97331446409225464 0.45462000370025635 0.46574610471725464
0.054458260536193848 0.49896705150604248 0.50466340780258179
0.16130684316158295 0.50646281242370605 0.51225370168685913
0.33561989665031433 0.51541203260421753 0.51960808038711548
0.52994167804718018 0.52595531940460205 0.52952688932418823
0.71928399801254272 0.54424202442169189 0.53822022676467896
0.86322295665740967 0.58051174879074097 0.53327047824859619
0.95660585165023804 0.63668084144592285 0.52315205335617065
0.060841191560029984 0.73096060752868652 0.57780474424362183
0.19688375294208527 0.72953969240188599 0.58046513795852661
0.38562998175621033 0.7300000786781311 0.58427488803863525
0.57477742433547974 0.73616486787796021 0.59352177381515503
0.74311685562133789 0.73898077011108398 0.60244071483612061
0.85983371734619141 0.75765931606292725 0.60166269540786743
0.9390869140625 0.77516573667526245 0.59415251016616821
0.37329450249671936 0.85816806554794312 0.66370695829391479
0.44111350178718567 0.85579127073287964 0.66642981767654419
0.55137079954147339 0.85442185401916504 0.66834044456481934
0.67074620723724365 0.85472398996353149 0.66835635900497437
0.78055483102798462 0.85710877180099487 0.67878693342208862
0.87029117345809937 0.86384099721908569 0.68024700880050659
0.94211834669113159 0.87434679269790649 0.67013347148895264
0.64366298913955688 0.94504737854003906 0.74883252382278442
0.66495388746261597 0.94615751504898071 0.75148266553878784
0.71248608827590942 0.9470440149307251 0.75013631582260132
0.76766020059585571 0.94555914402008057 0.7562263011932373
0.82427322864532471 0.94632601737976074 0.75995463132858276
0.88820654153823853 0.95111197233200073 0.75792056322097778
0.95198118686676025 0.95607858896255493 0.75831383466720581
0.02651132270693779 0.0072192922234535217 0.48561742901802063
0.11606916785240173 0.0092328842729330063 0.49603641033172607
0.25550165772438049 0.015528884716331959 0.50579845905303955
0.43617919087409973 0.022640781477093697 0.51964575052261353
0.66318786144256592 0.036275841295719147 0.53207004070281982
0.86602550745010376 0.075508967041969299 0.54039347171783447
0.98601347208023071 0.15656256675720215 0.53468936681747437
0.075425691902637482 0.097057357430458069 0.55080097913742065
0.14549392461776733 0.1022174283862114 0.55608165264129639
0.28473874926567078 0.11436738818883896 0.56386327743530273
0.4630943238735199 0.12574826180934906 0.57940673828125
0.68369007110595703 0.15629890561103821 0.59204626083374023
0.86958134174346924 0.2011357843875885 0.59691375494003296
0.9794008731842041 0.28450438380241394 0.59000581502914429
0.11209885776042938 0.25162029266357422 0.60998255014419556
0.16979867219924927 0.25932684540748596 0.61287176609039307
0.31057253479957581 0.27394679188728333 0.62293428182601929
0.49722284078598022 0.28576469421386719 0.6332705020904541
0.70108938217163086 0.31516855955123901 0.64634400606155396
0.87519609928131104 0.35948911309242249 0.65269291400909424
0.97200030088424683 0.43364322185516357 0.65002584457397461
0.065240748226642609 0.48020666837692261 0.66997033357620239
0.1703229546546936 0.48632246255874634 0.67090141773223877
0.34056198596954346 0.49603378772735596 0.67863529920578003
0.53367215394973755 0.51007908582687378 0.6860194206237793
0.72407549619674683 0.52488631010055542 0.69672185182571411
0.86439180374145508 0.56635302305221558 0.69938200712203979
0.95857703685760498 0.62034642696380615 0.69908863306045532
0.061465393751859665 0.72173058986663818 0.72117161750793457
0.19323259592056274 0.72001874446868896 0.72240257263183594
0.3870728611946106 0.72228908538818359 0.72367972135543823
0.57924109697341919 0.72996783256530762 0.73554331064224243
0.74493902921676636 0.73994886875152588 0.74200248718261719
0.86070531606674194 0.75001072883605957 0.74283790588378906
0.94203466176986694 0.77961081266403198 0.74383896589279175
0.37052249908447266 0.85951143503189087 0.77041149139404297
0.43118590116500854 0.85686600208282471 0.7725253701210022
0.53846007585525513 0.85603106021881104 0.77349674701690674
0.67193293571472168 0.85633432865142822 0.77775180339813232
0.78038376569747925 0.86081784963607788 0.78246891498565674
0.86744087934494019 0.86881929636001587 0.78555989265441895
0.94351083040237427 0.87705153226852417 0.78341490030288696
0.64609390497207642 0.94833546876907349 0.82194036245346069
0.66055005788803101 0.94744378328323364 0.8222355842590332
0.71005523204803467 0.95074009895324707 0.82279980182647705
0.76668298244476318 0.95086485147476196 0.82638698816299438
0.82408243417739868 0.95204097032546997 0.82983386516571045
0.88577622175216675 0.9555283784866333 0.83221453428268433
0.95577597618103027 0.95886164903640747 0.82732772827148438
0.021789101883769035 0.0045561096630990505 0.66081899404525757
0.11295771598815918 0.0076338225044310093 0.66963261365890503
0.24132591485977173 0.0041855606250464916 0.68335413932800293
0.43223634362220764 0.0082972059026360512 0.69527322053909302
0.66193467378616333 0.017252739518880844 0.71153503656387329
0.86384481191635132 0.044371690601110458 0.71682465076446533
0.98646539449691772 0.12129180133342743 0.71951854228973389
0.063241325318813324 0.06009896844625473 0.71585375070571899
0.1413615494966507 0.072955355048179626 0.71796715259552002
0.27411457896232605 0.075932793319225311 0.72723078727722168
0.45489537715911865 0.089886486530303955 0.7395097017288208
0.6808810830116272 0.11830350011587143 0.75471645593643188
0.87423598766326904 0.16258960962295532 0.76458847522735596
0.98101580142974854 0.24692295491695404 0.76003140211105347
0.1218395009636879 0.20957851409912109 0.75816911458969116
0.17521661520004272 0.21476675570011139 0.76159477233886719
0.31226420402526855 0.22605772316455841 0.77004623413085938
0.49637201428413391 0.24369920790195465 0.77710896730422974
0.70441532135009766 0.27766901254653931 0.79045790433883667
0.87927967309951782 0.32149592041969299 0.79933792352676392
0.97921651601791382 0.3951144814491272 0.79661232233047485
0.094432279467582703 0.44443204998970032 0.79264134168624878
0.18602445721626282 0.45189538598060608 0.79341822862625122
0.34224420785903931 0.46147975325584412 0.79992735385894775
0.53615748882293701 0.47689327597618103 0.80681341886520386
0.73023945093154907 0.4954744279384613 0.81812554597854614
0.87251746654510498 0.5302426815032959 0.81981825828552246
0.96101444959640503 0.58547019958496094 0.81271272897720337
0.060382034629583359 0.70220375061035156 0.81516170501708984
0.19834350049495697 0.70247000455856323 0.81694644689559937
0.38798204064369202 0.70585733652114868 0.82190835475921631
0.58589166402816772 0.71144455671310425 0.8292040228843689
0.74941849708557129 0.72260838747024536 0.83789718151092529
0.86350566148757935 0.74133121967315674 0.84100878238677979
0.94583237171173096 0.7690964937210083 0.84183317422866821
0.35588386654853821 0.85333442687988281 0.84387660026550293
0.419871985912323 0.84923917055130005 0.8435598611831665
0.53860437870025635 0.85454124212265015 0.84990411996841431
0.67361700534820557 0.85612177848815918 0.8562437891960144
0.78059059381484985 0.86016762256622314 0.86179482936859131
0.86794424057006836 0.8649296760559082 0.86307239532470703
0.9427608847618103 0.87179207801818848 0.86379194259643555
0.64253228902816772 0.95231348276138306 0.87961602210998535
0.66122615337371826 0.95187824964523315 0.88004177808761597
0.70685386657714844 0.95319169759750366 0.88355869054794312
0.76622146368026733 0.95188438892364502 0.88368552923202515
0.82315027713775635 0.95480644702911377 0.88751411437988281
0.88628309965133667 0.95510780811309814 0.89387577772140503
0.95799058675765991 0.96025925874710083 0.89816153049468994
0.01491337176412344 0.0039215688593685627 0.79620563983917236
0.094655059278011322 0.0037395402323454618 0.79604870080947876
0.22477960586547852 0.0032617906108498573 0.80911171436309814
0.42438551783561707 0.0023174360394477844 0.82448983192443848
0.65971648693084717 0.0042870915494859219 0.84390908479690552
0.86664056777954102 0.016157966107130051 0.84993141889572144
0.98680752515792847 0.069395653903484344 0.85388839244842529
0.055658780038356781 0.020181514322757721 0.82705575227737427
0.12575496733188629 0.020601384341716766 0.82957065105438232
0.2579282820224762 0.026031194254755974 0.84135222434997559
0.44712302088737488 0.038643721491098404 0.85258746147155762
0.67696553468704224 0.058404482901096344 0.86377900838851929
0.87567645311355591 0.099936075508594513 0.87404924631118774
0.98782694339752197 0.17789238691329956 0.87882304191589355
0.11418880522251129 0.14483104646205902 0.85412174463272095
0.17547410726547241 0.14557071030139923 0.85752135515213013
0.30724895000457764 0.15854005515575409 0.86603051424026489
0.4956270158290863 0.17724794149398804 0.87255805730819702
0.70805716514587402 0.20219840109348297 0.88591188192367554
0.88363134860992432 0.24867762625217438 0.89254641532897949
0.98338919878005981 0.33149033784866333 0.89275217056274414
0.12785276770591736 0.37883523106575012 0.87349063158035278
0.20854538679122925 0.38343265652656555 0.87410080432891846
0.35011005401611328 0.3921913206577301 0.88117581605911255
0.54237544536590576 0.41374343633651733 0.88757503032684326
0.73812109231948853 0.4345862865447998 0.89984935522079468
0.88344323635101318 0.47295910120010376 0.90498834848403931
0.973949134349823 0.54361283779144287 0.90479129552841187
0.094072036445140839 0.66008514165878296 0.8854174017906189
0.21913523972034454 0.65804338455200195 0.88580596446990967
0.39449489116668701 0.66421270370483398 0.89200425148010254
0.58218926191329956 0.6742483377456665 0.89734154939651489
0.75069534778594971 0.68718928098678589 0.90448105335235596
0.86797153949737549 0.71093875169754028 0.90930259227752686
0.95005202293395996 0.74304616451263428 0.90625983476638794
0.33141714334487915 0.84287631511688232 0.90186154842376709
0.40270575881004333 0.84410834312438965 0.90488708019256592
0.52827739715576172 0.84227961301803589 0.90905368328094482
0.66969317197799683 0.84461873769760132 0.91739308834075928
0.78182756900787354 0.84799635410308838 0.92106187343597412
0.86700057983398438 0.85103362798690796 0.92738282680511475
0.9474596381187439 0.86731845140457153 0.9328315258026123
0.62784987688064575 0.95363414287567139 0.93298542499542236
0.65100038051605225 0.95276802778244019 0.93495184183120728
0.69958806037902832 0.95277798175811768 0.93960988521575928
0.76284432411193848 0.95340150594711304 0.94399935007095337
0.82554203271865845 0.95522010326385498 0.94848799705505371
0.88480573892593384 0.95649665594100952 0.95586895942687988
0.96316325664520264 0.96598738431930542 0.964133620262146
