luts/colorslide/polaroid_669.cube
# Created by: G'MIC (https://gmic.eu)
TITLE "polaroid_669"
# LUT size
LUT_3D_SIZE 5
# Data domain
DOMAIN_MIN 0.0 0.0 0.0
DOMAIN_MAX 1.0 1.0 1.0
# LUT data points
0.024597018957138062 0.15574583411216736 0.12077298760414124
0.16706648468971252 0.16852590441703796 0.13446503877639771
0.39641883969306946 0.16643501818180084 0.14575104415416718
0.66176587343215942 0.15231551229953766 0.16607619822025299
0.90335464477539062 0.17518821358680725 0.19095811247825623
0.0390457883477211 0.24684543907642365 0.1438508927822113
0.19016610085964203 0.24843306839466095 0.13979917764663696
0.4627043604850769 0.27296513319015503 0.1727445125579834
0.70046651363372803 0.2777554988861084 0.18312229216098785
0.91722846031188965 0.30370137095451355 0.20838949084281921
0.08865782618522644 0.40787151455879211 0.16628478467464447
0.21046482026576996 0.40138804912567139 0.16353176534175873
0.43027374148368835 0.41120120882987976 0.14473603665828705
0.68841463327407837 0.45135149359703064 0.171248659491539
0.93055528402328491 0.53709828853607178 0.26425579190254211
0.11951459944248199 0.59574824571609497 0.1623387485742569
0.22637951374053955 0.57976305484771729 0.16384421288967133
0.40519523620605469 0.58872324228286743 0.14396582543849945
0.63455343246459961 0.63072460889816284 0.072345718741416931
0.88687169551849365 0.70323282480239868 0.10386932641267776
0.27495655417442322 0.90793228149414062 0.24466328322887421
0.34829226136207581 0.90770632028579712 0.2340131402015686
0.49707221984863281 0.9026331901550293 0.22752070426940918
0.71460098028182983 0.92375385761260986 0.21764250099658966
0.92630892992019653 0.95060938596725464 0.18866108357906342
0.0032841700594872236 0.17510999739170074 0.22401192784309387
0.1582607626914978 0.18449558317661285 0.24443155527114868
0.43392053246498108 0.18139985203742981 0.27017673850059509
0.68566811084747314 0.14492502808570862 0.27740424871444702
0.90365803241729736 0.15432910621166229 0.29582160711288452
0.0046256869100034237 0.27990177273750305 0.26447191834449768
0.21160846948623657 0.2898765504360199 0.27834603190422058
0.48044869303703308 0.28963005542755127 0.29631689190864563
0.71354657411575317 0.28428062796592712 0.30604735016822815
0.92059272527694702 0.30173143744468689 0.32739031314849854
0.09853217750787735 0.46626994013786316 0.29116988182067871
0.2540743350982666 0.45031267404556274 0.29470694065093994
0.47351104021072388 0.44289574027061462 0.27931872010231018
0.71203970909118652 0.48000821471214294 0.30847641825675964
0.93163192272186279 0.54401689767837524 0.37802550196647644
0.12166044861078262 0.64936387538909912 0.28282219171524048
0.24550062417984009 0.63300001621246338 0.2712281346321106
0.42603343725204468 0.61544167995452881 0.25011730194091797
0.65075814723968506 0.64676415920257568 0.21676711738109589
0.89741337299346924 0.72208905220031738 0.27455988526344299
0.25934350490570068 0.92157554626464844 0.33844387531280518
0.33964115381240845 0.91657310724258423 0.3260461688041687
0.48746055364608765 0.91155141592025757 0.30965662002563477
0.70557725429534912 0.92893487215042114 0.30559861660003662
0.9255063533782959 0.95152848958969116 0.30779454112052917
0.001693665748462081 0.23004581034183502 0.47711029648780823
0.073531478643417358 0.22617337107658386 0.50159567594528198
0.49595183134078979 0.2623288631439209 0.54938387870788574
0.73830127716064453 0.2959277331829071 0.57067751884460449
0.93892413377761841 0.30376061797142029 0.56636506319046021
0.0043525397777557373 0.35949847102165222 0.5136101245880127
0.19345326721668243 0.34895455837249756 0.5369560718536377
0.53442287445068359 0.37796217203140259 0.5809704065322876
0.74660074710845947 0.40198579430580139 0.58573901653289795
0.9372183084487915 0.36439156532287598 0.54971683025360107
0.021762128919363022 0.54353964328765869 0.54878658056259155
0.26442277431488037 0.54480242729187012 0.55958324670791626
0.53218501806259155 0.55471700429916382 0.57819658517837524
0.74110597372055054 0.53657180070877075 0.57113659381866455
0.92422795295715332 0.53576076030731201 0.55894291400909424
0.018964610993862152 0.74489796161651611 0.51684844493865967
0.24691343307495117 0.73195743560791016 0.51454406976699829
0.45949438214302063 0.69963496923446655 0.50393354892730713
0.67878836393356323 0.70046365261077881 0.47132503986358643
0.90486520528793335 0.77208656072616577 0.55288660526275635
0.23340548574924469 0.94921278953552246 0.54952311515808105
0.32165509462356567 0.94174474477767944 0.53341782093048096
0.47880160808563232 0.93159019947052002 0.50710010528564453
0.68437546491622925 0.93609929084777832 0.48211777210235596
0.91858172416687012 0.95410263538360596 0.48990952968597412
0.00089229509467259049 0.33933252096176147 0.78423720598220825
0.0091946171596646309 0.32090237736701965 0.79589164257049561
0.50044518709182739 0.37398099899291992 0.81228059530258179
0.78449749946594238 0.45890986919403076 0.82659274339675903
0.93306005001068115 0.55478435754776001 0.83413541316986084
0.0042531481012701988 0.46925985813140869 0.78606116771697998
0.080604344606399536 0.43747624754905701 0.79940813779830933
0.51721733808517456 0.48288866877555847 0.81615233421325684
0.78244060277938843 0.56560158729553223 0.8328055739402771
0.92416244745254517 0.63496202230453491 0.83712112903594971
0.0070179956965148449 0.62543749809265137 0.76149660348892212
0.21585471928119659 0.62327355146408081 0.76862156391143799
0.52959251403808594 0.63912421464920044 0.80454957485198975
0.77188152074813843 0.7209821343421936 0.83358854055404663
0.90718114376068115 0.74985641241073608 0.84038501977920532
0.086001500487327576 0.81789135932922363 0.78807157278060913
0.28531074523925781 0.81323575973510742 0.78729712963104248
0.52303814888000488 0.821910560131073 0.79500699043273926
0.73967087268829346 0.82999426126480103 0.81120163202285767
0.90391820669174194 0.81801700592041016 0.80643314123153687
0.37467512488365173 0.97834759950637817 0.78875714540481567
0.42635074257850647 0.97686433792114258 0.78445184230804443
0.54214221239089966 0.97101271152496338 0.78100508451461792
0.69243979454040527 0.95637637376785278 0.7501072883605957
0.90171295404434204 0.96122413873672485 0.74473166465759277
0.18403741717338562 0.56421363353729248 0.9476202130317688
0.31601041555404663 0.55000203847885132 0.94653606414794922
0.59719395637512207 0.60614627599716187 0.94088518619537354
0.81359893083572388 0.70630717277526855 0.93551790714263916
0.9325408935546875 0.77402263879776001 0.92999446392059326
0.33870938420295715 0.66522008180618286 0.93895465135574341
0.41392230987548828 0.65062212944030762 0.93816334009170532
0.6123051643371582 0.6706240177154541 0.93989986181259155
0.80936175584793091 0.75586140155792236 0.9330441951751709
0.92662584781646729 0.81710124015808105 0.92911267280578613
0.39757904410362244 0.79989141225814819 0.92236536741256714
0.48076081275939941 0.79107141494750977 0.92377197742462158
0.62572115659713745 0.7808796763420105 0.92634743452072144
0.80040943622589111 0.83202570676803589 0.92870604991912842
0.91847485303878784 0.88225388526916504 0.9262349009513855
0.32596704363822937 0.9116588830947876 0.91429167985916138
0.40535265207290649 0.90327304601669312 0.91295641660690308
0.57429927587509155 0.90215611457824707 0.91666990518569946
0.78864771127700806 0.91349118947982788 0.92229455709457397
0.90859240293502808 0.93633460998535156 0.92561274766921997
0.58914691209793091 0.99334526062011719 0.91736692190170288
0.62353938817977905 0.99374616146087646 0.91818678379058838
0.70797514915466309 0.98990875482559204 0.92037677764892578
0.82039141654968262 0.98482012748718262 0.92085033655166626
0.91665184497833252 0.98771125078201294 0.92163050174713135
