luts/colorslide/polaroid_polachrome.cube
# Created by: G'MIC (https://gmic.eu)
TITLE "polaroid_polachrome"
# LUT size
LUT_3D_SIZE 5
# Data domain
DOMAIN_MIN 0.0 0.0 0.0
DOMAIN_MAX 1.0 1.0 1.0
# LUT data points
0.01581960916519165 0.014823524281382561 0.017132703214883804
0.14177490770816803 0.031355675309896469 0.038116276264190674
0.39577409625053406 0.085901029407978058 0.087042294442653656
0.68165099620819092 0.14987441897392273 0.15272282063961029
0.85414588451385498 0.18516996502876282 0.1785222589969635
0.099263690412044525 0.17196415364742279 0.061052657663822174
0.19349271059036255 0.19715392589569092 0.083436407148838043
0.45305332541465759 0.25443252921104431 0.13556608557701111
0.70262104272842407 0.28345128893852234 0.18062892556190491
0.87078511714935303 0.29290446639060974 0.20107316970825195
0.098204173147678375 0.45247140526771545 0.13176573812961578
0.2612060010433197 0.46610525250434875 0.15074840188026428
0.52147245407104492 0.51570779085159302 0.19201906025409698
0.73858422040939331 0.54672867059707642 0.21455267071723938
0.90212815999984741 0.56732040643692017 0.22137506306171417
0.29509279131889343 0.65944218635559082 0.24619357287883759
0.40766224265098572 0.6758885383605957 0.25933694839477539
0.58318173885345459 0.70624059438705444 0.2835896909236908
0.76065355539321899 0.74217206239700317 0.29179367423057556
0.92755699157714844 0.77024233341217041 0.27886500954627991
0.48069822788238525 0.8278462290763855 0.40179833769798279
0.5301552414894104 0.83399015665054321 0.40595749020576477
0.64209103584289551 0.85369205474853516 0.41911798715591431
0.78379154205322266 0.88398230075836182 0.4271790087223053
0.93233639001846313 0.91471076011657715 0.39004486799240112
0.041441179811954498 0.031601641327142715 0.15135897696018219
0.19655716419219971 0.059549834579229355 0.19161827862262726
0.45973449945449829 0.11771413683891296 0.23971380293369293
0.69691014289855957 0.16218411922454834 0.27841359376907349
0.85746896266937256 0.18817919492721558 0.27665340900421143
0.13083651661872864 0.21568730473518372 0.22566130757331848
0.25041109323501587 0.24800288677215576 0.25587558746337891
0.49881315231323242 0.28925463557243347 0.29968658089637756
0.7116580605506897 0.31369724869728088 0.33219447731971741
0.88093501329421997 0.32470047473907471 0.33224847912788391
0.18648003041744232 0.47276240587234497 0.30550089478492737
0.32336023449897766 0.49209311604499817 0.3373228907585144
0.54158878326416016 0.51933968067169189 0.37310487031936646
0.72890639305114746 0.5486411452293396 0.39431628584861755
0.87719535827636719 0.58071213960647583 0.38814350962638855
0.36594346165657043 0.6726759672164917 0.41573527455329895
0.45140716433525085 0.68467539548873901 0.42984110116958618
0.59389263391494751 0.70373326539993286 0.4545271098613739
0.74639672040939331 0.73181211948394775 0.47865402698516846
0.89821910858154297 0.76136434078216553 0.46841642260551453
0.50793606042861938 0.83043777942657471 0.5234178900718689
0.5505441427230835 0.83407324552536011 0.52563619613647461
0.64910000562667847 0.84834343194961548 0.54229044914245605
0.77854353189468384 0.87578928470611572 0.56196761131286621
0.91371423006057739 0.90397393703460693 0.5605158805847168
0.10679167509078979 0.072398751974105835 0.39155307412147522
0.28172582387924194 0.10033716261386871 0.42679014801979065
0.50689429044723511 0.15862886607646942 0.47545436024665833
0.69717824459075928 0.1842048317193985 0.50442487001419067
0.8500899076461792 0.20351533591747284 0.52126961946487427
0.20996008813381195 0.28961127996444702 0.45808953046798706
0.35015082359313965 0.32156080007553101 0.48575857281684875
0.54059386253356934 0.35280552506446838 0.52175521850585938
0.70946764945983887 0.3651050329208374 0.56101733446121216
0.84676331281661987 0.3729921281337738 0.57439154386520386
0.32535526156425476 0.51593869924545288 0.53658908605575562
0.4284369945526123 0.53745055198669434 0.55469781160354614
0.57894670963287354 0.56128853559494019 0.57613658905029297
0.73042476177215576 0.58117949962615967 0.60726749897003174
0.85942363739013672 0.60318154096603394 0.62855821847915649
0.47009217739105225 0.69153690338134766 0.60436159372329712
0.52135896682739258 0.70289736986160278 0.6096186637878418
0.62474328279495239 0.72008794546127319 0.62875711917877197
0.75500071048736572 0.74118506908416748 0.65850424766540527
0.89144289493560791 0.76203662157058716 0.66895395517349243
0.56659740209579468 0.84180021286010742 0.66041213274002075
0.59674501419067383 0.84652078151702881 0.65874838829040527
0.6744455099105835 0.85965985059738159 0.67444443702697754
0.78814595937728882 0.88246852159500122 0.70055997371673584
0.91855865716934204 0.90647977590560913 0.71931999921798706
0.2720482349395752 0.18191143870353699 0.58539837598800659
0.43558862805366516 0.2265525758266449 0.62602615356445312
0.57546252012252808 0.25365006923675537 0.65829348564147949
0.71215611696243286 0.26141875982284546 0.68814492225646973
0.84822362661361694 0.25469282269477844 0.71102726459503174
0.39260068535804749 0.40793782472610474 0.64882582426071167
0.48623126745223999 0.42589050531387329 0.66542106866836548
0.60263097286224365 0.44310566782951355 0.68596595525741577
0.73652708530426025 0.45598587393760681 0.71595686674118042
0.86258232593536377 0.46568655967712402 0.73932206630706787
0.49046105146408081 0.58521652221679688 0.70058912038803101
0.54425227642059326 0.59533929824829102 0.70703470706939697
0.63820886611938477 0.61266201734542847 0.72311931848526001
0.75802671909332275 0.63078147172927856 0.75045406818389893
0.86419248580932617 0.64358413219451904 0.76756519079208374
0.5761532187461853 0.72523468732833862 0.73749858140945435
0.61354464292526245 0.73760145902633667 0.74628037214279175
0.68491834402084351 0.75067126750946045 0.76196908950805664
0.78325581550598145 0.7641979455947876 0.78636443614959717
0.88222908973693848 0.77893972396850586 0.79906398057937622
0.65539467334747314 0.86475425958633423 0.78673535585403442
0.67541033029556274 0.8739091157913208 0.78686153888702393
0.72500038146972656 0.88193851709365845 0.79251348972320557
0.80773884057998657 0.89843988418579102 0.81477224826812744
0.92001247406005859 0.91140782833099365 0.82526034116744995
0.47088804841041565 0.35241284966468811 0.72662758827209473
0.55558818578720093 0.37493017315864563 0.75097554922103882
0.64821934700012207 0.39599895477294922 0.77456235885620117
0.75868970155715942 0.41481196880340576 0.80299228429794312
0.85455405712127686 0.40036705136299133 0.82391351461410522
0.54376363754272461 0.523601233959198 0.76743465662002563
0.59338724613189697 0.53485798835754395 0.77884626388549805
0.67306029796600342 0.55296486616134644 0.79360336065292358
0.76976531744003296 0.5595773458480835 0.81144219636917114
0.86102956533432007 0.56888455152511597 0.83533453941345215
0.61814999580383301 0.65308398008346558 0.80638808012008667
0.64086329936981201 0.65460902452468872 0.80603086948394775
0.70980262756347656 0.67047125101089478 0.82503038644790649
0.79198282957077026 0.6813398003578186 0.8406679630279541
0.87201970815658569 0.69467264413833618 0.85352092981338501
0.68782579898834229 0.76844656467437744 0.84833550453186035
0.71295595169067383 0.77876627445220947 0.85609954595565796
0.7597428560256958 0.78591400384902954 0.86800390481948853
0.82502835988998413 0.78703808784484863 0.8831716775894165
0.91181045770645142 0.81430202722549438 0.9028552770614624
0.76154893636703491 0.88956856727600098 0.90687483549118042
0.7648162841796875 0.89883744716644287 0.90286135673522949
0.79888302087783813 0.91469621658325195 0.91807568073272705
0.85336369276046753 0.91676640510559082 0.93463009595870972
0.9672398567199707 0.94452482461929321 0.96570944786071777
