luts/colorslide/polaroid_polachrome.cube
# Created by: G'MIC (https://gmic.eu)
TITLE "polaroid_polachrome"
# LUT size
LUT_3D_SIZE 7
# Data domain
DOMAIN_MIN 0.0 0.0 0.0
DOMAIN_MAX 1.0 1.0 1.0
# LUT data points
0.01581960916519165 0.014823524281382561 0.017132703214883804
0.083781220018863678 0.018099123612046242 0.026901783421635628
0.21283732354640961 0.049047164618968964 0.051119666546583176
0.39577409625053406 0.085901029407978058 0.087042294442653656
0.6080467700958252 0.13685889542102814 0.14096637070178986
0.74502038955688477 0.16152997314929962 0.1614043116569519
0.85414588451385498 0.18516996502876282 0.1785222589969635
0.06423148512840271 0.10194209963083267 0.04110495001077652
0.1172114685177803 0.11092934757471085 0.0536484494805336
0.24512685835361481 0.14135806262493134 0.081002809107303619
0.43293541669845581 0.18572922050952911 0.12001506984233856
0.61847275495529175 0.21433514356613159 0.15983325242996216
0.75846904516220093 0.23270130157470703 0.17901761829853058
0.86661750078201294 0.24398615956306458 0.19334888458251953
0.10496237128973007 0.25851261615753174 0.085263177752494812
0.15341228246688843 0.27151817083358765 0.091835997998714447
0.29241061210632324 0.30137023329734802 0.11830157041549683
0.47533395886421204 0.33803507685661316 0.15229977667331696
0.64333599805831909 0.35820767283439636 0.18105235695838928
0.77839022874832153 0.37063521146774292 0.19667835533618927
0.87855631113052368 0.37052720785140991 0.20741240680217743
0.098204173147678375 0.45247140526771545 0.13176573812961578
0.18584562838077545 0.45751407742500305 0.13825994729995728
0.34644129872322083 0.47981664538383484 0.1651444137096405
0.52147245407104492 0.51570779085159302 0.19201906025409698
0.67111885547637939 0.53664994239807129 0.20891636610031128
0.80164837837219238 0.55899232625961304 0.21867915987968445
0.90212815999984741 0.56732040643692017 0.22137506306171417
0.2157427966594696 0.59543782472610474 0.20130312442779541
0.28769290447235107 0.60673993825912476 0.21071864664554596
0.42424699664115906 0.62528598308563232 0.22794251143932343
0.56187719106674194 0.65097522735595703 0.24656262993812561
0.68960481882095337 0.67430019378662109 0.25477325916290283
0.81553024053573608 0.70103871822357178 0.25784432888031006
0.92070299386978149 0.71480607986450195 0.25332006812095642
0.36963188648223877 0.71919053792953491 0.29510599374771118
0.41506797075271606 0.72618967294692993 0.30186721682548523
0.50357615947723389 0.7384224534034729 0.31163591146469116
0.60335332155227661 0.75692379474639893 0.32642343640327454
0.71089476346969604 0.77894443273544312 0.33475708961486816
0.82587581872940063 0.80339044332504272 0.32683929800987244
0.9307904839515686 0.81999105215072632 0.31096386909484863
0.48069822788238525 0.8278462290763855 0.40179833769798279
0.50741815567016602 0.83097356557846069 0.40326675772666931
0.56184405088424683 0.83895182609558105 0.40924310684204102
0.64209103584289551 0.85369205474853516 0.41911798715591431
0.73415553569793701 0.87288022041320801 0.42926144599914551
0.83488583564758301 0.89555555582046509 0.41628867387771606
0.93233639001846313 0.91471076011657715 0.39004486799240112
0.033221404999494553 0.026390718296170235 0.093392089009284973
0.1154526025056839 0.037756454199552536 0.11697942763566971
0.25519078969955444 0.069477111101150513 0.14551651477813721
0.44280245900154114 0.10969310253858566 0.18042857944965363
0.62406778335571289 0.14669577777385712 0.21416756510734558
0.75437682867050171 0.16814416646957397 0.22736521065235138
0.85965496301651001 0.18579615652561188 0.23027925193309784
0.096415713429450989 0.12919244170188904 0.13503479957580566
0.1525716632604599 0.14356842637062073 0.15263313055038452
0.28722313046455383 0.17546540498733521 0.1819332093000412
0.46844777464866638 0.21052134037017822 0.21562191843986511
0.63306564092636108 0.23514679074287415 0.24455361068248749
0.76715689897537231 0.24609072506427765 0.25354117155075073
0.88067919015884399 0.25499743223190308 0.25698336958885193
0.11956344544887543 0.28316795825958252 0.18065622448921204
0.17985007166862488 0.29906925559043884 0.19571995735168457
0.32479196786880493 0.32442253828048706 0.22546671330928802
0.50066369771957397 0.35153990983963013 0.25552648305892944
0.65317022800445557 0.37136730551719666 0.27919641137123108
0.78220540285110474 0.38311269879341125 0.28618696331977844
0.8862348198890686 0.3912995457649231 0.28567025065422058
0.15137666463851929 0.46525830030441284 0.22855648398399353
0.22709625959396362 0.47526982426643372 0.24611344933509827
0.37413275241851807 0.49158415198326111 0.27882122993469238
0.53307831287384033 0.51466935873031616 0.30352479219436646
0.67048043012619019 0.53493630886077881 0.31870114803314209
0.79089319705963135 0.55804324150085449 0.32300058007240295
0.88633269071578979 0.57793158292770386 0.31400966644287109
0.25745889544487 0.6067315936088562 0.30407410860061646
0.32934978604316711 0.61756986379623413 0.31705525517463684
0.44657072424888611 0.63074076175689697 0.34097698330879211
0.56939315795898438 0.6488194465637207 0.35926005244255066
0.68469107151031494 0.66851341724395752 0.36999121308326721
0.80223548412322998 0.69495540857315063 0.37385651469230652
0.9044385552406311 0.71515023708343506 0.36243724822998047
0.39991188049316406 0.72502374649047852 0.39190080761909485
0.44144323468208313 0.73039484024047852 0.397086501121521
0.51765263080596924 0.73933583498001099 0.40959495306015015
0.60793256759643555 0.7529900074005127 0.42502787709236145
0.70667612552642822 0.77182811498641968 0.43789476156234741
0.81601589918136597 0.7953110933303833 0.43722894787788391
0.91896891593933105 0.81355661153793335 0.42209470272064209
0.49706250429153442 0.82960385084152222 0.47935748100280762
0.52050232887268066 0.8310171365737915 0.47978869080543518
0.57209628820419312 0.83720719814300537 0.4872223436832428
0.64575022459030151 0.84861749410629272 0.49856007099151611
0.73255705833435059 0.86653721332550049 0.51066511869430542
0.828807532787323 0.88893240690231323 0.51000148057937622
0.92203354835510254 0.90806412696838379 0.49816352128982544
0.052054475992918015 0.037439636886119843 0.22575078904628754
0.15132084488868713 0.054668575525283813 0.25083941221237183
0.29651305079460144 0.087291881442070007 0.27785909175872803
0.47358244657516479 0.12682785093784332 0.31164053082466125
0.63352000713348389 0.15634614229202271 0.34037408232688904
0.75708729028701782 0.17628850042819977 0.35145670175552368
0.85497015714645386 0.19102153182029724 0.34858176112174988
0.12178041040897369 0.16181096434593201 0.27494686841964722
0.19477446377277374 0.18136332929134369 0.29495489597320557
0.33342266082763672 0.21208935976028442 0.32174843549728394
0.49770262837409973 0.24107250571250916 0.35283675789833069
0.64223331212997437 0.25923618674278259 0.38148444890975952
0.76342219114303589 0.26865330338478088 0.3914082944393158
0.86260837316513062 0.27706274390220642 0.39087069034576416
0.16215428709983826 0.3197026252746582 0.33117997646331787
0.23317572474479675 0.3380126953125 0.3481152355670929
0.37224239110946655 0.36008307337760925 0.37039375305175781
0.52493250370025635 0.37995308637619019 0.39520394802093506
0.65655618906021118 0.39548683166503906 0.41974827647209167
0.77169609069824219 0.40691459178924561 0.43044915795326233
0.86669200658798218 0.41932001709938049 0.43219813704490662
0.22780697047710419 0.48429697751998901 0.38840413093566895
0.29756069183349609 0.49803927540779114 0.40445041656494141
0.42083451151847839 0.51257479190826416 0.42707279324531555
0.55214476585388184 0.52949970960617065 0.44513151049613953
0.67102503776550293 0.5464969277381897 0.46280211210250854
0.77894282341003418 0.56587284803390503 0.47394564747810364
0.86897611618041992 0.58513098955154419 0.47367119789123535
0.34485313296318054 0.61968737840652466 0.45358237624168396
0.39384722709655762 0.62948894500732422 0.46202760934829712
0.48319697380065918 0.64066684246063232 0.48185253143310547
0.58453470468521118 0.65467870235443115 0.49573200941085815
0.68625003099441528 0.67120999097824097 0.51363909244537354
0.78962850570678711 0.69137942790985107 0.52780342102050781
0.88493156433105469 0.71018189191818237 0.5195314884185791
0.45172363519668579 0.73146325349807739 0.51471793651580811
0.48033645749092102 0.73612850904464722 0.51478487253189087
0.53959912061691284 0.74382829666137695 0.52483665943145752
0.61843764781951904 0.75525969266891479 0.53949743509292603
0.70719397068023682 0.77062481641769409 0.55911856889724731
0.80260908603668213 0.78889316320419312 0.5739065408706665
0.88777464628219604 0.80292129516601562 0.5749276876449585
0.52377057075500488 0.83272677659988403 0.5699455738067627
0.54184901714324951 0.83371651172637939 0.5675957202911377
0.58856111764907837 0.84012693166732788 0.57496941089630127
0.65499657392501831 0.85041087865829468 0.58761101961135864
0.73536115884780884 0.86635273694992065 0.60412019491195679
0.82361680269241333 0.88540923595428467 0.61690807342529297
0.90909850597381592 0.9018436074256897 0.62070512771606445
0.10679167509078979 0.072398751974105835 0.39155307412147522
0.21511887013912201 0.085358127951622009 0.41325810551643372
0.35615861415863037 0.12198355048894882 0.44391986727714539
0.50689429044723511 0.15862886607646942 0.47545436024665833
0.63749951124191284 0.17579898238182068 0.49536773562431335
0.75463306903839111 0.19374668598175049 0.51225584745407104
0.8500899076461792 0.20351533591747284 0.52126961946487427
0.17523552477359772 0.21326427161693573 0.43312951922416687
0.26307162642478943 0.22994890809059143 0.45214501023292542
0.39382901787757874 0.26085767149925232 0.47815614938735962
0.52862751483917236 0.28480690717697144 0.5065385103225708
0.64849460124969482 0.29494306445121765 0.53425490856170654
0.75590914487838745 0.30157381296157837 0.55195349454879761
0.83900874853134155 0.30022263526916504 0.55833452939987183
0.24395810067653656 0.36872690916061401 0.48541131615638733
0.31859329342842102 0.38706386089324951 0.50104677677154541
0.43571460247039795 0.40892404317855835 0.51792722940444946
0.55310225486755371 0.42434415221214294 0.5384756326675415
0.66374009847640991 0.43458867073059082 0.56351560354232788
0.76710337400436401 0.44288480281829834 0.58305603265762329
0.85255175828933716 0.45276808738708496 0.59229618310928345
0.32535526156425476 0.51593869924545288 0.53658908605575562
0.38379538059234619 0.53013992309570312 0.54876887798309326
0.47770100831985474 0.54491037130355835 0.56147879362106323
0.57894670963287354 0.56128853559494019 0.57613658905029297
0.68015241622924805 0.57581937313079834 0.59612810611724854
0.77816545963287354 0.58793073892593384 0.61644083261489868
0.85942363739013672 0.60318154096603394 0.62855821847915649
0.42480304837226868 0.63777446746826172 0.58295613527297974
0.46162512898445129 0.64704239368438721 0.58878344297409058
0.5271182656288147 0.65822172164916992 0.59993571043014526
0.60923498868942261 0.67224782705307007 0.61346805095672607
0.69928383827209473 0.68695580959320068 0.6328895092010498
0.7947501540184021 0.70155626535415649 0.65028929710388184
0.88312321901321411 0.71517139673233032 0.65377724170684814
0.50721293687820435 0.74251842498779297 0.62223821878433228
0.52870100736618042 0.74742859601974487 0.62176394462585449
0.57415258884429932 0.75505542755126953 0.62887382507324219
0.64016890525817871 0.76585310697555542 0.64244073629379272
0.71988815069198608 0.77934688329696655 0.66224974393844604
0.80929422378540039 0.79406142234802246 0.67962419986724854
0.89505839347839355 0.80734670162200928 0.68624377250671387
0.56659740209579468 0.84180021286010742 0.66041213274002075
0.58135342597961426 0.84407526254653931 0.65749597549438477
0.61813867092132568 0.84993547201156616 0.66244238615036011
0.6744455099105835 0.85965985059738159 0.67444443702697754
0.74700063467025757 0.87417054176330566 0.69190865755081177
0.83172178268432617 0.89092212915420532 0.70835191011428833
0.91855865716934204 0.90647977590560913 0.71931999921798706
0.20914396643638611 0.13973663747310638 0.52675527334213257
0.32213881611824036 0.16113917529582977 0.55480027198791504
0.43716630339622498 0.18807902932167053 0.58246898651123047
0.54987245798110962 0.21447302401065826 0.60707014799118042
0.65083211660385132 0.21937066316604614 0.62445676326751709
0.7542378306388855 0.23571102321147919 0.64602619409561157
0.8441506028175354 0.22937506437301636 0.65839171409606934
0.2882818877696991 0.29000094532966614 0.56923002004623413
0.36878669261932373 0.30524834990501404 0.58581554889678955
0.46890389919281006 0.32791760563850403 0.60740357637405396
0.56878471374511719 0.3433692455291748 0.6280289888381958
0.66763043403625488 0.35286223888397217 0.65114688873291016
0.76556634902954102 0.35902643203735352 0.67238342761993408
0.84816408157348633 0.3575187623500824 0.68533414602279663
0.36219826340675354 0.43291309475898743 0.61308914422988892
0.42324063181877136 0.44651603698730469 0.62433111667633057
0.50549405813217163 0.46269011497497559 0.63644999265670776
0.59174597263336182 0.47457137703895569 0.65189778804779053
0.68517154455184937 0.48459652066230774 0.67318993806838989
0.78154796361923218 0.49277409911155701 0.69321608543395996
0.86683052778244019 0.50096780061721802 0.70461165904998779
0.43444907665252686 0.55897378921508789 0.65132838487625122
0.47665396332740784 0.56926053762435913 0.65857505798339844
0.53908586502075195 0.58020126819610596 0.66634011268615723
0.61606132984161377 0.59502887725830078 0.67971837520599365
0.7026553750038147 0.60863375663757324 0.69935858249664307
0.78902596235275269 0.61790573596954346 0.71849459409713745
0.86218219995498657 0.62661218643188477 0.72881984710693359
0.50372844934463501 0.66326630115509033 0.68048262596130371
0.53268003463745117 0.67177528142929077 0.68615633249282837
0.58055746555328369 0.68187624216079712 0.69496834278106689
0.64590209722518921 0.69488871097564697 0.70827454328536987
0.72270387411117554 0.70738518238067627 0.72660201787948608
0.80148744583129883 0.71791952848434448 0.74285495281219482
0.87037360668182373 0.72612637281417847 0.74898886680603027
0.56817281246185303 0.75969654321670532 0.71074372529983521
0.58616542816162109 0.76557773351669312 0.7115781307220459
0.62218910455703735 0.7730790376663208 0.71797704696655273
0.67498689889907837 0.78185951709747314 0.72947686910629272
0.74206620454788208 0.79249668121337891 0.74696564674377441
0.81742721796035767 0.8033173680305481 0.76074713468551636
0.8930702805519104 0.81413716077804565 0.76817578077316284
0.62099504470825195 0.85602664947509766 0.74392998218536377
0.63218379020690918 0.86009502410888672 0.74104845523834229
0.66113162040710449 0.86580133438110352 0.74483019113540649
0.70502912998199463 0.87341290712356567 0.75321799516677856
0.7653236985206604 0.88628131151199341 0.76977312564849854
0.83840501308441162 0.89863801002502441 0.7802504301071167
0.92554402351379395 0.9119333028793335 0.79271852970123291
0.34450095891952515 0.23907944560050964 0.64271414279937744
0.44262263178825378 0.26606655120849609 0.6655392050743103
0.52284127473831177 0.27978461980819702 0.68633842468261719
0.60198861360549927 0.2949347198009491 0.70384162664413452
0.68525713682174683 0.30783084034919739 0.72449171543121338
0.77240264415740967 0.31177452206611633 0.7457040548324585
0.85251790285110474 0.29805836081504822 0.75919234752655029
0.42752054333686829 0.39487659931182861 0.68234008550643921
0.48419752717018127 0.4057157039642334 0.69303500652313232
0.54527825117111206 0.41529664397239685 0.70474588871002197
0.61903446912765503 0.42890724539756775 0.71998304128646851
0.70003151893615723 0.4382902979850769 0.73871058225631714
0.78267472982406616 0.44023245573043823 0.75560963153839111
0.85668694972991943 0.44598448276519775 0.77427095174789429
0.48707923293113708 0.5115540623664856 0.71694207191467285
0.52482926845550537 0.51824533939361572 0.72273057699203491
0.57301056385040283 0.52490830421447754 0.72755545377731323
0.63797765970230103 0.53470265865325928 0.73774337768554688
0.71497261524200439 0.54375177621841431 0.75342720746994019
0.79465556144714355 0.55221390724182129 0.76940226554870605
0.86551672220230103 0.56067425012588501 0.78312277793884277
0.54385387897491455 0.6124541163444519 0.7445753812789917
0.56504815816879272 0.61576956510543823 0.74509763717651367
0.60181576013565063 0.62025266885757446 0.74947154521942139
0.66289013624191284 0.63270705938339233 0.76232647895812988
0.73436820507049561 0.64443480968475342 0.77819544076919556
0.80458194017410278 0.65448331832885742 0.79233527183532715
0.86671864986419678 0.66269856691360474 0.80117368698120117
0.59138959646224976 0.69909822940826416 0.76536500453948975
0.61237365007400513 0.7066536545753479 0.77113217115402222
0.64527648687362671 0.71342426538467407 0.7789463996887207
0.6967279314994812 0.72343194484710693 0.79124689102172852
0.75752633810043335 0.73104846477508545 0.80558091402053833
0.82094043493270874 0.74157559871673584 0.81981241703033447
0.87946575880050659 0.75190240144729614 0.82686644792556763
0.64615696668624878 0.78411996364593506 0.79566121101379395
0.65955251455307007 0.79135775566101074 0.79756277799606323
0.68429583311080933 0.79828470945358276 0.8028329610824585
0.7236594557762146 0.80339211225509644 0.81142479181289673
0.7763332724571228 0.80745112895965576 0.82702195644378662
0.83664435148239136 0.81552523374557495 0.84045243263244629
0.90095514059066772 0.82850044965744019 0.84664589166641235
0.6946832537651062 0.87416094541549683 0.83087104558944702
0.70051628351211548 0.88124173879623413 0.8290480375289917
0.71971505880355835 0.88912570476531982 0.83304840326309204
0.74877184629440308 0.89300704002380371 0.83498281240463257
0.79637622833251953 0.90389508008956909 0.85557717084884644
0.84743279218673706 0.90839099884033203 0.8572697639465332
0.92175149917602539 0.91523927450180054 0.86403828859329224
0.47088804841041565 0.35241284966468811 0.72662758827209473
0.52219456434249878 0.35980486869812012 0.73760390281677246
0.58275961875915527 0.37727031111717224 0.75744563341140747
0.64821934700012207 0.39599895477294922 0.77456235885620117
0.71975970268249512 0.40478983521461487 0.79245692491531372
0.79489457607269287 0.40732684731483459 0.80867630243301392
0.85455405712127686 0.40036705136299133 0.82391351461410522
0.52249419689178467 0.47903051972389221 0.75509178638458252
0.55374014377593994 0.48355352878570557 0.7599484920501709
0.60570216178894043 0.49900424480438232 0.77513819932937622
0.66619348526000977 0.51344889402389526 0.78891360759735107
0.73273259401321411 0.51985406875610352 0.80257928371429443
0.80008834600448608 0.52552461624145508 0.81812149286270142
0.85841184854507446 0.52513176202774048 0.8340030312538147
0.56862062215805054 0.56688135862350464 0.78107303380966187
0.58714485168457031 0.56739401817321777 0.78012830018997192
0.62761533260345459 0.57934248447418213 0.79003190994262695
0.68193256855010986 0.59103846549987793 0.80069875717163086
0.74353724718093872 0.59676128625869751 0.81154155731201172
0.80583757162094116 0.60396325588226318 0.82470458745956421
0.86383002996444702 0.61074262857437134 0.83858013153076172
0.61814999580383301 0.65308398008346558 0.80638808012008667
0.62700891494750977 0.65183919668197632 0.80175042152404785
0.65999621152877808 0.65951138734817505 0.81193345785140991
0.70980262756347656 0.67047125101089478 0.82503038644790649
0.76444113254547119 0.67735582590103149 0.83560514450073242
0.81940466165542603 0.68652880191802979 0.84579640626907349
0.87201970815658569 0.69467264413833618 0.85352092981338501
0.66026836633682251 0.73043906688690186 0.82988667488098145
0.67788839340209961 0.73732954263687134 0.83575546741485596
0.70527768135070801 0.74305492639541626 0.84480315446853638
0.74640154838562012 0.75072675943374634 0.85652822256088257
0.79000192880630493 0.75138896703720093 0.86414659023284912
0.84181070327758789 0.76194745302200317 0.87619787454605103
0.89557909965515137 0.77661561965942383 0.88382351398468018
0.71534264087677002 0.80628949403762817 0.86747938394546509
0.72324603796005249 0.8115544319152832 0.86567896604537964
0.74003642797470093 0.81772798299789429 0.87038058042526245
0.77037614583969116 0.82159125804901123 0.87919706106185913
0.80901521444320679 0.81770527362823486 0.88808983564376831
0.860481858253479 0.82646030187606812 0.905101478099823
0.91953110694885254 0.84608399868011475 0.91454583406448364
0.76154893636703491 0.88956856727600098 0.90687483549118042
0.76023358106613159 0.89327406883239746 0.89953070878982544
0.77604490518569946 0.90837240219116211 0.91242915391921997
0.79888302087783813 0.91469621658325195 0.91807568073272705
0.83230483531951904 0.91617679595947266 0.92883139848709106
0.87830394506454468 0.92462539672851562 0.94186055660247803
0.9672398567199707 0.94452482461929321 0.96570944786071777
