luts/colorslide/polaroid_669.cube
# Created by: G'MIC (https://gmic.eu)
TITLE "polaroid_669"
# LUT size
LUT_3D_SIZE 7
# Data domain
DOMAIN_MIN 0.0 0.0 0.0
DOMAIN_MAX 1.0 1.0 1.0
# LUT data points
0.024597018957138062 0.15574583411216736 0.12077298760414124
0.10843200981616974 0.16679680347442627 0.13599100708961487
0.23026028275489807 0.16794092953205109 0.13310205936431885
0.39641883969306946 0.16643501818180084 0.14575104415416718
0.57244330644607544 0.15902356803417206 0.15935948491096497
0.74680531024932861 0.15229864418506622 0.17156262695789337
0.90335464477539062 0.17518821358680725 0.19095811247825623
0.025560207664966583 0.20502956211566925 0.13377685844898224
0.11832411587238312 0.210598424077034 0.13570693135261536
0.25368818640708923 0.21445788443088531 0.1412164717912674
0.43014159798622131 0.22416812181472778 0.16472165286540985
0.60767388343811035 0.21835356950759888 0.16698630154132843
0.76648861169815063 0.22281087934970856 0.17957870662212372
0.91053515672683716 0.24528652429580688 0.19934533536434174
0.05142274871468544 0.29707145690917969 0.15330693125724792
0.13702332973480225 0.29377099871635437 0.15295568108558655
0.27729666233062744 0.3020051121711731 0.14638392627239227
0.46102917194366455 0.3169371485710144 0.15973760187625885
0.64249217510223389 0.33495938777923584 0.1826612800359726
0.78632116317749023 0.35061755776405334 0.20313794910907745
0.92652541399002075 0.36947721242904663 0.2206016331911087
0.08865782618522644 0.40787151455879211 0.16628478467464447
0.16465377807617188 0.4044763445854187 0.1667100191116333
0.28057047724723816 0.40514832735061646 0.15767389535903931
0.43027374148368835 0.41120120882987976 0.14473603665828705
0.59691643714904785 0.43169933557510376 0.15083685517311096
0.7805362343788147 0.4810941219329834 0.19910527765750885
0.93055528402328491 0.53709828853607178 0.26425579190254211
0.11522451788187027 0.52120888233184814 0.16798312962055206
0.18257173895835876 0.51763075590133667 0.17130525410175323
0.27149701118469238 0.50441175699234009 0.16556580364704132
0.4056609570980072 0.51611298322677612 0.15210425853729248
0.55947196483612061 0.54084378480911255 0.1211375966668129
0.72146850824356079 0.57218992710113525 0.088846944272518158
0.90451741218566895 0.65371286869049072 0.19914217293262482
0.12458594888448715 0.68358176946640015 0.15453481674194336
0.19232909381389618 0.67595195770263672 0.15521298348903656
0.28667327761650085 0.65934211015701294 0.1518692821264267
0.4145718514919281 0.67473822832107544 0.13554383814334869
0.56077152490615845 0.70059812068939209 0.087495855987071991
0.71431070566177368 0.72683656215667725 0.016465669497847557
0.87390279769897461 0.76577210426330566 0.012203381396830082
0.27495655417442322 0.90793228149414062 0.24466328322887421
0.31183081865310669 0.9088209867477417 0.23411193490028381
0.39035883545875549 0.90476244688034058 0.23094953596591949
0.49707221984863281 0.9026331901550293 0.22752070426940918
0.63665342330932617 0.91732949018478394 0.21948413550853729
0.7893526554107666 0.93240624666213989 0.20630265772342682
0.92630892992019653 0.95060938596725464 0.18866108357906342
0.010518107563257217 0.16466419398784637 0.17418745160102844
0.093196943402290344 0.17333386838436127 0.18866497278213501
0.237635537981987 0.17852510511875153 0.19875892996788025
0.42031541466712952 0.16825279593467712 0.20866802334785461
0.59503281116485596 0.15508574247360229 0.22435222566127777
0.75643265247344971 0.14688710868358612 0.24021509289741516
0.9046974778175354 0.17022261023521423 0.24811418354511261
0.016839539632201195 0.21671828627586365 0.19405022263526917
0.12163291126489639 0.22324497997760773 0.20775189995765686
0.2641548216342926 0.23041002452373505 0.21539501845836639
0.44184085726737976 0.23164132237434387 0.22919593751430511
0.61361777782440186 0.22368635237216949 0.24493329226970673
0.77181434631347656 0.22895210981369019 0.24864837527275085
0.91173505783081055 0.25193348526954651 0.2656150758266449
0.03302542120218277 0.32983624935150146 0.22280706465244293
0.1458771824836731 0.32202863693237305 0.22220136225223541
0.30138483643531799 0.32367047667503357 0.21639384329319
0.4842410683631897 0.33468562364578247 0.23688158392906189
0.65046042203903198 0.34761783480644226 0.2598358690738678
0.79259580373764038 0.35362046957015991 0.26685479283332825
0.92787307500839233 0.37621781229972839 0.28701663017272949
0.099968977272510529 0.43984904885292053 0.2384609580039978
0.18126079440116882 0.43455705046653748 0.23468892276287079
0.29841375350952148 0.42015153169631958 0.22360874712467194
0.45487287640571594 0.4243302047252655 0.21470670402050018
0.62113392353057861 0.44521445035934448 0.22340302169322968
0.79410779476165771 0.49611830711364746 0.27583283185958862
0.92833614349365234 0.53946763277053833 0.33069872856140137
0.12273778021335602 0.54928338527679443 0.22705468535423279
0.19094274938106537 0.54592347145080566 0.22897438704967499
0.28543707728385925 0.52150368690490723 0.22113624215126038
0.43287914991378784 0.54128032922744751 0.20935370028018951
0.58024078607559204 0.5588068962097168 0.18829257786273956
0.73599207401275635 0.58461016416549683 0.18281057476997375
0.90969306230545044 0.66520267724990845 0.27872654795646667
0.12128975242376328 0.70855355262756348 0.21857665479183197
0.19185400009155273 0.70112502574920654 0.21262010931968689
0.29678404331207275 0.686470627784729 0.20746481418609619
0.41604259610176086 0.68847054243087769 0.19303010404109955
0.56179237365722656 0.70617592334747314 0.16384908556938171
0.7193000316619873 0.73119747638702393 0.10478795319795609
0.88065999746322632 0.76970565319061279 0.07641003280878067
0.2698911726474762 0.91575103998184204 0.29537951946258545
0.31031093001365662 0.91542041301727295 0.28730735182762146
0.38743829727172852 0.91145038604736328 0.27936381101608276
0.49360722303390503 0.90791416168212891 0.27381381392478943
0.6349298357963562 0.91984260082244873 0.26681777834892273
0.7854345440864563 0.93570715188980103 0.26296344399452209
0.92445868253707886 0.95027095079421997 0.25871610641479492
0.0022206923458725214 0.18886604905128479 0.28791946172714233
0.052900847047567368 0.18897593021392822 0.30212652683258057
0.26005846261978149 0.20059801638126373 0.32915580272674561
0.4497319757938385 0.2011752724647522 0.34861049056053162
0.62681889533996582 0.200863316655159 0.36588284373283386
0.77768182754516602 0.15418264269828796 0.3486931324005127
0.91172832250595093 0.13800056278705597 0.34765505790710449
0.0035453347954899073 0.25462198257446289 0.31966933608055115
0.094692334532737732 0.24979262053966522 0.33099541068077087
0.29379206895828247 0.25839561223983765 0.35416260361671448
0.4730314314365387 0.26504120230674744 0.36870414018630981
0.63881582021713257 0.24859529733657837 0.36705860495567322
0.78453260660171509 0.22428841888904572 0.36023333668708801
0.91996365785598755 0.22960874438285828 0.36711540818214417
0.0074352486990392208 0.36627659201622009 0.3570009171962738
0.15435066819190979 0.36415967345237732 0.36151501536369324
0.33707523345947266 0.36833682656288147 0.37682226300239563
0.50976407527923584 0.36392772197723389 0.38557955622673035
0.66075503826141357 0.35654670000076294 0.38181883096694946
0.79938369989395142 0.36299937963485718 0.38959115743637085
0.92662584781646729 0.37424749135971069 0.39527532458305359
0.036484077572822571 0.49415403604507446 0.36119994521141052
0.20174676179885864 0.49010032415390015 0.37353834509849548
0.33772733807563782 0.47774112224578857 0.37305840849876404
0.4937075674533844 0.4695875346660614 0.36466729640960693
0.65415275096893311 0.49108964204788208 0.37901338934898376
0.80132603645324707 0.52438187599182129 0.41846594214439392
0.92598456144332886 0.54606181383132935 0.43947166204452515
0.13668248057365417 0.61541867256164551 0.36178836226463318
0.21622864902019501 0.60492086410522461 0.35918927192687988
0.31977275013923645 0.57928824424743652 0.34415248036384583
0.45139938592910767 0.57330918312072754 0.33451545238494873
0.60180425643920898 0.58890306949615479 0.31540006399154663
0.758800208568573 0.6226731538772583 0.3379615843296051
0.91567760705947876 0.69105464220046997 0.42683127522468567
0.10063818842172623 0.74858337640762329 0.33884024620056152
0.18787011504173279 0.74297881126403809 0.33517241477966309
0.30150699615478516 0.72782641649246216 0.32163780927658081
0.41822618246078491 0.70454853773117065 0.3024752140045166
0.56608504056930542 0.72123551368713379 0.28267025947570801
0.73381608724594116 0.75403475761413574 0.26775476336479187
0.8848036527633667 0.78223150968551636 0.26554983854293823
0.24549463391304016 0.9279637336730957 0.39336076378822327
0.28992354869842529 0.92580777406692505 0.38567176461219788
0.37856510281562805 0.9213377833366394 0.37449172139167786
0.48308560252189636 0.91588658094406128 0.36244022846221924
0.62389397621154785 0.92247891426086426 0.35931050777435303
0.77972906827926636 0.93717986345291138 0.35692006349563599
0.92402756214141846 0.9514009952545166 0.36461591720581055
0.001693665748462081 0.23004581034183502 0.47711029648780823
0.0066404007375240326 0.22873318195343018 0.49448505043983459
0.24256645143032074 0.23590274155139923 0.52285289764404297
0.49595183134078979 0.2623288631439209 0.54938387870788574
0.65748363733291626 0.26935264468193054 0.55892670154571533
0.81214958429336548 0.31107941269874573 0.57344669103622437
0.93892413377761841 0.30376061797142029 0.56636506319046021
0.0014891979517415166 0.30453860759735107 0.50387799739837646
0.016327980905771255 0.29306492209434509 0.51838916540145874
0.28265747427940369 0.30018192529678345 0.54406535625457764
0.52432858943939209 0.32525306940078735 0.5714113712310791
0.67285341024398804 0.33964788913726807 0.57640856504440308
0.81188565492630005 0.36359956860542297 0.57687842845916748
0.94005799293518066 0.33731108903884888 0.55528289079666138
0.008051224984228611 0.41785416007041931 0.52423548698425293
0.11591879278421402 0.41386204957962036 0.53070461750030518
0.34447658061981201 0.4175189733505249 0.55761623382568359
0.53659117221832275 0.43380892276763916 0.58250069618225098
0.67971062660217285 0.44359073042869568 0.58865940570831299
0.80949437618255615 0.42765393853187561 0.56627863645553589
0.93643677234649658 0.39547345042228699 0.53824228048324585
0.021762128919363022 0.54353964328765869 0.54878658056259155
0.16308028995990753 0.54094505310058594 0.55171608924865723
0.36259415745735168 0.5497087836265564 0.56760555505752563
0.53218501806259155 0.55471700429916382 0.57819658517837524
0.67544311285018921 0.54408460855484009 0.57504117488861084
0.80520164966583252 0.5311623215675354 0.56394827365875244
0.92422795295715332 0.53576076030731201 0.55894291400909424
0.027508305385708809 0.68080729246139526 0.53144437074661255
0.18427346646785736 0.67316079139709473 0.52909690141677856
0.34380605816841125 0.6684035062789917 0.53459745645523071
0.4845937192440033 0.64761412143707275 0.5302918553352356
0.63418412208557129 0.64408791065216064 0.51199913024902344
0.78681749105453491 0.67675650119781494 0.5456511378288269
0.9192192554473877 0.71782273054122925 0.59932547807693481
0.023379696533083916 0.80822086334228516 0.50741839408874512
0.12956130504608154 0.80197972059249878 0.50259149074554443
0.31574094295501709 0.79017949104309082 0.50511080026626587
0.43778547644615173 0.76052850484848022 0.47839772701263428
0.56922066211700439 0.75236326456069946 0.44744989275932312
0.74007183313369751 0.77314656972885132 0.43535077571868896
0.897205650806427 0.80850028991699219 0.46114587783813477
0.23340548574924469 0.94921278953552246 0.54952311515808105
0.2797912061214447 0.9461524486541748 0.53994917869567871
0.36998355388641357 0.93853104114532471 0.52508115768432617
0.47880160808563232 0.93159019947052002 0.50710010528564453
0.60300415754318237 0.92944228649139404 0.48387190699577332
0.76962804794311523 0.94293725490570068 0.48265498876571655
0.91858172416687012 0.95410263538360596 0.48990952968597412
0 0.29707628488540649 0.68554508686065674
0.0052861529402434826 0.28624057769775391 0.6973990797996521
0.1687195897102356 0.28938698768615723 0.72026485204696655
0.50612461566925049 0.3302159309387207 0.74315762519836426
0.69871711730957031 0.36704441905021667 0.75603765249252319
0.82523649930953979 0.40566664934158325 0.75326275825500488
0.93467122316360474 0.51571297645568848 0.77541816234588623
1.8669577912078239e-05 0.37456491589546204 0.69932115077972412
0.0067263883538544178 0.35958489775657654 0.71251207590103149
0.21362705528736115 0.34892231225967407 0.73016464710235596
0.52499657869338989 0.39528569579124451 0.75084018707275391
0.71055072546005249 0.43653708696365356 0.76441389322280884
0.8285561203956604 0.46311891078948975 0.76255971193313599
0.93201619386672974 0.55794835090637207 0.77805811166763306
0.0039101992733776569 0.48278734087944031 0.69863158464431763
0.11004523187875748 0.47714090347290039 0.708701491355896
0.29725474119186401 0.46842676401138306 0.72292464971542358
0.52415281534194946 0.49893385171890259 0.74803644418716431
0.70628595352172852 0.53886616230010986 0.76483196020126343
0.81783169507980347 0.56293421983718872 0.76833701133728027
0.92437213659286499 0.60779094696044922 0.77440911531448364
0.0094341505318880081 0.59306448698043823 0.68971693515777588
0.06524001806974411 0.59444946050643921 0.69777393341064453
0.32991781830787659 0.59036892652511597 0.70503300428390503
0.52274852991104126 0.60744291543960571 0.74150699377059937
0.69964456558227539 0.65671050548553467 0.76820856332778931
0.81147915124893188 0.6707923412322998 0.77129989862442017
0.91620135307312012 0.65237623453140259 0.74645966291427612
0.049878496676683426 0.72564315795898438 0.71361047029495239
0.15855580568313599 0.72523081302642822 0.71690458059310913
0.35832953453063965 0.72732961177825928 0.71961396932601929
0.52221882343292236 0.73521840572357178 0.73782616853713989
0.67309325933456421 0.74627131223678589 0.74867123365402222
0.79860055446624756 0.74214369058609009 0.75005120038986206
0.91103613376617432 0.72500956058502197 0.73295390605926514
0.13634166121482849 0.86563068628311157 0.70955401659011841
0.21961848437786102 0.86060029268264771 0.70502388477325439
0.35680487751960754 0.85733890533447266 0.70408111810684204
0.49823302030563354 0.84499502182006836 0.70012170076370239
0.61132699251174927 0.82027924060821533 0.68120771646499634
0.75457578897476196 0.82358777523040771 0.66581583023071289
0.8957899808883667 0.85775303840637207 0.69961148500442505
0.24695394933223724 0.97273242473602295 0.70826733112335205
0.29324957728385925 0.96952760219573975 0.70507597923278809
0.38631072640419006 0.96628826856613159 0.70071947574615479
0.50647103786468506 0.95656335353851318 0.69645720720291138
0.61543446779251099 0.93925756216049194 0.66047745943069458
0.7548183798789978 0.94896161556243896 0.64996063709259033
0.90828663110733032 0.95837485790252686 0.66198432445526123
0.0031876207794994116 0.40181425213813782 0.84962600469589233
0.0038990096654742956 0.38350269198417664 0.8534511923789978
0.15610258281230927 0.37865009903907776 0.86879867315292358
0.50104784965515137 0.42877936363220215 0.87047106027603149
0.71836262941360474 0.50901287794113159 0.88039356470108032
0.8460504412651062 0.5575440526008606 0.87528496980667114
0.93214768171310425 0.5934869647026062 0.87840992212295532
0.0031970902346074581 0.46628293395042419 0.85695326328277588
0.0089905532076954842 0.4495282769203186 0.85920214653015137
0.22248956561088562 0.43398508429527283 0.86990880966186523
0.52304720878601074 0.485820472240448 0.87111145257949829
0.721405029296875 0.56388562917709351 0.87832802534103394
0.8462098240852356 0.61622780561447144 0.88067162036895752
0.92901599407196045 0.64842188358306885 0.88072854280471802
0.059721089899539948 0.57010012865066528 0.85128390789031982
0.16473178565502167 0.5608399510383606 0.85352426767349243
0.32049080729484558 0.54619085788726807 0.85673743486404419
0.53158771991729736 0.57396650314331055 0.86694824695587158
0.72286927700042725 0.64687544107437134 0.87450939416885376
0.83694422245025635 0.68559062480926514 0.87547087669372559
0.9162105917930603 0.70940506458282471 0.87919843196868896
0.021422052755951881 0.66994929313659668 0.83104467391967773
0.14640313386917114 0.66716933250427246 0.83310872316360474
0.36932024359703064 0.6705775260925293 0.8371729850769043
0.53924298286437988 0.67282062768936157 0.85839176177978516
0.7058832049369812 0.73345959186553955 0.87126141786575317
0.82992720603942871 0.77415907382965088 0.87780523300170898
0.90872228145599365 0.79450047016143799 0.87857186794281006
0.0068914224393665791 0.78760582208633423 0.83246850967407227
0.076127894222736359 0.77901816368103027 0.83123445510864258
0.32009387016296387 0.77736949920654297 0.8334847092628479
0.50405251979827881 0.7822766900062561 0.84000903367996216
0.67598038911819458 0.80733120441436768 0.85418736934661865
0.82446396350860596 0.848960280418396 0.87673956155776978
0.89958292245864868 0.85829013586044312 0.8780701756477356
0.21932287514209747 0.89321041107177734 0.8413698673248291
0.29360201954841614 0.89387333393096924 0.8424677848815918
0.41177782416343689 0.89653164148330688 0.84582602977752686
0.55120927095413208 0.89585822820663452 0.84671342372894287
0.6890559196472168 0.89705091714859009 0.85773497819900513
0.80949932336807251 0.90380030870437622 0.86423575878143311
0.89995050430297852 0.90643537044525146 0.86382806301116943
0.47578942775726318 0.98528295755386353 0.85273182392120361
0.48815441131591797 0.97927176952362061 0.84528607130050659
0.53883641958236694 0.98298197984695435 0.84860050678253174
0.6146165132522583 0.9807509183883667 0.84937471151351929
0.69065940380096436 0.97129225730895996 0.83570259809494019
0.77780437469482422 0.96421736478805542 0.82247430086135864
0.89741975069046021 0.97034096717834473 0.83078032732009888
0.18403741717338562 0.56421363353729248 0.9476202130317688
0.24830763041973114 0.55434119701385498 0.94821411371231079
0.40568423271179199 0.56023353338241577 0.94495320320129395
0.59719395637512207 0.60614627599716187 0.94088518619537354
0.74345320463180542 0.66689485311508179 0.93667948246002197
0.86024290323257446 0.73638999462127686 0.93194401264190674
0.9325408935546875 0.77402263879776001 0.92999446392059326
0.28569969534873962 0.62054824829101562 0.94349837303161621
0.33060392737388611 0.61298441886901855 0.94240450859069824
0.44145816564559937 0.60630118846893311 0.94056576490402222
0.60345131158828735 0.64297235012054443 0.9397464394569397
0.74635672569274902 0.70049697160720825 0.93476277589797974
0.85927051305770874 0.76433712244033813 0.93253970146179199
0.93065857887268066 0.80271404981613159 0.93002533912658691
0.38439542055130005 0.71114122867584229 0.93260073661804199
0.41205945611000061 0.70523762702941895 0.93201088905334473
0.49441090226173401 0.69064217805862427 0.93508243560791016
0.61727863550186157 0.7037321925163269 0.93469971418380737
0.74673527479171753 0.75007963180541992 0.93122941255569458
0.85750782489776611 0.80631619691848755 0.93223893642425537
0.92094141244888306 0.83483457565307617 0.92783284187316895
0.39757904410362244 0.79989141225814819 0.92236536741256714
0.44353920221328735 0.79470312595367432 0.92327308654785156
0.52291625738143921 0.78755706548690796 0.92498886585235596
0.62572115659713745 0.7808796763420105 0.92634743452072144
0.73800176382064819 0.80256927013397217 0.92698413133621216
0.85035556554794312 0.85640984773635864 0.92824840545654297
0.91847485303878784 0.88225388526916504 0.9262349009513855
0.27834239602088928 0.87088477611541748 0.91547185182571411
0.34118178486824036 0.86835050582885742 0.9155501127243042
0.45304107666015625 0.86504626274108887 0.91576504707336426
0.60216778516769409 0.8666338324546814 0.91890007257461548
0.73383432626724243 0.87413853406906128 0.92211127281188965
0.8423803448677063 0.89842838048934937 0.9253496527671814
0.90719103813171387 0.91711056232452393 0.92535483837127686
0.4094090461730957 0.9487229585647583 0.91513723134994507
0.43719902634620667 0.94538944959640503 0.91523200273513794
0.50506985187530518 0.94255846738815308 0.91547489166259766
0.60223627090454102 0.93927514553070068 0.9174201488494873
0.71465039253234863 0.93371307849884033 0.91783970594406128
0.83724641799926758 0.94474750757217407 0.92317640781402588
0.91370588541030884 0.95745360851287842 0.92549890279769897
0.58914691209793091 0.99334526062011719 0.91736692190170288
0.60851156711578369 0.99464660882949829 0.91815698146820068
0.64624160528182983 0.99081206321716309 0.91804128885269165
0.70797514915466309 0.98990875482559204 0.92037677764892578
0.78419852256774902 0.98754113912582397 0.92114800214767456
0.85444474220275879 0.98767882585525513 0.92162835597991943
0.91665184497833252 0.98771125078201294 0.92163050174713135
