luts/colorslide/polaroid_polachrome.cube
# Created by: G'MIC (https://gmic.eu)
TITLE "polaroid_polachrome"
# LUT size
LUT_3D_SIZE 13
# Data domain
DOMAIN_MIN 0.0 0.0 0.0
DOMAIN_MAX 1.0 1.0 1.0
# LUT data points
0.01581960916519165 0.014823524281382561 0.017132703214883804
0.041647173464298248 0.013115841895341873 0.019745606929063797
0.083781220018863678 0.018099123612046242 0.026901783421635628
0.14177490770816803 0.031355675309896469 0.038116276264190674
0.21283732354640961 0.049047164618968964 0.051119666546583176
0.29305347800254822 0.063936717808246613 0.063811749219894409
0.39577409625053406 0.085901029407978058 0.087042294442653656
0.51122403144836426 0.11500135064125061 0.11807812005281448
0.6080467700958252 0.13685889542102814 0.14096637070178986
0.68165099620819092 0.14987441897392273 0.15272282063961029
0.74502038955688477 0.16152997314929962 0.1614043116569519
0.80261307954788208 0.17383565008640289 0.16995920240879059
0.85414588451385498 0.18516996502876282 0.1785222589969635
0.032137837260961533 0.051423180848360062 0.026730526238679886
0.054976325482130051 0.050203315913677216 0.03045310266315937
0.096473753452301025 0.057850662618875504 0.039070174098014832
0.15359185636043549 0.070486508309841156 0.051221136003732681
0.22630205750465393 0.088582120835781097 0.065430358052253723
0.31294560432434082 0.10935673117637634 0.081616975367069244
0.41437530517578125 0.13203220069408417 0.10419891774654388
0.52077621221542358 0.15504950284957886 0.13047973811626434
0.6132853627204895 0.17228102684020996 0.15071992576122284
0.68748199939727783 0.18390314280986786 0.1623249351978302
0.75196975469589233 0.19376480579376221 0.17079068720340729
0.81026965379714966 0.20335395634174347 0.17860198020935059
0.86168158054351807 0.2125270813703537 0.18615901470184326
0.06423148512840271 0.10194209963083267 0.04110495001077652
0.081845089793205261 0.10239428281784058 0.044873122125864029
0.1172114685177803 0.11092934757471085 0.0536484494805336
0.17161677777767181 0.12352791428565979 0.065956026315689087
0.24512685835361481 0.14135806262493134 0.081002809107303619
0.3343452513217926 0.1641552597284317 0.099184431135654449
0.43293541669845581 0.18572922050952911 0.12001506984233856
0.53095477819442749 0.20284585654735565 0.14194819331169128
0.61847275495529175 0.21433514356613159 0.15983325242996216
0.69315898418426514 0.22408357262611389 0.17128375172615051
0.75846904516220093 0.23270130157470703 0.17901761829853058
0.8162580132484436 0.23839905858039856 0.18623633682727814
0.86661750078201294 0.24398615956306458 0.19334888458251953
0.099263690412044525 0.17196415364742279 0.061052657663822174
0.11098484694957733 0.17456763982772827 0.064037308096885681
0.13987845182418823 0.18377245962619781 0.072046674787998199
0.19349271059036255 0.19715392589569092 0.083436407148838043
0.2684268057346344 0.21478639543056488 0.098730944097042084
0.35777691006660461 0.23547177016735077 0.11620118468999863
0.45305332541465759 0.25443252921104431 0.13556608557701111
0.54531103372573853 0.26764324307441711 0.15455438196659088
0.62906920909881592 0.27572327852249146 0.17012858390808105
0.70262104272842407 0.28345128893852234 0.18062892556190491
0.76725995540618896 0.29030939936637878 0.1877305656671524
0.82317286729812622 0.29261693358421326 0.19425822794437408
0.87078511714935303 0.29290446639060974 0.20107316970825195
0.10496237128973007 0.25851261615753174 0.085263177752494812
0.11813828349113464 0.26266324520111084 0.086063146591186523
0.15341228246688843 0.27151817083358765 0.091835997998714447
0.21334515511989594 0.28458705544471741 0.10322075337171555
0.29241061210632324 0.30137023329734802 0.11830157041549683
0.38256281614303589 0.32032960653305054 0.13515648245811462
0.47533395886421204 0.33803507685661316 0.15229977667331696
0.56342434883117676 0.35041713714599609 0.1681026965379715
0.64333599805831909 0.35820767283439636 0.18105235695838928
0.71489673852920532 0.36505076289176941 0.19024716317653656
0.77839022874832153 0.37063521146774292 0.19667835533618927
0.8327021598815918 0.37198749184608459 0.20179177820682526
0.87855631113052368 0.37052720785140991 0.20741240680217743
0.078220292925834656 0.35742145776748657 0.10797968506813049
0.11040682345628738 0.36046299338340759 0.10761190950870514
0.16284580528736115 0.36653071641921997 0.11329897493124008
0.23332850635051727 0.37710496783256531 0.12523876130580902
0.31733113527297974 0.39250251650810242 0.14014026522636414
0.40828785300254822 0.41113737225532532 0.15589363873004913
0.49890312552452087 0.42931842803955078 0.17089672386646271
0.58288145065307617 0.44172477722167969 0.18375368416309357
0.65855824947357178 0.44948449730873108 0.19378143548965454
0.72773194313049316 0.45728376507759094 0.20121528208255768
0.79055672883987427 0.46547588706016541 0.20640552043914795
0.84500843286514282 0.47010204195976257 0.20996297895908356
0.89012002944946289 0.4693601131439209 0.21294583380222321
0.098204173147678375 0.45247140526771545 0.13176573812961578
0.12894272804260254 0.4536183774471283 0.1313679963350296
0.18584562838077545 0.45751407742500305 0.13825994729995728
0.2612060010433197 0.46610525250434875 0.15074840188026428
0.34644129872322083 0.47981664538383484 0.1651444137096405
0.43495345115661621 0.49774834513664246 0.17949007451534271
0.52147245407104492 0.51570779085159302 0.19201906025409698
0.60020136833190918 0.52844065427780151 0.20172540843486786
0.67111885547637939 0.53664994239807129 0.20891636610031128
0.73858422040939331 0.54672867059707642 0.21455267071723938
0.80164837837219238 0.55899232625961304 0.21867915987968445
0.85720831155776978 0.56806355714797974 0.22040970623493195
0.90212815999984741 0.56732040643692017 0.22137506306171417
0.13816753029823303 0.52904552221298218 0.16227008402347565
0.17532540857791901 0.5323258638381958 0.16395337879657745
0.22898642718791962 0.53743356466293335 0.17105725407600403
0.30162528157234192 0.54556429386138916 0.18185961246490479
0.38224667310714722 0.55776166915893555 0.19430579245090485
0.46362167596817017 0.57313829660415649 0.2064753919839859
0.54146486520767212 0.58896708488464355 0.21641352772712708
0.61347514390945435 0.60128170251846313 0.22330562770366669
0.68078076839447021 0.61145591735839844 0.22804257273674011
0.74662613868713379 0.62368279695510864 0.23234589397907257
0.80945420265197754 0.63773107528686523 0.23472096025943756
0.8656657338142395 0.64794009923934937 0.23497073352336884
0.91217941045761108 0.64920783042907715 0.23441438376903534
0.2157427966594696 0.59543782472610474 0.20130312442779541
0.24072910845279694 0.60053884983062744 0.20493185520172119
0.28769290447235107 0.60673993825912476 0.21071864664554596
0.35296967625617981 0.61474955081939697 0.21826331317424774
0.42424699664115906 0.62528598308563232 0.22794251143932343
0.49440565705299377 0.63802307844161987 0.23813469707965851
0.56187719106674194 0.65097522735595703 0.24656262993812561
0.62647038698196411 0.66284984350204468 0.25173565745353699
0.68960481882095337 0.67430019378662109 0.25477325916290283
0.75335001945495605 0.68765997886657715 0.25738769769668579
0.81553024053573608 0.70103871822357178 0.25784432888031006
0.87231755256652832 0.71141856908798218 0.25524076819419861
0.92070299386978149 0.71480607986450195 0.25332006812095642
0.29509279131889343 0.65944218635559082 0.24619357287883759
0.31598761677742004 0.66388469934463501 0.2496180534362793
0.35370895266532898 0.66911029815673828 0.25431537628173828
0.40766224265098572 0.6758885383605957 0.25933694839477539
0.46735623478889465 0.6846383810043335 0.26665186882019043
0.52536779642105103 0.69508266448974609 0.27579137682914734
0.58318173885345459 0.70624059438705444 0.2835896909236908
0.6409984827041626 0.71745067834854126 0.28869724273681641
0.69996976852416992 0.72927170991897583 0.2913212776184082
0.76065355539321899 0.74217206239700317 0.29179367423057556
0.8209870457649231 0.75496429204940796 0.28841981291770935
0.87798231840133667 0.76520484685897827 0.28276240825653076
0.92755699157714844 0.77024233341217041 0.27886500954627991
0.36963188648223877 0.71919053792953491 0.29510599374771118
0.38698717951774597 0.72247278690338135 0.29822418093681335
0.41506797075271606 0.72618967294692993 0.30186721682548523
0.45592239499092102 0.73137837648391724 0.30598443746566772
0.50357615947723389 0.7384224534034729 0.31163591146469116
0.55272644758224487 0.74705767631530762 0.31917527318000793
0.60335332155227661 0.75692379474639893 0.32642343640327454
0.65572661161422729 0.76748824119567871 0.33199033141136169
0.71089476346969604 0.77894443273544312 0.33475708961486816
0.76794898509979248 0.79134064912796021 0.3332732617855072
0.82587581872940063 0.80339044332504272 0.32683929800987244
0.88148981332778931 0.81354624032974243 0.31758514046669006
0.9307904839515686 0.81999105215072632 0.31096386909484863
0.43034091591835022 0.77474552392959595 0.34885686635971069
0.44515004754066467 0.77700012922286987 0.3501928448677063
0.46550357341766357 0.7795911431312561 0.35255801677703857
0.49565881490707397 0.78339779376983643 0.35606497526168823
0.53374350070953369 0.78909999132156372 0.3604179322719574
0.57668900489807129 0.79674047231674194 0.36628997325897217
0.62243503332138062 0.80542159080505371 0.37266454100608826
0.67080789804458618 0.81518292427062988 0.37861728668212891
0.72179418802261353 0.82594776153564453 0.38189083337783813
0.77505534887313843 0.8375815749168396 0.37980338931083679
0.82982045412063599 0.84956204891204834 0.37066510319709778
0.8823503851890564 0.85990923643112183 0.35870122909545898
0.93108272552490234 0.8674888014793396 0.34923112392425537
0.48069822788238525 0.8278462290763855 0.40179833769798279
0.49246516823768616 0.82960623502731323 0.40178355574607849
0.50741815567016602 0.83097356557846069 0.40326675772666931
0.5301552414894104 0.83399015665054321 0.40595749020576477
0.56184405088424683 0.83895182609558105 0.40924310684204102
0.60004323720932007 0.84566181898117065 0.41356682777404785
0.64209103584289551 0.85369205474853516 0.41911798715591431
0.68692916631698608 0.86293023824691772 0.42504817247390747
0.73415553569793701 0.87288022041320801 0.42926144599914551
0.78379154205322266 0.88398230075836182 0.4271790087223053
0.83488583564758301 0.89555555582046509 0.41628867387771606
0.8848799467086792 0.90630805492401123 0.40201038122177124
0.93233639001846313 0.91471076011657715 0.39004486799240112
0.02441488578915596 0.020336823537945747 0.050995711237192154
0.054669220000505447 0.021526755765080452 0.057588867843151093
0.098898567259311676 0.028391610831022263 0.067955657839775085
0.15966799855232239 0.042729634791612625 0.081122167408466339
0.2345433235168457 0.061287358403205872 0.095690004527568817
0.32076868414878845 0.079099215567111969 0.11075780540704727
0.42117351293563843 0.099598363041877747 0.13104651868343353
0.52655637264251709 0.12345555424690247 0.15521109104156494
0.61690491437911987 0.14233772456645966 0.17371994256973267
0.6884462833404541 0.15488043427467346 0.18370763957500458
0.75113654136657715 0.1653081476688385 0.19003047049045563
0.80839669704437256 0.17570789158344269 0.19521342217922211
0.85910379886627197 0.18506492674350739 0.20091697573661804
0.048954412341117859 0.06231028214097023 0.065141402184963226
0.073961280286312103 0.063299126923084259 0.071211732923984528
0.11433708667755127 0.071486905217170715 0.081769444048404694
0.17291200160980225 0.085719704627990723 0.095604285597801208
0.2480807900428772 0.10428347438573837 0.11073659360408783
0.33682107925415039 0.12428019195795059 0.12728665769100189
0.43570244312286377 0.14509519934654236 0.1475188136100769
0.53529101610183716 0.16504514217376709 0.16910366714000702
0.62132364511489868 0.18013793230056763 0.18513847887516022
0.69159942865371704 0.19010630249977112 0.19371484220027924
0.75666707754135132 0.19817532598972321 0.19960606098175049
0.81644755601882935 0.20594070851802826 0.20484919846057892
0.86812770366668701 0.2141624391078949 0.21049615740776062
0.08100610226392746 0.1139640212059021 0.082527324557304382
0.098842084407806396 0.11639655381441116 0.087611719965934753
0.13371503353118896 0.12567809224128723 0.097933992743492126
0.18990114331245422 0.13963611423969269 0.11151809990406036
0.26530292630195618 0.15770113468170166 0.12717105448246002
0.3550737202167511 0.17807485163211823 0.14467066526412964
0.45116013288497925 0.19752110540866852 0.16387784481048584
0.54410982131958008 0.21326722204685211 0.18282952904701233
0.62636321783065796 0.2241014689207077 0.19702523946762085
0.69756060838699341 0.23207412660121918 0.20515623688697815
0.76383435726165771 0.23809786140918732 0.2102636843919754
0.8244251012802124 0.24235355854034424 0.21452192962169647
0.87575185298919678 0.24809901416301727 0.22002352774143219
0.10812796652317047 0.18312825262546539 0.10265512019395828
0.12085703015327454 0.18732932209968567 0.10730854421854019
0.15225785970687866 0.19727151095867157 0.11678633093833923
0.20854999125003815 0.21110162138938904 0.12996254861354828
0.28526085615158081 0.22807711362838745 0.14587746560573578
0.37491282820701599 0.24664179980754852 0.16270612180233002
0.46824634075164795 0.26376444101333618 0.1808491051197052
0.55686056613922119 0.27662727236747742 0.19748249650001526
0.63660842180252075 0.28506442904472351 0.21051762998104095
0.70787465572357178 0.29156434535980225 0.21826061606407166
0.77315706014633179 0.29596793651580811 0.22239014506340027
0.83179545402526855 0.29788345098495483 0.22524192929267883
0.88117516040802002 0.30087259411811829 0.22986285388469696
0.10552341490983963 0.26980620622634888 0.12488763779401779
0.12504614889621735 0.27478471398353577 0.12772472202777863
0.16361922025680542 0.28385764360427856 0.13667397201061249
0.22601437568664551 0.29613035917282104 0.15028603374958038
0.30620157718658447 0.31141501665115356 0.16638141870498657
0.39639639854431152 0.32815879583358765 0.18294979631900787
0.4873010516166687 0.34377256035804749 0.19921760261058807
0.57237064838409424 0.35558539628982544 0.21374399960041046
0.64926052093505859 0.36372268199920654 0.22482480108737946
0.71878343820571899 0.37032735347747803 0.23162534832954407
0.78213334083557129 0.37546035647392273 0.23503446578979492
0.83786094188690186 0.37783160805702209 0.23672844469547272
0.8846471905708313 0.37999233603477478 0.23982475697994232
0.094468452036380768 0.36789807677268982 0.14525586366653442
0.1260334849357605 0.37154266238212585 0.14810977876186371
0.17500637471675873 0.37727421522140503 0.15788097679615021
0.24532723426818848 0.38661757111549377 0.17301845550537109
0.32925322651863098 0.39997565746307373 0.18952561914920807
0.41894075274467468 0.41573444008827209 0.20540960133075714
0.50716674327850342 0.43089723587036133 0.21977835893630981
0.58808839321136475 0.44284442067146301 0.23162093758583069
0.66128093004226685 0.45115146040916443 0.24046342074871063
0.72868198156356812 0.45954245328903198 0.2460678368806839
0.7901344895362854 0.46787995100021362 0.24832727015018463
0.84413605928421021 0.4740498960018158 0.24827517569065094
0.88919484615325928 0.47697395086288452 0.24905557930469513
0.11575955897569656 0.45859068632125854 0.16920174658298492
0.14666236937046051 0.46263691782951355 0.17176251113414764
0.19962796568870544 0.46672216057777405 0.18282145261764526
0.27354967594146729 0.47386404871940613 0.19923287630081177
0.35745912790298462 0.48538058996200562 0.21572031080722809
0.44354668259620667 0.49991658329963684 0.23051862418651581
0.52626007795333862 0.5145537257194519 0.24242474138736725
0.60216736793518066 0.52613931894302368 0.25123125314712524
0.67123430967330933 0.5355944037437439 0.25785684585571289
0.73687261343002319 0.54631888866424561 0.26230204105377197
0.79764741659164429 0.55861473083496094 0.26416361331939697
0.85113179683685303 0.56875777244567871 0.26209127902984619
0.89602518081665039 0.57284843921661377 0.26040387153625488
0.15323007106781006 0.53374528884887695 0.20145714282989502
0.19074232876300812 0.53955936431884766 0.20575188100337982
0.24415284395217896 0.54487520456314087 0.21631918847560883
0.31469857692718506 0.55175143480300903 0.23081354796886444
0.39275726675987244 0.56183534860610962 0.24535873532295227
0.47106018662452698 0.57438129186630249 0.25808268785476685
0.54529464244842529 0.58750808238983154 0.26771575212478638
0.61392349004745483 0.59859633445739746 0.27382272481918335
0.67879623174667358 0.60893648862838745 0.27800950407981873
0.74282091856002808 0.62173247337341309 0.28214925527572632
0.80402392148971558 0.63617110252380371 0.28317674994468689
0.85892099142074585 0.64805257320404053 0.28035235404968262
0.90490800142288208 0.65295016765594482 0.27793464064598083
0.22751380503177643 0.60129320621490479 0.24437461793422699
0.25764697790145874 0.60678046941757202 0.24828824400901794
0.30397686362266541 0.61248195171356201 0.2565123438835144
0.36595052480697632 0.61919486522674561 0.26699396967887878
0.43402448296546936 0.62813442945480347 0.27831301093101501
0.5010601282119751 0.63883894681930542 0.2892964780330658
0.56531119346618652 0.64975965023040771 0.29746639728546143
0.62653034925460815 0.66018068790435791 0.30218863487243652
0.68675464391708374 0.67111998796463013 0.30500471591949463
0.7488892674446106 0.68475764989852905 0.30836540460586548
0.81051230430603027 0.69920724630355835 0.30819216370582581
0.86695289611816406 0.71088624000549316 0.30364376306533813
0.9151540994644165 0.71711987257003784 0.3002057671546936
0.30990707874298096 0.66423171758651733 0.29031988978385925
0.33225458860397339 0.66848462820053101 0.29366424679756165
0.36890575289726257 0.6731337308883667 0.29952433705329895
0.41961777210235596 0.67874503135681152 0.30656465888023376
0.47595104575157166 0.68613129854202271 0.31505495309829712
0.53117746114730835 0.69509083032608032 0.32456666231155396
0.58577775955200195 0.70471298694610596 0.33273643255233765
0.64071261882781982 0.7146991491317749 0.33788216114044189
0.69743102788925171 0.72580850124359131 0.34140172600746155
0.75677114725112915 0.73892748355865479 0.34217727184295654
0.81741762161254883 0.75240504741668701 0.33936372399330139
0.87515050172805786 0.76357102394104004 0.33173325657844543
0.92477071285247803 0.77005821466445923 0.32637012004852295
0.38391414284706116 0.72285395860671997 0.33858972787857056
0.40068387985229492 0.72545409202575684 0.34105861186981201
0.42725333571434021 0.72856742143630981 0.34512820839881897
0.46588775515556335 0.73279315233230591 0.35002729296684265
0.51084673404693604 0.73883271217346191 0.35666558146476746
0.55741137266159058 0.74630069732666016 0.36478897929191589
0.60552823543548584 0.75475847721099854 0.3723602294921875
0.65591663122177124 0.76447516679763794 0.37846475839614868
0.70886474847793579 0.7755119800567627 0.38230481743812561
0.76503729820251465 0.78776568174362183 0.38205644488334656
0.82294535636901855 0.80023449659347534 0.37621432542800903
0.87951445579528809 0.81092077493667603 0.36616790294647217
0.92906737327575684 0.81833982467651367 0.35897555947303772
0.44201430678367615 0.77682530879974365 0.38898614048957825
0.45551890134811401 0.77885037660598755 0.39015284180641174
0.47473382949829102 0.78052282333374023 0.39265897870063782
0.50338059663772583 0.78374612331390381 0.39648011326789856
0.53981560468673706 0.78855693340301514 0.401551753282547
0.58038824796676636 0.79505413770675659 0.40799728035926819
0.62422806024551392 0.80272001028060913 0.41475978493690491
0.67071706056594849 0.8117755651473999 0.42115485668182373
0.72036290168762207 0.82233697175979614 0.42545214295387268
0.77284324169158936 0.83408105373382568 0.42487451434135437
0.82698726654052734 0.84619820117950439 0.41792783141136169
0.88010358810424805 0.85676926374435425 0.40719136595726013
0.92805272340774536 0.86491161584854126 0.3988768458366394
0.48912805318832397 0.82921141386032104 0.4387727677822113
0.49970212578773499 0.83006381988525391 0.4388611912727356
0.51428622007369995 0.83106458187103271 0.43995916843414307
0.53638285398483276 0.83371055126190186 0.44286438822746277
0.56680619716644287 0.83792763948440552 0.44686430692672729
0.60320264101028442 0.84380733966827393 0.45174041390419006
0.64333879947662354 0.85079479217529297 0.45775061845779419
0.68710881471633911 0.85941612720489502 0.46394744515419006
0.73324859142303467 0.86950588226318359 0.46863409876823425
0.78220808506011963 0.88084214925765991 0.46797162294387817
0.83254712820053101 0.89256107807159424 0.46046659350395203
0.88209712505340576 0.90319371223449707 0.44953638315200806
0.92889201641082764 0.91205668449401855 0.44041904807090759
0.033221404999494553 0.026390718296170235 0.093392089009284973
0.067888312041759491 0.029778828844428062 0.10367310792207718
0.1154526025056839 0.037756454199552536 0.11697942763566971
0.17793507874011993 0.051557905972003937 0.13102996349334717
0.25519078969955444 0.069477111101150513 0.14551651477813721
0.34442797303199768 0.088792197406291962 0.16151593625545502
0.44280245900154114 0.10969310253858566 0.18042857944965363
0.54041457176208496 0.13039775192737579 0.1990693211555481
0.62406778335571289 0.14669577777385712 0.21416756510734558
0.69277799129486084 0.15835398435592651 0.22324478626251221
0.75437682867050171 0.16814416646957397 0.22736521065235138
0.81054794788360596 0.17740088701248169 0.22848643362522125
0.85965496301651001 0.18579615652561188 0.23027925193309784
0.063972041010856628 0.074008390307426453 0.11299596726894379
0.09161541610956192 0.077329732477664948 0.12146960943937302
0.13365828990936279 0.086347632110118866 0.13347016274929047
0.19362828135490417 0.10070659965276718 0.14774127304553986
0.2702307403087616 0.11876776069402695 0.16303926706314087
0.35931023955345154 0.1380305290222168 0.18006297945976257
0.45518830418586731 0.15716841816902161 0.19778816401958466
0.54775834083557129 0.1746484786272049 0.21548289060592651
0.62777876853942871 0.18792524933815002 0.22883208096027374
0.69543296098709106 0.19670042395591736 0.23577402532100677
0.75963443517684937 0.20353510975837708 0.23936952650547028
0.81929045915603638 0.21023352444171906 0.24086625874042511
0.87020182609558105 0.21756905317306519 0.24372188746929169
0.096415713429450989 0.12919244170188904 0.13503479957580566
0.11626172810792923 0.13338272273540497 0.14166884124279022
0.1525716632604599 0.14356842637062073 0.15263313055038452
0.21064642071723938 0.15816639363765717 0.16655522584915161
0.28722313046455383 0.17546540498733521 0.1819332093000412
0.37570604681968689 0.19338564574718475 0.1992097795009613
0.46844777464866638 0.21052134037017822 0.21562191843986511
0.55596244335174561 0.22485211491584778 0.23254379630088806
0.63306564092636108 0.23514679074287415 0.24455361068248749
0.70141363143920898 0.24174650013446808 0.25084784626960754
0.76715689897537231 0.24609072506427765 0.25354117155075073
0.82884186506271362 0.24944597482681274 0.2541993260383606
0.88067919015884399 0.25499743223190308 0.25698336958885193
0.11998579651117325 0.19840879738330841 0.15817013382911682
0.13347865641117096 0.20421577990055084 0.16334329545497894
0.16858890652656555 0.21487483382225037 0.17361438274383545
0.22767482697963715 0.22869567573070526 0.18742583692073822
0.30554479360580444 0.24430252611637115 0.20275725424289703
0.39426633715629578 0.26039254665374756 0.2189621776342392
0.48397067189216614 0.27510428428649902 0.23471979796886444
0.56757760047912598 0.28734394907951355 0.25018906593322754
0.64245229959487915 0.29613956809043884 0.26145532727241516
0.71092289686203003 0.30184027552604675 0.26751998066902161
0.77586990594863892 0.30522805452346802 0.26897647976875305
0.83638852834701538 0.30678778886795044 0.26869374513626099
0.88746351003646851 0.31081491708755493 0.27060204744338989
0.11956344544887543 0.28316795825958252 0.18065622448921204
0.13752159476280212 0.28949627280235291 0.18487785756587982
0.17985007166862488 0.29906925559043884 0.19571995735168457
0.24485185742378235 0.31092566251754761 0.20988699793815613
0.32479196786880493 0.32442253828048706 0.22546671330928802
0.41351798176765442 0.33838662505149841 0.24067917466163635
0.50066369771957397 0.35153990983963013 0.25552648305892944
