luts/colorslide/polaroid_669.cube
# Created by: G'MIC (https://gmic.eu)
TITLE "polaroid_669"
# LUT size
LUT_3D_SIZE 13
# Data domain
DOMAIN_MIN 0.0 0.0 0.0
DOMAIN_MAX 1.0 1.0 1.0
# LUT data points
0.024597018957138062 0.15574583411216736 0.12077298760414124
0.064755730330944061 0.16185756027698517 0.12846210598945618
0.10843200981616974 0.16679680347442627 0.13599100708961487
0.16706648468971252 0.16852590441703796 0.13446503877639771
0.23026028275489807 0.16794092953205109 0.13310205936431885
0.30993533134460449 0.16773459315299988 0.13971751928329468
0.39641883969306946 0.16643501818180084 0.14575104415416718
0.48503255844116211 0.1633293628692627 0.15055936574935913
0.57244330644607544 0.15902356803417206 0.15935948491096497
0.66176587343215942 0.15231551229953766 0.16607619822025299
0.74680531024932861 0.15229864418506622 0.17156262695789337
0.82580423355102539 0.16296824812889099 0.18119047582149506
0.90335464477539062 0.17518821358680725 0.19095811247825623
0.024738207459449768 0.17867539823055267 0.12751166522502899
0.067579247057437897 0.18335384130477905 0.13062602281570435
0.11519124358892441 0.18734580278396606 0.13417761027812958
0.17553859949111938 0.1883992999792099 0.13539254665374756
0.24353781342506409 0.18859858810901642 0.13888220489025116
0.32013243436813354 0.18605455756187439 0.15023684501647949
0.40504059195518494 0.18649198114871979 0.15555368363857269
0.49768245220184326 0.18816493451595306 0.15687549114227295
0.5890013575553894 0.18549518287181854 0.1637888103723526
0.67418509721755981 0.18304120004177094 0.17100454866886139
0.75664740800857544 0.18617218732833862 0.17687429487705231
0.8323701024055481 0.19530138373374939 0.18558190762996674
0.90292078256607056 0.20509442687034607 0.19462758302688599
0.025560207664966583 0.20502956211566925 0.13377685844898224
0.07013384997844696 0.20897328853607178 0.13537885248661041
0.11832411587238312 0.210598424077034 0.13570693135261536
0.18144227564334869 0.21291087567806244 0.13706839084625244
0.25368818640708923 0.21445788443088531 0.1412164717912674
0.33885499835014343 0.21912890672683716 0.1557554304599762
0.43014159798622131 0.22416812181472778 0.16472165286540985
0.52058291435241699 0.22065965831279755 0.16302956640720367
0.60767388343811035 0.21835356950759888 0.16698630154132843
0.68724465370178223 0.22067205607891083 0.17444205284118652
0.76648861169815063 0.22281087934970856 0.17957870662212372
0.8410651683807373 0.23534107208251953 0.19027581810951233
0.91053515672683716 0.24528652429580688 0.19934533536434174
0.0390457883477211 0.24684543907642365 0.1438508927822113
0.073433324694633484 0.24339540302753448 0.14507278800010681
0.12541845440864563 0.24575696885585785 0.14320099353790283
0.19016610085964203 0.24843306839466095 0.13979917764663696
0.26785245537757874 0.25319960713386536 0.14211542904376984
0.36443397402763367 0.26328963041305542 0.15655018389225006
0.4627043604850769 0.27296513319015503 0.1727445125579834
0.54862016439437866 0.27396941184997559 0.17397357523441315
0.62436956167221069 0.27332842350006104 0.17552754282951355
0.70046651363372803 0.2777554988861084 0.18312229216098785
0.77548903226852417 0.28128063678741455 0.18957604467868805
0.84890049695968628 0.28983685374259949 0.19801148772239685
0.91722846031188965 0.30370137095451355 0.20838949084281921
0.05142274871468544 0.29707145690917969 0.15330693125724792
0.088625468313694 0.29504397511482239 0.15469536185264587
0.13702332973480225 0.29377099871635437 0.15295568108558655
0.20083349943161011 0.297536700963974 0.14951780438423157
0.27729666233062744 0.3020051121711731 0.14638392627239227
0.36283844709396362 0.30721008777618408 0.14706625044345856
0.46102917194366455 0.3169371485710144 0.15973760187625885
0.55627483129501343 0.32646727561950684 0.17190471291542053
0.64249217510223389 0.33495938777923584 0.1826612800359726
0.71435928344726562 0.34369033575057983 0.19425739347934723
0.78632116317749023 0.35061755776405334 0.20313794910907745
0.85728061199188232 0.35432595014572144 0.20902523398399353
0.92652541399002075 0.36947721242904663 0.2206016331911087
0.067130401730537415 0.35215955972671509 0.16199801862239838
0.10932370275259018 0.35216817259788513 0.16286925971508026
0.15133173763751984 0.34804841876029968 0.16145022213459015
0.2061113566160202 0.34731295704841614 0.1577545553445816
0.28341963887214661 0.35307422280311584 0.15281906723976135
0.3619072437286377 0.35606878995895386 0.14523310959339142
0.44207781553268433 0.36035338044166565 0.14236682653427124
0.53454411029815674 0.37181958556175232 0.15672697126865387
0.62685424089431763 0.3863213062286377 0.17248597741127014
0.71623790264129639 0.40610387921333313 0.19898466765880585
0.79618352651596069 0.42409747838973999 0.21613280475139618
0.86737728118896484 0.43570023775100708 0.22552111744880676
0.9279291033744812 0.45313680171966553 0.24291174113750458
0.08865782618522644 0.40787151455879211 0.16628478467464447
0.12623490393161774 0.40758755803108215 0.16735924780368805
0.16465377807617188 0.4044763445854187 0.1667100191116333
0.21046482026576996 0.40138804912567139 0.16353176534175873
0.28057047724723816 0.40514832735061646 0.15767389535903931
0.35541424155235291 0.40784457325935364 0.15049506723880768
0.43027374148368835 0.41120120882987976 0.14473603665828705
0.51270252466201782 0.42046681046485901 0.14521168172359467
0.59691643714904785 0.43169933557510376 0.15083685517311096
0.68841463327407837 0.45135149359703064 0.171248659491539
0.7805362343788147 0.4810941219329834 0.19910527765750885
0.86950302124023438 0.51289921998977661 0.23100556433200836
0.93055528402328491 0.53709828853607178 0.26425579190254211
0.10553210228681564 0.46407449245452881 0.16857725381851196
0.13941460847854614 0.46355956792831421 0.16960597038269043
0.17479132115840912 0.45968657732009888 0.17063778638839722
0.2158871591091156 0.4545280933380127 0.16832709312438965
0.27724120020866394 0.45545563101768494 0.16259603202342987
0.34404590725898743 0.45899286866188049 0.15649746358394623
0.4180927574634552 0.46255293488502502 0.15109756588935852
0.49552205204963684 0.47152343392372131 0.14337989687919617
0.57204359769821167 0.4785512387752533 0.13154475390911102
0.65574795007705688 0.49149990081787109 0.13299107551574707
0.74672210216522217 0.52531677484512329 0.15348200500011444
0.84092235565185547 0.56478309631347656 0.18733967840671539
0.92351698875427246 0.60272336006164551 0.25097867846488953
0.11522451788187027 0.52120888233184814 0.16798312962055206
0.14755003154277802 0.5230027437210083 0.16986297070980072
0.18257173895835876 0.51763075590133667 0.17130525410175323
0.21918056905269623 0.50651746988296509 0.17035572230815887
0.27149701118469238 0.50441175699234009 0.16556580364704132
0.33489301800727844 0.50992429256439209 0.15942810475826263
0.4056609570980072 0.51611298322677612 0.15210425853729248
0.48232564330101013 0.53049647808074951 0.13891501724720001
0.55947196483612061 0.54084378480911255 0.1211375966668129
0.63634973764419556 0.54922544956207275 0.099446378648281097
0.72146850824356079 0.57218992710113525 0.088846944272518158
0.81483286619186401 0.61019730567932129 0.124114990234375
0.90451741218566895 0.65371286869049072 0.19914217293262482
0.11951459944248199 0.59574824571609497 0.1623387485742569
0.14852871000766754 0.59435409307479858 0.163434699177742
0.18532611429691315 0.58938437700271606 0.16428595781326294
0.22637951374053955 0.57976305484771729 0.16384421288967133
0.27559638023376465 0.57258760929107666 0.16075527667999268
0.33731245994567871 0.57814902067184448 0.15432912111282349
0.40519523620605469 0.58872324228286743 0.14396582543849945
0.48156234622001648 0.60408103466033936 0.12879931926727295
0.55746912956237793 0.61737483739852905 0.10595487803220749
0.63455343246459961 0.63072460889816284 0.072345718741416931
0.71071207523345947 0.63660532236099243 0.037076432257890701
0.7939988374710083 0.65933078527450562 0.037128537893295288
0.88687169551849365 0.70323282480239868 0.10386932641267776
0.12458594888448715 0.68358176946640015 0.15453481674194336
0.1532377302646637 0.67955863475799561 0.15587492287158966
0.19232909381389618 0.67595195770263672 0.15521298348903656
0.23911400139331818 0.67093098163604736 0.15469370782375336
0.28667327761650085 0.65934211015701294 0.1518692821264267
0.3453277051448822 0.66217350959777832 0.14616604149341583
0.4145718514919281 0.67473822832107544 0.13554383814334869
0.48468157649040222 0.68376243114471436 0.11848005652427673
0.56077152490615845 0.70059812068939209 0.087495855987071991
0.63720512390136719 0.71504890918731689 0.04479777067899704
0.71431070566177368 0.72683656215667725 0.016465669497847557
0.78991127014160156 0.73924559354782104 0.0074249566532671452
0.87390279769897461 0.76577210426330566 0.012203381396830082
0.15456746518611908 0.78955483436584473 0.16055633127689362
0.17970108985900879 0.78932672739028931 0.16020838916301727
0.21780268847942352 0.78566020727157593 0.16039218008518219
0.2629205584526062 0.78096628189086914 0.15765546262264252
0.31250548362731934 0.77584081888198853 0.15337736904621124
0.36781519651412964 0.77440100908279419 0.14853285253047943
0.43120703101158142 0.78098315000534058 0.13727982342243195
0.50293165445327759 0.78987115621566772 0.12324341386556625
0.57739377021789551 0.80443370342254639 0.095724634826183319
0.65473121404647827 0.81657886505126953 0.058541886508464813
0.73221439123153687 0.83029800653457642 0.025835957378149033
0.81094646453857422 0.84333336353302002 0.010248715057969093
0.88459283113479614 0.85585427284240723 0.00782801304012537
0.27495655417442322 0.90793228149414062 0.24466328322887421
0.28841301798820496 0.90981209278106689 0.23901337385177612
0.31183081865310669 0.9088209867477417 0.23411193490028381
0.34829226136207581 0.90770632028579712 0.2340131402015686
0.39035883545875549 0.90476244688034058 0.23094953596591949
0.43929192423820496 0.90157628059387207 0.22922694683074951
0.49707221984863281 0.9026331901550293 0.22752070426940918
0.5660475492477417 0.90765810012817383 0.2270367294549942
0.63665342330932617 0.91732949018478394 0.21948413550853729
0.71460098028182983 0.92375385761260986 0.21764250099658966
0.7893526554107666 0.93240624666213989 0.20630265772342682
0.86074990034103394 0.94116091728210449 0.19547094404697418
0.92630892992019653 0.95060938596725464 0.18866108357906342
0.021560324355959892 0.1596314013004303 0.14147773385047913
0.059796649962663651 0.16461479663848877 0.14664722979068756
0.10286121815443039 0.16724580526351929 0.14971956610679626
0.16612367331981659 0.17037707567214966 0.15569667518138885
0.23683226108551025 0.17285799980163574 0.16318789124488831
0.32070410251617432 0.17533577978610992 0.166822150349617
0.40830466151237488 0.16876696050167084 0.17176121473312378
0.49693220853805542 0.16275958716869354 0.18015293776988983
0.58447670936584473 0.15788935124874115 0.18960817158222198
0.66917866468429565 0.15180881321430206 0.19833870232105255
0.75039410591125488 0.15277980268001556 0.20413896441459656
0.82840275764465332 0.16126395761966705 0.20564326643943787
0.89974528551101685 0.1732848584651947 0.21191973984241486
0.023571133613586426 0.18276691436767578 0.15093828737735748
0.064498737454414368 0.18753334879875183 0.15576474368572235
0.11455363780260086 0.19113931059837341 0.16124135255813599
0.17740783095359802 0.19188542664051056 0.1645524650812149
0.24792870879173279 0.19027404487133026 0.16616278886795044
0.32508906722068787 0.18774206936359406 0.16626591980457306
0.41252824664115906 0.18655751645565033 0.17429050803184509
0.50588738918304443 0.18787103891372681 0.1868053525686264
0.59655576944351196 0.18559426069259644 0.19689318537712097
0.67972314357757568 0.1836104542016983 0.20429539680480957
0.76070219278335571 0.1881028413772583 0.20861664414405823
0.83680713176727295 0.19903656840324402 0.21296654641628265
0.90254926681518555 0.21056336164474487 0.22077445685863495
0.025605609640479088 0.20982800424098969 0.15961739420890808
0.068735487759113312 0.21475434303283691 0.16335827112197876
0.12174561619758606 0.21781204640865326 0.16974109411239624
0.18561278283596039 0.21947003901004791 0.17156253755092621
0.25906109809875488 0.2212785929441452 0.17121253907680511
0.34277889132499695 0.22415517270565033 0.17293605208396912
0.43615218997001648 0.22711487114429474 0.18298721313476562
0.52524340152740479 0.22575363516807556 0.19479963183403015
0.6087799072265625 0.223093181848526 0.20439517498016357
0.68925756216049194 0.22517158091068268 0.20797000825405121
0.76914900541305542 0.22950407862663269 0.21123379468917847
0.84286832809448242 0.24128121137619019 0.21850816905498505
0.91069716215133667 0.25440043210983276 0.22666122019290924
0.038190372288227081 0.25387260317802429 0.17013360559940338
0.071389079093933105 0.25137174129486084 0.1712564080953598
0.12880618870258331 0.25461754202842712 0.17294770479202271
0.19872564077377319 0.25985860824584961 0.17301377654075623
0.27632042765617371 0.26407435536384583 0.17245444655418396
0.36799579858779907 0.27035707235336304 0.17850625514984131
0.46806704998016357 0.27560102939605713 0.18877097964286804
0.55336695909500122 0.27691841125488281 0.19970433413982391
0.6268649697303772 0.27806809544563293 0.20926640927791595
0.70140409469604492 0.27944222092628479 0.21265912055969238
0.77772992849349976 0.28107944130897522 0.21595095098018646
0.85119509696960449 0.29187962412834167 0.22390002012252808
0.92327451705932617 0.30620163679122925 0.23134621977806091
0.049928434193134308 0.31263014674186707 0.18562978506088257
0.090167269110679626 0.30834847688674927 0.18298888206481934
0.14287759363651276 0.30495783686637878 0.17943193018436432
0.21048860251903534 0.30869403481483459 0.17816737294197083
0.28878825902938843 0.31170988082885742 0.17521794140338898
0.37422126531600952 0.31549972295761108 0.17444327473640442
0.47147437930107117 0.32250106334686279 0.18348826467990875
0.5628126859664917 0.33238998055458069 0.20230893790721893
0.64312964677810669 0.33996677398681641 0.21723930537700653
0.71682894229888916 0.3450811505317688 0.22012093663215637
0.78944867849349976 0.35070154070854187 0.22597728669643402
0.86021500825881958 0.36056140065193176 0.23746944963932037
0.92814213037490845 0.37499839067459106 0.2480161190032959
0.069334976375102997 0.36991867423057556 0.1972927451133728
0.11309832334518433 0.36682403087615967 0.19331112504005432
0.1595863550901413 0.35967567563056946 0.1883876770734787
0.21576231718063354 0.35858392715454102 0.18408675491809845
0.29128411412239075 0.36221349239349365 0.17901892960071564
0.36866998672485352 0.36340972781181335 0.17042660713195801
0.4514918327331543 0.36685964465141296 0.16945293545722961
0.54345029592514038 0.37743207812309265 0.18863889575004578
0.63640588521957397 0.39251852035522461 0.20728161931037903
0.72491717338562012 0.41036221385002136 0.22094953060150146
0.80206441879272461 0.42557400465011597 0.23576384782791138
0.868141770362854 0.43938237428665161 0.25456872582435608
0.92673063278198242 0.45493951439857483 0.27380594611167908
0.094092182815074921 0.41890007257461548 0.19516867399215698
0.13265404105186462 0.41838103532791138 0.19517198204994202
0.17269735038280487 0.41532772779464722 0.1929062157869339
0.21897248923778534 0.41151106357574463 0.1890828013420105
0.28743615746498108 0.41178303956985474 0.18333601951599121
0.36214900016784668 0.41277322173118591 0.17596332728862762
0.43963354825973511 0.41589930653572083 0.17188136279582977
0.52301925420761108 0.42350953817367554 0.1747591644525528
0.61071336269378662 0.43760523200035095 0.18403817713260651
0.70210492610931396 0.4588836133480072 0.19920085370540619
0.79027265310287476 0.48775187134742737 0.22430785000324249
0.86550170183181763 0.51616358757019043 0.26350823044776917
0.92713093757629395 0.53768694400787354 0.29419705271720886
0.11176461726427078 0.46966749429702759 0.19151204824447632
0.14481671154499054 0.47162207961082458 0.19473341107368469
0.18052725493907928 0.47230726480484009 0.19658505916595459
0.22313687205314636 0.46458104252815247 0.19260610640048981
0.28143280744552612 0.46111807227134705 0.18658572435379028
0.3534390926361084 0.46368339657783508 0.18145659565925598
0.43022006750106812 0.46891951560974121 0.17845137417316437
0.50752085447311401 0.47722199559211731 0.17001944780349731
0.58387285470962524 0.48622611165046692 0.16245855391025543
0.66697990894317627 0.50237804651260376 0.16824901103973389
0.75734519958496094 0.53317844867706299 0.18672633171081543
0.84451198577880859 0.57153594493865967 0.22870239615440369
0.91976535320281982 0.60672575235366821 0.28403323888778687
0.11988818645477295 0.53306061029434204 0.18996253609657288
0.15097159147262573 0.53450310230255127 0.19530516862869263
0.18662567436695099 0.53218984603881836 0.19774261116981506
0.22727645933628082 0.52050364017486572 0.19290570914745331
0.27572789788246155 0.51004970073699951 0.18571403622627258
0.34441468119621277 0.51779866218566895 0.18215747177600861
0.41971471905708313 0.53042089939117432 0.17773567140102386
0.49598747491836548 0.54303133487701416 0.16320548951625824
0.56989949941635132 0.55174660682678223 0.14994187653064728
0.64360511302947998 0.5581284761428833 0.13858519494533539
0.7292410135269165 0.57962226867675781 0.13416041433811188
0.82054871320724487 0.6175505518913269 0.15865480899810791
0.90397131443023682 0.6578439474105835 0.22711879014968872
0.12253895401954651 0.61109441518783569 0.18482139706611633
0.15240639448165894 0.60896354913711548 0.18974356353282928
0.19064360857009888 0.6054835319519043 0.18962970376014709
0.2325158566236496 0.59568357467651367 0.18418329954147339
0.27968436479568481 0.58213096857070923 0.17967827618122101
0.34277063608169556 0.58698529005050659 0.17526504397392273
0.41500496864318848 0.6008610725402832 0.1683366447687149
0.48896771669387817 0.61416167020797729 0.15291248261928558
0.5620877742767334 0.62334859371185303 0.1348574161529541
0.63785004615783691 0.6328505277633667 0.11128339916467667
0.71662670373916626 0.64350569248199463 0.079038672149181366
0.79906255006790161 0.66471081972122192 0.063367240130901337
0.8898005485534668 0.70815306901931763 0.13733133673667908
0.12423647940158844 0.69370466470718384 0.17727160453796387
0.15492729842662811 0.69137650728225708 0.18060131371021271
0.19358789920806885 0.68664616346359253 0.1774090975522995
0.23889161646366119 0.68034839630126953 0.17189154028892517
0.29082223773002625 0.67201876640319824 0.17028406262397766
0.34429818391799927 0.66637438535690308 0.16504071652889252
0.41616559028625488 0.68108594417572021 0.15681663155555725
0.48942506313323975 0.69354152679443359 0.14253781735897064
0.56064289808273315 0.70201617479324341 0.1197964996099472
0.63965404033660889 0.71737426519393921 0.086943380534648895
0.71578478813171387 0.72963899374008179 0.04128512367606163
0.79522764682769775 0.74426722526550293 0.015518995933234692
0.8785216212272644 0.7685132622718811 0.027700372040271759
0.15396106243133545 0.79805141687393188 0.18387417495250702
0.17975082993507385 0.79607653617858887 0.18385151028633118
0.21907557547092438 0.79245096445083618 0.1841178685426712
0.26620835065841675 0.78913897275924683 0.18106047809123993
0.31544885039329529 0.78287166357040405 0.1773429811000824
0.36841687560081482 0.77905690670013428 0.17269684374332428
0.43110185861587524 0.78472208976745605 0.16186858713626862
0.50348907709121704 0.79301923513412476 0.14645950496196747
0.57792872190475464 0.80620425939559937 0.12919120490550995
0.6571509838104248 0.81915992498397827 0.1014585942029953
0.73405027389526367 0.83117043972015381 0.060376200824975967
0.81293725967407227 0.84622687101364136 0.027428720146417618
0.8879702091217041 0.8603518009185791 0.013893231749534607
0.27502715587615967 0.91299498081207275 0.26376068592071533
0.28781118988990784 0.9115912914276123 0.25947767496109009
0.31400027871131897 0.91037023067474365 0.25673756003379822
0.34764236211776733 0.90947526693344116 0.25289341807365417
0.38975787162780762 0.90692943334579468 0.24941839277744293
0.43809336423873901 0.90434998273849487 0.24566929042339325
0.49525392055511475 0.90569049119949341 0.24374766647815704
0.56405854225158691 0.90994083881378174 0.24077305197715759
0.63811838626861572 0.91692048311233521 0.24024035036563873
0.71354645490646362 0.92674177885055542 0.23685643076896667
0.78953343629837036 0.93323677778244019 0.23464576900005341
0.86212754249572754 0.94032877683639526 0.22763168811798096
0.9264380931854248 0.94983053207397461 0.21675173938274384
0.010518107563257217 0.16466419398784637 0.17418745160102844
0.042306624352931976 0.16922478377819061 0.18117034435272217
0.093196943402290344 0.17333386838436127 0.18866497278213501
0.16155442595481873 0.17686021327972412 0.19326449930667877
0.237635537981987 0.17852510511875153 0.19875892996788025
0.32943347096443176 0.17673525214195251 0.20637036859989166
0.42031541466712952 0.16825279593467712 0.20866802334785461
0.50944703817367554 0.16105872392654419 0.21263529360294342
0.59503281116485596 0.15508574247360229 0.22435222566127777
0.67630577087402344 0.146710604429245 0.23425866663455963
0.75643265247344971 0.14688710868358612 0.24021509289741516
0.83352994918823242 0.15550245344638824 0.24342581629753113
0.9046974778175354 0.17022261023521423 0.24811418354511261
0.014672073535621166 0.18820801377296448 0.18379960954189301
0.055285241454839706 0.19213531911373138 0.19169002771377563
0.11106422543525696 0.1950385719537735 0.19930039346218109
0.17629916965961456 0.19732667505741119 0.20409400761127472
0.24927008152008057 0.1977258175611496 0.20948611199855804
0.33353358507156372 0.19635334610939026 0.2151864767074585
0.42490985989570618 0.1932045966386795 0.21987771987915039
0.51616919040679932 0.19007880985736847 0.22613202035427094
0.60333096981048584 0.18492582440376282 0.23590514063835144
0.68466633558273315 0.18130019307136536 0.24214865267276764
0.76449543237686157 0.18485602736473083 0.24686433374881744
0.83980894088745117 0.19551141560077667 0.25214874744415283
0.90545022487640381 0.20930139720439911 0.2579943835735321
0.016839539632201195 0.21671828627586365 0.19405022263526917
0.062183618545532227 0.22163026034832001 0.20294816792011261
0.12163291126489639 0.22324497997760773 0.20775189995765686
0.18927702307701111 0.22628913819789886 0.21051543951034546
0.2641548216342926 0.23041002452373505 0.21539501845836639
0.34943941235542297 0.23300535976886749 0.22189092636108398
0.44184085726737976 0.23164132237434387 0.22919593751430511
0.53063219785690308 0.22636550664901733 0.23621030151844025
0.61361777782440186 0.22368635237216949 0.24493329226970673
0.69274991750717163 0.22533747553825378 0.24639922380447388
0.77181434631347656 0.22895210981369019 0.24864837527275085
0.8448302149772644 0.23942005634307861 0.25650951266288757
0.91173505783081055 0.25193348526954651 0.2656150758266449
0.020773271098732948 0.26685163378715515 0.20930589735507965
0.060141410678625107 0.26554977893829346 0.21512559056282043
0.12928946316242218 0.26933425664901733 0.21585077047348022
0.20410344004631042 0.27344855666160583 0.21448522806167603
0.28404527902603149 0.27541425824165344 0.21474018692970276
0.37647280097007751 0.27973771095275879 0.2251180112361908
0.47355380654335022 0.28201714158058167 0.23757550120353699
0.55704802274703979 0.28006550669670105 0.24372230470180511
0.63210010528564453 0.28134718537330627 0.25049939751625061
0.70676428079605103 0.28124222159385681 0.25172138214111328
0.78215223550796509 0.2798016369342804 0.25140303373336792
0.85241329669952393 0.29121172428131104 0.26232263445854187
0.92186892032623291 0.30468103289604187 0.27381286025047302
0.03302542120218277 0.32983624935150146 0.22280706465244293
0.090212412178516388 0.32706058025360107 0.22473914921283722
0.1458771824836731 0.32202863693237305 0.22220136225223541
0.21701313555240631 0.32289060950279236 0.22014448046684265
0.30138483643531799 0.32367047667503357 0.21639384329319
0.39057549834251404 0.3264998197555542 0.22174380719661713
0.4842410683631897 0.33468562364578247 0.23688158392906189
0.57244402170181274 0.34258395433425903 0.24984587728977203
