luts/negative_old/fuji_neopan_1600_-.cube
# Created by: G'MIC (https://gmic.eu)
TITLE "fuji_neopan_1600_-"
# LUT size
LUT_3D_SIZE 13
# Data domain
DOMAIN_MIN 0.0 0.0 0.0
DOMAIN_MAX 1.0 1.0 1.0
# LUT data points
0.03185310959815979 0.03185310959815979 0.03185310959815979
0.024482322856783867 0.024482322856783867 0.024482322856783867
0.024112731218338013 0.024112731218338013 0.024112731218338013
0.034413237124681473 0.034413237124681473 0.034413237124681473
0.05427328497171402 0.05427328497171402 0.05427328497171402
0.081510640680789948 0.081510640680789948 0.081510640680789948
0.11519582569599152 0.11519582569599152 0.11519582569599152
0.15958499908447266 0.15958499908447266 0.15958499908447266
0.2131803035736084 0.2131803035736084 0.2131803035736084
0.26929506659507751 0.26929506659507751 0.26929506659507751
0.32728880643844604 0.32728880643844604 0.32728880643844604
0.39014163613319397 0.39014163613319397 0.39014163613319397
0.45819199085235596 0.45819199085235596 0.45819199085235596
0.032943472266197205 0.032943472266197205 0.032943472266197205
0.030475856736302376 0.030475856736302376 0.030475856736302376
0.036318834871053696 0.036318834871053696 0.036318834871053696
0.054053798317909241 0.054053798317909241 0.054053798317909241
0.082842104136943817 0.082842104136943817 0.082842104136943817
0.11811359226703644 0.11811359226703644 0.11811359226703644
0.15691882371902466 0.15691882371902466 0.15691882371902466
0.20150914788246155 0.20150914788246155 0.20150914788246155
0.25027400255203247 0.25027400255203247 0.25027400255203247
0.2993018627166748 0.2993018627166748 0.2993018627166748
0.34991753101348877 0.34991753101348877 0.34991753101348877
0.40596505999565125 0.40596505999565125 0.40596505999565125
0.47059053182601929 0.47059053182601929 0.47059053182601929
0.048341654241085052 0.048341654241085052 0.048341654241085052
0.051729060709476471 0.051729060709476471 0.051729060709476471
0.063671708106994629 0.063671708106994629 0.063671708106994629
0.089468233287334442 0.089468233287334442 0.089468233287334442
0.12886814773082733 0.12886814773082733 0.12886814773082733
0.17452229559421539 0.17452229559421539 0.17452229559421539
0.22079551219940186 0.22079551219940186 0.22079551219940186
0.26438066363334656 0.26438066363334656 0.26438066363334656
0.30437514185905457 0.30437514185905457 0.30437514185905457
0.34346505999565125 0.34346505999565125 0.34346505999565125
0.38499140739440918 0.38499140739440918 0.38499140739440918
0.43284428119659424 0.43284428119659424 0.43284428119659424
0.49397236108779907 0.49397236108779907 0.49397236108779907
0.08841252326965332 0.08841252326965332 0.08841252326965332
0.097630217671394348 0.097630217671394348 0.097630217671394348
0.1141960620880127 0.1141960620880127 0.1141960620880127
0.14382459223270416 0.14382459223270416 0.14382459223270416
0.18783184885978699 0.18783184885978699 0.18783184885978699
0.23881354928016663 0.23881354928016663 0.23881354928016663
0.28987559676170349 0.28987559676170349 0.28987559676170349
0.33257511258125305 0.33257511258125305 0.33257511258125305
0.36428257822990417 0.36428257822990417 0.36428257822990417
0.39625382423400879 0.39625382423400879 0.39625382423400879
0.43326517939567566 0.43326517939567566 0.43326517939567566
0.47815164923667908 0.47815164923667908 0.47815164923667908
0.53745943307876587 0.53745943307876587 0.53745943307876587
0.1593882292509079 0.1593882292509079 0.1593882292509079
0.16919809579849243 0.16919809579849243 0.16919809579849243
0.18585744500160217 0.18585744500160217 0.18585744500160217
0.21146441996097565 0.21146441996097565 0.21146441996097565
0.25016936659812927 0.25016936659812927 0.25016936659812927
0.29665353894233704 0.29665353894233704 0.29665353894233704
0.34490218758583069 0.34490218758583069 0.34490218758583069
0.38552430272102356 0.38552430272102356 0.38552430272102356
0.41671693325042725 0.41671693325042725 0.41671693325042725
0.44968369603157043 0.44968369603157043 0.44968369603157043
0.48986774682998657 0.48986774682998657 0.48986774682998657
0.53969377279281616 0.53969377279281616 0.53969377279281616
0.60008502006530762 0.60008502006530762 0.60008502006530762
0.24567387998104095 0.24567387998104095 0.24567387998104095
0.25285574793815613 0.25285574793815613 0.25285574793815613
0.26223161816596985 0.26223161816596985 0.26223161816596985
0.2798493504524231 0.2798493504524231 0.2798493504524231
0.30768606066703796 0.30768606066703796 0.30768606066703796
0.34375515580177307 0.34375515580177307 0.34375515580177307
0.38365423679351807 0.38365423679351807 0.38365423679351807
0.42189988493919373 0.42189988493919373 0.42189988493919373
0.45800578594207764 0.45800578594207764 0.45800578594207764
0.49792206287384033 0.49792206287384033 0.49792206287384033
0.54643809795379639 0.54643809795379639 0.54643809795379639
0.60418951511383057 0.60418951511383057 0.60418951511383057
0.66751450300216675 0.66751450300216675 0.66751450300216675
0.32545632123947144 0.32545632123947144 0.32545632123947144
0.33061471581459045 0.33061471581459045 0.33061471581459045
0.33461365103721619 0.33461365103721619 0.33461365103721619
0.34365347027778625 0.34365347027778625 0.34365347027778625
0.3602355420589447 0.3602355420589447 0.3602355420589447
0.3859904408454895 0.3859904408454895 0.3859904408454895
0.4188849925994873 0.4188849925994873 0.4188849925994873
0.45541834831237793 0.45541834831237793 0.45541834831237793
0.4945710301399231 0.4945710301399231 0.4945710301399231
0.54087281227111816 0.54087281227111816 0.54087281227111816
0.59737658500671387 0.59737658500671387 0.59737658500671387
0.66270607709884644 0.66270607709884644 0.66270607709884644
0.73074120283126831 0.73074120283126831 0.73074120283126831
0.39264753460884094 0.39264753460884094 0.39264753460884094
0.39910420775413513 0.39910420775413513 0.39910420775413513
0.40295138955116272 0.40295138955116272 0.40295138955116272
0.4067472517490387 0.4067472517490387 0.4067472517490387
0.41514337062835693 0.41514337062835693 0.41514337062835693
0.43333655595779419 0.43333655595779419 0.43333655595779419
0.46210482716560364 0.46210482716560364 0.46210482716560364
0.49680665135383606 0.49680665135383606 0.49680665135383606
0.53574872016906738 0.53574872016906738 0.53574872016906738
0.58334445953369141 0.58334445953369141 0.58334445953369141
0.6432686448097229 0.6432686448097229 0.6432686448097229
0.71194404363632202 0.71194404363632202 0.71194404363632202
0.78104269504547119 0.78104269504547119 0.78104269504547119
0.46029424667358398 0.46029424667358398 0.46029424667358398
0.47066602110862732 0.47066602110862732 0.47066602110862732
0.47683817148208618 0.47683817148208618 0.47683817148208618
0.47903850674629211 0.47903850674629211 0.47903850674629211
0.48280644416809082 0.48280644416809082 0.48280644416809082
0.49670401215553284 0.49670401215553284 0.49670401215553284
0.52335906028747559 0.52335906028747559 0.52335906028747559
0.55560773611068726 0.55560773611068726 0.55560773611068726
0.5905764102935791 0.5905764102935791 0.5905764102935791
0.63365852832794189 0.63365852832794189 0.63365852832794189
0.69026148319244385 0.69026148319244385 0.69026148319244385
0.75428754091262817 0.75428754091262817 0.75428754091262817
0.81777524948120117 0.81777524948120117 0.81777524948120117
0.54541069269180298 0.54541069269180298 0.54541069269180298
0.55887329578399658 0.55887329578399658 0.55887329578399658
0.56566160917282104 0.56566160917282104 0.56566160917282104
0.5674397349357605 0.5674397349357605 0.5674397349357605
0.57046276330947876 0.57046276330947876 0.57046276330947876
0.58253604173660278 0.58253604173660278 0.58253604173660278
0.60606849193572998 0.60606849193572998 0.60606849193572998
0.63443464040756226 0.63443464040756226 0.63443464040756226
0.6646195650100708 0.6646195650100708 0.6646195650100708
0.69998365640640259 0.69998365640640259 0.69998365640640259
0.7455209493637085 0.7455209493637085 0.7455209493637085
0.79778802394866943 0.79778802394866943 0.79778802394866943
0.85107237100601196 0.85107237100601196 0.85107237100601196
0.65872138738632202 0.65872138738632202 0.65872138738632202
0.66781574487686157 0.66781574487686157 0.66781574487686157
0.66989070177078247 0.66989070177078247 0.66989070177078247
0.66944551467895508 0.66944551467895508 0.66944551467895508
0.67250430583953857 0.67250430583953857 0.67250430583953857
0.68346381187438965 0.68346381187438965 0.68346381187438965
0.70310592651367188 0.70310592651367188 0.70310592651367188
0.72670376300811768 0.72670376300811768 0.72670376300811768
0.75080996751785278 0.75080996751785278 0.75080996751785278
0.77766168117523193 0.77766168117523193 0.77766168117523193
0.80985873937606812 0.80985873937606812 0.80985873937606812
0.846851646900177 0.846851646900177 0.846851646900177
0.88679599761962891 0.88679599761962891 0.88679599761962891
0.77635812759399414 0.77635812759399414 0.77635812759399414
0.78086358308792114 0.78086358308792114 0.78086358308792114
0.77845406532287598 0.77845406532287598 0.77845406532287598
0.77630871534347534 0.77630871534347534 0.77630871534347534
0.7782740592956543 0.7782740592956543 0.7782740592956543
0.78762924671173096 0.78762924671173096 0.78762924671173096
0.80350613594055176 0.80350613594055176 0.80350613594055176
0.82222270965576172 0.82222270965576172 0.82222270965576172
0.83973413705825806 0.83973413705825806 0.83973413705825806
0.85782921314239502 0.85782921314239502 0.85782921314239502
0.87804996967315674 0.87804996967315674 0.87804996967315674
0.89999830722808838 0.89999830722808838 0.89999830722808838
0.92595505714416504 0.92595505714416504 0.92595505714416504
0.88051390647888184 0.88051390647888184 0.88051390647888184
0.8834654688835144 0.8834654688835144 0.8834654688835144
0.88117069005966187 0.88117069005966187 0.88117069005966187
0.87871396541595459 0.87871396541595459 0.87871396541595459
0.88002496957778931 0.88002496957778931 0.88002496957778931
0.88691675662994385 0.88691675662994385 0.88691675662994385
0.89906871318817139 0.89906871318817139 0.89906871318817139
0.91259473562240601 0.91259473562240601 0.91259473562240601
0.92336571216583252 0.92336571216583252 0.92336571216583252
0.9335142970085144 0.9335142970085144 0.9335142970085144
0.94377100467681885 0.94377100467681885 0.94377100467681885
0.95413655042648315 0.95413655042648315 0.95413655042648315
0.96854257583618164 0.96854257583618164 0.96854257583618164
0.028062604367733002 0.028062604367733002 0.028062604367733002
0.026260675862431526 0.026260675862431526 0.026260675862431526
0.032289959490299225 0.032289959490299225 0.032289959490299225
0.04716859757900238 0.04716859757900238 0.04716859757900238
0.070685833692550659 0.070685833692550659 0.070685833692550659
0.10070613771677017 0.10070613771677017 0.10070613771677017
0.13704527914524078 0.13704527914524078 0.13704527914524078
0.18102863430976868 0.18102863430976868 0.18102863430976868
0.23090595006942749 0.23090595006942749 0.23090595006942749
0.28319138288497925 0.28319138288497925 0.28319138288497925
0.33768948912620544 0.33768948912620544 0.33768948912620544
0.39641416072845459 0.39641416072845459 0.39641416072845459
0.46073567867279053 0.46073567867279053 0.46073567867279053
0.034505177289247513 0.034505177289247513 0.034505177289247513
0.036646809428930283 0.036646809428930283 0.036646809428930283
0.04776376485824585 0.04776376485824585 0.04776376485824585
0.069639481604099274 0.069639481604099274 0.069639481604099274
0.10046063363552094 0.10046063363552094 0.10046063363552094
0.13631373643875122 0.13631373643875122 0.13631373643875122
0.17601694166660309 0.17601694166660309 0.17601694166660309
0.21894741058349609 0.21894741058349609 0.21894741058349609
0.26513159275054932 0.26513159275054932 0.26513159275054932
0.3117663562297821 0.3117663562297821 0.3117663562297821
0.36041182279586792 0.36041182279586792 0.36041182279586792
0.41443157196044922 0.41443157196044922 0.41443157196044922
0.47665515542030334 0.47665515542030334 0.47665515542030334
0.057210240513086319 0.057210240513086319 0.057210240513086319
0.063941776752471924 0.063941776752471924 0.063941776752471924
0.081245169043540955 0.081245169043540955 0.081245169043540955
0.11029697209596634 0.11029697209596634 0.11029697209596634
0.14955644309520721 0.14955644309520721 0.14955644309520721
0.19281387329101562 0.19281387329101562 0.19281387329101562
0.23553568124771118 0.23553568124771118 0.23553568124771118
0.27596893906593323 0.27596893906593323 0.27596893906593323
0.31507807970046997 0.31507807970046997 0.31507807970046997
0.35431027412414551 0.35431027412414551 0.35431027412414551
0.39635854959487915 0.39635854959487915 0.39635854959487915
0.44558584690093994 0.44558584690093994 0.44558584690093994
0.50613057613372803 0.50613057613372803 0.50613057613372803
0.10477837920188904 0.10477837920188904 0.10477837920188904
0.11591105908155441 0.11591105908155441 0.11591105908155441
0.13656386733055115 0.13656386733055115 0.13656386733055115
0.16879990696907043 0.16879990696907043 0.16879990696907043
0.21136583387851715 0.21136583387851715 0.21136583387851715
0.25806343555450439 0.25806343555450439 0.25806343555450439
0.30113252997398376 0.30113252997398376 0.30113252997398376
0.33847692608833313 0.33847692608833313 0.33847692608833313
0.37162074446678162 0.37162074446678162 0.37162074446678162
0.40571302175521851 0.40571302175521851 0.40571302175521851
0.44495093822479248 0.44495093822479248 0.44495093822479248
0.49302810430526733 0.49302810430526733 0.49302810430526733
0.55278974771499634 0.55278974771499634 0.55278974771499634
0.17868714034557343 0.17868714034557343 0.17868714034557343
0.19064818322658539 0.19064818322658539 0.19064818322658539
0.2094060480594635 0.2094060480594635 0.2094060480594635
0.23711241781711578 0.23711241781711578 0.23711241781711578
0.27383756637573242 0.27383756637573242 0.27383756637573242
0.31512784957885742 0.31512784957885742 0.31512784957885742
0.35511571168899536 0.35511571168899536 0.35511571168899536
0.39051371812820435 0.39051371812820435 0.39051371812820435
0.42315211892127991 0.42315211892127991 0.42315211892127991
0.4583703875541687 0.4583703875541687 0.4583703875541687
0.50090944766998291 0.50090944766998291 0.50090944766998291
0.55238085985183716 0.55238085985183716 0.55238085985183716
0.61265039443969727 0.61265039443969727 0.61265039443969727
0.26501926779747009 0.26501926779747009 0.26501926779747009
0.27472615242004395 0.27472615242004395 0.27472615242004395
0.28649526834487915 0.28649526834487915 0.28649526834487915
0.30403125286102295 0.30403125286102295 0.30403125286102295
0.32902491092681885 0.32902491092681885 0.32902491092681885
0.35994437336921692 0.35994437336921692 0.35994437336921692
0.39402112364768982 0.39402112364768982 0.39402112364768982
0.42860704660415649 0.42860704660415649 0.42860704660415649
0.4649566113948822 0.4649566113948822 0.4649566113948822
0.50643080472946167 0.50643080472946167 0.50643080472946167
0.5561787486076355 0.5561787486076355 0.5561787486076355
0.61401808261871338 0.61401808261871338 0.61401808261871338
0.67639780044555664 0.67639780044555664 0.67639780044555664
0.34503957629203796 0.34503957629203796 0.34503957629203796
0.3520544171333313 0.3520544171333313 0.3520544171333313
0.35706883668899536 0.35706883668899536 0.35706883668899536
0.36464521288871765 0.36464521288871765 0.36464521288871765
0.37777739763259888 0.37777739763259888 0.37777739763259888
0.39930713176727295 0.39930713176727295 0.39930713176727295
0.42807099223136902 0.42807099223136902 0.42807099223136902
0.4619448184967041 0.4619448184967041 0.4619448184967041
0.50158083438873291 0.50158083438873291 0.50158083438873291
0.54920953512191772 0.54920953512191772 0.54920953512191772
0.60592848062515259 0.60592848062515259 0.60592848062515259
0.67009466886520386 0.67009466886520386 0.67009466886520386
0.73586326837539673 0.73586326837539673 0.73586326837539673
0.4114898145198822 0.4114898145198822 0.4114898145198822
0.418914794921875 0.418914794921875 0.418914794921875
0.4221174418926239 0.4221174418926239 0.4221174418926239
0.42364555597305298 0.42364555597305298 0.42364555597305298
0.4286494255065918 0.4286494255065918 0.4286494255065918
0.44379094243049622 0.44379094243049622 0.44379094243049622
0.46996569633483887 0.46996569633483887 0.46996569633483887
0.50336819887161255 0.50336819887161255 0.50336819887161255
0.54285693168640137 0.54285693168640137 0.54285693168640137
0.59116750955581665 0.59116750955581665 0.59116750955581665
0.6503448486328125 0.6503448486328125 0.6503448486328125
0.7172548770904541 0.7172548770904541 0.7172548770904541
0.78422605991363525 0.78422605991363525 0.78422605991363525
0.47543609142303467 0.47543609142303467 0.47543609142303467
0.48644533753395081 0.48644533753395081 0.48644533753395081
0.49187040328979492 0.49187040328979492 0.49187040328979492
0.49196004867553711 0.49196004867553711 0.49196004867553711
0.49366623163223267 0.49366623163223267 0.49366623163223267
0.50609391927719116 0.50609391927719116 0.50609391927719116
0.53146058320999146 0.53146058320999146 0.53146058320999146
0.5635373592376709 0.5635373592376709 0.5635373592376709
0.59896254539489746 0.59896254539489746 0.59896254539489746
0.64140576124191284 0.64140576124191284 0.64140576124191284
0.69511717557907104 0.69511717557907104 0.69511717557907104
0.75773340463638306 0.75773340463638306 0.75773340463638306
0.82081562280654907 0.82081562280654907 0.82081562280654907
0.55528080463409424 0.55528080463409424 0.55528080463409424
0.57076603174209595 0.57076603174209595 0.57076603174209595
0.57792991399765015 0.57792991399765015 0.57792991399765015
0.57805699110031128 0.57805699110031128 0.57805699110031128
0.57941567897796631 0.57941567897796631 0.57941567897796631
0.59115374088287354 0.59115374088287354 0.59115374088287354
0.61457961797714233 0.61457961797714233 0.61457961797714233
0.64399570226669312 0.64399570226669312 0.64399570226669312
0.67315113544464111 0.67315113544464111 0.67315113544464111
0.70569580793380737 0.70569580793380737 0.70569580793380737
0.74803656339645386 0.74803656339645386 0.74803656339645386
0.79995042085647583 0.79995042085647583 0.79995042085647583
0.85367399454116821 0.85367399454116821 0.85367399454116821
0.66595381498336792 0.66595381498336792 0.66595381498336792
0.67687124013900757 0.67687124013900757 0.67687124013900757
0.67959403991699219 0.67959403991699219 0.67959403991699219
0.67840397357940674 0.67840397357940674 0.67840397357940674
0.68024671077728271 0.68024671077728271 0.68024671077728271
0.69072049856185913 0.69072049856185913 0.69072049856185913
0.71070873737335205 0.71070873737335205 0.71070873737335205
0.73496818542480469 0.73496818542480469 0.73496818542480469
0.75791233777999878 0.75791233777999878 0.75791233777999878
0.78213995695114136 0.78213995695114136 0.78213995695114136
0.81235259771347046 0.81235259771347046 0.81235259771347046
0.84934961795806885 0.84934961795806885 0.84934961795806885
0.88933980464935303 0.88933980464935303 0.88933980464935303
0.78269529342651367 0.78269529342651367 0.78269529342651367
0.78828674554824829 0.78828674554824829 0.78828674554824829
0.78669613599777222 0.78669613599777222 0.78669613599777222
0.78394979238510132 0.78394979238510132 0.78394979238510132
0.78509503602981567 0.78509503602981567 0.78509503602981567
0.79330748319625854 0.79330748319625854 0.79330748319625854
0.808746337890625 0.808746337890625 0.808746337890625
0.82693541049957275 0.82693541049957275 0.82693541049957275
0.84437280893325806 0.84437280893325806 0.84437280893325806
0.86267381906509399 0.86267381906509399 0.86267381906509399
0.88312971591949463 0.88312971591949463 0.88312971591949463
0.90423130989074707 0.90423130989074707 0.90423130989074707
0.92975729703903198 0.92975729703903198 0.92975729703903198
0.8860442042350769 0.8860442042350769 0.8860442042350769
0.88978666067123413 0.88978666067123413 0.88978666067123413
0.88818764686584473 0.88818764686584473 0.88818764686584473
0.88523828983306885 0.88523828983306885 0.88523828983306885
0.88538247346878052 0.88538247346878052 0.88538247346878052
0.89095121622085571 0.89095121622085571 0.89095121622085571
0.90155911445617676 0.90155911445617676 0.90155911445617676
0.91379010677337646 0.91379010677337646 0.91379010677337646
0.92564177513122559 0.92564177513122559 0.92564177513122559
0.93773341178894043 0.93773341178894043 0.93773341178894043
0.94942551851272583 0.94942551851272583 0.94942551851272583
0.95923668146133423 0.95923668146133423 0.95923668146133423
0.97325003147125244 0.97325003147125244 0.97325003147125244
0.029721338301897049 0.029721338301897049 0.029721338301897049
0.034394416958093643 0.034394416958093643 0.034394416958093643
0.047649383544921875 0.047649383544921875 0.047649383544921875
0.068177424371242523 0.068177424371242523 0.068177424371242523
0.094770140945911407 0.094770140945911407 0.094770140945911407
0.12655156850814819 0.12655156850814819 0.12655156850814819
0.16426891088485718 0.16426891088485718 0.16426891088485718
0.20779828727245331 0.20779828727245331 0.20779828727245331
0.25463521480560303 0.25463521480560303 0.25463521480560303
0.3026641309261322 0.3026641309261322 0.3026641309261322
0.35191905498504639 0.35191905498504639 0.35191905498504639
0.40504947304725647 0.40504947304725647 0.40504947304725647
0.46484443545341492 0.46484443545341492 0.46484443545341492
0.041215755045413971 0.041215755045413971 0.041215755045413971
0.048550549894571304 0.048550549894571304 0.048550549894571304
0.066380776464939117 0.066380776464939117 0.066380776464939117
0.092129923403263092 0.092129923403263092 0.092129923403263092
0.12362385541200638 0.12362385541200638 0.12362385541200638
0.15825459361076355 0.15825459361076355 0.15825459361076355
0.19677053391933441 0.19677053391933441 0.19677053391933441
0.23909123241901398 0.23909123241901398 0.23909123241901398
0.28345650434494019 0.28345650434494019 0.28345650434494019
0.32835221290588379 0.32835221290588379 0.32835221290588379
0.37415602803230286 0.37415602803230286 0.37415602803230286
0.42437884211540222 0.42437884211540222 0.42437884211540222
0.48290321230888367 0.48290321230888367 0.48290321230888367
0.070635221898555756 0.070635221898555756 0.070635221898555756
0.081454947590827942 0.081454947590827942 0.081454947590827942
0.10393524169921875 0.10393524169921875 0.10393524169921875
0.13603651523590088 0.13603651523590088 0.13603651523590088
0.17355398833751678 0.17355398833751678 0.17355398833751678
0.21213358640670776 0.21213358640670776 0.21213358640670776
0.2502007782459259 0.2502007782459259 0.2502007782459259
0.28827255964279175 0.28827255964279175 0.28827255964279175
0.32751625776290894 0.32751625776290894 0.32751625776290894
0.3676375150680542 0.3676375150680542 0.3676375150680542
0.41020143032073975 0.41020143032073975 0.41020143032073975
0.45925065875053406 0.45925065875053406 0.45925065875053406
0.51820880174636841 0.51820880174636841 0.51820880174636841
0.12373670935630798 0.12373670935630798 0.12373670935630798
0.1379343569278717 0.1379343569278717 0.1379343569278717
0.16350820660591125 0.16350820660591125 0.16350820660591125
0.1981150209903717 0.1981150209903717 0.1981150209903717
0.23772591352462769 0.23772591352462769 0.23772591352462769
0.27793979644775391 0.27793979644775391 0.27793979644775391
0.3125825822353363 0.3125825822353363 0.3125825822353363
0.34545454382896423 0.34545454382896423 0.34545454382896423
0.37986758351325989 0.37986758351325989 0.37986758351325989
0.41699543595314026 0.41699543595314026 0.41699543595314026
0.45878005027770996 0.45878005027770996 0.45878005027770996
0.50883430242538452 0.50883430242538452 0.50883430242538452
0.56857883930206299 0.56857883930206299 0.56857883930206299
0.20130400359630585 0.20130400359630585 0.20130400359630585
0.21623405814170837 0.21623405814170837 0.21623405814170837
0.23894082009792328 0.23894082009792328 0.23894082009792328
0.26801159977912903 0.26801159977912903 0.26801159977912903
0.30114671587944031 0.30114671587944031 0.30114671587944031
0.33486515283584595 0.33486515283584595 0.33486515283584595
0.36608999967575073 0.36608999967575073 0.36608999967575073
