luts/negative_old/fuji_superia_400.cube
# Created by: G'MIC (https://gmic.eu)
TITLE "fuji_superia_400"
# LUT size
LUT_3D_SIZE 13
# Data domain
DOMAIN_MIN 0.0 0.0 0.0
DOMAIN_MAX 1.0 1.0 1.0
# LUT data points
0.013801784254610538 0.057690266519784927 0.05266234278678894
0.051181059330701828 0.061058148741722107 0.052771639078855515
0.11087683588266373 0.065111167728900909 0.050426557660102844
0.19556556642055511 0.067206330597400665 0.04987049475312233
0.28905564546585083 0.063951827585697174 0.045510176569223404
0.40974533557891846 0.041183486580848694 0.040653828531503677
0.53552311658859253 0.011894255876541138 0.02927081473171711
0.66418153047561646 0.0071233711205422878 0.017760930582880974
0.77497893571853638 0.0084087895229458809 0.0073781781829893589
0.85903358459472656 0.0097243217751383781 0.0036237828899174929
0.93229198455810547 0.034816369414329529 0.0013796339044347405
0.98943567276000977 0.12274846434593201 0.0010907789692282677
1 0.20278628170490265 0
0.0095440130680799484 0.093330740928649902 0.060908179730176926
0.037083450704813004 0.097208671271800995 0.057539936155080795
0.1120508685708046 0.11275286227464676 0.051037043333053589
0.20165093243122101 0.10951238870620728 0.04476204514503479
0.3028048574924469 0.10494446009397507 0.041446805000305176
0.42247864603996277 0.095420241355895996 0.034269880503416061
0.54799288511276245 0.066302642226219177 0.022658359259366989
0.67259424924850464 0.041640952229499817 0.012015294283628464
0.77516800165176392 0.04143066331744194 0.0045061898417770863
0.85901725292205811 0.065835259854793549 0.0032036127522587776
0.9314429759979248 0.11337277293205261 0.00090988760348409414
0.98644918203353882 0.182808518409729 0.0014910380123183131
0.99918770790100098 0.24059179425239563 0.0005320530035533011
0.010683516040444374 0.14098836481571198 0.073977530002593994
0.034561172127723694 0.14943911135196686 0.069248989224433899
0.098724156618118286 0.16198457777500153 0.057858679443597794
0.20598849654197693 0.17434005439281464 0.040563218295574188
0.3181033730506897 0.16973064839839935 0.029023623093962669
0.4364265501499176 0.16165804862976074 0.020471654832363129
0.56751531362533569 0.15796105563640594 0.011126140132546425
0.68172037601470947 0.1534220278263092 0.0037686068098992109
0.77424019575119019 0.15821970999240875 0.0037634158506989479
0.85682427883148193 0.17795866727828979 0.0039007000159472227
0.93243128061294556 0.2107728123664856 0.0030871373601257801
0.98815590143203735 0.24964822828769684 0.0018895018147304654
0.99799185991287231 0.29342538118362427 0.0017467573052272201
0.0068407994695007801 0.20795884728431702 0.092302702367305756
0.020952561870217323 0.2128978967666626 0.090860806405544281
0.078355766832828522 0.22615668177604675 0.079533971846103668
0.19413702189922333 0.26270422339439392 0.046074002981185913
0.34739357233047485 0.29528981447219849 0.012828183360397816
0.47120881080627441 0.28080734610557556 0.0070452373474836349
0.58045727014541626 0.26223582029342651 0.0049588372930884361
0.68060016632080078 0.25769984722137451 0.0037631765007972717
0.77325731515884399 0.263437420129776 0.0034003762993961573
0.85320907831192017 0.28397455811500549 0.0036900090053677559
0.92838233709335327 0.30626612901687622 0.0030039767734706402
0.9820631742477417 0.32719135284423828 0.002244418254122138
0.9941365122795105 0.36033234000205994 0.0019422045443207026
0.0031709559261798859 0.29591399431228638 0.11932848393917084
0.0060019548982381821 0.29987612366676331 0.11793335527181625
0.051777560263872147 0.31424900889396667 0.10965722799301147
0.16465643048286438 0.34962087869644165 0.080158695578575134
0.32660979032516479 0.40042987465858459 0.02412923239171505
0.50203412771224976 0.43810975551605225 0.0032895705662667751
0.61193650960922241 0.42195245623588562 0.0024699789937585592
0.69317460060119629 0.38635185360908508 0.0017664441838860512
0.77239501476287842 0.3640497624874115 0.0012467477936297655
0.84738892316818237 0.37411844730377197 0.0024672863073647022
0.91976809501647949 0.39188823103904724 0.0032442130614072084
0.97340589761734009 0.41000276803970337 0.0022459740284830332
0.99053466320037842 0.43038666248321533 0.0020872827153652906
0.0034506553784012794 0.39672353863716125 0.1499485969543457
0.0062830904498696327 0.39986529946327209 0.15057873725891113
0.030073981732130051 0.40803235769271851 0.1467210054397583
0.14289562404155731 0.43472379446029663 0.13060341775417328
0.28732031583786011 0.47493976354598999 0.075484588742256165
0.45438981056213379 0.52506595849990845 0.018372120335698128
0.61972314119338989 0.55871772766113281 0.0027000575792044401
0.71945095062255859 0.53679496049880981 0.00013282625877764076
0.78789174556732178 0.50113177299499512 0.0012406143359839916
0.85036879777908325 0.48485210537910461 0.0019285912858322263
0.91535025835037231 0.47955137491226196 0.0029536676593124866
0.96808391809463501 0.48678341507911682 0.00077468273229897022
0.98870956897735596 0.49889141321182251 0.00026903339312411845
0.0035902734380215406 0.49115917086601257 0.18923200666904449
0.0069725485518574715 0.49586525559425354 0.19439570605754852
0.032004877924919128 0.50002521276473999 0.19410166144371033
0.14564499258995056 0.51409876346588135 0.18761023879051208
0.27076196670532227 0.54152822494506836 0.16178563237190247
0.40985101461410522 0.58130967617034912 0.10358967632055283
0.56164532899856567 0.62039762735366821 0.036012925207614899
0.71471208333969116 0.65232926607131958 0.0045263553038239479
0.80797111988067627 0.64315962791442871 0.001141970744356513
0.86517626047134399 0.61717391014099121 0.0023786956444382668
0.9223254919052124 0.59104907512664795 0.0038584391586482525
0.96639442443847656 0.57141405344009399 0.0028651668690145016
0.99095278978347778 0.56832605600357056 0
0.0087318569421768188 0.58013457059860229 0.24669614434242249
0.023021457716822624 0.58363974094390869 0.24985840916633606
0.097291521728038788 0.58278161287307739 0.25244235992431641
0.19455462694168091 0.58762162923812866 0.25125566124916077
0.28827130794525146 0.60375106334686279 0.24112363159656525
0.4008229672908783 0.634857177734375 0.21287178993225098
0.51984673738479614 0.66600751876831055 0.16946627199649811
0.65714889764785767 0.69719576835632324 0.10081758350133896
0.78946733474731445 0.72799307107925415 0.036222495138645172
0.87995690107345581 0.72969305515289307 0.0074882656335830688
0.93281829357147217 0.70437026023864746 0.0039734784513711929
0.97217333316802979 0.678874671459198 0.0030065500177443027
0.99487835168838501 0.65623879432678223 0.00074561621295288205
0.106963150203228 0.65968841314315796 0.31696167588233948
0.14902232587337494 0.66075080633163452 0.32520461082458496
0.20785069465637207 0.65718811750411987 0.32737869024276733
0.27053102850914001 0.65662717819213867 0.32520464062690735
0.33515352010726929 0.66501295566558838 0.32020598649978638
0.42473521828651428 0.68888312578201294 0.30657491087913513
0.5169677734375 0.71362113952636719 0.28641694784164429
0.62617695331573486 0.73983824253082275 0.25409111380577087
0.74201864004135132 0.76655912399291992 0.21018390357494354
0.85359567403793335 0.79374563694000244 0.1512112021446228
0.93765354156494141 0.79989463090896606 0.086352363228797913
0.98327517509460449 0.77918213605880737 0.035069949924945831
0.99953764677047729 0.75662398338317871 0.010366133414208889
0.25717341899871826 0.72723567485809326 0.40802988409996033
0.28501623868942261 0.72923731803894043 0.40795964002609253
0.32204046845436096 0.72993117570877075 0.40786603093147278
0.36127355694770813 0.7287939190864563 0.40605607628822327
0.40726378560066223 0.7307809591293335 0.40727326273918152
0.46552461385726929 0.74304842948913574 0.40241581201553345
0.53935724496841431 0.76348698139190674 0.39105245471000671
0.62471973896026611 0.78469759225845337 0.38007092475891113
0.72069358825683594 0.80591177940368652 0.35858538746833801
0.8143731951713562 0.82935160398483276 0.34007316827774048
0.90777873992919922 0.8521571159362793 0.31209087371826172
0.97605788707733154 0.85718035697937012 0.26548570394515991
0.99823671579360962 0.84171682596206665 0.19758431613445282
0.40982013940811157 0.79510414600372314 0.50370246171951294
0.41797763109207153 0.79641413688659668 0.49738201498985291
0.43798044323921204 0.79724991321563721 0.49630820751190186
0.46620035171508789 0.79601269960403442 0.50045448541641235
0.49781936407089233 0.79582655429840088 0.50127971172332764
0.53492802381515503 0.80140751600265503 0.50038343667984009
0.58797299861907959 0.81427407264709473 0.49805089831352234
0.65392220020294189 0.8302491307258606 0.49144303798675537
0.72619068622589111 0.84790897369384766 0.48552119731903076
0.79722434282302856 0.86561572551727295 0.47739958763122559
0.8697848916053772 0.88224142789840698 0.46183082461357117
0.94339299201965332 0.89825308322906494 0.44338893890380859
0.98913252353668213 0.90188467502593994 0.42209902405738831
0.549335777759552 0.85620546340942383 0.60619419813156128
0.5519365668296814 0.85696965456008911 0.60046076774597168
0.56113535165786743 0.85668551921844482 0.59984666109085083
0.58509105443954468 0.85657960176467896 0.60575515031814575
0.60802716016769409 0.85659778118133545 0.60935831069946289
0.63023853302001953 0.85910409688949585 0.61048883199691772
0.66301900148391724 0.86629348993301392 0.60899645090103149
0.70571881532669067 0.87852919101715088 0.60361707210540771
0.7529938817024231 0.89174288511276245 0.60195839405059814
0.80385375022888184 0.90416574478149414 0.59906226396560669
0.85802751779556274 0.91476863622665405 0.59064280986785889
0.91169470548629761 0.92461234331130981 0.57904726266860962
0.96618443727493286 0.93602561950683594 0.5699889063835144
0.67927128076553345 0.91532576084136963 0.7075117826461792
0.67953842878341675 0.91428530216217041 0.70672082901000977
0.68855088949203491 0.91530370712280273 0.70950186252593994
0.70187145471572876 0.91576898097991943 0.71212834119796753
0.71652352809906006 0.91581690311431885 0.71551012992858887
0.73069745302200317 0.91472434997558594 0.71608608961105347
0.74788373708724976 0.91664481163024902 0.71874576807022095
0.77533304691314697 0.92451202869415283 0.71650528907775879
0.80278861522674561 0.93225938081741333 0.71318399906158447
0.83597856760025024 0.9405587911605835 0.71297860145568848
0.86855155229568481 0.9459761381149292 0.70838576555252075
0.90826547145843506 0.9533088207244873 0.70131582021713257
0.9448058009147644 0.95918381214141846 0.69525277614593506
0.014671475626528263 0.061719782650470734 0.083965703845024109
0.049068674445152283 0.065079435706138611 0.083395697176456451
0.10923098027706146 0.066955626010894775 0.0816168412566185
0.19290836155414581 0.064004965126514435 0.080955386161804199
0.29556724429130554 0.05515829473733902 0.082101605832576752
0.41439381241798401 0.036714754998683929 0.081440702080726624
0.53950458765029907 0.016867529600858688 0.075131222605705261
0.6673893928527832 0.010925172828137875 0.065550453960895538
0.77381342649459839 0.010224600322544575 0.051400218158960342
0.85900211334228516 0.0089777931571006775 0.034525986760854721
0.93128371238708496 0.042748980224132538 0.022802943363785744
0.98880934715270996 0.1304856538772583 0.011549497023224831
0.99975693225860596 0.20556390285491943 0.0064761890098452568
0.010203476995229721 0.096159897744655609 0.09303022176027298
0.042464133352041245 0.10429949313402176 0.094410344958305359
0.10877829045057297 0.11160176247358322 0.089886218309402466
0.20382218062877655 0.11019574105739594 0.084917493164539337
0.3105197548866272 0.10407818108797073 0.084500029683113098
0.42682945728302002 0.095391549170017242 0.081449441611766815
0.55258649587631226 0.07141132652759552 0.072958894073963165
0.67491012811660767 0.045630704611539841 0.058900453150272369
0.77569794654846191 0.046419434249401093 0.0414542555809021
0.85802406072616577 0.068620182573795319 0.027728002518415451
0.92827099561691284 0.11758443713188171 0.018254462629556656
0.98764318227767944 0.18293221294879913 0.0094569036737084389
0.99958807229995728 0.24218064546585083 0.0060234670527279377
0.016015550121665001 0.15259042382240295 0.10971760749816895
0.045550912618637085 0.16042517125606537 0.10738904029130936
0.1080823689699173 0.17022727429866791 0.10386964678764343
0.20887060463428497 0.17589767277240753 0.092886276543140411
0.32513564825057983 0.16921325027942657 0.07765592634677887
0.4460805356502533 0.16589367389678955 0.067683592438697815
0.57130926847457886 0.16199466586112976 0.056697756052017212
0.6840440034866333 0.15679657459259033 0.042275611311197281
0.77863287925720215 0.15982313454151154 0.02621166780591011
0.85738331079483032 0.18110786378383636 0.021038219332695007
0.92893975973129272 0.21570563316345215 0.015594571828842163
0.98768919706344604 0.25030669569969177 0.0072373333387076855
0.99924206733703613 0.29229068756103516 0.0073427688330411911
0.01623586006462574 0.22298289835453033 0.12597803771495819
0.044671494513750076 0.22418612241744995 0.12450549751520157
0.10447899252176285 0.23345708847045898 0.11967866122722626
0.20483364164829254 0.2629455029964447 0.099490821361541748
0.34875494241714478 0.28619468212127686 0.060229148715734482
0.47437611222267151 0.27668496966362 0.041161257773637772
0.58189874887466431 0.26379293203353882 0.03106638602912426
0.68383604288101196 0.26123696565628052 0.019987532868981361
0.77788221836090088 0.2644314169883728 0.0099757025018334389
0.85733556747436523 0.28096678853034973 0.011489269323647022
0.92826706171035767 0.30351394414901733 0.0092133320868015289
0.98284709453582764 0.32675698399543762 0.0056872647255659103
0.99655824899673462 0.35527729988098145 0.0055785533040761948
0.0049207797273993492 0.31308525800704956 0.15322732925415039
0.02190837450325489 0.31461194157600403 0.15194225311279297
0.090423956513404846 0.32381322979927063 0.14825545251369476
0.18936513364315033 0.35347384214401245 0.13007374107837677
0.34109252691268921 0.40057173371315002 0.074306100606918335
0.50322431325912476 0.43450626730918884 0.020913517102599144
0.61063539981842041 0.41644960641860962 0.011534776538610458
0.69451606273651123 0.3817596435546875 0.0083372974768280983
0.77473592758178711 0.36527812480926514 0.006865273229777813
0.85238045454025269 0.3722417950630188 0.007843017578125
0.92326068878173828 0.38880091905593872 0.0068932026624679565
0.97562706470489502 0.40752175450325012 0.0060953325591981411
0.9925723671913147 0.42907565832138062 0.0047517064958810806
0.005960516631603241 0.41447198390960693 0.19068492949008942
0.011838052421808243 0.41586476564407349 0.18666797876358032
0.066481240093708038 0.42102977633476257 0.18297381699085236
0.173426553606987 0.44315049052238464 0.17052052915096283
0.29989182949066162 0.47607213258743286 0.13377253711223602
0.46177175641059875 0.52392160892486572 0.06502164900302887
0.62448394298553467 0.55786263942718506 0.013744129799306393
0.72149747610092163 0.53445088863372803 0.0039892010390758514
0.7867511510848999 0.49685081839561462 0.0068745631724596024
0.85173904895782471 0.48061636090278625 0.0073557686991989613
0.91786056756973267 0.47505515813827515 0.0049037709832191467
0.96981173753738403 0.48180282115936279 0.003031756728887558
0.98958033323287964 0.49654161930084229 0.0021204331424087286
0.0052290675230324268 0.50390028953552246 0.22838644683361053
0.013814664445817471 0.50929886102676392 0.22844105958938599
0.077729262411594391 0.51163965463638306 0.23071347177028656
0.17848207056522369 0.51843100786209106 0.2271462082862854
0.29081398248672485 0.5410727858543396 0.21044822037220001
0.42240199446678162 0.58022487163543701 0.16350944340229034
0.56902027130126953 0.6197550892829895 0.097904667258262634
0.71659284830093384 0.65077537298202515 0.031298186630010605
0.80759161710739136 0.6386106014251709 0.010527053847908974
0.86665081977844238 0.61122506856918335 0.0078606102615594864
0.92235541343688965 0.58190691471099854 0.0052901622839272022
0.96852660179138184 0.56067192554473877 0.001368100056424737
0.99169152975082397 0.5646672248840332 0.00036989100044593215
0.027388988062739372 0.58513021469116211 0.27251341938972473
0.068596810102462769 0.59080564975738525 0.28017356991767883
0.14422112703323364 0.58927536010742188 0.28539440035820007
0.22361542284488678 0.588947594165802 0.2862495481967926
0.30884301662445068 0.60258185863494873 0.27890390157699585
0.41013830900192261 0.63311302661895752 0.25504136085510254
0.52714115381240845 0.66445362567901611 0.21937035024166107
0.66029483079910278 0.69702625274658203 0.16357506811618805
0.79240328073501587 0.72848618030548096 0.091010913252830505
0.88000667095184326 0.72649520635604858 0.037165682762861252
0.93299287557601929 0.69908899068832397 0.01352583896368742
0.97492092847824097 0.67343771457672119 0.0043188207782804966
0.99694359302520752 0.65264415740966797 0.0018406587187200785
0.15042532980442047 0.66145718097686768 0.33906435966491699
0.19313052296638489 0.66215473413467407 0.34539088606834412
0.23993866145610809 0.66040098667144775 0.34785765409469604
0.29285767674446106 0.65790128707885742 0.34876444935798645
0.35047590732574463 0.66502285003662109 0.34671390056610107
0.4289347231388092 0.68686246871948242 0.33668845891952515
0.5249754786491394 0.71221911907196045 0.31609538197517395
0.62669664621353149 0.73829501867294312 0.29263660311698914
0.74420160055160522 0.76768314838409424 0.25771808624267578
0.85537314414978027 0.79452508687973022 0.21778762340545654
0.93559247255325317 0.79773235321044922 0.15129241347312927
0.98196804523468018 0.7763984203338623 0.076949864625930786
0.99968469142913818 0.75421500205993652 0.029029441997408867
0.28329735994338989 0.72881275415420532 0.42178326845169067
0.31357374787330627 0.72895950078964233 0.42664024233818054
0.34149450063705444 0.72933721542358398 0.42798787355422974
0.37815070152282715 0.72754108905792236 0.42591205239295959
0.4228462278842926 0.73151671886444092 0.42438480257987976
0.47604337334632874 0.74287915229797363 0.42194506525993347
0.55623549222946167 0.76294940710067749 0.41045272350311279
0.63169693946838379 0.78368991613388062 0.4027288556098938
0.72406160831451416 0.80703943967819214 0.39131104946136475
0.8181837797164917 0.83038628101348877 0.372385174036026
0.91172212362289429 0.85374855995178223 0.34742850065231323
0.97466874122619629 0.85605955123901367 0.30915281176567078
0.99542450904846191 0.83707356452941895 0.2447672039270401
0.41990643739700317 0.79737639427185059 0.51144391298294067
0.43579533696174622 0.79700559377670288 0.51405692100524902
0.4533180296421051 0.79679793119430542 0.51438915729522705
0.4743838906288147 0.79665762186050415 0.51147878170013428
0.50761163234710693 0.79783064126968384 0.51166671514511108
0.54579907655715942 0.80329781770706177 0.51136726140975952
0.59397828578948975 0.81550294160842896 0.51011031866073608
0.65768074989318848 0.83125704526901245 0.50877517461776733
0.72424507141113281 0.84867483377456665 0.50711625814437866
0.79778659343719482 0.86518263816833496 0.49846890568733215
0.87437659502029419 0.88281416893005371 0.48345571756362915
0.94703680276870728 0.89752209186553955 0.46797651052474976
0.9854276180267334 0.89724051952362061 0.44333657622337341
0.55304443836212158 0.85852468013763428 0.61091631650924683
0.56379526853561401 0.85973501205444336 0.61406272649765015
0.57593953609466553 0.85865944623947144 0.61443024873733521
0.5882914662361145 0.85637342929840088 0.61277902126312256
0.60902631282806396 0.85703521966934204 0.61348181962966919
0.63877934217453003 0.86149591207504272 0.61361145973205566
0.66659319400787354 0.86678826808929443 0.61542099714279175
0.71027499437332153 0.87758320569992065 0.61606377363204956
0.75545191764831543 0.89090389013290405 0.61488264799118042
0.80442768335342407 0.90315312147140503 0.61145102977752686
0.85993224382400513 0.91354119777679443 0.60304147005081177
0.91621392965316772 0.92345184087753296 0.59031552076339722
0.96497935056686401 0.93294572830200195 0.58383971452713013
0.68090969324111938 0.91606777906417847 0.71193641424179077
0.6860535740852356 0.91546881198883057 0.71395695209503174
0.69260996580123901 0.91455280780792236 0.7145962119102478
0.70124834775924683 0.91501587629318237 0.71611005067825317
0.71646285057067871 0.91441875696182251 0.71765244007110596
0.73418301343917847 0.91539543867111206 0.71891456842422485
0.75278979539871216 0.9173552393913269 0.72343999147415161
0.77892279624938965 0.92330765724182129 0.72365057468414307
0.80702537298202515 0.9317251443862915 0.72232621908187866
0.83648902177810669 0.93854069709777832 0.71653729677200317
0.8693922758102417 0.94462209939956665 0.71052038669586182
0.90610116720199585 0.95200270414352417 0.70568525791168213
0.94244074821472168 0.95960104465484619 0.70397984981536865
0.015300017781555653 0.067135423421859741 0.13634763658046722
0.052500106394290924 0.070481397211551666 0.133191779255867
0.10809315741062164 0.072634272277355194 0.12879477441310883
0.18653586506843567 0.073627933859825134 0.131297767162323
0.29036051034927368 0.063824012875556946 0.13729749619960785
0.41080999374389648 0.025709323585033417 0.13529613614082336
0.54655033349990845 0.012494419701397419 0.13424332439899445
0.67440485954284668 0.0088651468977332115 0.13066594302654266
0.77661621570587158 0.01025809533894062 0.12654967606067657
0.85934197902679443 0.021418267861008644 0.12244886159896851
0.93075132369995117 0.076401606202125549 0.11334913969039917
0.98510611057281494 0.15654544532299042 0.10161292552947998
0.99875044822692871 0.22340862452983856 0.090726234018802643
0.0089681586250662804 0.1020280122756958 0.14176672697067261
0.044995296746492386 0.10687701404094696 0.14185921847820282
0.11473704129457474 0.11391036212444305 0.14060285687446594
0.20197080075740814 0.11561375111341476 0.1411716639995575
0.30639764666557312 0.10966701060533524 0.1414482593536377
0.43066245317459106 0.08192984014749527 0.13967248797416687
0.56161683797836304 0.064237482845783234 0.14008529484272003
0.68133705854415894 0.061093796044588089 0.13808037340641022
0.77844280004501343 0.070935100317001343 0.13059261441230774
0.85860222578048706 0.10071142017841339 0.12090430408716202
0.92845374345779419 0.15118245780467987 0.10970515757799149
0.98481053113937378 0.20400653779506683 0.092829793691635132
0.99763363599777222 0.2567048966884613 0.07765275239944458
0.010359819978475571 0.15794464945793152 0.14965242147445679
0.045009329915046692 0.16453497111797333 0.15513865649700165
0.12145761400461197 0.17816516757011414 0.1573006808757782
0.21414349973201752 0.18167729675769806 0.15294501185417175
0.32939806580543518 0.17345473170280457 0.14274966716766357
0.45554783940315247 0.17045792937278748 0.14116023480892181
0.579426109790802 0.16715799272060394 0.13797794282436371
0.68852227926254272 0.16754728555679321 0.12764638662338257
0.78064626455307007 0.17601755261421204 0.11472868174314499
0.85759121179580688 0.19804759323596954 0.10634458810091019
0.92723435163497925 0.22880479693412781 0.094961129128932953
0.98651432991027832 0.26262116432189941 0.076948516070842743
0.99769717454910278 0.3011622428894043 0.068397060036659241
0.024078624323010445 0.23124846816062927 0.16623751819133759
0.068291142582893372 0.23775067925453186 0.17080672085285187
0.12827049195766449 0.24995516240596771 0.17304924130439758
0.22068281471729279 0.26244482398033142 0.16537335515022278
0.35547205805778503 0.27699029445648193 0.14803831279277802
0.480080246925354 0.27365455031394958 0.13016477227210999
0.58935976028442383 0.26938304305076599 0.11817243695259094
0.68894052505493164 0.27031686902046204 0.10015469789505005
0.77912420034408569 0.2737794816493988 0.090317204594612122
0.85825145244598389 0.28562656044960022 0.074083365499973297
0.92730975151062012 0.30724820494651794 0.066889025270938873
0.98554748296737671 0.32892361283302307 0.054412811994552612
0.99703681468963623 0.35792699456214905 0.050286624580621719
0.025216106325387955 0.33070552349090576 0.20001959800720215
0.075259700417518616 0.33686095476150513 0.2072768360376358
0.13751368224620819 0.33866026997566223 0.20715788006782532
0.21637643873691559 0.35577273368835449 0.19843639433383942
