luts/negative_old/fuji_superia_100_++.cube
# Created by: G'MIC (https://gmic.eu)
TITLE "fuji_superia_100_++"
# LUT size
LUT_3D_SIZE 5
# Data domain
DOMAIN_MIN 0.0 0.0 0.0
DOMAIN_MAX 1.0 1.0 1.0
# LUT data points
0.052175797522068024 0.09988943487405777 0.1054241731762886
0.19066433608531952 0.10131005942821503 0.096568822860717773
0.50268912315368652 0.11133014410734177 0.062898300588130951
0.7965654730796814 0.14652073383331299 0.005616416223347187
0.99109292030334473 0.20554056763648987 0.0021567102521657944
0.0033010444603860378 0.26240617036819458 0.1085263267159462
0.16742286086082458 0.26698005199432373 0.090593136847019196
0.56364494562149048 0.32052233815193176 0.010828115046024323
0.81895500421524048 0.3292088508605957 0.0092657050117850304
0.99281257390975952 0.3507617712020874 0.0023284314665943384
0 0.62179148197174072 0.177569180727005
0.0046425163745880127 0.62493693828582764 0.16710560023784637
0.51975971460342407 0.59549409151077271 0.054551802575588226
0.8304368257522583 0.58404946327209473 0.0067504732869565487
0.99805676937103271 0.56793296337127686 0.00064077938441187143
0.0048400131054222584 0.85242927074432373 0.44435527920722961
0.095945008099079132 0.85310190916061401 0.44478407502174377
0.45686334371566772 0.83546382188796997 0.40900436043739319
0.7604709267616272 0.81166136264801025 0.29236641526222229
0.99366366863250732 0.80344277620315552 0.1797940582036972
0.54518884420394897 0.98720049858093262 0.70788615942001343
0.56835603713989258 0.98251461982727051 0.70775371789932251
0.63882452249526978 0.98639172315597534 0.71255064010620117
0.75434643030166626 0.98068928718566895 0.676261305809021
0.91618466377258301 0.97647780179977417 0.63160532712936401
0.017637515440583229 0.089031293988227844 0.26863428950309753
0.21704374253749847 0.077258989214897156 0.26195457577705383
0.53366386890411377 0.0082867192104458809 0.23850405216217041
0.80481231212615967 0.0083120157942175865 0.18216125667095184
0.99232804775238037 0.040560465306043625 0.14989437162876129
0.004003861453384161 0.26624703407287598 0.27298733592033386
0.22669582068920135 0.27711650729179382 0.28069162368774414
0.58163386583328247 0.26165458559989929 0.24048817157745361
0.82006651163101196 0.25980654358863831 0.19591028988361359
0.99034410715103149 0.28784951567649841 0.14660292863845825
0.090447321534156799 0.61586248874664307 0.41995328664779663
0.19259375333786011 0.6185309886932373 0.39213946461677551
0.56434601545333862 0.59396231174468994 0.32735291123390198
0.83294415473937988 0.57164222002029419 0.23988357186317444
0.99747848510742188 0.54790312051773071 0.16680489480495453
0.31193402409553528 0.84142273664474487 0.56455504894256592
0.3639431893825531 0.84064972400665283 0.55547547340393066
0.54142647981643677 0.83098161220550537 0.54473209381103516
0.77478951215744019 0.81476825475692749 0.46073150634765625
0.99153321981430054 0.80195492506027222 0.37554937601089478
0.61502033472061157 0.98213809728622437 0.75229310989379883
0.62884587049484253 0.98174893856048584 0.75122612714767456
0.68663090467453003 0.98003470897674561 0.75761842727661133
0.78135961294174194 0.9788891077041626 0.72543585300445557
0.92520469427108765 0.97609859704971313 0.68403244018554688
0.0052045038901269436 0.02832692489027977 0.63774293661117554
0.28551548719406128 0.0049788081087172031 0.6259152889251709
0.61127030849456787 0.0038928312715142965 0.60867077112197876
0.83703517913818359 0.0070607950910925865 0.53047639131546021
0.99483340978622437 0.0055720610544085503 0.45714589953422546
0.0074704037979245186 0.27604255080223083 0.63495141267776489
0.23094063997268677 0.27232882380485535 0.63397157192230225
0.60690999031066895 0.26955112814903259 0.60782164335250854
0.83176755905151367 0.28041952848434448 0.53365552425384521
0.9972686767578125 0.18323309719562531 0.45809829235076904
0.090216964483261108 0.60565054416656494 0.62297457456588745
0.36123040318489075 0.59534925222396851 0.62499368190765381
0.59800797700881958 0.58528101444244385 0.60827326774597168
0.81989866495132446 0.548561692237854 0.55147498846054077
0.9934077262878418 0.50808870792388916 0.49919819831848145
0.53830170631408691 0.8213496208190918 0.72318655252456665
0.59662508964538574 0.82552516460418701 0.72494608163833618
0.66311848163604736 0.82730257511138916 0.71295827627182007
0.80767083168029785 0.80763238668441772 0.65852808952331543
0.98586529493331909 0.79203611612319946 0.59664618968963623
0.74246793985366821 0.97298091650009155 0.84361433982849121
0.75106221437454224 0.97475349903106689 0.84183549880981445
0.77112883329391479 0.97621065378189087 0.835318922996521
0.83113676309585571 0.9751240611076355 0.81575870513916016
0.94421577453613281 0.97596949338912964 0.77667081356048584
0.0028321659192442894 0.0030355267226696014 0.87152683734893799
0.29260692000389099 0.0081190522760152817 0.86753910779953003
0.59969133138656616 0.0082651926204562187 0.86056298017501831
0.85808330774307251 0.015045030973851681 0.84378719329833984
0.99797403812408447 0.23517216742038727 0.78113842010498047
0.0084625091403722763 0.27181658148765564 0.86934041976928711
0.27739498019218445 0.27226179838180542 0.86550068855285645
0.6038668155670166 0.2850114107131958 0.85513138771057129
0.85093152523040771 0.3345673680305481 0.83822482824325562
0.99519318342208862 0.40494093298912048 0.78591334819793701
0.02993367426097393 0.56715583801269531 0.85161346197128296
0.33138099312782288 0.57281213998794556 0.84618335962295532
0.60806852579116821 0.5789986252784729 0.83505964279174805
0.83871239423751831 0.59524476528167725 0.82772690057754517
0.98740923404693604 0.59738856554031372 0.78502559661865234
0.48725464940071106 0.81654667854309082 0.8422815203666687
0.56061887741088867 0.81755882501602173 0.84853118658065796
0.68370169401168823 0.81111031770706177 0.84803444147109985
0.83391553163528442 0.80706334114074707 0.83873659372329712
0.98652034997940063 0.77100902795791626 0.78138941526412964
0.78441727161407471 0.97119241952896118 0.9094775915145874
0.80635082721710205 0.97194236516952515 0.91063171625137329
0.84925878047943115 0.97083187103271484 0.91501569747924805
0.89500665664672852 0.97413712739944458 0.91240715980529785
0.9674028754234314 0.97582167387008667 0.88676989078521729
0.1282307505607605 0.016327248886227608 0.99648630619049072
0.32761895656585693 0.021761860698461533 0.99746793508529663
0.56711369752883911 0.082280449569225311 0.99311459064483643
0.79708147048950195 0.24257905781269073 0.98288160562515259
0.98858267068862915 0.374583899974823 0.98782908916473389
0.18792782723903656 0.29407671093940735 0.99629837274551392
0.36147880554199219 0.30489221215248108 0.98821473121643066
0.58386576175689697 0.33984225988388062 0.98773360252380371
0.80747205018997192 0.41876024007797241 0.98670810461044312
0.99035847187042236 0.48472863435745239 0.98803848028182983
0.34122997522354126 0.56780672073364258 0.99033516645431519
0.45486035943031311 0.57627332210540771 0.98384362459182739
0.62653195858001709 0.58101511001586914 0.98288851976394653
0.82419681549072266 0.62049829959869385 0.9812738299369812
0.98407411575317383 0.6619257926940918 0.97536295652389526
0.46627604961395264 0.77653294801712036 0.98116695880889893
0.52670657634735107 0.77129471302032471 0.98090243339538574
0.66331630945205688 0.78686481714248657 0.97723239660263062
0.83972060680389404 0.81527996063232422 0.97585070133209229
0.98280024528503418 0.83549678325653076 0.97518926858901978
0.74968284368515015 0.97039449214935303 0.98234373331069946
0.7738109827041626 0.97102755308151245 0.98299700021743774
0.83311760425567627 0.96757966279983521 0.98328971862792969
0.90654051303863525 0.97117692232131958 0.98311048746109009
0.98342525959014893 0.97364729642868042 0.9794309139251709
