luts/negative_old/fuji_superia_800_+.cube
# Created by: G'MIC (https://gmic.eu)
TITLE "fuji_superia_800_+"
# LUT size
LUT_3D_SIZE 7
# Data domain
DOMAIN_MIN 0.0 0.0 0.0
DOMAIN_MAX 1.0 1.0 1.0
# LUT data points
0.012932511977851391 0.10374778509140015 0.10141137987375259
0.095999427139759064 0.10642704367637634 0.10193067044019699
0.25237593054771423 0.10447314381599426 0.10377535223960876
0.45445621013641357 0.10369099676609039 0.086483538150787354
0.68399667739868164 0.061806712299585342 0.053454618901014328
0.87075996398925781 0.063654989004135132 0.015846356749534607
0.99544912576675415 0.15140661597251892 2.5850184101727791e-05
0.00046380734420381486 0.17596355080604553 0.10648816823959351
0.071666955947875977 0.18791884183883667 0.10163622349500656
0.26779976487159729 0.1925666332244873 0.092401690781116486
0.48747986555099487 0.1922161728143692 0.083257280290126801
0.69998180866241455 0.18570023775100708 0.048582669347524643
0.87237215042114258 0.19800128042697906 0.0096412207931280136
0.99374443292617798 0.24719260632991791 0.00031002270407043397
6.3907398725859821e-05 0.37636491656303406 0.13810086250305176
0.0099296867847442627 0.38483390212059021 0.12287750095129013
0.29849207401275635 0.4067571759223938 0.057324115186929703
0.56162786483764648 0.39532193541526794 0.027439611032605171
0.73139375448226929 0.35843881964683533 0.033270321786403656
0.88636976480484009 0.36841192841529846 0.0072054094634950161
0.99397629499435425 0.39098241925239563 0.0047548180446028709
0.0016497144242748618 0.60917103290557861 0.18252098560333252
0.0063495561480522156 0.6148332953453064 0.18389956653118134
0.27929040789604187 0.61783057451248169 0.12968018651008606
0.58145308494567871 0.6227155327796936 0.021282659843564034
0.79237622022628784 0.60502028465270996 0.002600501524284482
0.90946686267852783 0.55428022146224976 0.0042055915109813213
0.99871891736984253 0.54874026775360107 0.011446290649473667
0.059698592871427536 0.78308504819869995 0.31099799275398254
0.17410241067409515 0.78184860944747925 0.31123760342597961
0.38083741068840027 0.77493751049041748 0.30060148239135742
0.58015483617782593 0.77390563488006592 0.24156494438648224
0.77500021457672119 0.77394378185272217 0.11639855802059174
0.93890446424484253 0.76779294013977051 0.011459230445325375
0.99696505069732666 0.7348443865776062 0.075791545212268829
0.48491138219833374 0.88784432411193848 0.51638960838317871
0.51555192470550537 0.88495939970016479 0.51688426733016968
0.58172667026519775 0.88253486156463623 0.51391535997390747
0.67128103971481323 0.88321119546890259 0.49678263068199158
0.78244417905807495 0.88309407234191895 0.43641826510429382
0.90385991334915161 0.88076543807983398 0.35048767924308777
0.99430179595947266 0.88593465089797974 0.27064898610115051
0.70551341772079468 0.95763528347015381 0.70145177841186523
0.71831554174423218 0.95466160774230957 0.70080465078353882
0.74257802963256836 0.95314419269561768 0.70211857557296753
0.78094083070755005 0.95590478181838989 0.70500236749649048
0.83012038469314575 0.95847594738006592 0.68662989139556885
0.89343523979187012 0.95707231760025024 0.64674830436706543
0.96501314640045166 0.96132540702819824 0.6008681058883667
0.010101737454533577 0.10406225174665451 0.16482503712177277
0.087093070149421692 0.10948948562145233 0.16729219257831573
0.24839955568313599 0.09831344336271286 0.15960028767585754
0.46651393175125122 0.047705076634883881 0.14638940989971161
0.68455368280410767 0.023757575079798698 0.1372486799955368
0.86831021308898926 0.026426427066326141 0.11163841933012009
0.98610454797744751 0.11340998858213425 0.0595424585044384
0.00027043960290029645 0.17612242698669434 0.18516494333744049
0.084548220038414001 0.18510739505290985 0.18233057856559753
0.27844753861427307 0.18351982533931732 0.17384934425354004
0.49930226802825928 0.18052805960178375 0.16408015787601471
0.69974493980407715 0.16105508804321289 0.14706107974052429
0.87445491552352905 0.17190608382225037 0.11088503897190094
0.99106156826019287 0.23222747445106506 0.059796277433633804
0.0042051877826452255 0.36863765120506287 0.21986925601959229
0.034422315657138824 0.3768564760684967 0.22043278813362122
0.31499385833740234 0.3929714560508728 0.19290275871753693
0.54558795690536499 0.37481513619422913 0.16312101483345032
0.72734087705612183 0.35317116975784302 0.15935526788234711
0.88315129280090332 0.35748961567878723 0.12249127775430679
0.99532759189605713 0.38104310631752014 0.069257117807865143
0.0047641079872846603 0.60734909772872925 0.28631722927093506
0.026948906481266022 0.61425262689590454 0.27940216660499573
0.32304078340530396 0.61014074087142944 0.26326397061347961
0.59125113487243652 0.60951483249664307 0.17564651370048523
0.78454923629760742 0.59459084272384644 0.11949055641889572
0.90750956535339355 0.55123353004455566 0.15052920579910278
0.98843562602996826 0.54458284378051758 0.14621885120868683
0.18691080808639526 0.77703320980072021 0.38970077037811279
0.2906239926815033 0.77604770660400391 0.39497357606887817
0.43320128321647644 0.77138990163803101 0.39060568809509277
0.60287564992904663 0.77100241184234619 0.34964606165885925
0.78623563051223755 0.77023744583129883 0.25610867142677307
0.93404000997543335 0.76462680101394653 0.19430573284626007
0.99293988943099976 0.72608453035354614 0.22887174785137177
0.52899998426437378 0.88469147682189941 0.56653898954391479
0.55236011743545532 0.87954723834991455 0.56752610206604004
0.61516028642654419 0.87757605314254761 0.56726253032684326
0.68704706430435181 0.87980729341506958 0.54997402429580688
0.78772473335266113 0.87867206335067749 0.50544255971908569
0.9054754376411438 0.88092708587646484 0.43048563599586487
0.9929996132850647 0.88452470302581787 0.36516711115837097
0.72127240896224976 0.95481598377227783 0.72373032569885254
0.73121434450149536 0.9521145224571228 0.72385799884796143
0.75752592086791992 0.95261651277542114 0.72433781623840332
0.79065996408462524 0.95231717824935913 0.72839272022247314
0.83607560396194458 0.95459473133087158 0.70883429050445557
0.89495706558227539 0.95701068639755249 0.67730617523193359
0.96116858720779419 0.96019464731216431 0.63563507795333862
0.0073777441866695881 0.10394411534070969 0.28546711802482605
0.089805379509925842 0.11229738593101501 0.28940236568450928
0.24895501136779785 0.11814963817596436 0.29236960411071777
0.45959305763244629 0.10156966745853424 0.30049443244934082
0.69950038194656372 0.0088018830865621567 0.28440055251121521
0.88469493389129639 0.0031587039120495319 0.23793515563011169
0.99434900283813477 0.025747919455170631 0.22161373496055603
0.0036084940657019615 0.17229899764060974 0.30459368228912354
0.082333073019981384 0.18310539424419403 0.30796778202056885
0.27472743391990662 0.19780801236629486 0.31206947565078735
0.50033199787139893 0.18806411325931549 0.3120606541633606
0.71899348497390747 0.083957374095916748 0.27982154488563538
0.88696432113647461 0.083954319357872009 0.25016617774963379
0.99572265148162842 0.17777802050113678 0.23049405217170715
0.002285257913172245 0.35590839385986328 0.34683725237846375
0.085722170770168304 0.36133149266242981 0.35315126180648804
0.33392956852912903 0.36731633543968201 0.34901076555252075
0.5459129810333252 0.35192245244979858 0.32438117265701294
0.73076218366622925 0.33762165904045105 0.30715298652648926
0.88560062646865845 0.33550366759300232 0.27835077047348022
0.99503439664840698 0.36422351002693176 0.24754700064659119
0.1440807580947876 0.59741675853729248 0.43321874737739563
0.26268178224563599 0.59468233585357666 0.43259444832801819
0.39997667074203491 0.58896702527999878 0.41653528809547424
0.59460335969924927 0.59029471874237061 0.3777891993522644
0.76073247194290161 0.56528842449188232 0.34138849377632141
0.90282148122787476 0.54993993043899536 0.32583391666412354
0.99081778526306152 0.54320704936981201 0.3014121949672699
0.40307384729385376 0.76484787464141846 0.5302465558052063
0.43697550892829895 0.76605224609375 0.52613812685012817
0.52598363161087036 0.75542354583740234 0.52832823991775513
0.63510417938232422 0.75667315721511841 0.49654018878936768
0.79272711277008057 0.76106905937194824 0.44136819243431091
0.92411476373672485 0.747486412525177 0.40080618858337402
0.99352729320526123 0.72503924369812012 0.37898188829421997
0.60540437698364258 0.87404227256774902 0.65444684028625488
0.61754339933395386 0.8722236156463623 0.65202987194061279
0.66429048776626587 0.87357920408248901 0.65135747194290161
0.72184836864471436 0.8745497465133667 0.64730572700500488
0.79827100038528442 0.87566608190536499 0.61191368103027344
0.90769189596176147 0.87992846965789795 0.5558769702911377
0.98641830682754517 0.88264352083206177 0.51451271772384644
0.74952501058578491 0.9510962963104248 0.76170283555984497
0.76153498888015747 0.95004087686538696 0.76704144477844238
0.77802562713623047 0.95193326473236084 0.76558810472488403
0.80830442905426025 0.95197945833206177 0.7679399847984314
0.84847986698150635 0.95083057880401611 0.74959582090377808
0.90033954381942749 0.95554018020629883 0.7266918420791626
0.96342247724533081 0.96031564474105835 0.69906824827194214
0.011428563855588436 0.10724568367004395 0.44505494832992554
0.098432280123233795 0.10731623321771622 0.45120483636856079
0.29151007533073425 0.11091019958257675 0.46076285839080811
0.48403057456016541 0.10175894945859909 0.46239233016967773
0.68010812997817993 0.10666538029909134 0.47030609846115112
0.88065290451049805 0.099389709532260895 0.47404327988624573
0.99718499183654785 0.01857045479118824 0.4271787703037262
0.006754901260137558 0.17979162931442261 0.4638124406337738
0.085520215332508087 0.1869148463010788 0.47191956639289856
0.31455758213996887 0.19639894366264343 0.47900223731994629
0.50493919849395752 0.20917613804340363 0.47663372755050659
0.69919145107269287 0.2221253365278244 0.48401898145675659
0.88756930828094482 0.19604027271270752 0.47285157442092896
0.99921625852584839 0.076757378876209259 0.41998967528343201
0.002378186909481883 0.32065826654434204 0.4930698573589325
0.023793896660208702 0.3215726912021637 0.50104326009750366
0.32303351163864136 0.3480217456817627 0.50582194328308105
0.54006409645080566 0.37071183323860168 0.50287097692489624
0.72680723667144775 0.38183197379112244 0.50243425369262695
0.8935590386390686 0.33872923254966736 0.46051913499832153
0.996684730052948 0.30039787292480469 0.40885597467422485
0.059344392269849777 0.56524121761322021 0.55331134796142578
0.20143596827983856 0.56357347965240479 0.55793303251266479
0.41492408514022827 0.56071823835372925 0.55424124002456665
0.57316142320632935 0.55489373207092285 0.53288167715072632
0.74775081872940063 0.5493769645690918 0.51727211475372314
0.89904612302780151 0.52456927299499512 0.49425327777862549
0.99167674779891968 0.52891993522644043 0.45738989114761353
0.48423460125923157 0.75792676210403442 0.65219247341156006
0.51936078071594238 0.75292211771011353 0.6502690315246582
0.58550423383712769 0.74515819549560547 0.64267909526824951
0.66485726833343506 0.73880898952484131 0.63021773099899292
0.78980714082717896 0.7466086745262146 0.59623318910598755
0.91057294607162476 0.73464512825012207 0.56777465343475342
0.98806142807006836 0.71555215120315552 0.53863203525543213
0.67607337236404419 0.87292081117630005 0.74311333894729614
0.68798798322677612 0.8696969747543335 0.73968732357025146
0.71789705753326416 0.86840814352035522 0.73854219913482666
0.76090556383132935 0.86833685636520386 0.72994101047515869
0.82269585132598877 0.86741155385971069 0.71363717317581177
0.90825855731964111 0.87273776531219482 0.67794716358184814
0.98271018266677856 0.87064510583877563 0.6374133825302124
0.79156392812728882 0.94945234060287476 0.814048171043396
0.79459124803543091 0.94809085130691528 0.81318563222885132
0.80378693342208862 0.94642287492752075 0.80937033891677856
0.83055269718170166 0.94838488101959229 0.80803704261779785
0.86350381374359131 0.94986867904663086 0.80707591772079468
0.90972566604614258 0.95219194889068604 0.78657406568527222
0.96418601274490356 0.95800685882568359 0.7644425630569458
0.011760487221181393 0.10192178189754486 0.62896931171417236
0.13567326962947845 0.10329966992139816 0.62499427795410156
0.34774342179298401 0.10056836158037186 0.6350826621055603
0.52869910001754761 0.092501200735569 0.63555699586868286
0.70415806770324707 0.09328199177980423 0.64066046476364136
0.86454319953918457 0.16751912236213684 0.64893221855163574
0.98430794477462769 0.32595160603523254 0.66716879606246948
0.010098041966557503 0.17828735709190369 0.64123743772506714
0.15282386541366577 0.1811521053314209 0.64185029268264771
0.35901317000389099 0.18545551598072052 0.64609545469284058
0.54477226734161377 0.20265671610832214 0.63861262798309326
0.71587055921554565 0.22072212398052216 0.64563310146331787
0.86415386199951172 0.27981999516487122 0.65170919895172119
0.98615485429763794 0.39323246479034424 0.67306262254714966
0.0066161211580038071 0.29591938853263855 0.64676642417907715
0.099522188305854797 0.31009963154792786 0.65831208229064941
0.3450833261013031 0.33412596583366394 0.65463978052139282
0.55196785926818848 0.35548096895217896 0.64989578723907471
0.73059415817260742 0.38793987035751343 0.65394246578216553
0.87021934986114502 0.43057432770729065 0.66590839624404907
0.98227554559707642 0.48863160610198975 0.67675793170928955
0.0046190898865461349 0.49183043837547302 0.67268329858779907
0.036945030093193054 0.49237903952598572 0.67343705892562866
0.3083249032497406 0.48789864778518677 0.66913813352584839
0.55171436071395874 0.52145999670028687 0.67293381690979004
0.73625338077545166 0.55558758974075317 0.67795801162719727
0.87655848264694214 0.58256417512893677 0.68471062183380127
0.98582839965820312 0.56331771612167358 0.64672404527664185
0.36503845453262329 0.72112023830413818 0.73437041044235229
0.42605260014533997 0.7176859974861145 0.73429852724075317
0.53347045183181763 0.71218454837799072 0.73303401470184326
0.65171992778778076 0.71306627988815308 0.73045998811721802
0.76778167486190796 0.71517568826675415 0.71467816829681396
0.8862835168838501 0.7122337818145752 0.69650214910507202
0.98644644021987915 0.69332194328308105 0.66404235363006592
0.69954657554626465 0.87295025587081909 0.80656582117080688
0.70727795362472534 0.86720305681228638 0.80395001173019409
0.74088537693023682 0.86776524782180786 0.80433875322341919
0.7876737117767334 0.86596351861953735 0.80473208427429199
0.82706141471862793 0.85462367534637451 0.79257512092590332
0.91079795360565186 0.86624801158905029 0.77093100547790527
0.97644752264022827 0.85040581226348877 0.74252432584762573
0.81618273258209229 0.94716453552246094 0.86073905229568481
0.82306259870529175 0.94710177183151245 0.86153519153594971
0.83275634050369263 0.94622659683227539 0.85796111822128296
0.8536255955696106 0.94867771863937378 0.85832291841506958
0.88198202848434448 0.94551700353622437 0.85543084144592285
0.91977816820144653 0.94650667905807495 0.84593713283538818
0.96539473533630371 0.95353907346725464 0.82945102453231812
0.18015235662460327 0.10182782262563705 0.79387998580932617
0.27996578812599182 0.098547019064426422 0.79231911897659302
0.42663705348968506 0.09389863908290863 0.79570299386978149
0.58290749788284302 0.095707237720489502 0.79386740922927856
0.74803096055984497 0.15054453909397125 0.79058659076690674
0.88727355003356934 0.22537243366241455 0.79277735948562622
0.98644977807998657 0.33398965001106262 0.80017441511154175
0.18404814600944519 0.18332231044769287 0.7972450852394104
0.28398826718330383 0.18790565431118011 0.79790818691253662
0.43523699045181274 0.18974632024765015 0.79653835296630859
0.59066134691238403 0.20736987888813019 0.79198151826858521
0.75090652704238892 0.24922937154769897 0.79364359378814697
0.88909357786178589 0.31011787056922913 0.79732775688171387
0.98616981506347656 0.39922481775283813 0.80351018905639648
0.13178823888301849 0.30672368407249451 0.80133062601089478
0.24838054180145264 0.31816145777702332 0.80061244964599609
0.41460397839546204 0.33348888158798218 0.79558855295181274
0.59100145101547241 0.35477745532989502 0.79257756471633911
0.75376302003860474 0.38691064715385437 0.79517823457717896
0.87969291210174561 0.44690665602684021 0.80279290676116943
0.97917824983596802 0.51326942443847656 0.81043452024459839
0.0030600603204220533 0.4403822124004364 0.80046635866165161
0.028657097369432449 0.43981432914733887 0.80339920520782471
0.34482786059379578 0.46376985311508179 0.80207580327987671
0.56540924310684204 0.50116831064224243 0.79970657825469971
0.74925917387008667 0.54008626937866211 0.80566895008087158
0.87901610136032104 0.58228439092636108 0.80576229095458984
0.97529488801956177 0.63809323310852051 0.8206247091293335
0.16086855530738831 0.66585427522659302 0.81880909204483032
0.24481463432312012 0.66142219305038452 0.81826722621917725
0.3856702446937561 0.645285964012146 0.81666409969329834
0.54430127143859863 0.64440047740936279 0.81193333864212036
0.73059660196304321 0.677631676197052 0.81328016519546509
0.87816226482391357 0.71656042337417603 0.82091653347015381
0.96892720460891724 0.74922198057174683 0.82616120576858521
0.60008400678634644 0.84516328573226929 0.85642087459564209
0.62526398897171021 0.84473913908004761 0.8580135703086853
0.6817551851272583 0.84402835369110107 0.85766112804412842
0.74185585975646973 0.84315693378448486 0.85807865858078003
0.81196051836013794 0.83914512395858765 0.85318529605865479
0.89110898971557617 0.84693402051925659 0.85027730464935303
0.97299253940582275 0.83877778053283691 0.83324295282363892
0.82713037729263306 0.94984334707260132 0.90255498886108398
0.83547723293304443 0.95028287172317505 0.90405356884002686
0.84951663017272949 0.948050856590271 0.90391355752944946
0.87309068441390991 0.94915050268173218 0.90734052658081055
0.89602029323577881 0.94587248563766479 0.90399563312530518
0.93036627769470215 0.95093339681625366 0.90567278861999512
0.9702075719833374 0.9543117880821228 0.89276963472366333
0.44332295656204224 0.17829462885856628 0.92868530750274658
0.4909665584564209 0.17998149991035461 0.92776215076446533
0.58431553840637207 0.1970219761133194 0.92579525709152222
0.70055568218231201 0.22788242995738983 0.92338418960571289
0.82241660356521606 0.29167312383651733 0.92034083604812622
0.93028378486633301 0.39127302169799805 0.91686159372329712
0.99511426687240601 0.46863725781440735 0.91806697845458984
0.44415515661239624 0.25057673454284668 0.92844319343566895
0.49323210120201111 0.25603020191192627 0.92926138639450073
0.58178174495697021 0.26603376865386963 0.9235072135925293
0.70052105188369751 0.29488500952720642 0.92461907863616943
0.8239704966545105 0.3561646044254303 0.92076098918914795
0.92756742238998413 0.44008153676986694 0.91582852602005005
0.99182379245758057 0.50812238454818726 0.91761833429336548
0.42324519157409668 0.36878842115402222 0.92785799503326416
0.47654879093170166 0.37212535738945007 0.92791473865509033
0.57443803548812866 0.38097098469734192 0.92551827430725098
0.69401717185974121 0.40947571396827698 0.92394131422042847
0.82095348834991455 0.46046563982963562 0.92159384489059448
0.9219663143157959 0.52814948558807373 0.91797739267349243
0.99045068025588989 0.58002859354019165 0.91956233978271484
0.29212221503257751 0.47417190670967102 0.93129515647888184
0.39247286319732666 0.48826828598976135 0.93022072315216064
0.53090333938598633 0.51051509380340576 0.92613565921783447
0.66953909397125244 0.53389120101928711 0.92366993427276611
0.80161166191101074 0.565590500831604 0.91841882467269897
0.9114532470703125 0.62236219644546509 0.91825944185256958
0.98578119277954102 0.67184078693389893 0.92108684778213501
0.082809343934059143 0.61989939212799072 0.93120139837265015
0.18345576524734497 0.61573326587677002 0.92992591857910156
0.38521033525466919 0.61763811111450195 0.92856675386428833
0.59996742010116577 0.64289122819900513 0.92703384160995483
0.77234303951263428 0.68230098485946655 0.92321586608886719
0.89725804328918457 0.71936452388763428 0.92327749729156494
0.9781033992767334 0.76509791612625122 0.92388522624969482
0.53130418062210083 0.82486796379089355 0.93669396638870239
0.55147749185562134 0.82323986291885376 0.9358978271484375
0.60122907161712646 0.81594383716583252 0.93429696559906006
0.66198855638504028 0.80743235349655151 0.9334108829498291
0.74735110998153687 0.7997165322303772 0.93412971496582031
0.87416702508926392 0.82486516237258911 0.93125385046005249
0.96798276901245117 0.85851591825485229 0.93351101875305176
0.76961821317672729 0.94234281778335571 0.95113551616668701
0.77790892124176025 0.9417908787727356 0.95197337865829468
0.79698371887207031 0.93993443250656128 0.95162796974182129
0.8309173583984375 0.93881344795227051 0.95306932926177979
0.86965852975845337 0.9379810094833374 0.95193052291870117
0.916939377784729 0.9407082200050354 0.95387345552444458
0.96558636426925659 0.95005720853805542 0.951152503490448
