luts/negative_old/fuji_neopan_1600_-.cube
# Created by: G'MIC (https://gmic.eu)
TITLE "fuji_neopan_1600_-"
# LUT size
LUT_3D_SIZE 5
# Data domain
DOMAIN_MIN 0.0 0.0 0.0
DOMAIN_MAX 1.0 1.0 1.0
# LUT data points
0.03185310959815979 0.03185310959815979 0.03185310959815979
0.034413237124681473 0.034413237124681473 0.034413237124681473
0.11519582569599152 0.11519582569599152 0.11519582569599152
0.26929506659507751 0.26929506659507751 0.26929506659507751
0.45819199085235596 0.45819199085235596 0.45819199085235596
0.08841252326965332 0.08841252326965332 0.08841252326965332
0.14382459223270416 0.14382459223270416 0.14382459223270416
0.28987559676170349 0.28987559676170349 0.28987559676170349
0.39625382423400879 0.39625382423400879 0.39625382423400879
0.53745943307876587 0.53745943307876587 0.53745943307876587
0.32545632123947144 0.32545632123947144 0.32545632123947144
0.34365347027778625 0.34365347027778625 0.34365347027778625
0.4188849925994873 0.4188849925994873 0.4188849925994873
0.54087281227111816 0.54087281227111816 0.54087281227111816
0.73074120283126831 0.73074120283126831 0.73074120283126831
0.54541069269180298 0.54541069269180298 0.54541069269180298
0.5674397349357605 0.5674397349357605 0.5674397349357605
0.60606849193572998 0.60606849193572998 0.60606849193572998
0.69998365640640259 0.69998365640640259 0.69998365640640259
0.85107237100601196 0.85107237100601196 0.85107237100601196
0.88051390647888184 0.88051390647888184 0.88051390647888184
0.87871396541595459 0.87871396541595459 0.87871396541595459
0.89906871318817139 0.89906871318817139 0.89906871318817139
0.9335142970085144 0.9335142970085144 0.9335142970085144
0.96854257583618164 0.96854257583618164 0.96854257583618164
0.041509021073579788 0.041509021073579788 0.041509021073579788
0.098321668803691864 0.098321668803691864 0.098321668803691864
0.19443577527999878 0.19443577527999878 0.19443577527999878
0.32519236207008362 0.32519236207008362 0.32519236207008362
0.47125524282455444 0.47125524282455444 0.47125524282455444
0.14139564335346222 0.14139564335346222 0.14139564335346222
0.22691446542739868 0.22691446542739868 0.22691446542739868
0.32346320152282715 0.32346320152282715 0.32346320152282715
0.4289652407169342 0.4289652407169342 0.4289652407169342
0.57358711957931519 0.57358711957931519 0.57358711957931519
0.40100604295730591 0.40100604295730591 0.40100604295730591
0.42051559686660767 0.42051559686660767 0.42051559686660767
0.46097090840339661 0.46097090840339661 0.46097090840339661
0.58179968595504761 0.58179968595504761 0.58179968595504761
0.74304932355880737 0.74304932355880737 0.74304932355880737
0.61313962936401367 0.61313962936401367 0.61313962936401367
0.61918550729751587 0.61918550729751587 0.61918550729751587
0.6435849666595459 0.6435849666595459 0.6435849666595459
0.71884745359420776 0.71884745359420776 0.71884745359420776
0.8586612343788147 0.8586612343788147 0.8586612343788147
0.89707213640213013 0.89707213640213013 0.89707213640213013
0.90014177560806274 0.90014177560806274 0.90014177560806274
0.90278726816177368 0.90278726816177368 0.90278726816177368
0.92988342046737671 0.92988342046737671 0.92988342046737671
0.97537410259246826 0.97537410259246826 0.97537410259246826
0.1721360832452774 0.1721360832452774 0.1721360832452774
0.25851106643676758 0.25851106643676758 0.25851106643676758
0.34455025196075439 0.34455025196075439 0.34455025196075439
0.39545154571533203 0.39545154571533203 0.39545154571533203
0.54993307590484619 0.54993307590484619 0.54993307590484619
0.27662491798400879 0.27662491798400879 0.27662491798400879
0.34267729520797729 0.34267729520797729 0.34267729520797729
0.42692288756370544 0.42692288756370544 0.42692288756370544
0.47903364896774292 0.47903364896774292 0.47903364896774292
0.60555970668792725 0.60555970668792725 0.60555970668792725
0.40491819381713867 0.40491819381713867 0.40491819381713867
0.45871669054031372 0.45871669054031372 0.45871669054031372
0.54056411981582642 0.54056411981582642 0.54056411981582642
0.63246011734008789 0.63246011734008789 0.63246011734008789
0.73032766580581665 0.73032766580581665 0.73032766580581665
0.66512465476989746 0.66512465476989746 0.66512465476989746
0.68952649831771851 0.68952649831771851 0.68952649831771851
0.72109121084213257 0.72109121084213257 0.72109121084213257
0.77505791187286377 0.77505791187286377 0.77505791187286377
0.87483716011047363 0.87483716011047363 0.87483716011047363
0.92279863357543945 0.92279863357543945 0.92279863357543945
0.92661255598068237 0.92661255598068237 0.92661255598068237
0.92179453372955322 0.92179453372955322 0.92179453372955322
0.9338187575340271 0.9338187575340271 0.9338187575340271
0.976185142993927 0.976185142993927 0.976185142993927
0.37359851598739624 0.37359851598739624 0.37359851598739624
0.42250305414199829 0.42250305414199829 0.42250305414199829
0.53511196374893188 0.53511196374893188 0.53511196374893188
0.59364420175552368 0.59364420175552368 0.59364420175552368
0.65544962882995605 0.65544962882995605 0.65544962882995605
0.45294356346130371 0.45294356346130371 0.45294356346130371
0.49496164917945862 0.49496164917945862 0.49496164917945862
0.58938634395599365 0.58938634395599365 0.58938634395599365
0.64610099792480469 0.64610099792480469 0.64610099792480469
0.7123987078666687 0.7123987078666687 0.7123987078666687
0.49617266654968262 0.49617266654968262 0.49617266654968262
0.54844415187835693 0.54844415187835693 0.54844415187835693
0.67584741115570068 0.67584741115570068 0.67584741115570068
0.7369382381439209 0.7369382381439209 0.7369382381439209
0.79318350553512573 0.79318350553512573 0.79318350553512573
0.66230112314224243 0.66230112314224243 0.66230112314224243
0.69211661815643311 0.69211661815643311 0.69211661815643311
0.77468371391296387 0.77468371391296387 0.77468371391296387
0.83795166015625 0.83795166015625 0.83795166015625
0.91398084163665771 0.91398084163665771 0.91398084163665771
0.92495936155319214 0.92495936155319214 0.92495936155319214
0.92284315824508667 0.92284315824508667 0.92284315824508667
0.95224428176879883 0.95224428176879883 0.95224428176879883
0.95909744501113892 0.95909744501113892 0.95909744501113892
0.98880636692047119 0.98880636692047119 0.98880636692047119
0.70287013053894043 0.70287013053894043 0.70287013053894043
0.72724121809005737 0.72724121809005737 0.72724121809005737
0.77954071760177612 0.77954071760177612 0.77954071760177612
0.85991060733795166 0.85991060733795166 0.85991060733795166
0.88648194074630737 0.88648194074630737 0.88648194074630737
0.74563413858413696 0.74563413858413696 0.74563413858413696
0.77553445100784302 0.77553445100784302 0.77553445100784302
0.81064450740814209 0.81064450740814209 0.81064450740814209
0.88164961338043213 0.88164961338043213 0.88164961338043213
0.90266245603561401 0.90266245603561401 0.90266245603561401
0.77139896154403687 0.77139896154403687 0.77139896154403687
0.79749023914337158 0.79749023914337158 0.79749023914337158
0.86243021488189697 0.86243021488189697 0.86243021488189697
0.91630589962005615 0.91630589962005615 0.91630589962005615
0.92310744524002075 0.92310744524002075 0.92310744524002075
0.7649695873260498 0.7649695873260498 0.7649695873260498
0.79147446155548096 0.79147446155548096 0.79147446155548096
0.84336048364639282 0.84336048364639282 0.84336048364639282
0.93262219429016113 0.93262219429016113 0.93262219429016113
0.9747195839881897 0.9747195839881897 0.9747195839881897
0.93258607387542725 0.93258607387542725 0.93258607387542725
0.93479800224304199 0.93479800224304199 0.93479800224304199
0.95771902799606323 0.95771902799606323 0.95771902799606323
0.97566235065460205 0.97566235065460205 0.97566235065460205
0.98637962341308594 0.98637962341308594 0.98637962341308594
