luts/negative_old/fuji_superia_1600_-.cube
# Created by: G'MIC (https://gmic.eu)
TITLE "fuji_superia_1600_-"
# LUT size
LUT_3D_SIZE 13
# Data domain
DOMAIN_MIN 0.0 0.0 0.0
DOMAIN_MAX 1.0 1.0 1.0
# LUT data points
0.032697699964046478 0.054303336888551712 0.069040022790431976
0.046930290758609772 0.052305888384580612 0.06152629479765892
0.097412824630737305 0.05248800665140152 0.056993566453456879
0.17809450626373291 0.056032322347164154 0.053539499640464783
0.28527280688285828 0.058449193835258484 0.048869606107473373
0.39579007029533386 0.053863286972045898 0.040226191282272339
0.50884485244750977 0.031532034277915955 0.028172541409730911
0.61253136396408081 0.018314721062779427 0.014131627976894379
0.69746822118759155 0.024163968861103058 0.009350854903459549
0.77554744482040405 0.0523848757147789 0.008404959924519062
0.8500787615776062 0.10787727683782578 0.007180322427302599
0.92109948396682739 0.16549567878246307 0.0033799265511333942
0.97834539413452148 0.22729334235191345 0.00037590475403703749
0.020017316564917564 0.081802219152450562 0.066207915544509888
0.038754228502511978 0.083154939115047455 0.060086823999881744
0.10627903789281845 0.094490155577659607 0.054618388414382935
0.19223722815513611 0.098101578652858734 0.0507315993309021
0.30276581645011902 0.10410337150096893 0.043519742786884308
0.41484087705612183 0.10269764810800552 0.032474175095558167
0.52817744016647339 0.097833327949047089 0.023272959515452385
0.62890559434890747 0.095010675489902496 0.014932894147932529
0.70754837989807129 0.10282503068447113 0.011072301305830479
0.78082495927810669 0.12163239717483521 0.0067109051160514355
0.85427802801132202 0.16069161891937256 0.004826519638299942
0.92441433668136597 0.20316216349601746 0.0037179833743721247
0.98099350929260254 0.24981257319450378 0.0019635967910289764
0.0068954918533563614 0.14053462445735931 0.063217908143997192
0.01596648246049881 0.1449999213218689 0.05829252302646637
0.076343700289726257 0.16497254371643066 0.04729665070772171
0.19510422646999359 0.18430177867412567 0.032643500715494156
0.32020038366317749 0.18195430934429169 0.030168347060680389
0.44147148728370667 0.18002964556217194 0.020212899893522263
0.55109709501266479 0.18066079914569855 0.0145224928855896
0.64488381147384644 0.18266595900058746 0.010666177608072758
0.72121471166610718 0.19565148651599884 0.010604723356664181
0.79255086183547974 0.20366851985454559 0.0059504937380552292
0.85977715253829956 0.2244299054145813 0.006190610583871603
0.9280884861946106 0.26232048869132996 0.0069420160725712776
0.98317980766296387 0.29760253429412842 0.0043145571835339069
0.0030449212063103914 0.23741266131401062 0.066444292664527893
0.0049969539977610111 0.24228690564632416 0.065066017210483551
0.020493226125836372 0.25447812676429749 0.048704829066991806
0.15140621364116669 0.28411823511123657 0.022093245759606361
0.33691880106925964 0.3047005832195282 0.010409575887024403
0.47376316785812378 0.2936769425868988 0.0045298407785594463
0.57442361116409302 0.28102046251296997 0.0075299283489584923
0.66346442699432373 0.27856117486953735 0.009058813564479351
0.73918867111206055 0.28448227047920227 0.0095814419910311699
0.80582702159881592 0.28951132297515869 0.0079483631998300552
0.86944234371185303 0.30184009671211243 0.010667090304195881
0.93243777751922607 0.32695108652114868 0.009817938320338726
0.98320305347442627 0.35165143013000488 0.0075608198530972004
0.0011954214423894882 0.34925758838653564 0.0856948122382164
0.0041553271003067493 0.35620942711830139 0.085565827786922455
0.0051731783896684647 0.36258113384246826 0.070175617933273315
0.077576279640197754 0.37974745035171509 0.042684726417064667
0.29565709829330444 0.40473124384880066 0.013793152756989002
0.47866904735565186 0.4234175980091095 0.0026684629265218973
0.59173852205276489 0.41062945127487183 0.0045250835828483105
0.67914038896560669 0.3889404833316803 0.0057644564658403397
0.75335520505905151 0.38011473417282104 0.0064183254726231098
0.81815600395202637 0.37828993797302246 0.0076404348947107792
0.88023185729980469 0.38390684127807617 0.0097600603476166725
0.938895583152771 0.39930948615074158 0.010095678269863129
0.98643738031387329 0.42230039834976196 0.0071737850084900856
0.00065983791137114167 0.45147758722305298 0.12653601169586182
0.0018264920217916369 0.45161938667297363 0.13075396418571472
0.0020106148440390825 0.45500758290290833 0.12259216606616974
0.048080384731292725 0.46438226103782654 0.10304059833288193
0.24865221977233887 0.48230746388435364 0.068313702940940857
0.42609074711799622 0.50229638814926147 0.031025756150484085
0.58149498701095581 0.52275544404983521 0.0064425151795148849
0.68639558553695679 0.51804459095001221 0.0036519519053399563
0.76065880060195923 0.50198757648468018 0.0057874042540788651
0.82715064287185669 0.48975202441215515 0.009410184808075428
0.88997036218643188 0.47746452689170837 0.010287131182849407
0.94776332378387451 0.48208880424499512 0.016797339543700218
0.99223810434341431 0.49921450018882751 0.033092126250267029
0.0017875970806926489 0.53516829013824463 0.18821734189987183
0.0039215688593685627 0.53370660543441772 0.19212083518505096
0.0043071969412267208 0.5331454873085022 0.18806196749210358
0.061294406652450562 0.53628206253051758 0.17581693828105927
0.24352766573429108 0.55084109306335449 0.1574321836233139
0.39593639969825745 0.56825202703475952 0.12890996038913727
0.53193598985671997 0.58728808164596558 0.077548384666442871
0.66536605358123779 0.6122819185256958 0.031651381403207779
0.76538586616516113 0.61629021167755127 0.0093359258025884628
0.83236271142959595 0.59910589456558228 0.020733209326863289
0.89407807588577271 0.58161729574203491 0.03999653086066246
0.95034623146057129 0.57365399599075317 0.067352890968322754
0.99188905954360962 0.58301925659179688 0.10117203742265701
0.0027918198611587286 0.61436444520950317 0.24638906121253967
0.0075618368573486805 0.61389172077178955 0.25088241696357727
0.029889514669775963 0.61084342002868652 0.24721068143844604
0.13142143189907074 0.60791504383087158 0.24414947628974915
0.26467576622962952 0.61866080760955811 0.23793977499008179
0.39343219995498657 0.63365131616592407 0.21936434507369995
0.50828391313552856 0.64900672435760498 0.19106681644916534
0.62029045820236206 0.66656440496444702 0.15709103643894196
0.73781275749206543 0.69309735298156738 0.10353098809719086
0.82933580875396729 0.70089125633239746 0.090115055441856384
0.89117705821990967 0.68609946966171265 0.11576618999242783
0.9479832649230957 0.67336815595626831 0.15238769352436066
0.99344193935394287 0.668620765209198 0.17530955374240875
0.04887969046831131 0.69134145975112915 0.31222587823867798
0.083001337945461273 0.69001275300979614 0.31311801075935364
0.14901556074619293 0.68597197532653809 0.3113376796245575
0.22095058858394623 0.6815718412399292 0.31089147925376892
0.31395232677459717 0.68769437074661255 0.30688226222991943
0.40763998031616211 0.69866287708282471 0.29704123735427856
0.49985727667808533 0.70926797389984131 0.28221121430397034
0.60344129800796509 0.72336429357528687 0.25943076610565186
0.69811606407165527 0.74096691608428955 0.24363888800144196
0.79950153827667236 0.76685285568237305 0.2218593955039978
0.88336801528930664 0.77704006433486938 0.21574865281581879
0.94343537092208862 0.76556450128555298 0.23421169817447662
0.98927497863769531 0.75572210550308228 0.25272923707962036
0.20819652080535889 0.7650025486946106 0.38506591320037842
0.22223649919033051 0.75940555334091187 0.38429701328277588
0.2575967013835907 0.75591695308685303 0.38167065382003784
0.30936866998672485 0.75506430864334106 0.37935444712638855
0.36826980113983154 0.7566828727722168 0.37520322203636169
0.44035062193870544 0.76331335306167603 0.37119993567466736
0.51464509963989258 0.77090150117874146 0.36658516526222229
0.59992599487304688 0.78191459178924561 0.35463473200798035
0.68542939424514771 0.79593461751937866 0.34186136722564697
0.76632046699523926 0.81199735403060913 0.3346131443977356
0.85471862554550171 0.83175063133239746 0.3227551281452179
0.93627810478210449 0.84643471240997314 0.31801643967628479
0.98276078701019287 0.84124135971069336 0.33253449201583862
0.33411502838134766 0.83210480213165283 0.46089580655097961
0.34555605053901672 0.82854652404785156 0.45986470580101013
0.36304619908332825 0.82767915725708008 0.45605671405792236
0.39623340964317322 0.82542634010314941 0.45366531610488892
0.43565458059310913 0.82483339309692383 0.45453402400016785
0.47834330797195435 0.82591462135314941 0.44886595010757446
0.5431855320930481 0.83186072111129761 0.45002481341362
0.61047351360321045 0.83930975198745728 0.45195233821868896
0.68431740999221802 0.84989345073699951 0.44309818744659424
0.75646859407424927 0.86211150884628296 0.4315589964389801
0.82579624652862549 0.87620711326599121 0.42308837175369263
0.90473997592926025 0.8911818265914917 0.41917774081230164
0.96987342834472656 0.90337812900543213 0.41827955842018127
0.45699590444564819 0.89143615961074829 0.55683726072311401
0.46580475568771362 0.88825440406799316 0.55441200733184814
0.4728391170501709 0.88756126165390015 0.5487939715385437
0.4928077757358551 0.88756126165390015 0.54695820808410645
0.52017694711685181 0.88926374912261963 0.54697400331497192
0.54719966650009155 0.88758522272109985 0.54297387599945068
0.59378570318222046 0.89104455709457397 0.54547971487045288
0.64697360992431641 0.89645618200302124 0.54972189664840698
0.69783484935760498 0.90370094776153564 0.54728257656097412
0.75800430774688721 0.91230851411819458 0.53619527816772461
0.81858819723129272 0.91808837652206421 0.52919560670852661
0.87781703472137451 0.92657101154327393 0.52710789442062378
0.93906229734420776 0.93702155351638794 0.52123528718948364
0.57298809289932251 0.94389820098876953 0.65253961086273193
0.57971763610839844 0.94345229864120483 0.65266543626785278
0.58732134103775024 0.94377666711807251 0.65013867616653442
0.59749704599380493 0.94302284717559814 0.64800024032592773
0.61609405279159546 0.94426870346069336 0.65016090869903564
0.63388919830322266 0.94397270679473877 0.64811557531356812
0.66239345073699951 0.94485247135162354 0.65073585510253906
0.70012128353118896 0.94721579551696777 0.65272325277328491
0.73822325468063354 0.95116525888442993 0.65087395906448364
0.77995538711547852 0.95461338758468628 0.64389455318450928
0.82597541809082031 0.9593161940574646 0.64173018932342529
0.87457329034805298 0.96647602319717407 0.64195877313613892
0.92161417007446289 0.97004371881484985 0.63796442747116089
0.02718220092356205 0.05134187638759613 0.081664890050888062
0.04846515879034996 0.052041791379451752 0.081351198256015778
0.10074537992477417 0.048285689204931259 0.077972397208213806
0.18390978872776031 0.036980137228965759 0.075452260673046112
0.28567126393318176 0.038854517042636871 0.075920239090919495
0.39992544054985046 0.03429863229393959 0.073330990970134735
0.51162004470825195 0.0239423718303442 0.067479170858860016
0.61121636629104614 0.024190086871385574 0.061596348881721497
0.69546365737915039 0.034483443945646286 0.055485446006059647
0.77165085077285767 0.064610123634338379 0.047982353717088699
0.8465149998664856 0.11763453483581543 0.038118235766887665
0.91539657115936279 0.17017576098442078 0.028278499841690063
0.97261488437652588 0.23011313378810883 0.025836704298853874
0.015167700126767159 0.077308237552642822 0.085820861160755157
0.043886028230190277 0.085446573793888092 0.089894987642765045
0.11163168400526047 0.090757213532924652 0.087618790566921234
0.19697698950767517 0.089108876883983612 0.080857053399085999
0.30181220173835754 0.094941191375255585 0.077837608754634857
0.41891995072364807 0.094108566641807556 0.075494520366191864
0.52947306632995605 0.097153864800930023 0.069730170071125031
0.62387257814407349 0.097217753529548645 0.061023786664009094
0.70211738348007202 0.1096818819642067 0.056438416242599487
0.77753329277038574 0.13147050142288208 0.046344682574272156
0.85152143239974976 0.16777999699115753 0.036682024598121643
0.91957962512969971 0.20940393209457397 0.029037864878773689
0.97645705938339233 0.25848904252052307 0.02772999182343483
0.0059820436872541904 0.14974601566791534 0.10051620751619339
0.023704813793301582 0.14931303262710571 0.096920371055603027
0.086755178868770599 0.16224169731140137 0.091438367962837219
0.19785124063491821 0.17405620217323303 0.080331481993198395
0.32580792903900146 0.17862878739833832 0.072456270456314087
0.44723531603813171 0.18138691782951355 0.070416517555713654
0.55352842807769775 0.18434549868106842 0.062569849193096161
0.64015740156173706 0.18724624812602997 0.058286406099796295
0.71570003032684326 0.20024076104164124 0.055943448096513748
0.78895580768585205 0.20977923274040222 0.046915166079998016
0.85838794708251953 0.23068781197071075 0.037795033305883408
0.92569082975387573 0.26327952742576599 0.032223928719758987
0.98241806030273438 0.30110615491867065 0.0301081333309412
0.0041374806314706802 0.2519955039024353 0.12245243787765503
0.0056792614050209522 0.24983265995979309 0.11331233382225037
0.032634839415550232 0.25670942664146423 0.10131068527698517
0.17490825057029724 0.28520938754081726 0.078770339488983154
0.34592416882514954 0.30404886603355408 0.053823702037334442
0.47592470049858093 0.29439002275466919 0.058231145143508911
0.57723206281661987 0.28288424015045166 0.058958254754543304
0.6602361798286438 0.28215312957763672 0.056272260844707489
0.73393011093139648 0.28868246078491211 0.054871592670679092
0.80180639028549194 0.29507505893707275 0.050218246877193451
0.86830860376358032 0.30593326687812805 0.04018547385931015
0.93119174242019653 0.33047696948051453 0.038952920585870743
0.98353129625320435 0.35549405217170715 0.038858421146869659
0.0024803162086755037 0.36047950387001038 0.14167584478855133
0.0051575903780758381 0.36356836557388306 0.14326861500740051
0.010141424834728241 0.36517965793609619 0.13109917938709259
0.11613866686820984 0.38201227784156799 0.1092035323381424
0.31108865141868591 0.40622058510780334 0.076883457601070404
0.48347678780555725 0.42257824540138245 0.045130472630262375
0.5934673547744751 0.40491190552711487 0.045465804636478424
0.67770987749099731 0.38745951652526855 0.049829490482807159
0.74957555532455444 0.38053390383720398 0.05620160698890686
0.81420636177062988 0.38062343001365662 0.055625300854444504
0.87739890813827515 0.38784292340278625 0.05465283989906311
0.9366573691368103 0.40345773100852966 0.056196849793195724
0.98376238346099854 0.42331650853157043 0.063363470137119293
0.0016856922302395105 0.45900470018386841 0.17782968282699585
0.0039866277948021889 0.45927980542182922 0.18286605179309845
0.0054527432657778263 0.45710155367851257 0.17396719753742218
0.083761684596538544 0.46333181858062744 0.15997448563575745
0.27743774652481079 0.48010852932929993 0.13771118223667145
0.43834686279296875 0.50114160776138306 0.10368966311216354
0.58557140827178955 0.52043783664703369 0.056312799453735352
0.68546760082244873 0.51532018184661865 0.046934928745031357
0.75688165426254272 0.50204873085021973 0.06311461329460144
0.82384014129638672 0.48979407548904419 0.072299271821975708
0.88666272163391113 0.47966158390045166 0.076273821294307709
0.9438280463218689 0.48316085338592529 0.086600236594676971
0.98794496059417725 0.49862068891525269 0.1038171648979187
0.0018107545329257846 0.54109072685241699 0.23161827027797699
0.0048079397529363632 0.53984302282333374 0.23044410347938538
0.017682842910289764 0.53706389665603638 0.22517815232276917
0.11842956393957138 0.5374029278755188 0.21825139224529266
0.27213409543037415 0.549571692943573 0.20659837126731873
0.41353076696395874 0.56702679395675659 0.18267032504081726
0.54557424783706665 0.5871395468711853 0.14502793550491333
0.66762661933898926 0.60990536212921143 0.10385396331548691
0.76065206527709961 0.61221230030059814 0.09217071533203125
0.82918155193328857 0.59823489189147949 0.10430277138948441
0.89116209745407104 0.58196115493774414 0.12471029162406921
0.94759786128997803 0.57345765829086304 0.14254270493984222
0.9898180365562439 0.57933723926544189 0.15836904942989349
0.010215415619313717 0.61727398633956909 0.28254514932632446
0.027878928929567337 0.61849451065063477 0.28272774815559387
0.088563196361064911 0.61435419321060181 0.27993378043174744
0.18710394203662872 0.61062115430831909 0.27820324897766113
0.2940458357334137 0.61729311943054199 0.27334356307983398
0.40408694744110107 0.63178855180740356 0.25927382707595825
0.51919299364089966 0.64833110570907593 0.23184971511363983
0.62472623586654663 0.66535979509353638 0.2096303403377533
0.73860377073287964 0.69115501642227173 0.18224054574966431
0.8273959755897522 0.69822472333908081 0.17401035130023956
0.89086782932281494 0.68508702516555786 0.19103151559829712
0.9463006854057312 0.67107713222503662 0.21326947212219238
0.99013799428939819 0.66699862480163574 0.22758956253528595
0.10561513155698776 0.69439715147018433 0.33910241723060608
0.14264829456806183 0.69286251068115234 0.34033706784248352
0.19093450903892517 0.68872368335723877 0.33990898728370667
0.25498554110527039 0.68520581722259521 0.33970338106155396
0.33262437582015991 0.68677699565887451 0.33462464809417725
0.41636362671852112 0.69648009538650513 0.32518047094345093
0.50392621755599976 0.70834708213806152 0.31300556659698486
0.60287952423095703 0.7235482931137085 0.2983778715133667
0.70210415124893188 0.74399244785308838 0.28905805945396423
0.80372649431228638 0.76776468753814697 0.27344807982444763
0.88195955753326416 0.77528387308120728 0.2695256769657135
0.94248944520950317 0.76523494720458984 0.27888602018356323
0.99060875177383423 0.75822645425796509 0.28922846913337708
0.2418750524520874 0.76682883501052856 0.40799960494041443
0.25415483117103577 0.76220768690109253 0.40824136137962341
0.28161633014678955 0.75819247961044312 0.40537109971046448
0.32702869176864624 0.75715178251266479 0.40209290385246277
0.3803403377532959 0.75653433799743652 0.39595893025398254
0.44332784414291382 0.76078140735626221 0.38984176516532898
0.51576358079910278 0.77017498016357422 0.38585928082466125
0.59936106204986572 0.78326588869094849 0.37575283646583557
0.68583649396896362 0.79830533266067505 0.37099292874336243
0.77190274000167847 0.81471991539001465 0.36800038814544678
0.8558318018913269 0.8328971266746521 0.35975939035415649
0.93492162227630615 0.84671002626419067 0.34885337948799133
0.97784924507141113 0.84189105033874512 0.36002060770988464
0.35820665955543518 0.83354252576828003 0.48201045393943787
0.36719489097595215 0.82995766401290894 0.4809398353099823
0.38108015060424805 0.82659131288528442 0.47668081521987915
0.40706220269203186 0.82519221305847168 0.47126096487045288
0.44283655285835266 0.82494395971298218 0.46808424592018127
0.48427087068557739 0.82490438222885132 0.46305614709854126
0.54496634006500244 0.83190029859542847 0.46121728420257568
0.60833448171615601 0.84182024002075195 0.46013665199279785
0.68159615993499756 0.85187309980392456 0.45754992961883545
0.75982892513275146 0.86493903398513794 0.45837056636810303
0.83134692907333374 0.87825500965118408 0.45244240760803223
0.90517795085906982 0.89206928014755249 0.44236814975738525
0.96400588750839233 0.90109455585479736 0.44260463118553162
0.47297626733779907 0.89144241809844971 0.57119196653366089
0.47928705811500549 0.88888013362884521 0.56832492351531982
0.48647940158843994 0.88756483793258667 0.5646435022354126
0.50418597459793091 0.88747787475585938 0.55954551696777344
0.52572816610336304 0.88748222589492798 0.55674690008163452
0.55392444133758545 0.88511449098587036 0.55365705490112305
0.59248429536819458 0.89131999015808105 0.55200457572937012
0.64210718870162964 0.89715117216110229 0.55274069309234619
0.69642716646194458 0.90512657165527344 0.55060046911239624
0.75711369514465332 0.9144662618637085 0.54906368255615234
0.81815803050994873 0.92074137926101685 0.54902565479278564
0.8782457709312439 0.92776453495025635 0.54582363367080688
0.94099807739257812 0.9377816915512085 0.54168272018432617
0.58205932378768921 0.94421207904815674 0.66057056188583374
0.58439290523529053 0.94235581159591675 0.65861397981643677
0.59189260005950928 0.94331306219100952 0.65841072797775269
0.60366427898406982 0.9431833028793335 0.65620970726013184
0.61918634176254272 0.94336634874343872 0.65642404556274414
0.63928711414337158 0.94260221719741821 0.65622305870056152
0.665760338306427 0.94553226232528687 0.65774768590927124
0.69786220788955688 0.94712191820144653 0.65678280591964722
0.73705768585205078 0.95176732540130615 0.65540039539337158
0.78138607740402222 0.95713812112808228 0.65434372425079346
0.82731330394744873 0.96110951900482178 0.65323728322982788
0.87474358081817627 0.96595162153244019 0.65225094556808472
0.92268627882003784 0.96918672323226929 0.64518171548843384
0.022578684613108635 0.051129508763551712 0.13323214650154114
0.056049946695566177 0.048862695693969727 0.13292302191257477
0.11049731075763702 0.045928612351417542 0.13010981678962708
0.18655973672866821 0.039422951638698578 0.13020290434360504
0.29387065768241882 0.021734604611992836 0.13064382970333099
0.41213503479957581 0.010160139761865139 0.1312268078327179
0.51972883939743042 0.0089898053556680679 0.127756267786026
0.61280781030654907 0.024963678792119026 0.12627799808979034
0.69050538539886475 0.058908980339765549 0.12780135869979858
0.765147864818573 0.10000059753656387 0.12627385556697845
0.83981996774673462 0.14549942314624786 0.12126766890287399
0.90809839963912964 0.18757030367851257 0.11448945850133896
0.96612608432769775 0.23882764577865601 0.11544611304998398
0.0080210370942950249 0.082784198224544525 0.14118649065494537
0.043104838579893112 0.083743289113044739 0.14134210348129272
0.11813222616910934 0.089167051017284393 0.14157044887542725
0.2028878778219223 0.090807773172855377 0.14068326354026794
0.30755379796028137 0.080150038003921509 0.13542991876602173
0.42578479647636414 0.068549782037734985 0.13297516107559204
0.52896082401275635 0.084171593189239502 0.13259299099445343
0.61916095018386841 0.10368891805410385 0.1328379362821579
0.69617664813995361 0.12571302056312561 0.1323016881942749
0.76970410346984863 0.15270866453647614 0.12847067415714264
0.84499609470367432 0.18650399148464203 0.12046460807323456
0.91281497478485107 0.22511313855648041 0.1178240180015564
0.97015261650085449 0.26885658502578735 0.11998986452817917
0.0037327036261558533 0.15767914056777954 0.156556636095047
0.024754498153924942 0.15594276785850525 0.15460474789142609
0.1073438748717308 0.16570989787578583 0.15627259016036987
0.20913811028003693 0.17549417912960052 0.15380094945430756
0.3280453085899353 0.17515268921852112 0.14553217589855194
0.44972413778305054 0.18041929602622986 0.14337629079818726
0.55345779657363892 0.18904818594455719 0.14073486626148224
0.63534808158874512 0.19685760140419006 0.13989177346229553
0.70894813537597656 0.21131929755210876 0.1385057121515274
0.77984166145324707 0.22666278481483459 0.13557110726833344
0.85068339109420776 0.24727562069892883 0.12613222002983093
0.91795462369918823 0.27770721912384033 0.12276846170425415
0.97571015357971191 0.31297248601913452 0.12424627691507339
0.0037596758920699358 0.26243484020233154 0.18295815587043762
0.01183019857853651 0.26412555575370789 0.17911267280578613
0.080800198018550873 0.26745390892028809 0.1741558164358139
0.2028975784778595 0.28108590841293335 0.16621740162372589
0.35085898637771606 0.29466673731803894 0.1562114953994751
0.47590899467468262 0.29029899835586548 0.15625013411045074
0.57581418752670288 0.28797450661659241 0.15149731934070587
0.6540723443031311 0.2924475371837616 0.1526726633310318
0.72655016183853149 0.30040046572685242 0.1501525491476059
0.79345273971557617 0.30869913101196289 0.1440293937921524
0.85897213220596313 0.3188832700252533 0.13426810503005981
0.9232822060585022 0.34289368987083435 0.13300786912441254
0.97810763120651245 0.36922082304954529 0.13600556552410126
0.0065403208136558533 0.37516093254089355 0.22055308520793915
0.016130633652210236 0.37655806541442871 0.217339888215065
0.056300502270460129 0.37521567940711975 0.2064221054315567
0.18231266736984253 0.38269883394241333 0.19718481600284576
