luts/negative_old/fuji_superia_100_+.cube
# Created by: G'MIC (https://gmic.eu)
TITLE "fuji_superia_100_+"
# LUT size
LUT_3D_SIZE 7
# Data domain
DOMAIN_MIN 0.0 0.0 0.0
DOMAIN_MAX 1.0 1.0 1.0
# LUT data points
0.0037831026129424572 0.049710039049386978 0.056652188301086426
0.073683902621269226 0.056905440986156464 0.05139324814081192
0.27241036295890808 0.065916039049625397 0.040276054292917252
0.51288241147994995 0.066470995545387268 0.015836348757147789
0.72261703014373779 0.074555277824401855 0.0037959828041493893
0.87193137407302856 0.11583495885133743 0.0033106785267591476
0.98997491598129272 0.16965295374393463 0.0020705577917397022
0.0002520392881706357 0.1570819765329361 0.065523333847522736
0.037735030055046082 0.15780018270015717 0.05504193902015686
0.30261296033859253 0.18399934470653534 0.02350190095603466
0.5469328761100769 0.21073018014431 0.011028588749468327
0.73196899890899658 0.21693985164165497 0.0076601365581154823
0.88196361064910889 0.23650234937667847 0.0024323705583810806
0.99375355243682861 0.25681325793266296 0.00054256961448118091
0 0.39279881119728088 0.1027623638510704
0.0037760715931653976 0.39587932825088501 0.092778913676738739
0.29445001482963562 0.39264053106307983 0.041765265166759491
0.57666909694671631 0.40429598093032837 0.0095351869240403175
0.75760239362716675 0.4046420156955719 0.0060134590603411198
0.89763325452804565 0.40006917715072632 0.003804883686825633
0.98847991228103638 0.39587640762329102 0.0039215688593685627
0 0.61843335628509521 0.19495224952697754
0.0012045766925439239 0.62191677093505859 0.20026040077209473
0.16797958314418793 0.61542856693267822 0.16848769783973694
0.52616709470748901 0.5869787335395813 0.072807177901268005
0.74192607402801514 0.57691365480422974 0.011751256883144379
0.90416693687438965 0.56382304430007935 0.0043691298924386501
0.99538731575012207 0.55569654703140259 0.001773400348611176
0.0017805959796532989 0.7710614800453186 0.35263863205909729
0.0061035756953060627 0.77045959234237671 0.3638770580291748
0.16433541476726532 0.76988649368286133 0.3519294261932373
0.47914573550224304 0.75039136409759521 0.30061310529708862
0.69109964370727539 0.72735559940338135 0.21588180959224701
0.87630587816238403 0.72274965047836304 0.11329487711191177
0.99630498886108398 0.71513587236404419 0.058048456907272339
0.21896620094776154 0.89842361211776733 0.52044856548309326
0.27720209956169128 0.89521604776382446 0.52163249254226685
0.3788907527923584 0.89065492153167725 0.52673459053039551
0.50920414924621582 0.88660478591918945 0.50408440828323364
0.66368216276168823 0.87503534555435181 0.46490824222564697
0.8221929669380188 0.86677521467208862 0.40355435013771057
0.97787010669708252 0.86163240671157837 0.3381049633026123
0.53402316570281982 0.98241537809371948 0.68822777271270752
0.55120342969894409 0.9809151291847229 0.68900525569915771
0.58692312240600586 0.9801592230796814 0.6924319863319397
0.63915997743606567 0.98239439725875854 0.69446271657943726
0.71714484691619873 0.97852450609207153 0.67100167274475098
0.80642062425613403 0.97606164216995239 0.64517509937286377
0.92095398902893066 0.97340887784957886 0.61069154739379883
0.0030194451101124287 0.047783061861991882 0.18840782344341278
0.073294229805469513 0.045433629304170609 0.17202885448932648
0.28892451524734497 0.014529853127896786 0.15625663101673126
0.53201788663864136 0.0054593402892351151 0.144783616065979
0.72606462240219116 0.0052363378927111626 0.11294285207986832
0.86983752250671387 0.017129935324192047 0.085128635168075562
0.98833942413330078 0.081693284213542938 0.047869782894849777
0.00139680749271065 0.16481688618659973 0.18300428986549377
0.054133053869009018 0.16475425660610199 0.18040840327739716
0.32245898246765137 0.15954375267028809 0.16428688168525696
0.55881959199905396 0.1449485570192337 0.13881354033946991
0.73750478029251099 0.15694823861122131 0.11207792907953262
0.87916213274002075 0.18310214579105377 0.081224687397480011
0.98869585990905762 0.2210620641708374 0.04141482338309288
0.0032509299926459789 0.38726505637168884 0.2484709620475769
0.01640026643872261 0.39581921696662903 0.2358677089214325
0.32694274187088013 0.39477559924125671 0.20124223828315735
0.58878141641616821 0.39368712902069092 0.14397899806499481
0.76131975650787354 0.38022419810295105 0.094382882118225098
0.89518123865127563 0.37650981545448303 0.062435135245323181
0.99657148122787476 0.38297271728515625 0.047618716955184937
0.0056972131133079529 0.61462211608886719 0.33171424269676208
0.0069884206168353558 0.62011277675628662 0.31843534111976624
0.25677549839019775 0.6125447154045105 0.30076894164085388
0.54727363586425781 0.58870047330856323 0.24253463745117188
0.74682700634002686 0.57030069828033447 0.16258677840232849
0.90568083524703979 0.55782973766326904 0.090026110410690308
0.99730825424194336 0.5510374903678894 0.05584653839468956
0.058376073837280273 0.7685474157333374 0.43565323948860168
0.11602964252233505 0.76978129148483276 0.43245995044708252
0.31071478128433228 0.76598399877548218 0.43274515867233276
0.51811063289642334 0.74549728631973267 0.39543443918228149
0.70368170738220215 0.72387421131134033 0.32693201303482056
0.88083899021148682 0.71911913156509399 0.25731351971626282
0.99457818269729614 0.71507126092910767 0.21069206297397614
0.33980375528335571 0.89107692241668701 0.56787216663360596
0.36647111177444458 0.88750874996185303 0.56577819585800171
0.44838893413543701 0.88984948396682739 0.57031095027923584
0.54595911502838135 0.88650298118591309 0.55439692735671997
0.67835158109664917 0.87327355146408081 0.51430583000183105
0.82525819540023804 0.86658996343612671 0.45849952101707458
0.97879916429519653 0.86698979139328003 0.40582707524299622
0.57264429330825806 0.97991311550140381 0.71325767040252686
0.58889710903167725 0.9778139591217041 0.71443659067153931
0.61750203371047974 0.9802861213684082 0.71441924571990967
0.66407263278961182 0.9797065258026123 0.71575868129730225
0.73457664251327515 0.97295194864273071 0.69390153884887695
0.81838840246200562 0.9724050760269165 0.67078173160552979
0.92044401168823242 0.97405898571014404 0.64210468530654907
0.0050102383829653263 0.016422316431999207 0.40558943152427673
0.10251335054636002 0.016824506223201752 0.39916554093360901
0.34628546237945557 0.0079393871128559113 0.38201645016670227
0.57110726833343506 0.0037874109111726284 0.35557687282562256
0.74625128507614136 0.0043258816003799438 0.30910968780517578
0.88235145807266235 0.0026709013618528843 0.25841203331947327
0.99345475435256958 0.0025157853960990906 0.24006612598896027
0.0057557797990739346 0.16517674922943115 0.40648868680000305
0.058680083602666855 0.15853849053382874 0.39837980270385742
0.36379733681678772 0.14585074782371521 0.39499163627624512
0.58497536182403564 0.11247443407773972 0.36105680465698242
0.74906182289123535 0.040100425481796265 0.31337597966194153
0.87962150573730469 0.050851829349994659 0.28155162930488586
0.99225723743438721 0.11153045296669006 0.26192602515220642
0.0035743564367294312 0.39082852005958557 0.40634050965309143
0.097280330955982208 0.39614617824554443 0.41150179505348206
0.39465498924255371 0.39201599359512329 0.41089159250259399
0.59913802146911621 0.37620136141777039 0.37206175923347473
0.75209546089172363 0.34419059753417969 0.33365818858146667
0.88454455137252808 0.33941453695297241 0.30447733402252197
0.990181565284729 0.35249742865562439 0.27749171853065491
0.23451937735080719 0.60618895292282104 0.48278552293777466
0.33087614178657532 0.60368114709854126 0.48532500863075256
0.42740833759307861 0.5993807315826416 0.47247308492660522
0.58181548118591309 0.58175134658813477 0.42799443006515503
0.75188249349594116 0.5621483325958252 0.38032957911491394
0.89454919099807739 0.54098916053771973 0.33881542086601257
0.98940366506576538 0.54070878028869629 0.31989210844039917
0.4133656919002533 0.75251060724258423 0.57286274433135986
0.42946496605873108 0.75266754627227783 0.56686055660247803
0.46690601110458374 0.75622707605361938 0.55171000957489014
0.57535064220428467 0.74614113569259644 0.53091722726821899
0.72380352020263672 0.72844618558883667 0.4813292920589447
0.87985384464263916 0.71586900949478149 0.43321603536605835
0.99002110958099365 0.71283048391342163 0.39907857775688171
0.50878691673278809 0.8794856071472168 0.66025692224502563
0.51427453756332397 0.88085132837295532 0.65298694372177124
0.54446524381637573 0.88737702369689941 0.64704304933547974
0.61330068111419678 0.8839486837387085 0.64495491981506348
0.70980632305145264 0.87653297185897827 0.6078794002532959
0.84695297479629517 0.86572778224945068 0.55870801210403442
0.97741013765335083 0.86659014225006104 0.51167559623718262
0.65116196870803833 0.97704237699508667 0.76522934436798096
0.65790987014770508 0.97200089693069458 0.76277947425842285
0.67217046022415161 0.97594726085662842 0.76167768239974976
0.70813173055648804 0.9750363826751709 0.76076251268386841
0.7591477632522583 0.9768449068069458 0.75019758939743042
0.83924192190170288 0.97141993045806885 0.72666692733764648
0.93482446670532227 0.97219556570053101 0.69424170255661011
0.0052470038644969463 0.0069296741858124733 0.61698412895202637
0.13941602408885956 0.0028071084525436163 0.61819684505462646
0.40189063549041748 0.012106817215681076 0.61270654201507568
0.60881239175796509 0.0048029730096459389 0.59993433952331543
0.76871734857559204 0.0040057762525975704 0.54879474639892578
0.89691621065139771 0.0094543006271123886 0.49697008728981018
0.99639517068862915 0.0039924620650708675 0.45650839805603027
0.0092132864519953728 0.15703669190406799 0.61758232116699219
0.07903347909450531 0.14834852516651154 0.62245118618011475
0.39823368191719055 0.13156262040138245 0.6144372820854187
0.61627423763275146 0.10461443662643433 0.60209840536117554
0.76926183700561523 0.14041003584861755 0.55073171854019165
0.89715754985809326 0.15246731042861938 0.50197368860244751
0.99711477756500244 0.074292756617069244 0.45855876803398132
0.0053758807480335236 0.39221712946891785 0.6142810583114624
0.04353085532784462 0.38591551780700684 0.61913621425628662
0.39608106017112732 0.3873760998249054 0.60855770111083984
0.60555708408355713 0.38378095626831055 0.58850574493408203
0.7544904351234436 0.38877290487289429 0.55000299215316772
0.88768982887268066 0.35153013467788696 0.50013363361358643
0.99032700061798096 0.30099841952323914 0.45574930310249329
0.14104810357093811 0.59988677501678467 0.61002832651138306
0.3019351065158844 0.59479141235351562 0.6125141978263855
0.47030907869338989 0.58777308464050293 0.60686856508255005
0.60301917791366577 0.57166296243667603 0.59365296363830566
0.75191402435302734 0.55755782127380371 0.559009850025177
0.88696855306625366 0.52143293619155884 0.52028155326843262
0.98940789699554443 0.50578808784484863 0.49859845638275146
0.47352740168571472 0.74380522966384888 0.66340619325637817
0.51586651802062988 0.74545633792877197 0.66691380739212036
0.58188486099243164 0.74271780252456665 0.66702085733413696
0.64110672473907471 0.73600262403488159 0.65728485584259033
0.75043416023254395 0.72351062297821045 0.62065798044204712
0.88825410604476929 0.71225041151046753 0.57869905233383179
0.99134498834609985 0.69662928581237793 0.54701954126358032
0.62496495246887207 0.8760986328125 0.75468629598617554
0.64596140384674072 0.8762584924697876 0.75517499446868896
0.66209894418716431 0.88052034378051758 0.74714350700378418
0.69634997844696045 0.88141226768493652 0.74095988273620605
0.75909000635147095 0.8762630820274353 0.7130236029624939
0.87195348739624023 0.86279702186584473 0.66352367401123047
0.98144090175628662 0.85929840803146362 0.62251263856887817
0.73614895343780518 0.96858268976211548 0.83016937971115112
0.74053436517715454 0.96779006719589233 0.82827532291412354
0.74763041734695435 0.96956753730773926 0.82578939199447632
0.77001774311065674 0.96970272064208984 0.82222145795822144
0.79955875873565674 0.97330307960510254 0.81205278635025024
0.85913527011871338 0.97526544332504272 0.79401391744613647
0.94363498687744141 0.97154426574707031 0.76039457321166992
0.0069512762129306793 0.0060245287604629993 0.78720688819885254
0.15763172507286072 0.00084198598051443696 0.78676515817642212
0.40535828471183777 0.0072820326313376427 0.78186273574829102
0.60690867900848389 0.0079629337415099144 0.77639645338058472
0.77786779403686523 0.0079848198220133781 0.75697362422943115
0.9181438684463501 0.02078164741396904 0.71213853359222412
0.99625146389007568 0.22314812242984772 0.67401123046875
0.0086347246542572975 0.14507871866226196 0.78938001394271851
0.13463222980499268 0.14176388084888458 0.79100269079208374
0.40197786688804626 0.1303476095199585 0.7805863618850708
0.60591715574264526 0.13557018339633942 0.77414840459823608
0.78212630748748779 0.17158868908882141 0.75651884078979492
0.9161531925201416 0.23308838903903961 0.7154502272605896
0.99360018968582153 0.31921637058258057 0.67974746227264404
0.0054995669052004814 0.38325849175453186 0.77975571155548096
0.16070635616779327 0.38241183757781982 0.78082245588302612
0.41148412227630615 0.38468897342681885 0.77345937490463257
0.60692203044891357 0.39595603942871094 0.76390320062637329
0.7694011926651001 0.41814246773719788 0.74677097797393799
0.90062350034713745 0.42671391367912292 0.71572679281234741
0.98700284957885742 0.43972954154014587 0.67488974332809448
0.083901062607765198 0.57728630304336548 0.76769351959228516
0.25356021523475647 0.57653355598449707 0.76533967256546021
0.43792432546615601 0.57307571172714233 0.75615602731704712
0.61149007081985474 0.56937098503112793 0.74874323606491089
0.76572585105895996 0.57649016380310059 0.73938083648681641
0.88765347003936768 0.57059615850448608 0.70760220289230347
0.98791277408599854 0.5358579158782959 0.66065061092376709
0.41541635990142822 0.74065190553665161 0.7670358419418335
0.4751337468624115 0.73751819133758545 0.76589709520339966
0.55282443761825562 0.73510384559631348 0.75972998142242432
0.6592400074005127 0.72579008340835571 0.75989162921905518
0.76684296131134033 0.71796685457229614 0.73968392610549927
0.88246464729309082 0.69324749708175659 0.70818561315536499
0.99039465188980103 0.66919612884521484 0.67315208911895752
0.63508898019790649 0.87537878751754761 0.81456339359283447
0.65647292137145996 0.87313926219940186 0.81463652849197388
0.70147979259490967 0.87664884328842163 0.81930512189865112
0.75342977046966553 0.87255382537841797 0.81943738460540771
0.80622613430023193 0.87577706575393677 0.81494754552841187
0.88964259624481201 0.85680413246154785 0.77757793664932251
0.98599976301193237 0.84931439161300659 0.74457234144210815
0.7726207971572876 0.968269944190979 0.88158446550369263
0.78059464693069458 0.96762388944625854 0.88364893198013306
0.80834156274795532 0.96876484155654907 0.88677442073822021
0.83219420909881592 0.96701323986053467 0.8833458423614502
0.85228925943374634 0.97001177072525024 0.87980318069458008
0.89520198106765747 0.96899276971817017 0.85985583066940308
0.95334064960479736 0.96851843595504761 0.83776956796646118
0.010608239099383354 0.0020221634767949581 0.92022919654846191
0.19632299244403839 0.0042366175912320614 0.91765952110290527
0.39817065000534058 0.0063120974227786064 0.91182428598403931
0.59150534868240356 0.0064654033631086349 0.90917837619781494
0.75878715515136719 0.027112923562526703 0.90635043382644653
0.91694045066833496 0.13626290857791901 0.89161044359207153
0.99769431352615356 0.2542266845703125 0.85882961750030518
0.011670385487377644 0.14311240613460541 0.91843611001968384
0.20501731336116791 0.1492510586977005 0.91424155235290527
0.40864536166191101 0.15904094278812408 0.91017872095108032
0.59504765272140503 0.17743346095085144 0.90623652935028076
0.76024293899536133 0.23818384110927582 0.89846396446228027
0.91078037023544312 0.29156357049942017 0.88634359836578369
0.99644964933395386 0.35250785946846008 0.85990506410598755
0.12201461941003799 0.38286513090133667 0.91165292263031006
0.27122712135314941 0.38828054070472717 0.90575689077377319
0.4393555223941803 0.38946637511253357 0.89977502822875977
0.60603445768356323 0.40548369288444519 0.90300977230072021
0.76208335161209106 0.43959230184555054 0.89445781707763672
0.90395385026931763 0.46090921759605408 0.88118463754653931
0.99413895606994629 0.47797882556915283 0.85435408353805542
0.17589128017425537 0.55748289823532104 0.900226891040802
0.30765509605407715 0.56293874979019165 0.89551222324371338
0.46173521876335144 0.56616395711898804 0.89070373773574829
0.61541473865509033 0.5693976879119873 0.89310681819915771
0.76940661668777466 0.59097719192504883 0.88428115844726562
0.8996206521987915 0.60320347547531128 0.87466311454772949
0.99336987733840942 0.60518372058868408 0.85358214378356934
0.37109842896461487 0.71683770418167114 0.88821870088577271
0.42931821942329407 0.7155957818031311 0.88838273286819458
0.51241034269332886 0.70969367027282715 0.88865941762924194
0.62658447027206421 0.71171212196350098 0.88557034730911255
0.76887786388397217 0.72099500894546509 0.87359416484832764
0.89573365449905396 0.73059439659118652 0.871753990650177
0.98671799898147583 0.72495543956756592 0.84825712442398071
0.57247811555862427 0.86840176582336426 0.88975870609283447
0.60053038597106934 0.86747592687606812 0.88952422142028809
0.65436393022537231 0.86634451150894165 0.89324772357940674
0.73650467395782471 0.86601823568344116 0.89455711841583252
0.81929153203964233 0.85921019315719604 0.89346790313720703
0.89625406265258789 0.86113184690475464 0.88770776987075806
0.98296976089477539 0.83683735132217407 0.85258537530899048
0.77925556898117065 0.9719851016998291 0.92217671871185303
0.79012233018875122 0.97012114524841309 0.92469531297683716
0.81141424179077148 0.96766775846481323 0.92625647783279419
0.84727293252944946 0.96487718820571899 0.92732220888137817
0.8910210132598877 0.96895205974578857 0.93693119287490845
0.92643147706985474 0.97312194108963013 0.9324650764465332
0.96950072050094604 0.97015726566314697 0.91526001691818237
0.12861229479312897 0.0039367377758026123 0.99447786808013916
0.25378087162971497 0.0050917081534862518 0.99376553297042847
0.40944555401802063 0.014893895015120506 0.99385839700698853
0.57274562120437622 0.065176360309123993 0.99678194522857666
0.73035860061645508 0.18286275863647461 0.9875912070274353
0.87397259473800659 0.30411455035209656 0.98721611499786377
0.98833918571472168 0.37570270895957947 0.98250859975814819
0.17615509033203125 0.17854999005794525 0.99176490306854248
0.2854163646697998 0.18746392428874969 0.99346846342086792
0.42939779162406921 0.20836785435676575 0.99096035957336426
0.58962464332580566 0.2527497410774231 0.98908239603042603
0.7359204888343811 0.31183579564094543 0.98599821329116821
0.87549763917922974 0.38652145862579346 0.98347407579421997
0.98853605985641479 0.43159782886505127 0.98267966508865356
0.27344363927841187 0.3943428099155426 0.98498797416687012
0.35465380549430847 0.39933165907859802 0.98857361078262329
0.47122964262962341 0.40563708543777466 0.98815852403640747
0.61041384935379028 0.43016615509986877 0.98643898963928223
0.74935519695281982 0.46919876337051392 0.98293489217758179
0.88356155157089233 0.50326031446456909 0.98223906755447388
0.99016875028610229 0.53116899728775024 0.97945886850357056
0.3494892418384552 0.56403428316116333 0.98466205596923828
0.41388770937919617 0.56986141204833984 0.98660540580749512
0.50918442010879517 0.57366538047790527 0.98365199565887451
0.63804405927658081 0.58249032497406006 0.98233062028884888
0.76368832588195801 0.60214251279830933 0.98222976922988892
0.88835424184799194 0.62871366739273071 0.98173576593399048
0.9883231520652771 0.64228707551956177 0.97847700119018555
0.3642585277557373 0.68931084871292114 0.98681426048278809
0.41675955057144165 0.68894332647323608 0.98736441135406494
0.51787984371185303 0.69535744190216064 0.98293739557266235
0.65030622482299805 0.71321117877960205 0.98047977685928345
0.77821809053421021 0.73119181394577026 0.97482573986053467
0.89094239473342896 0.75082308053970337 0.97618180513381958
0.98575997352600098 0.76535278558731079 0.97519528865814209
0.55664193630218506 0.84170162677764893 0.97903668880462646
0.58856058120727539 0.84175688028335571 0.97790074348449707
0.63555693626403809 0.84218734502792358 0.98003405332565308
0.70634031295776367 0.8488650918006897 0.98092007637023926
0.79654133319854736 0.85039651393890381 0.97973120212554932
0.89570575952529907 0.86891478300094604 0.97869265079498291
0.98182928562164307 0.8818017840385437 0.97661572694778442
0.73898601531982422 0.96591633558273315 0.9810832142829895
0.75298207998275757 0.96404790878295898 0.98080909252166748
0.78203248977661133 0.96299469470977783 0.98234778642654419
0.82123446464538574 0.96064639091491699 0.98310297727584839
0.87700915336608887 0.96800726652145386 0.98379552364349365
0.92964667081832886 0.97155153751373291 0.98382395505905151
0.98005831241607666 0.97293835878372192 0.98073959350585938
