luts/negative_old/fuji_superia_1600_++.cube
# Created by: G'MIC (https://gmic.eu)
TITLE "fuji_superia_1600_++"
# LUT size
LUT_3D_SIZE 7
# Data domain
DOMAIN_MIN 0.0 0.0 0.0
DOMAIN_MAX 1.0 1.0 1.0
# LUT data points
0.15522702038288116 0.21191093325614929 0.19221927225589752
0.18015637993812561 0.21346727013587952 0.19189372658729553
0.26698824763298035 0.21959388256072998 0.1904338151216507
0.43987014889717102 0.22778546810150146 0.18861342966556549
0.63655930757522583 0.23773208260536194 0.18190819025039673
0.79263246059417725 0.26113185286521912 0.17944735288619995
0.93584758043289185 0.29970547556877136 0.16775384545326233
0.14397072792053223 0.24350103735923767 0.19556497037410736
0.17669922113418579 0.2478448748588562 0.19408068060874939
0.29811471700668335 0.26178038120269775 0.18884307146072388
0.48762974143028259 0.27673089504241943 0.18389919400215149
0.66349375247955322 0.28942051529884338 0.17953801155090332
0.81197202205657959 0.30972582101821899 0.1739574670791626
0.94633400440216064 0.34403765201568604 0.16706597805023193
0.063333921134471893 0.34973177313804626 0.20352916419506073
0.14187629520893097 0.35603100061416626 0.20327253639698029
0.30921101570129395 0.38962623476982117 0.18486844003200531
0.54323017597198486 0.41817095875740051 0.16864334046840668
0.69844764471054077 0.39863047003746033 0.17231085896492004
0.83335143327713013 0.40593442320823669 0.17541484534740448
0.95683670043945312 0.43171876668930054 0.17531195282936096
0.0025207668077200651 0.50772517919540405 0.23616649210453033
0.048684649169445038 0.50689244270324707 0.23286080360412598
0.26566186547279358 0.51737898588180542 0.22311265766620636
0.50239920616149902 0.5544135570526123 0.19548271596431732
0.72760248184204102 0.58316045999526978 0.17383258044719696
0.85337406396865845 0.55115187168121338 0.19421645998954773
0.96728408336639404 0.54986709356307983 0.21944350004196167
0.13330629467964172 0.6495826244354248 0.32872644066810608
0.19212143123149872 0.6402735710144043 0.32344642281532288
0.31047877669334412 0.63520795106887817 0.31456249952316284
0.47664088010787964 0.6584966778755188 0.30549129843711853
0.67421633005142212 0.69004148244857788 0.29059258103370667
0.86291754245758057 0.72471940517425537 0.28204914927482605
0.97021704912185669 0.71101969480514526 0.30863800644874573
0.36597806215286255 0.77141642570495605 0.44593906402587891
0.38675782084465027 0.76821726560592651 0.44332417845726013
0.43986645340919495 0.76097297668457031 0.43962150812149048
0.53811907768249512 0.77109044790267944 0.43616709113121033
0.66702288389205933 0.7897493839263916 0.43413767218589783
0.81504136323928833 0.81634438037872314 0.4286811351776123
0.95778125524520874 0.8550993800163269 0.43464276194572449
0.58329582214355469 0.89716368913650513 0.60048627853393555
0.59363609552383423 0.89549285173416138 0.59966892004013062
0.62344509363174438 0.89391934871673584 0.60015857219696045
0.66567468643188477 0.89528673887252808 0.59741324186325073
0.74335116147994995 0.90421199798583984 0.60007143020629883
0.83094692230224609 0.92134612798690796 0.60484647750854492
0.92168617248535156 0.93475735187530518 0.61057835817337036
0.15646308660507202 0.21294490993022919 0.21514753997325897
0.1860249787569046 0.21585972607135773 0.21783323585987091
0.2792394757270813 0.21666286885738373 0.22331267595291138
0.46327152848243713 0.20551164448261261 0.21726828813552856
0.63874250650405884 0.2237716019153595 0.21898365020751953
0.79393959045410156 0.25142544507980347 0.22058425843715668
0.93428069353103638 0.29503253102302551 0.21799761056900024
0.14665408432483673 0.24780400097370148 0.22989751398563385
0.18786561489105225 0.25096091628074646 0.2256690114736557
0.30419951677322388 0.25997143983840942 0.23077103495597839
0.49084043502807617 0.26896506547927856 0.22570525109767914
0.65909630060195923 0.27975165843963623 0.22533957660198212
0.80840581655502319 0.30368894338607788 0.22353263199329376
0.94395309686660767 0.34555450081825256 0.22390812635421753
0.11961843818426132 0.3708018958568573 0.25761228799819946
0.1738276481628418 0.3675747811794281 0.25164902210235596
0.3274560272693634 0.38961866497993469 0.24067243933677673
0.54150378704071045 0.40382516384124756 0.23144286870956421
0.69682985544204712 0.39769229292869568 0.23697209358215332
0.82819622755050659 0.40653058886528015 0.23522552847862244
0.95288926362991333 0.43216118216514587 0.24007305502891541
0.077827200293540955 0.52563011646270752 0.30245259404182434
0.17169767618179321 0.5163884162902832 0.29747679829597473
0.30760759115219116 0.51977944374084473 0.28898122906684875
0.51531767845153809 0.55393260717391968 0.27281221747398376
0.72278785705566406 0.57509839534759521 0.26842692494392395
0.84969663619995117 0.55176258087158203 0.27741539478302002
0.96482962369918823 0.55389952659606934 0.28573718667030334
0.24368554353713989 0.65414929389953613 0.38398915529251099
0.27355536818504333 0.64711666107177734 0.3778349757194519
0.35783323645591736 0.63914471864700317 0.36908617615699768
0.50066357851028442 0.65988194942474365 0.36568751931190491
0.67992961406707764 0.69001275300979614 0.35734906792640686
0.86315256357192993 0.72401720285415649 0.35283181071281433
0.96857041120529175 0.7098042368888855 0.3678058385848999
0.40442565083503723 0.77467173337936401 0.48096355795860291
0.42495670914649963 0.76862114667892456 0.47833940386772156
0.47278439998626709 0.76660251617431641 0.47409111261367798
0.55638384819030762 0.77277135848999023 0.47331124544143677
0.68000167608261108 0.79332274198532104 0.47369438409805298
0.8221014142036438 0.81883698701858521 0.46880197525024414
0.95878660678863525 0.85333192348480225 0.47509470582008362
0.59842431545257568 0.89877462387084961 0.61773169040679932
0.60650104284286499 0.89473551511764526 0.61384505033493042
0.63360929489135742 0.89678555727005005 0.61710768938064575
0.67686253786087036 0.89632195234298706 0.61699807643890381
0.74828100204467773 0.90569192171096802 0.6203187108039856
0.83553093671798706 0.92141401767730713 0.62139236927032471
0.9222295880317688 0.93573629856109619 0.63124173879623413
0.16144201159477234 0.21400710940361023 0.30616116523742676
0.20626275241374969 0.21483154594898224 0.30916485190391541
0.3077244758605957 0.21726824343204498 0.31878513097763062
0.50035488605499268 0.2142794281244278 0.33685234189033508
0.68137204647064209 0.19753111898899078 0.32670539617538452
0.81701564788818359 0.19539947807788849 0.30316537618637085
0.93413048982620239 0.27092322707176208 0.31247726082801819
0.1266208291053772 0.24822883307933807 0.32233887910842896
0.19661469757556915 0.25339281558990479 0.32461589574813843
0.32583722472190857 0.26583686470985413 0.33619821071624756
0.5178598165512085 0.27267467975616455 0.34519851207733154
0.6802029013633728 0.26283502578735352 0.32853195071220398
0.80881929397583008 0.28924816846847534 0.32143667340278625
0.93194597959518433 0.33659228682518005 0.32692652940750122
0.091494359076023102 0.38275521993637085 0.36443057656288147
0.20139972865581512 0.38250383734703064 0.36400297284126282
0.35428252816200256 0.38639047741889954 0.36394312977790833
0.53487443923950195 0.39436089992523193 0.35938754677772522
0.67944931983947754 0.39840871095657349 0.35539144277572632
0.81683766841888428 0.40688955783843994 0.35041263699531555
0.93956881761550903 0.43508189916610718 0.35040357708930969
0.28476378321647644 0.55124670267105103 0.43609589338302612
0.33277583122253418 0.54208648204803467 0.43052038550376892
0.39217525720596313 0.52771466970443726 0.40968078374862671
0.54156166315078735 0.54892867803573608 0.40228444337844849
0.71272438764572144 0.55738157033920288 0.40007585287094116
0.84034687280654907 0.54707473516464233 0.39262634515762329
0.95418602228164673 0.56098997592926025 0.39601653814315796
0.40340906381607056 0.67017912864685059 0.49228641390800476
0.40652009844779968 0.66236191987991333 0.47884505987167358
0.44561311602592468 0.65359967947006226 0.46662953495979309
0.53638726472854614 0.65585660934448242 0.45855569839477539
0.695171058177948 0.68740028142929077 0.45643454790115356
0.85791027545928955 0.71768969297409058 0.45776540040969849
0.96395909786224365 0.70454061031341553 0.45905405282974243
0.48617666959762573 0.78319114446640015 0.55057883262634277
0.49678331613540649 0.78280735015869141 0.5474047064781189
0.53427392244338989 0.77734041213989258 0.54262804985046387
0.58825737237930298 0.77254223823547363 0.53586053848266602
0.69652098417282104 0.79142409563064575 0.53913354873657227
0.82771700620651245 0.81874758005142212 0.53885459899902344
0.95796293020248413 0.85195040702819824 0.54420942068099976
0.63213580846786499 0.90311181545257568 0.65891516208648682
0.63996094465255737 0.9025728702545166 0.65700018405914307
0.66055381298065186 0.89962470531463623 0.65237367153167725
0.69606119394302368 0.89738637208938599 0.65132147073745728
0.75737810134887695 0.90418827533721924 0.65403658151626587
0.84163272380828857 0.9202265739440918 0.66521269083023071
0.92640012502670288 0.93588447570800781 0.66650962829589844
0.16604325175285339 0.21475374698638916 0.45472508668899536
0.23018833994865417 0.21403186023235321 0.4623224139213562
0.35640257596969604 0.21813707053661346 0.4679303765296936
0.52415388822555542 0.22210924327373505 0.48621886968612671
0.69108450412750244 0.25698727369308472 0.49955517053604126
0.84686088562011719 0.31125965714454651 0.50644975900650024
0.96319389343261719 0.30572509765625 0.47668585181236267
0.11938467621803284 0.25113645195960999 0.47330904006958008
0.21316193044185638 0.25885817408561707 0.47655925154685974
0.36558157205581665 0.27115455269813538 0.48261570930480957
0.53010040521621704 0.29306158423423767 0.49354031682014465
0.69433164596557617 0.3310493528842926 0.5064893364906311
0.84136641025543213 0.3613244891166687 0.50565677881240845
0.9592786431312561 0.34552881121635437 0.47445076704025269
0.0078366892412304878 0.35396906733512878 0.48923122882843018
0.15879672765731812 0.35693666338920593 0.48982053995132446
0.36243799328804016 0.38422569632530212 0.49566859006881714
0.54420500993728638 0.41746705770492554 0.50709831714630127
0.69796633720397949 0.44037243723869324 0.51791644096374512
0.82963317632675171 0.43101063370704651 0.49423155188560486
0.9428592324256897 0.41943651437759399 0.46941137313842773
0.25192931294441223 0.54505950212478638 0.53491884469985962
0.32058745622634888 0.5402793288230896 0.52901333570480347
0.43708789348602295 0.53733450174331665 0.52972990274429321
0.56131547689437866 0.53946208953857422 0.52611970901489258
0.69840902090072632 0.54408270120620728 0.51860445737838745
0.81977587938308716 0.53824836015701294 0.5037040114402771
0.94303035736083984 0.54677772521972656 0.49590808153152466
0.48677822947502136 0.69433712959289551 0.59816455841064453
0.50653856992721558 0.68625259399414062 0.59174865484237671
0.55287331342697144 0.67670625448226929 0.58371895551681519
0.5931580662727356 0.66248011589050293 0.56541717052459717
0.71283507347106934 0.68161898851394653 0.55993634462356567
0.84931665658950806 0.70004957914352417 0.55847412347793579
0.95797610282897949 0.69150805473327637 0.55063295364379883
0.59813356399536133 0.80093330144882202 0.65505886077880859
0.60425597429275513 0.79933792352676392 0.64860028028488159
0.61551380157470703 0.79106485843658447 0.63221687078475952
0.64271414279937744 0.78348702192306519 0.61798208951950073
0.71603935956954956 0.78888249397277832 0.60919845104217529
0.84276747703552246 0.82212001085281372 0.6197282075881958
0.95959144830703735 0.84621846675872803 0.62591850757598877
0.69379377365112305 0.90843033790588379 0.72552388906478882
0.69767278432846069 0.90840405225753784 0.72215574979782104
0.70328235626220703 0.90667366981506348 0.71208900213241577
0.72489625215530396 0.90226858854293823 0.70377302169799805
0.77395987510681152 0.90377199649810791 0.70214760303497314
0.85158741474151611 0.92110466957092285 0.71174919605255127
0.93162238597869873 0.93784421682357788 0.71635311841964722
0.20423024892807007 0.21603262424468994 0.60552686452865601
0.27434250712394714 0.21725040674209595 0.60528135299682617
0.4001234769821167 0.22163279354572296 0.60957419872283936
0.55601465702056885 0.24408772587776184 0.62132722139358521
0.71122854948043823 0.28005132079124451 0.63517588376998901
0.83380264043807983 0.34423926472663879 0.63784658908843994
0.96702820062637329 0.43318864703178406 0.65862315893173218
0.17702154815196991 0.26486673951148987 0.61430555582046509
0.26261049509048462 0.27051416039466858 0.6144440770149231
0.40340504050254822 0.27597495913505554 0.61696529388427734
0.5634535551071167 0.31190004944801331 0.6220935583114624
0.70701909065246582 0.34950909018516541 0.63132315874099731
0.83534759283065796 0.40068736672401428 0.64133590459823608
0.96650028228759766 0.47414734959602356 0.66179043054580688
0.088621862232685089 0.34656235575675964 0.61586236953735352
0.23331429064273834 0.35946229100227356 0.61552709341049194
0.40224555134773254 0.38503995537757874 0.62027961015701294
0.56706732511520386 0.41989034414291382 0.62804442644119263
0.7087135910987854 0.45837995409965515 0.63771772384643555
0.83613324165344238 0.49476510286331177 0.64978951215744019
0.9595223069190979 0.53006076812744141 0.65445375442504883
0.14057755470275879 0.49855950474739075 0.62477248907089233
0.24006564915180206 0.49206006526947021 0.61947822570800781
0.38073614239692688 0.49751955270767212 0.62082302570343018
0.55721241235733032 0.52598100900650024 0.63123553991317749
0.714111328125 0.56316590309143066 0.64490598440170288
0.84231346845626831 0.59074431657791138 0.65878057479858398
0.95538783073425293 0.57856303453445435 0.63949483633041382
0.43169042468070984 0.67882180213928223 0.6692386269569397
0.46815598011016846 0.67738217115402222 0.6697542667388916
0.53540211915969849 0.6738312840461731 0.66930305957794189
0.62437474727630615 0.67236882448196411 0.66800868511199951
0.72357237339019775 0.67271006107330322 0.66132014989852905
0.83726692199707031 0.67676341533660889 0.65275359153747559
0.94800180196762085 0.6667824387550354 0.63380229473114014
0.64952933788299561 0.82698285579681396 0.7428399920463562
0.65955197811126709 0.82291603088378906 0.73986172676086426
0.68495309352874756 0.81622409820556641 0.73573362827301025
0.72197878360748291 0.81177264451980591 0.72731471061706543
0.75390702486038208 0.79512327909469604 0.70462584495544434
0.85418260097503662 0.81795966625213623 0.70661824941635132
0.9628140926361084 0.82898497581481934 0.70335888862609863
0.75168001651763916 0.92056047916412354 0.80412930250167847
0.75756376981735229 0.91983157396316528 0.80297285318374634
0.77064222097396851 0.9184224009513855 0.79826498031616211
0.7843087911605835 0.91692459583282471 0.78791654109954834
0.80800384283065796 0.91180717945098877 0.77651989459991455
0.85871267318725586 0.92036539316177368 0.77238667011260986
0.94233214855194092 0.94086205959320068 0.78572189807891846
0.30473124980926514 0.22456586360931396 0.74558299779891968
0.3660011887550354 0.22564814984798431 0.74944949150085449
0.47498920559883118 0.23613512516021729 0.74795281887054443
0.61344319581985474 0.27191117405891418 0.7532498836517334
0.75002044439315796 0.33343079686164856 0.75956130027770996
0.86867243051528931 0.38861754536628723 0.76447361707687378
0.95804202556610107 0.44765728712081909 0.76294112205505371
0.30003124475479126 0.27673396468162537 0.74766945838928223
0.36510026454925537 0.28204742074012756 0.74941527843475342
0.48098945617675781 0.29982250928878784 0.74944597482681274
0.61629050970077515 0.33262652158737183 0.75392091274261475
0.75228065252304077 0.38989531993865967 0.76125407218933105
0.868175208568573 0.43591934442520142 0.76703184843063354
0.95717823505401611 0.48842766880989075 0.76836079359054565
0.27442175149917603 0.37305876612663269 0.74715328216552734
0.3494543731212616 0.38020578026771545 0.74891912937164307
0.46719434857368469 0.39849585294723511 0.75021088123321533
0.61521583795547485 0.43302464485168457 0.75496512651443481
0.74537414312362671 0.47555729746818542 0.76108759641647339
0.85737037658691406 0.52006059885025024 0.7664000391960144
0.95293170213699341 0.55637073516845703 0.77389848232269287
0.10643061995506287 0.46812045574188232 0.73734492063522339
0.23703794181346893 0.47086820006370544 0.73787170648574829
0.41065746545791626 0.48800346255302429 0.74418967962265015
0.58775615692138672 0.52209818363189697 0.75274348258972168
0.73841232061386108 0.56407004594802856 0.76037925481796265
0.85453218221664429 0.60650157928466797 0.76837670803070068
0.95306253433227539 0.64225786924362183 0.78283774852752686
0.29751607775688171 0.64083695411682129 0.75872838497161865
0.34102711081504822 0.63465207815170288 0.75541466474533081
0.42191970348358154 0.62187004089355469 0.75274240970611572
0.53636890649795532 0.62067306041717529 0.74868154525756836
0.71629184484481812 0.65369468927383423 0.76090157032012939
0.85831815004348755 0.70178049802780151 0.78024846315383911
0.9553534984588623 0.73055505752563477 0.79280310869216919
0.5710146427154541 0.80835914611816406 0.80539184808731079
0.58761072158813477 0.80501288175582886 0.80390119552612305
0.6326403021812439 0.80415064096450806 0.80940788984298706
0.70077550411224365 0.80592852830886841 0.80667233467102051
0.77541011571884155 0.80398625135421753 0.80599105358123779
0.85554367303848267 0.80349761247634888 0.79443091154098511
0.95679366588592529 0.80797779560089111 0.78854656219482422
0.78626203536987305 0.93223422765731812 0.87173771858215332
0.79056543111801147 0.93221724033355713 0.8714258074760437
0.80859720706939697 0.9312935471534729 0.87162917852401733
0.83553481101989746 0.93070304393768311 0.87248677015304565
0.86365598440170288 0.92968344688415527 0.87010908126831055
0.88658028841018677 0.92490625381469727 0.85310822725296021
0.95484751462936401 0.94160151481628418 0.86139202117919922
0.48738572001457214 0.29534816741943359 0.902354896068573
0.52601528167724609 0.30465739965438843 0.90138834714889526
0.60421383380889893 0.32660636305809021 0.89928925037384033
0.70696026086807251 0.36630231142044067 0.89859378337860107
0.81492263078689575 0.42233940958976746 0.89669066667556763
0.91117894649505615 0.49635878205299377 0.8946458101272583
0.98420214653015137 0.54738575220108032 0.8967818021774292
0.48682180047035217 0.34750887751579285 0.90068495273590088
0.52398490905761719 0.355552077293396 0.89917683601379395
0.60267698764801025 0.37268838286399841 0.89731025695800781
0.70841085910797119 0.40988454222679138 0.89932930469512939
0.81410855054855347 0.46149212121963501 0.896961510181427
0.90755736827850342 0.52628570795059204 0.8958248496055603
0.98199349641799927 0.57062441110610962 0.89705860614776611
0.46223127841949463 0.43327122926712036 0.89935362339019775
0.50874119997024536 0.43772265315055847 0.90146875381469727
0.58921998739242554 0.45105037093162537 0.89732635021209717
0.6987108588218689 0.47754549980163574 0.89754629135131836
0.80738043785095215 0.52634406089782715 0.8969992995262146
0.90312814712524414 0.58148050308227539 0.89605957269668579
0.97858268022537231 0.6189115047454834 0.89842158555984497
0.34932902455329895 0.50542134046554565 0.89988750219345093
0.41354843974113464 0.51264804601669312 0.89736974239349365
0.53296715021133423 0.53061890602111816 0.89731502532958984
0.66529446840286255 0.55180573463439941 0.89697897434234619
0.7926679253578186 0.59507721662521362 0.89822691679000854
0.89388442039489746 0.642436683177948 0.89881759881973267
0.97476178407669067 0.68192112445831299 0.90160846710205078
0.15284229815006256 0.61890864372253418 0.8963579535484314
0.23766615986824036 0.6137281060218811 0.89444786310195923
0.38536214828491211 0.61152637004852295 0.89350908994674683
0.56770980358123779 0.62462985515594482 0.89651894569396973
0.75302845239639282 0.66841453313827515 0.9011763334274292
0.88242274522781372 0.71713322401046753 0.9040534496307373
0.96689456701278687 0.76080459356307983 0.90832799673080444
0.47997662425041199 0.79479295015335083 0.90779215097427368
0.4986509382724762 0.79462409019470215 0.91038221120834351
0.53701460361480713 0.7871745228767395 0.90964943170547485
0.59945350885391235 0.77270734310150146 0.90902996063232422
0.68772405385971069 0.76030534505844116 0.90369284152984619
0.85001611709594727 0.79569059610366821 0.91073954105377197
0.96113693714141846 0.84645932912826538 0.91991573572158813
0.72531294822692871 0.93070727586746216 0.9347802996635437
0.73283278942108154 0.92839300632476807 0.93112534284591675
0.75882905721664429 0.93040907382965088 0.93519312143325806
0.79559844732284546 0.93012350797653198 0.93767815828323364
0.84463298320770264 0.93075871467590332 0.93908298015594482
0.89997667074203491 0.93321490287780762 0.94152140617370605
0.96319258213043213 0.94268530607223511 0.94206827878952026
