luts/negative_old/fuji_superia_400_++.cube
# Created by: G'MIC (https://gmic.eu)
TITLE "fuji_superia_400_++"
# LUT size
LUT_3D_SIZE 13
# Data domain
DOMAIN_MIN 0.0 0.0 0.0
DOMAIN_MAX 1.0 1.0 1.0
# LUT data points
0.031224314123392105 0.088883116841316223 0.079508699476718903
0.073132291436195374 0.097294315695762634 0.083320990204811096
0.1362423300743103 0.09971185028553009 0.081287994980812073
0.2104719877243042 0.095609657466411591 0.076312586665153503
0.30460172891616821 0.090517051517963409 0.073545239865779877
0.41519224643707275 0.076303906738758087 0.07007039338350296
0.54366844892501831 0.044067233800888062 0.061739422380924225
0.67569226026535034 0.021490283310413361 0.045420955866575241
0.79372978210449219 0.013845660723745823 0.027141362428665161
0.8853873610496521 0.013853349722921848 0.014970697462558746
0.9643256664276123 0.039380092173814774 0.0050157434307038784
0.99321681261062622 0.11335163563489914 0.0030771591700613499
0.99905073642730713 0.19785831868648529 0.0024223627988249063
0.026755284518003464 0.11710486561059952 0.086539298295974731
0.062493432313203812 0.12404169142246246 0.085282795131206512
0.13494637608528137 0.12855646014213562 0.078586563467979431
0.21984909474849701 0.12771441042423248 0.071211539208889008
0.31444031000137329 0.12555178999900818 0.069746933877468109
0.42512476444244385 0.11953958123922348 0.067162260413169861
0.54996883869171143 0.10212020576000214 0.054847147315740585
0.67796933650970459 0.082017697393894196 0.034935969859361649
0.79284399747848511 0.068063832819461823 0.019933588802814484
0.88119858503341675 0.082207366824150085 0.01816832646727562
0.96134579181671143 0.12599354982376099 0.008147265762090683
0.99522346258163452 0.1758514791727066 0.0046304590068757534
0.99926239252090454 0.22743582725524902 0.005033156368881464
0.028473423793911934 0.15987887978553772 0.098838895559310913
0.06199372187256813 0.16753178834915161 0.096722319722175598
0.12713116407394409 0.17720581591129303 0.087200969457626343
0.22933250665664673 0.19468383491039276 0.066216997802257538
0.33228316903114319 0.19305343925952911 0.05769774317741394
0.44430002570152283 0.18539837002754211 0.05075981467962265
0.5629391074180603 0.17966935038566589 0.032897021621465683
0.68305271863937378 0.17453296482563019 0.017907895147800446
0.7893517017364502 0.17432288825511932 0.013214410282671452
0.87632179260253906 0.18883690237998962 0.013199780136346817
0.95702862739562988 0.21580398082733154 0.0063714119605720043
0.993610680103302 0.24615189433097839 0.0052688596770167351
0.99701094627380371 0.27530673146247864 0.0077515845187008381
0.022797558456659317 0.22592860460281372 0.11788634955883026
0.053619146347045898 0.2261061817407608 0.11490197479724884
0.11042363941669464 0.24145999550819397 0.10607803612947464
0.21531233191490173 0.27399897575378418 0.077669940888881683
0.36287254095077515 0.31201040744781494 0.035369213670492172
0.48393219709396362 0.30407217144966125 0.017409097403287888
0.58891063928604126 0.28325393795967102 0.0068097133189439774
0.69154936075210571 0.27176022529602051 0.0052781198173761368
0.78786295652389526 0.27572381496429443 0.0086120609194040298
0.87376028299331665 0.28721779584884644 0.0089631024748086929
0.95343458652496338 0.29977795481681824 0.0050674290396273136
0.99358820915222168 0.32496803998947144 0.0039043801371008158
0.99720209836959839 0.35257437825202942 0.0048035117797553539
0.0092464368790388107 0.30837252736091614 0.14073885977268219
0.026582904160022736 0.31139352917671204 0.13827571272850037
0.091865509748458862 0.32920879125595093 0.13321897387504578
0.18921749293804169 0.35939091444015503 0.10719311237335205
0.33855727314949036 0.4090467095375061 0.046219561249017715
0.51006221771240234 0.4491654634475708 0.0056357588618993759
0.62712752819061279 0.43409106135368347 0.00071108946576714516
0.71214443445205688 0.39414027333259583 0.00033145979978144169
0.79155862331390381 0.37770527601242065 0.0027437845710664988
0.8737490177154541 0.37868234515190125 0.0050198123790323734
0.95189577341079712 0.38515859842300415 0.0036124733742326498
0.9964066743850708 0.40401047468185425 0.001937806373462081
0.99940395355224609 0.42961767315864563 0.0021954106632620096
0.0046042497269809246 0.40796038508415222 0.16913522779941559
0.008816947229206562 0.41154274344444275 0.16946932673454285
0.071075066924095154 0.42471709847450256 0.16539639234542847
0.17343196272850037 0.44697162508964539 0.14909632503986359
0.29536294937133789 0.48344442248344421 0.10821681469678879
0.46130529046058655 0.5351632833480835 0.033907588571310043
0.64014023542404175 0.57392686605453491 0.0022892970591783524
0.74656069278717041 0.5557936429977417 0.00052907608915120363
0.81360304355621338 0.51903831958770752 0.00073285569669678807
0.88336890935897827 0.48503515124320984 0.0012575485743582249
0.95131009817123413 0.46979734301567078 0.00083456601714715362
0.99507182836532593 0.48257949948310852 0.0016831491375342011
0.99960869550704956 0.50284194946289062 0.0014602959854528308
0.0037401237059384584 0.50350356101989746 0.20405036211013794
0.0091376807540655136 0.50924807786941528 0.20937974750995636
0.057379238307476044 0.51457172632217407 0.20719100534915924
0.17134903371334076 0.52707540988922119 0.20003138482570648
0.28034093976020813 0.55436879396438599 0.17912217974662781
0.41319769620895386 0.5947379469871521 0.13051797449588776
0.57482266426086426 0.63687795400619507 0.04661623015999794
0.73899519443511963 0.67298424243927002 0.0075061125680804253
0.83745861053466797 0.66161692142486572 0.00045930451597087085
0.90032315254211426 0.6229436993598938 0.0021010006312280893
0.95783388614654541 0.58858597278594971 0.0022748610936105251
0.99540090560913086 0.57001340389251709 0.00034664379199966788
0.99998706579208374 0.57617092132568359 0.0019500881899148226
0.010631262324750423 0.5936049222946167 0.25733309984207153
0.022006286308169365 0.59694504737854004 0.2583884596824646
0.095160797238349915 0.59627014398574829 0.26078096032142639
0.19669999182224274 0.59837013483047485 0.25981882214546204
0.29189524054527283 0.61885708570480347 0.25240886211395264
0.40300890803337097 0.65347647666931152 0.2258850485086441
0.53001266717910767 0.68754899501800537 0.17786896228790283
0.67481988668441772 0.72144031524658203 0.10527568310499191
0.81926858425140381 0.75553786754608154 0.035552680492401123
0.9119144082069397 0.75172293186187744 0.0071698804385960102
0.96372109651565552 0.71871161460876465 0.0055649848654866219
0.99478346109390259 0.69334161281585693 0.0011342216748744249
1 0.68288898468017578 0.0028983321972191334
0.083970837295055389 0.67872053384780884 0.31990337371826172
0.12391447275876999 0.67627382278442383 0.32623684406280518
0.19288605451583862 0.67708557844161987 0.3278830349445343
0.26124787330627441 0.67570608854293823 0.32703229784965515
0.33194345235824585 0.68491166830062866 0.32483997941017151
0.41638797521591187 0.71115410327911377 0.31339180469512939
0.52850615978240967 0.74054116010665894 0.2911866307258606
0.64694052934646606 0.76981920003890991 0.26106452941894531
0.76943504810333252 0.79873311519622803 0.21125492453575134
0.88521093130111694 0.82671982049942017 0.14307849109172821
0.96200716495513916 0.82863903045654297 0.082219742238521576
0.99525117874145508 0.80860531330108643 0.033883471041917801
1 0.78889524936676025 0.0077226976864039898
0.25167194008827209 0.75479346513748169 0.40579122304916382
0.27679413557052612 0.75288122892379761 0.40957432985305786
0.31490373611450195 0.75332427024841309 0.40939605236053467
0.35470569133758545 0.75209248065948486 0.40858170390129089
0.40603277087211609 0.75467395782470703 0.41164633631706238
0.47196978330612183 0.77084004878997803 0.40725144743919373
0.5515139102935791 0.79400640726089478 0.39849823713302612
0.64836692810058594 0.81671828031539917 0.38546350598335266
0.74857515096664429 0.83952522277832031 0.36584734916687012
0.8443414568901062 0.8595120906829834 0.33496645092964172
0.93038493394851685 0.87991410493850708 0.30553850531578064
0.98643863201141357 0.88480043411254883 0.25982546806335449
0.99930942058563232 0.87177306413650513 0.19596531987190247
0.40799990296363831 0.82647931575775146 0.49920392036437988
0.42255619168281555 0.82463425397872925 0.50141692161560059
0.44112369418144226 0.8263472318649292 0.50226658582687378
0.47061684727668762 0.82530796527862549 0.50435125827789307
0.50913310050964355 0.8254551887512207 0.50875276327133179
0.55021220445632935 0.83147901296615601 0.507956862449646
0.60437661409378052 0.84419059753417969 0.50620096921920776
0.6744922399520874 0.85982000827789307 0.50281774997711182
0.75582247972488403 0.87907856702804565 0.49284011125564575
0.82526993751525879 0.89309269189834595 0.47943395376205444
0.89709746837615967 0.90844142436981201 0.4647156298160553
0.96002626419067383 0.92145860195159912 0.44863677024841309
0.99193614721298218 0.92459046840667725 0.43400943279266357
0.57001972198486328 0.89122617244720459 0.61663514375686646
0.57631391286849976 0.88758516311645508 0.61598664522171021
0.57992595434188843 0.88440549373626709 0.61251860857009888
0.59838145971298218 0.88357412815093994 0.6158110499382019
0.6236259937286377 0.88428008556365967 0.62063407897949219
0.65230286121368408 0.88584762811660767 0.62013870477676392
0.68382763862609863 0.89117872714996338 0.61928761005401611
0.72943973541259766 0.90382063388824463 0.61883074045181274
0.78165966272354126 0.91698944568634033 0.61548829078674316
0.83577358722686768 0.92668133974075317 0.60756224393844604
0.88355952501296997 0.93629974126815796 0.60469865798950195
0.93450242280960083 0.94414079189300537 0.59511876106262207
0.97381126880645752 0.95053136348724365 0.59139490127563477
0.71521908044815063 0.94088292121887207 0.73157739639282227
0.71567022800445557 0.93677794933319092 0.73010247945785522
0.7181127667427063 0.93460220098495483 0.72859501838684082
0.72741532325744629 0.933574378490448 0.72977966070175171
0.73983055353164673 0.93382734060287476 0.73322921991348267
0.75843018293380737 0.93460571765899658 0.73621416091918945
0.78013879060745239 0.93723601102828979 0.73894989490509033
0.80286657810211182 0.94291883707046509 0.73802882432937622
0.82851016521453857 0.94861584901809692 0.7334829568862915
0.86145085096359253 0.95535105466842651 0.72937721014022827
0.89436769485473633 0.96238088607788086 0.73079210519790649
0.92881667613983154 0.96680301427841187 0.72443747520446777
0.95761865377426147 0.96996134519577026 0.72193211317062378
0.0351981520652771 0.091474689543247223 0.10749957710504532
0.073666848242282867 0.096122995018959045 0.10978848487138748
0.13078626990318298 0.098656736314296722 0.10783904045820236
0.20922085642814636 0.098042428493499756 0.10967947542667389
0.3078559935092926 0.083786576986312866 0.10676971077919006
0.41910111904144287 0.071176670491695404 0.10450129956007004
0.54866909980773926 0.052903208881616592 0.10389281809329987
0.67985481023788452 0.023027112707495689 0.096101917326450348
0.79088443517684937 0.015508434735238552 0.085867322981357574
0.88488370180130005 0.016041429713368416 0.064133197069168091
0.96467888355255127 0.048365991562604904 0.044078618288040161
0.99478822946548462 0.12718474864959717 0.029366377741098404
0.99999302625656128 0.19981271028518677 0.01824505440890789
0.029871294274926186 0.12453640252351761 0.11369062215089798
0.076112903654575348 0.13037075102329254 0.12066138535737991
0.14288607239723206 0.13260540366172791 0.11426952481269836
0.22082041203975677 0.13122659921646118 0.10833131521940231
0.32054963707923889 0.12788194417953491 0.10474630445241928
0.43071320652961731 0.11881906539201736 0.10226159542798996
0.55641454458236694 0.105832539498806 0.099231213331222534
0.683391273021698 0.089596107602119446 0.089303366839885712
0.79134064912796021 0.082483597099781036 0.075855076313018799
0.8830641508102417 0.091256789863109589 0.054970297962427139
0.96554231643676758 0.13153715431690216 0.03589325025677681
0.99847078323364258 0.17993482947349548 0.021699044853448868
0.99999803304672241 0.23339644074440002 0.012692544609308243
0.039404325187206268 0.16965487599372864 0.12693604826927185
0.081075958907604218 0.1768169105052948 0.13078057765960693
0.14335547387599945 0.18244332075119019 0.12378407269716263
0.22733660042285919 0.1912706047296524 0.11018295586109161
0.33316954970359802 0.19200940430164337 0.10007570683956146
0.44774898886680603 0.18722932040691376 0.095314815640449524
0.5689273476600647 0.18520644307136536 0.083185814321041107
0.68961066007614136 0.17985334992408752 0.066595934331417084
0.79399430751800537 0.1798272579908371 0.051952198147773743
0.88184010982513428 0.19357642531394958 0.038557898253202438
0.96264046430587769 0.21699826419353485 0.024794066324830055
0.99629926681518555 0.24760445952415466 0.013994493521749973
0.9998469352722168 0.27964413166046143 0.011758063919842243
0.0454544797539711 0.2352539449930191 0.14651723206043243
0.082705512642860413 0.23575405776500702 0.14775851368904114
0.13481120765209198 0.24721322953701019 0.14025299251079559
0.22490254044532776 0.27307567000389099 0.12015410512685776
0.35935470461845398 0.2982485294342041 0.090109549462795258
0.48082873225212097 0.2932526171207428 0.068990834057331085
0.59249436855316162 0.28062498569488525 0.052419893443584442
0.69994306564331055 0.2739250659942627 0.033090449869632721
0.79649811983108521 0.27583849430084229 0.02415122278034687
0.88110154867172241 0.28756970167160034 0.019578536972403526
0.96230417490005493 0.29954233765602112 0.010533366352319717
0.99725866317749023 0.32429984211921692 0.0079032899811863899
0.99913245439529419 0.35563012957572937 0.0090619409456849098
0.023431142792105675 0.32453757524490356 0.17029230296611786
0.0637177973985672 0.3259328305721283 0.17270466685295105
0.12930604815483093 0.33729618787765503 0.1704917848110199
0.21004511415958405 0.36345937848091125 0.15150578320026398
0.34566083550453186 0.40780484676361084 0.10692562162876129
0.51303941011428833 0.4440310001373291 0.039119496941566467
0.62473630905151367 0.42606770992279053 0.022521987557411194
0.71250289678573608 0.39299479126930237 0.013620653189718723
0.79852586984634399 0.37631213665008545 0.0095540517941117287
0.87932467460632324 0.3775571882724762 0.010445164516568184
0.95542043447494507 0.38446366786956787 0.0087328143417835236
0.99518853425979614 0.40314358472824097 0.0060751074925065041
0.99956846237182617 0.43075355887413025 0.0047973780892789364
0.00761388149112463 0.42152482271194458 0.19974486529827118
0.027736589312553406 0.42638906836509705 0.20131957530975342
0.10702912509441376 0.43085417151451111 0.20293378829956055
0.1994025856256485 0.44728416204452515 0.19166631996631622
0.30862313508987427 0.48573493957519531 0.16094613075256348
0.47250199317932129 0.53507417440414429 0.094930045306682587
0.64213758707046509 0.57114392518997192 0.022282080724835396
0.74355357885360718 0.54998171329498291 0.0079381754621863365
0.81383895874023438 0.51075702905654907 0.006576926913112402
0.88361626863479614 0.48196226358413696 0.006100089754909277
0.951640784740448 0.47123238444328308 0.0046437280252575874
0.9904170036315918 0.48307657241821289 0.004628544207662344
0.99879264831542969 0.50297015905380249 0.0048505295999348164
0.0038454541936516762 0.51401084661483765 0.23406781256198883
0.020782859995961189 0.52009618282318115 0.23872931301593781
0.10444743186235428 0.52122902870178223 0.24265529215335846
0.20139668881893158 0.52604621648788452 0.23930089175701141
0.29902952909469604 0.55613869428634644 0.22198291122913361
0.42756083607673645 0.59495514631271362 0.18409428000450134
0.58205246925354004 0.637001633644104 0.11299610882997513
0.74381476640701294 0.67292195558547974 0.033514510840177536
0.83922988176345825 0.65853500366210938 0.0073975059203803539
0.89997541904449463 0.62057417631149292 0.0061726439744234085
0.95669686794281006 0.58470147848129272 0.0019037134479731321
0.98934048414230347 0.56815391778945923 0.0010101916268467903
0.99926286935806274 0.57468223571777344 0.0015518038999289274
0.02498931810259819 0.60039603710174561 0.2826727032661438
0.063266932964324951 0.60514724254608154 0.28769850730895996
0.14954328536987305 0.60510241985321045 0.29038149118423462
0.2319931834936142 0.60368901491165161 0.29326090216636658
0.31147581338882446 0.62220364809036255 0.28662595152854919
0.41115647554397583 0.65296721458435059 0.26711395382881165
0.53635865449905396 0.6874011754989624 0.22652705013751984
0.68297970294952393 0.72216641902923584 0.1668599396944046
0.82061916589736938 0.75408303737640381 0.091333486139774323
0.911507248878479 0.7512282133102417 0.031641792505979538
0.96333611011505127 0.71881407499313354 0.011217065155506134
0.99427586793899536 0.69116950035095215 0.0025834925472736359
0.99998617172241211 0.67412787675857544 0.0019788106437772512
0.13647916913032532 0.68266469240188599 0.34660285711288452
0.17756758630275726 0.68166458606719971 0.35057532787322998
0.23118686676025391 0.68241202831268311 0.35285413265228271
0.28750503063201904 0.68069380521774292 0.35465723276138306
0.35156995058059692 0.68877232074737549 0.35300606489181519
0.42809173464775085 0.71122413873672485 0.34476146101951599
0.5314592719078064 0.74042010307312012 0.32726883888244629
0.6495787501335144 0.7696453332901001 0.2975279688835144
0.76944535970687866 0.79731941223144531 0.25986248254776001
0.88537347316741943 0.82569020986557007 0.208973228931427
0.9609755277633667 0.82751429080963135 0.1427532434463501
0.99472308158874512 0.80555844306945801 0.072920329868793488
0.9999813437461853 0.78523868322372437 0.026116074994206429
0.27703708410263062 0.75531095266342163 0.42532163858413696
0.30647319555282593 0.75510931015014648 0.42709213495254517
0.33268961310386658 0.75566214323043823 0.42762872576713562
0.37377971410751343 0.75387716293334961 0.42908212542533875
0.41906741261482239 0.75723594427108765 0.43024915456771851
0.48043537139892578 0.77229762077331543 0.42879208922386169
0.5580751895904541 0.79415184259414673 0.42323800921440125
0.65250211954116821 0.81623619794845581 0.41217848658561707
0.75447565317153931 0.83828741312026978 0.39539721608161926
0.84792011976242065 0.85868173837661743 0.36713868379592896
0.93577301502227783 0.88143265247344971 0.34217631816864014
0.9849388599395752 0.88289302587509155 0.3046879768371582
0.99838101863861084 0.86776107549667358 0.23755450546741486
0.42441257834434509 0.82705312967300415 0.51539808511734009
0.44278588891029358 0.8251948356628418 0.52007794380187988
0.45932787656784058 0.82515376806259155 0.52133846282958984
0.48199507594108582 0.82682055234909058 0.51781660318374634
0.51664024591445923 0.82809221744537354 0.52065879106521606
0.55729597806930542 0.83254474401473999 0.5241243839263916
0.61447858810424805 0.84423089027404785 0.52665644884109497
0.68386441469192505 0.86038494110107422 0.52573257684707642
0.75972986221313477 0.87774991989135742 0.51734006404876709
0.82839584350585938 0.89140528440475464 0.5015682578086853
0.89976769685745239 0.90811294317245483 0.48581692576408386
0.96008622646331787 0.92192333936691284 0.47571340203285217
0.99328672885894775 0.92698246240615845 0.46265628933906555
0.57609182596206665 0.88912177085876465 0.62604272365570068
0.58763647079467773 0.88689190149307251 0.63012582063674927
0.59478521347045898 0.88502287864685059 0.62841200828552246
0.60535913705825806 0.88379639387130737 0.62269586324691772
0.62542665004730225 0.88425523042678833 0.62588942050933838
0.6588941216468811 0.88569962978363037 0.63446664810180664
0.69194084405899048 0.89209526777267456 0.63337129354476929
0.73673278093338013 0.90421909093856812 0.63395863771438599
0.78847742080688477 0.91504234075546265 0.63481646776199341
0.83954370021820068 0.92530816793441772 0.62478744983673096
0.88538980484008789 0.93536555767059326 0.61883413791656494
0.93692457675933838 0.94457727670669556 0.61065113544464111
0.9750179648399353 0.95155990123748779 0.60403800010681152
0.71400070190429688 0.93683928251266479 0.73450577259063721
0.71899616718292236 0.93557596206665039 0.73534053564071655
0.72377520799636841 0.93493843078613281 0.73582345247268677
0.72907745838165283 0.9333120584487915 0.73311948776245117
0.73986786603927612 0.93300855159759521 0.73490995168685913
0.76221156120300293 0.93495017290115356 0.74343568086624146
0.78334307670593262 0.93707382678985596 0.7436901330947876
0.80435597896575928 0.94179517030715942 0.74207794666290283
0.83359920978546143 0.94858217239379883 0.74482214450836182
0.86529266834259033 0.95595741271972656 0.74118047952651978
0.89576417207717896 0.96107608079910278 0.7352217435836792
0.92852556705474854 0.96646112203598022 0.734150230884552
0.958160400390625 0.96992886066436768 0.72750484943389893
0.03748944029211998 0.092460289597511292 0.15241089463233948
0.079488731920719147 0.096927642822265625 0.15496809780597687
0.13270682096481323 0.10211040824651718 0.15430530905723572
0.20146569609642029 0.10342796146869659 0.15133687853813171
0.30406507849693298 0.087579332292079926 0.1526196300983429
0.42091268301010132 0.060745224356651306 0.15288069844245911
0.5540691614151001 0.024271182715892792 0.15283122658729553
0.68585258722305298 0.010965893045067787 0.1550222635269165
0.7951815128326416 0.017594430595636368 0.15261721611022949
0.88826954364776611 0.030797965824604034 0.14669062197208405
0.96619200706481934 0.077274248003959656 0.13856348395347595
0.99730020761489868 0.15007880330085754 0.12715211510658264
1 0.22816452383995056 0.11399061977863312
0.030335849151015282 0.1253754198551178 0.15896162390708923
0.082674048840999603 0.13088236749172211 0.16605700552463531
0.1458943784236908 0.13728125393390656 0.16476818919181824
0.21498270332813263 0.13840733468532562 0.15934258699417114
0.31944334506988525 0.13315433263778687 0.15906909108161926
0.43765631318092346 0.11909253150224686 0.16025182604789734
0.56852215528488159 0.10137442499399185 0.16009059548377991
0.69267803430557251 0.090668454766273499 0.15771052241325378
0.79628211259841919 0.09479115903377533 0.15112154185771942
0.88567870855331421 0.11446600407361984 0.14276531338691711
0.96607822179794312 0.14813254773616791 0.13426384329795837
0.99879509210586548 0.19929942488670349 0.12025577574968338
1 0.25155064463615417 0.1049756184220314
0.036235854029655457 0.17460091412067413 0.16841395199298859
0.087455868721008301 0.18155944347381592 0.17402847111225128
0.15046015381813049 0.18834711611270905 0.17270071804523468
0.22562873363494873 0.19616891443729401 0.17229944467544556
0.336588054895401 0.19648641347885132 0.16470704972743988
0.45670667290687561 0.1932724267244339 0.16006995737552643
0.58260571956634521 0.19131357967853546 0.15734699368476868
0.69874083995819092 0.18726363778114319 0.14798100292682648
0.79759883880615234 0.18929848074913025 0.13605473935604095
0.88496893644332886 0.20552238821983337 0.12671048939228058
0.9653131365776062 0.22709251940250397 0.11788379400968552
0.99829953908920288 0.26060712337493896 0.10503049194812775
1 0.29906037449836731 0.086785979568958282
0.062619060277938843 0.24501647055149078 0.18493083119392395
0.10562003403902054 0.25225871801376343 0.19131448864936829
0.15902860462665558 0.26174250245094299 0.19234299659729004
0.23436327278614044 0.27361887693405151 0.18943449854850769
0.36040431261062622 0.28601807355880737 0.17080472409725189
0.48324728012084961 0.28492850065231323 0.15205477178096771
0.59618192911148071 0.27969899773597717 0.14283342659473419
0.70342105627059937 0.2819398045539856 0.12684108316898346
0.80037331581115723 0.28481703996658325 0.11180855333805084
0.88493746519088745 0.29217749834060669 0.10065231472253799
0.96356528997421265 0.30785021185874939 0.093504853546619415
0.99673879146575928 0.33543899655342102 0.083311416208744049
1 0.36327892541885376 0.066866151988506317
0.072389282286167145 0.34220805764198303 0.21855823695659637
0.11594687402248383 0.34646052122116089 0.22449599206447601
0.17262029647827148 0.35530707240104675 0.22606320679187775
0.23536072671413422 0.36847758293151855 0.21576233208179474
0.36068639159202576 0.40662920475006104 0.19072172045707703
0.51002472639083862 0.43031266331672668 0.15332883596420288
