luts/negative_old/fuji_superia_1600_++.cube
# Created by: G'MIC (https://gmic.eu)
TITLE "fuji_superia_1600_++"
# LUT size
LUT_3D_SIZE 5
# Data domain
DOMAIN_MIN 0.0 0.0 0.0
DOMAIN_MAX 1.0 1.0 1.0
# LUT data points
0.15522702038288116 0.21191093325614929 0.19221927225589752
0.21692878007888794 0.21676014363765717 0.19106473028659821
0.43987014889717102 0.22778546810150146 0.18861342966556549
0.71825379133224487 0.24605508148670197 0.1798812597990036
0.93584758043289185 0.29970547556877136 0.16775384545326233
0.12530046701431274 0.28126680850982666 0.19804546236991882
0.22546395659446716 0.30351582169532776 0.19278351962566376
0.51883625984191895 0.33313393592834473 0.17917259037494659
0.75445520877838135 0.34061154723167419 0.1728338748216629
0.9515683650970459 0.382386714220047 0.1686466783285141
0.0025207668077200651 0.50772517919540405 0.23616649210453033
0.15939922630786896 0.50746393203735352 0.2310713529586792
0.50239920616149902 0.5544135570526123 0.19548271596431732
0.79260355234146118 0.56579244136810303 0.18509337306022644
0.96728408336639404 0.54986709356307983 0.21944350004196167
0.26594102382659912 0.71104156970977783 0.38730394840240479
0.32179948687553406 0.69871026277542114 0.37723669409751892
0.49837550520896912 0.71339333057403564 0.36902934312820435
0.74797350168228149 0.75340193510055542 0.35541749000549316
0.96964025497436523 0.79158645868301392 0.36614736914634705
0.58329582214355469 0.89716368913650513 0.60048627853393555
0.60562139749526978 0.89400410652160645 0.60028564929962158
0.66567468643188477 0.89528673887252808 0.59741324186325073
0.78315675258636475 0.91071367263793945 0.60072845220565796
0.92168617248535156 0.93475735187530518 0.61057835817337036
0.15894004702568054 0.21330788731575012 0.25021708011627197
0.22883296012878418 0.21527747809886932 0.25256389379501343
0.48619702458381653 0.20242917537689209 0.26649099588394165
0.72805905342102051 0.20837290585041046 0.25238323211669922
0.92891168594360352 0.29056587815284729 0.2650655210018158
0.13303649425506592 0.29762312769889832 0.27685993909835815
0.24839861690998077 0.30272325873374939 0.27937188744544983
0.52017396688461304 0.31647619605064392 0.27661982178688049
0.74495422840118408 0.33688828349113464 0.27760624885559082
0.94165104627609253 0.38353446125984192 0.27858790755271912
0.22416707873344421 0.53691720962524414 0.37163177132606506
0.28786236047744751 0.52140963077545166 0.34958520531654358
0.52746206521987915 0.55365473031997681 0.33558404445648193
0.78477716445922852 0.55644744634628296 0.3342583179473877
0.95912796258926392 0.55850231647491455 0.34144183993339539
0.3736606240272522 0.71855086088180542 0.46689537167549133
0.41292816400527954 0.71111029386520386 0.45875999331474304
0.53786879777908325 0.71473491191864014 0.45313796401023865
0.75770479440689087 0.75372558832168579 0.45084747672080994
0.96879994869232178 0.78660798072814941 0.45486176013946533
0.61657118797302246 0.90228486061096191 0.63822317123413086
0.63201183080673218 0.8973081111907959 0.63090425729751587
0.68343299627304077 0.8946843147277832 0.63086754083633423
0.7918093204498291 0.91277223825454712 0.64023029804229736
0.92761772871017456 0.93753468990325928 0.65085244178771973
0.16604325175285339 0.21475374698638916 0.45472508668899536
0.28575512766838074 0.21572178602218628 0.46438729763031006
0.52415388822555542 0.22210924327373505 0.48621886968612671
0.7710835337638855 0.28940331935882568 0.5062982439994812
0.96319389343261719 0.30572509765625 0.47668585181236267
0.042485687881708145 0.28716382384300232 0.48200803995132446
0.27764624357223511 0.30889582633972168 0.48728254437446594
0.53701919317245483 0.35493180155754089 0.49972406029701233
0.77315622568130493 0.39888322353363037 0.51331150531768799
0.95376473665237427 0.37548473477363586 0.46988919377326965
0.25192931294441223 0.54505950212478638 0.53491884469985962
0.3766152560710907 0.53894627094268799 0.52959465980529785
0.56131547689437866 0.53946208953857422 0.52611970901489258
0.75999754667282104 0.53904402256011963 0.51022863388061523
0.94303035736083984 0.54677772521972656 0.49590808153152466
0.54617118835449219 0.7491108775138855 0.6258772611618042
0.57320350408554077 0.7375483512878418 0.61545205116271973
0.61598855257034302 0.72321081161499023 0.58984595537185669
0.78249740600585938 0.75472807884216309 0.58716708421707153
0.96083170175552368 0.77101677656173706 0.58766084909439087
0.69379377365112305 0.90843033790588379 0.72552388906478882
0.70015281438827515 0.90679645538330078 0.71718943119049072
0.72489625215530396 0.90226858854293823 0.70377302169799805
0.80979102849960327 0.9102819561958313 0.70559513568878174
0.93162238597869873 0.93784421682357788 0.71635311841964722
0.24835193157196045 0.21821078658103943 0.6769336462020874
0.368753582239151 0.22100146114826202 0.67817580699920654
0.58177697658538818 0.2533910870552063 0.68725597858428955
0.79009521007537842 0.33151444792747498 0.70091444253921509
0.9578363299369812 0.43990889191627502 0.70983046293258667
0.22159291803836823 0.31172245740890503 0.68070113658905029
0.36396566033363342 0.32693180441856384 0.68156343698501587
0.58993512392044067 0.37056827545166016 0.68823742866516113
0.79119855165481567 0.43425610661506653 0.70319420099258423
0.95767450332641602 0.51792901754379272 0.71923887729644775
0.078834086656570435 0.47557798027992249 0.67410069704055786
0.28993907570838928 0.4782293438911438 0.67282354831695557
0.56974560022354126 0.52357321977615356 0.69043737649917603
0.78600507974624634 0.58164775371551514 0.70602297782897949
0.95804095268249512 0.63525700569152832 0.73088067770004272
0.50255882740020752 0.74426925182342529 0.73528134822845459
0.54881113767623901 0.73752719163894653 0.73803305625915527
0.66172224283218384 0.73991817235946655 0.73637151718139648
0.79574662446975708 0.73903149366378784 0.72692608833312988
0.95531189441680908 0.73556351661682129 0.71016377210617065
0.77185976505279541 0.92641913890838623 0.83842259645462036
0.78208130598068237 0.92521113157272339 0.8369019627571106
0.8154367208480835 0.92297875881195068 0.83559602499008179
0.8484722375869751 0.91741800308227539 0.81404805183410645
0.94704174995422363 0.94033235311508179 0.82336509227752686
0.48738572001457214 0.29534816741943359 0.902354896068573
0.55967980623245239 0.3123113214969635 0.90078848600387573
0.70696026086807251 0.36630231142044067 0.89859378337860107
0.86658823490142822 0.46009540557861328 0.89570778608322144
0.98420214653015137 0.54738575220108032 0.8967818021774292
0.47957238554954529 0.38705906271934509 0.90083903074264526
0.55495190620422363 0.39874333143234253 0.89762204885482788
0.70396661758422852 0.44081869721412659 0.8974112868309021
0.86100882291793823 0.52295386791229248 0.89659208059310913
0.97989130020141602 0.59110862016677856 0.89644742012023926
0.34932902455329895 0.50542134046554565 0.89988750219345093
0.46593287587165833 0.51938903331756592 0.89618986845016479
0.66529446840286255 0.55180573463439941 0.89697897434234619
0.84715288877487183 0.61986714601516724 0.89830756187438965
0.97476178407669067 0.68192112445831299 0.90160846710205078
0.31998774409294128 0.71004217863082886 0.90143394470214844
0.37852397561073303 0.69764232635498047 0.89916956424713135
0.52390438318252563 0.68001037836074829 0.89810574054718018
0.79946506023406982 0.73068839311599731 0.90424644947052002
0.96472734212875366 0.80352824926376343 0.91424870491027832
0.72531294822692871 0.93070727586746216 0.9347802996635437
0.74554193019866943 0.93059438467025757 0.93414181470870972
0.79559844732284546 0.93012350797653198 0.93767815828323364
0.87219572067260742 0.93376666307449341 0.94017815589904785
0.96319258213043213 0.94268530607223511 0.94206827878952026
