luts/negative_old/fuji_superia_1600.cube
# Created by: G'MIC (https://gmic.eu)
TITLE "fuji_superia_1600"
# LUT size
LUT_3D_SIZE 5
# Data domain
DOMAIN_MIN 0.0 0.0 0.0
DOMAIN_MAX 1.0 1.0 1.0
# LUT data points
0.069818876683712006 0.10997212678194046 0.10955537110567093
0.18592043220996857 0.1142750009894371 0.10237348824739456
0.48787462711334229 0.11981444805860519 0.087674893438816071
0.78110808134078979 0.13551953434944153 0.053300011903047562
0.97890019416809082 0.24573448300361633 0.011418689973652363
0.0039760065264999866 0.24200767278671265 0.11367341876029968
0.16456393897533417 0.2743431031703949 0.092173241078853607
0.56619834899902344 0.29753616452217102 0.045829113572835922
0.80908733606338501 0.30257907509803772 0.01864127442240715
0.98159021139144897 0.36381292343139648 0.0080327801406383514
0.0014849943108856678 0.53245586156845093 0.17614768445491791
0.040772486478090286 0.53839683532714844 0.16557867825031281
0.53842222690582275 0.59306555986404419 0.059501796960830688
0.83698993921279907 0.60080051422119141 0.0096786795184016228
0.99044430255889893 0.57680422067642212 0.078560546040534973
0.17165985703468323 0.76961702108383179 0.37500980496406555
0.27957296371459961 0.75758808851242065 0.37027108669281006
0.51532107591629028 0.77580744028091431 0.35423076152801514
0.76676708459854126 0.81162154674530029 0.32477462291717529
0.97850018739700317 0.8384975790977478 0.33406108617782593
0.58532476425170898 0.93428498506546021 0.65726184844970703
0.60866647958755493 0.9323233962059021 0.65646141767501831
0.66871780157089233 0.93214726448059082 0.65828430652618408
0.78084510564804077 0.94616681337356567 0.65216052532196045
0.91195756196975708 0.9580615758895874 0.64448899030685425
0.056470323354005814 0.10736576467752457 0.21661601960659027
0.19859285652637482 0.11111999303102493 0.21752136945724487
0.52349311113357544 0.054834716022014618 0.22236654162406921
0.77784198522567749 0.075858533382415771 0.19973282516002655
0.97183847427368164 0.24194712936878204 0.20692403614521027
0.0061187297105789185 0.26557978987693787 0.24942100048065186
0.21971783041954041 0.27617451548576355 0.25698491930961609
0.56221747398376465 0.28175851702690125 0.24381300806999207
0.79252481460571289 0.30790325999259949 0.23409430682659149
0.98108083009719849 0.37137109041213989 0.2267780601978302
0.1541060209274292 0.56461048126220703 0.36609670519828796
0.27510687708854675 0.55382460355758667 0.34730207920074463
0.5658034086227417 0.58994442224502563 0.31715932488441467
0.82463312149047852 0.58240234851837158 0.29862314462661743
0.98538899421691895 0.58068716526031494 0.29548713564872742
0.34644502401351929 0.7740408182144165 0.48859885334968567
0.40722382068634033 0.77241683006286621 0.48203998804092407
0.54091519117355347 0.77048510313034058 0.46324369311332703
0.77431553602218628 0.81497430801391602 0.45269724726676941
0.97340643405914307 0.82751297950744629 0.46177983283996582
0.62430989742279053 0.93607336282730103 0.69956487417221069
0.64199280738830566 0.93236923217773438 0.69579488039016724
0.69134676456451416 0.93257826566696167 0.69437026977539062
0.78502917289733887 0.94133853912353516 0.69416284561157227
0.90888136625289917 0.95443075895309448 0.6943092942237854
0.0079252058640122414 0.10905486345291138 0.48753663897514343
0.2541959285736084 0.11912701278924942 0.49287477135658264
0.55817186832427979 0.12775439023971558 0.51318967342376709
0.82103836536407471 0.23288846015930176 0.52861481904983521
0.99002397060394287 0.26671147346496582 0.49234530329704285
0.0038054222241044044 0.25465890765190125 0.50449168682098389
0.24876606464385986 0.28290855884552002 0.52039450407028198
0.57660543918609619 0.33395633101463318 0.53551781177520752
0.81305414438247681 0.38319697976112366 0.53439050912857056
0.98401671648025513 0.36712247133255005 0.48212909698486328
0.17869336903095245 0.57419419288635254 0.57270532846450806
0.38043126463890076 0.5702940821647644 0.5775342583656311
0.5941581130027771 0.56715482473373413 0.56350088119506836
0.79797184467315674 0.56719577312469482 0.5372282862663269
0.97256457805633545 0.58185988664627075 0.52080029249191284
0.54694432020187378 0.80176258087158203 0.68492180109024048
0.58498585224151611 0.79466980695724487 0.672618567943573
0.63098001480102539 0.77781504392623901 0.63766109943389893
0.7902759313583374 0.80458539724349976 0.63360792398452759
0.96199417114257812 0.81546074151992798 0.63484913110733032
0.70831066370010376 0.93621790409088135 0.79237645864486694
0.70781964063644409 0.93984103202819824 0.78108841180801392
0.74129915237426758 0.93598920106887817 0.77426528930664062
0.81005114316940308 0.94174313545227051 0.77177309989929199
0.92668396234512329 0.95572066307067871 0.77471143007278442
0.14289590716362 0.12614786624908447 0.73807203769683838
0.35165423154830933 0.14081975817680359 0.74085575342178345
0.60371392965316772 0.18868856132030487 0.74570959806442261
0.82038605213165283 0.30839970707893372 0.75557702779769897
0.97080951929092407 0.45405098795890808 0.76254779100418091
0.14597709476947784 0.27492699027061462 0.74537163972854614
0.35801103711128235 0.29633775353431702 0.74516946077346802
0.60383701324462891 0.3515629768371582 0.74838930368423462
0.8096422553062439 0.43412667512893677 0.75615394115447998
0.97017109394073486 0.54647719860076904 0.7758859395980835
0.0058486340567469597 0.48740941286087036 0.73653984069824219
0.26319321990013123 0.49508309364318848 0.74029529094696045
0.58228141069412231 0.54343050718307495 0.75173890590667725
0.80746835470199585 0.61794435977935791 0.77023082971572876
0.95783966779708862 0.68686413764953613 0.78818589448928833
0.4943692684173584 0.78920966386795044 0.80620855093002319
0.55772000551223755 0.79180079698562622 0.80742549896240234
0.67250627279281616 0.78983509540557861 0.807747483253479
0.7999950647354126 0.79160451889038086 0.79337263107299805
0.94857931137084961 0.79003745317459106 0.77389055490493774
0.77586919069290161 0.94794666767120361 0.88707947731018066
0.78834450244903564 0.94546061754226685 0.88434642553329468
0.82295787334442139 0.94464051723480225 0.88425540924072266
0.84990483522415161 0.94103455543518066 0.86884766817092896
0.94532603025436401 0.95343166589736938 0.86699700355529785
0.47425830364227295 0.26402503252029419 0.94451236724853516
0.55568718910217285 0.29011043906211853 0.93885356187820435
0.70596206188201904 0.36225047707557678 0.93659555912017822
0.85420030355453491 0.47696179151535034 0.93192523717880249
0.98054736852645874 0.59187847375869751 0.93529742956161499
0.47169947624206543 0.38275158405303955 0.94151240587234497
0.55133950710296631 0.39937448501586914 0.93633323907852173
0.70252984762191772 0.45460653305053711 0.93723976612091064
0.84990501403808594 0.54840648174285889 0.93078166246414185
0.9715735912322998 0.63999873399734497 0.93147128820419312
0.34388566017150879 0.52369707822799683 0.94029927253723145
0.47802203893661499 0.53883761167526245 0.93815314769744873
0.65985935926437378 0.58746504783630371 0.93479722738265991
0.83346199989318848 0.66325050592422485 0.93055468797683716
0.96004360914230347 0.73772883415222168 0.93437552452087402
0.34274834394454956 0.74004745483398438 0.9401557445526123
0.40291541814804077 0.72744220495223999 0.939686119556427
0.55054235458374023 0.72468394041061401 0.93892133235931396
0.79664921760559082 0.78268551826477051 0.93603181838989258
0.95091205835342407 0.84729194641113281 0.94012188911437988
0.738017737865448 0.94135189056396484 0.95071291923522949
0.7552495002746582 0.94532102346420288 0.95636826753616333
0.80341112613677979 0.94533252716064453 0.95727384090423584
0.87775194644927979 0.93981075286865234 0.95687580108642578
0.95248419046401978 0.95432472229003906 0.95926165580749512
