luts/negative_old/fuji_superia_100.cube
# Created by: G'MIC (https://gmic.eu)
TITLE "fuji_superia_100"
# LUT size
LUT_3D_SIZE 5
# Data domain
DOMAIN_MIN 0.0 0.0 0.0
DOMAIN_MAX 1.0 1.0 1.0
# LUT data points
0.01356181688606739 0.037495363503694534 0.032819412648677826
0.20146520435810089 0.051244355738162994 0.02252248115837574
0.52062273025512695 0.096442125737667084 0.0035879246424883604
0.7693324089050293 0.15301884710788727 0.002202396746724844
0.96817034482955933 0.19848601520061493 0.00028955796733498573
0.0016979442443698645 0.2775636613368988 0.065322965383529663
0.20008185505867004 0.27926146984100342 0.033289112150669098
0.57174408435821533 0.32251790165901184 0.0073039038106799126
0.79686439037322998 0.32055962085723877 0.0072257993742823601
0.98113429546356201 0.34359291195869446 0.004005043301731348
1.4002182979311328e-05 0.61380249261856079 0.23509965837001801
0.026171471923589706 0.62130314111709595 0.2340826690196991
0.51679056882858276 0.59170025587081909 0.15388154983520508
0.802390456199646 0.58245396614074707 0.034771040081977844
0.99377095699310303 0.57536202669143677 0.005607216153293848
0.035162519663572311 0.84884166717529297 0.46568095684051514
0.20108488202095032 0.84823930263519287 0.47177651524543762
0.46862888336181641 0.83839339017868042 0.45134085416793823
0.73104947805404663 0.81751364469528198 0.37638545036315918
0.97378188371658325 0.81325745582580566 0.3188231885433197
0.57402080297470093 0.98710542917251587 0.72330349683761597
0.59919029474258423 0.98403549194335938 0.72470343112945557
0.66074508428573608 0.98591440916061401 0.73078840970993042
0.76745468378067017 0.9810328483581543 0.7073933482170105
0.91430652141571045 0.97644031047821045 0.67058670520782471
0.0085677504539489746 0.021608734503388405 0.27206000685691833
0.24301230907440186 0.016323044896125793 0.26751387119293213
0.54217529296875 0.003566741943359375 0.23913532495498657
0.77401304244995117 0.012957016006112099 0.19845809042453766
0.96983134746551514 0.12188337743282318 0.18639470636844635
0.0038052427116781473 0.27818393707275391 0.28808990120887756
0.26548466086387634 0.2904236912727356 0.29079717397689819
0.57231986522674561 0.27893349528312683 0.25636789202690125
0.78792357444763184 0.2888476550579071 0.22981755435466766
0.98415940999984741 0.31071794033050537 0.20736940205097198
0.20919340848922729 0.60906839370727539 0.4321347177028656
0.27964743971824646 0.61177277565002441 0.41583186388015747
0.54743295907974243 0.59378761053085327 0.36091309785842896
0.79634463787078857 0.57480412721633911 0.29520425200462341
0.99083429574966431 0.56500285863876343 0.26336795091629028
0.33132773637771606 0.83648717403411865 0.56652164459228516
0.38035309314727783 0.84273546934127808 0.56152081489562988
0.52915084362030029 0.83677029609680176 0.55059689283370972
0.75001460313796997 0.81903016567230225 0.48656418919563293
0.97573244571685791 0.81472253799438477 0.43689197301864624
0.62658524513244629 0.98336315155029297 0.75872445106506348
0.64375585317611694 0.98269885778427124 0.75891208648681641
0.69745582342147827 0.98302638530731201 0.76649564504623413
0.78751528263092041 0.98020064830780029 0.74587994813919067
0.92263972759246826 0.97685468196868896 0.71397912502288818
0.0022780473809689283 0.0057085673324763775 0.60477173328399658
0.29485037922859192 0.011690954677760601 0.60488533973693848
0.59272491931915283 0.0074958503246307373 0.58986353874206543
0.80067992210388184 0.091488480567932129 0.51777738332748413
0.98520183563232422 0.065412513911724091 0.46609801054000854
0.0035397696774452925 0.2835807204246521 0.60549569129943848
0.27858227491378784 0.29182779788970947 0.60485100746154785
0.59528934955596924 0.30276390910148621 0.58572208881378174
0.79646140336990356 0.32385030388832092 0.5261351466178894
0.97864478826522827 0.27351841330528259 0.46610927581787109
0.20243191719055176 0.59801489114761353 0.6100037693977356
0.39071452617645264 0.59491842985153198 0.60594838857650757
0.58453363180160522 0.58544576168060303 0.59155893325805664
0.7862926721572876 0.55452513694763184 0.54141330718994141
0.98014384508132935 0.53985661268234253 0.50476866960525513
0.52700817584991455 0.82879507541656494 0.70998197793960571
0.57711958885192871 0.83002400398254395 0.70977538824081421
0.63715797662734985 0.83153289556503296 0.69582903385162354
0.78254371881484985 0.817005455493927 0.65080153942108154
0.97670525312423706 0.80792176723480225 0.60195517539978027
0.73653203248977661 0.97558152675628662 0.84053629636764526
0.74168211221694946 0.97672092914581299 0.83705538511276245
0.75980460643768311 0.97585815191268921 0.82840454578399658
0.82976382970809937 0.97719144821166992 0.82375729084014893
0.93658411502838135 0.97637653350830078 0.79239070415496826
0.0062698214314877987 0.0014495849609375 0.84651970863342285
0.29379421472549438 0.010508294217288494 0.84206229448318481
0.57266378402709961 0.021814547479152679 0.83316755294799805
0.82283079624176025 0.14632903039455414 0.81293642520904541
0.98664432764053345 0.29789233207702637 0.76750200986862183
0.018507713451981544 0.2918737530708313 0.84220916032791138
0.31132039427757263 0.30177044868469238 0.83220106363296509
0.58928066492080688 0.3258034884929657 0.82649821043014526
0.82007026672363281 0.37221485376358032 0.81271886825561523
0.98342239856719971 0.4242892861366272 0.76692986488342285
0.13625216484069824 0.56636983156204224 0.82596123218536377
0.35670682787895203 0.57324433326721191 0.82082659006118774
0.59135538339614868 0.58795678615570068 0.81531840562820435
0.80935060977935791 0.60432666540145874 0.80589950084686279
0.97834879159927368 0.60891175270080566 0.76340079307556152
0.46195390820503235 0.82292658090591431 0.82479798793792725
0.53108036518096924 0.82467979192733765 0.82232260704040527
0.65762585401535034 0.81780874729156494 0.8225523829460144
0.80401384830474854 0.81271827220916748 0.81049239635467529
0.97289347648620605 0.77715271711349487 0.76542919874191284
0.76473987102508545 0.97265839576721191 0.9011223316192627
0.79490882158279419 0.97537338733673096 0.90555864572525024
0.84275031089782715 0.97601532936096191 0.91403895616531372
0.88484060764312744 0.97654503583908081 0.9115561842918396
0.95870494842529297 0.97918295860290527 0.88574343919754028
0.1373552531003952 0.057964697480201721 0.99497663974761963
0.32083246111869812 0.094010084867477417 0.99071836471557617
0.55326902866363525 0.17193761467933655 0.99121546745300293
0.78590142726898193 0.29454213380813599 0.98728251457214355
0.98632502555847168 0.39856448769569397 0.9808272123336792
0.21433247625827789 0.31898686289787292 0.99219703674316406
0.36162671446800232 0.32867634296417236 0.98856908082962036
0.5784795880317688 0.3659825325012207 0.9837079644203186
0.79535764455795288 0.43302583694458008 0.97871154546737671
0.98007571697235107 0.50204169750213623 0.97912698984146118
0.32025265693664551 0.56842082738876343 0.98691117763519287
0.42831000685691833 0.5795702338218689 0.97944682836532593
0.60326933860778809 0.592751145362854 0.97569096088409424
0.79992055892944336 0.62832450866699219 0.97478640079498291
0.97902202606201172 0.66971051692962646 0.97491413354873657
0.43055292963981628 0.7881845235824585 0.97820401191711426
0.49082055687904358 0.79162615537643433 0.97835803031921387
0.6259380578994751 0.79406255483627319 0.97749733924865723
0.81150442361831665 0.81914085149765015 0.97435104846954346
0.97161561250686646 0.84127980470657349 0.97155439853668213
0.74388968944549561 0.97077679634094238 0.96514928340911865
0.76303595304489136 0.97592645883560181 0.977863609790802
0.81890809535980225 0.97387266159057617 0.982147216796875
0.8986283540725708 0.97455257177352905 0.98379886150360107
0.97964596748352051 0.97812151908874512 0.98120021820068359
