luts/negative_old/fuji_superia_400_+.cube
# Created by: G'MIC (https://gmic.eu)
TITLE "fuji_superia_400_+"
# LUT size
LUT_3D_SIZE 5
# Data domain
DOMAIN_MIN 0.0 0.0 0.0
DOMAIN_MAX 1.0 1.0 1.0
# LUT data points
0.021427707746624947 0.070110946893692017 0.063998252153396606
0.19189324975013733 0.079868540167808533 0.060825258493423462
0.53472095727920532 0.020781228318810463 0.040791455656290054
0.85792160034179688 0.010547159239649773 0.0026019527576863766
0.99849843978881836 0.21845991909503937 0.0011901705292984843
0.0088762016966938972 0.20572201907634735 0.098866194486618042
0.19236744940280914 0.26089158654212952 0.056198194622993469
0.58187407255172729 0.27102881669998169 0.0040602888911962509
0.85948902368545532 0.28939491510391235 0.0032587987370789051
0.99637264013290405 0.3643953800201416 0.0054590711370110512
0.0022343054879456758 0.49352884292602539 0.19046391546726227
0.14655591547489166 0.5178302526473999 0.18358461558818817
0.5692029595375061 0.61617225408554077 0.038565363734960556
0.87196052074432373 0.59774988889694214 0.0017303766217082739
0.99647295475006104 0.54904145002365112 1.2925092050863896e-05
0.29319781064987183 0.72418510913848877 0.40786242485046387
0.37557330727577209 0.72285789251327515 0.40769875049591064
0.55536246299743652 0.75570619106292725 0.39894425868988037
0.82357972860336304 0.81705242395401001 0.3460267186164856
0.99885779619216919 0.82962417602539062 0.20650894939899445
0.68705940246582031 0.9055296778678894 0.71205484867095947
0.70782876014709473 0.90558749437332153 0.7136915922164917
0.76543068885803223 0.91163772344589233 0.72055131196975708
0.84563255310058594 0.93363022804260254 0.71441978216171265
0.94909197092056274 0.9570508599281311 0.69969338178634644
0.016436468809843063 0.079631313681602478 0.20849616825580597
0.19206282496452332 0.093909166753292084 0.21098987758159637
0.54000800848007202 0.01842651329934597 0.22035792469978333
0.8650825023651123 0.027577644214034081 0.21395917236804962
0.99970042705535889 0.25549560785293579 0.22408726811408997
0.011316635645925999 0.24292835593223572 0.23461998999118805
0.24059714376926422 0.27101466059684753 0.25682023167610168
0.59808224439620972 0.27259191870689392 0.23314999043941498
0.86329829692840576 0.30803748965263367 0.21049097180366516
0.99999135732650757 0.38471570611000061 0.19550885260105133
0.16731126606464386 0.54616004228591919 0.36145833134651184
0.2975921630859375 0.54078805446624756 0.36048397421836853
0.59471017122268677 0.61548531055450439 0.32056605815887451
0.86237156391143799 0.57752060890197754 0.17687304317951202
0.99857831001281738 0.56138515472412109 0.10574312508106232
0.39087370038032532 0.73609679937362671 0.4984094500541687
0.46341463923454285 0.73828303813934326 0.50775712728500366
0.59227448701858521 0.75163882970809937 0.50268560647964478
0.82583737373352051 0.81604272127151489 0.4890323281288147
0.9939194917678833 0.82092660665512085 0.40196114778518677
0.70845037698745728 0.90823268890380859 0.73913282155990601
0.72850602865219116 0.90800279378890991 0.74166077375411987
0.77214884757995605 0.91040366888046265 0.74791407585144043
0.85569053888320923 0.93156915903091431 0.74786245822906494
0.95126557350158691 0.95473670959472656 0.73813623189926147
0.0091061461716890335 0.091393999755382538 0.53129738569259644
0.25539287924766541 0.10007376223802567 0.53903597593307495
0.566078782081604 0.11861032247543335 0.545440673828125
0.8325532078742981 0.1633697897195816 0.53873234987258911
0.99750876426696777 0.27939122915267944 0.53400695323944092
0.0043652853928506374 0.25644871592521667 0.56560444831848145
0.27263087034225464 0.28902152180671692 0.57807773351669312
0.59355735778808594 0.34343284368515015 0.56836706399917603
0.84021615982055664 0.37578758597373962 0.55800771713256836
0.99738144874572754 0.4198383092880249 0.54776948690414429
0.081010259687900543 0.574920654296875 0.57806724309921265
0.33847343921661377 0.57707041501998901 0.59546101093292236
0.61411237716674805 0.60284960269927979 0.60174918174743652
0.83907037973403931 0.59351569414138794 0.57118350267410278
0.99385362863540649 0.61544185876846313 0.55719232559204102
0.53182673454284668 0.7634391188621521 0.66423118114471436
0.5829959511756897 0.7661016583442688 0.66574347019195557
0.65962898731231689 0.76052772998809814 0.66074717044830322
0.84480583667755127 0.81657159328460693 0.67390817403793335
0.98958837985992432 0.79246395826339722 0.60312765836715698
0.74568194150924683 0.91448193788528442 0.79586827754974365
0.76129478216171265 0.9145272970199585 0.79864251613616943
0.79455387592315674 0.91264766454696655 0.79736959934234619
0.86494868993759155 0.92833971977233887 0.80619162321090698
0.95525127649307251 0.95307213068008423 0.80655336380004883
0.19432297348976135 0.11006791144609451 0.79553848505020142
0.39275726675987244 0.12587520480155945 0.79458034038543701
0.63716858625411987 0.21402254700660706 0.78891724348068237
0.84393322467803955 0.34245404601097107 0.78330820798873901
0.98130339384078979 0.44841152429580688 0.78147619962692261
0.2152923047542572 0.29868277907371521 0.8029094934463501
0.39765655994415283 0.32543376088142395 0.79836452007293701
0.64729195833206177 0.39484769105911255 0.78955328464508057
0.84224623441696167 0.47530063986778259 0.78934758901596069
0.98088276386260986 0.54470181465148926 0.78833872079849243
0.0065221148543059826 0.53484934568405151 0.79131472110748291
0.28350257873535156 0.542461097240448 0.79289478063583374
0.62767487764358521 0.5955578088760376 0.79150617122650146
0.83881717920303345 0.65035688877105713 0.79442614316940308
0.97819596529006958 0.68375223875045776 0.79976588487625122
0.47172170877456665 0.77678406238555908 0.79674845933914185
0.55607116222381592 0.77509289979934692 0.80071377754211426
0.6865842342376709 0.77921593189239502 0.8071858286857605
0.84415364265441895 0.8049323558807373 0.81723016500473022
0.97873044013977051 0.80829334259033203 0.80309504270553589
0.7745506763458252 0.92308247089385986 0.86585724353790283
0.79127359390258789 0.92297077178955078 0.86878734827041626
0.83558303117752075 0.92754840850830078 0.87453740835189819
0.88181978464126587 0.9272315502166748 0.8756401538848877
0.96169537305831909 0.95194399356842041 0.88506585359573364
0.52505642175674438 0.31718066334724426 0.96062064170837402
0.60361093282699585 0.3477570116519928 0.96024686098098755
0.74840831756591797 0.43289542198181152 0.95218735933303833
0.88951057195663452 0.55925959348678589 0.94355577230453491
0.98817676305770874 0.6388009786605835 0.9367104172706604
0.53177690505981445 0.44332790374755859 0.9589802622795105
0.60697251558303833 0.46487385034561157 0.95672619342803955
0.74768054485321045 0.52946245670318604 0.94801235198974609
0.88397115468978882 0.617806077003479 0.94030344486236572
0.98671078681945801 0.68213862180709839 0.93703126907348633
0.45032212138175964 0.58672976493835449 0.95563018321990967
0.56386286020278931 0.60670357942581177 0.95358002185821533
0.72749423980712891 0.65327084064483643 0.946189284324646
0.8733941912651062 0.71600210666656494 0.93991702795028687
0.97697579860687256 0.76679426431655884 0.93694275617599487
0.4563688337802887 0.76506924629211426 0.94946634769439697
0.51142609119415283 0.75911694765090942 0.94951122999191284
0.65027213096618652 0.76258093118667603 0.9473874568939209
0.85445141792297363 0.81263470649719238 0.94563937187194824
0.96715289354324341 0.86202096939086914 0.9435393214225769
0.75389128923416138 0.93749749660491943 0.94812899827957153
0.77507025003433228 0.93720811605453491 0.95079630613327026
0.82497560977935791 0.94050520658493042 0.95323717594146729
0.88943272829055786 0.94237715005874634 0.95572769641876221
0.96847116947174072 0.9570508599281311 0.95995455980300903
