luts/negative_old/fuji_neopan_1600_+.cube
# Created by: G'MIC (https://gmic.eu)
TITLE "fuji_neopan_1600_+"
# LUT size
LUT_3D_SIZE 5
# Data domain
DOMAIN_MIN 0.0 0.0 0.0
DOMAIN_MAX 1.0 1.0 1.0
# LUT data points
0.089255809783935547 0.089255809783935547 0.089255809783935547
0.096487663686275482 0.096487663686275482 0.096487663686275482
0.1578734964132309 0.1578734964132309 0.1578734964132309
0.24753493070602417 0.24753493070602417 0.24753493070602417
0.42354291677474976 0.42354291677474976 0.42354291677474976
0.12310026586055756 0.12310026586055756 0.12310026586055756
0.15695996582508087 0.15695996582508087 0.15695996582508087
0.2603379487991333 0.2603379487991333 0.2603379487991333
0.37296214699745178 0.37296214699745178 0.37296214699745178
0.54291129112243652 0.54291129112243652 0.54291129112243652
0.27286839485168457 0.27286839485168457 0.27286839485168457
0.30513253808021545 0.30513253808021545 0.30513253808021545
0.38811296224594116 0.38811296224594116 0.38811296224594116
0.54777234792709351 0.54777234792709351 0.54777234792709351
0.74579131603240967 0.74579131603240967 0.74579131603240967
0.54649889469146729 0.54649889469146729 0.54649889469146729
0.56451362371444702 0.56451362371444702 0.56451362371444702
0.60458052158355713 0.60458052158355713 0.60458052158355713
0.71552461385726929 0.71552461385726929 0.71552461385726929
0.85735404491424561 0.85735404491424561 0.85735404491424561
0.88007926940917969 0.88007926940917969 0.88007926940917969
0.88794028759002686 0.88794028759002686 0.88794028759002686
0.90337210893630981 0.90337210893630981 0.90337210893630981
0.93314200639724731 0.93314200639724731 0.93314200639724731
0.96693253517150879 0.96693253517150879 0.96693253517150879
0.088299199938774109 0.088299199938774109 0.088299199938774109
0.12152181565761566 0.12152181565761566 0.12152181565761566
0.18781480193138123 0.18781480193138123 0.18781480193138123
0.28744149208068848 0.28744149208068848 0.28744149208068848
0.45200341939926147 0.45200341939926147 0.45200341939926147
0.1489894688129425 0.1489894688129425 0.1489894688129425
0.21197208762168884 0.21197208762168884 0.21197208762168884
0.29454267024993896 0.29454267024993896 0.29454267024993896
0.39259630441665649 0.39259630441665649 0.39259630441665649
0.55927520990371704 0.55927520990371704 0.55927520990371704
0.3491922914981842 0.3491922914981842 0.3491922914981842
0.38518515229225159 0.38518515229225159 0.38518515229225159
0.4475041925907135 0.4475041925907135 0.4475041925907135
0.59097909927368164 0.59097909927368164 0.59097909927368164
0.74550920724868774 0.74550920724868774 0.74550920724868774
0.61137396097183228 0.61137396097183228 0.61137396097183228
0.61660146713256836 0.61660146713256836 0.61660146713256836
0.63828033208847046 0.63828033208847046 0.63828033208847046
0.7270088791847229 0.7270088791847229 0.7270088791847229
0.85370802879333496 0.85370802879333496 0.85370802879333496
0.88905614614486694 0.88905614614486694 0.88905614614486694
0.89139443635940552 0.89139443635940552 0.89139443635940552
0.90441811084747314 0.90441811084747314 0.90441811084747314
0.94542306661605835 0.94542306661605835 0.94542306661605835
0.97425204515457153 0.97425204515457153 0.97425204515457153
0.1726853996515274 0.1726853996515274 0.1726853996515274
0.21730925142765045 0.21730925142765045 0.21730925142765045
0.31314584612846375 0.31314584612846375 0.31314584612846375
0.35960158705711365 0.35960158705711365 0.35960158705711365
0.54458236694335938 0.54458236694335938 0.54458236694335938
0.25560271739959717 0.25560271739959717 0.25560271739959717
0.30948108434677124 0.30948108434677124 0.30948108434677124
0.39487290382385254 0.39487290382385254 0.39487290382385254
0.45070797204971313 0.45070797204971313 0.45070797204971313
0.60385912656784058 0.60385912656784058 0.60385912656784058
0.38030543923377991 0.38030543923377991 0.38030543923377991
0.44584530591964722 0.44584530591964722 0.44584530591964722
0.53498613834381104 0.53498613834381104 0.53498613834381104
0.63389676809310913 0.63389676809310913 0.63389676809310913
0.74342751502990723 0.74342751502990723 0.74342751502990723
0.67479109764099121 0.67479109764099121 0.67479109764099121
0.7025412917137146 0.7025412917137146 0.7025412917137146
0.720039963722229 0.720039963722229 0.720039963722229
0.78528058528900146 0.78528058528900146 0.78528058528900146
0.87771522998809814 0.87771522998809814 0.87771522998809814
0.9144396185874939 0.9144396185874939 0.9144396185874939
0.91985297203063965 0.91985297203063965 0.91985297203063965
0.93431729078292847 0.93431729078292847 0.93431729078292847
0.95212584733963013 0.95212584733963013 0.95212584733963013
0.97881793975830078 0.97881793975830078 0.97881793975830078
0.35313576459884644 0.35313576459884644 0.35313576459884644
0.40203964710235596 0.40203964710235596 0.40203964710235596
0.53421735763549805 0.53421735763549805 0.53421735763549805
0.59610271453857422 0.59610271453857422 0.59610271453857422
0.65589886903762817 0.65589886903762817 0.65589886903762817
0.4496428370475769 0.4496428370475769 0.4496428370475769
0.49600183963775635 0.49600183963775635 0.49600183963775635
0.59404599666595459 0.59404599666595459 0.59404599666595459
0.65087538957595825 0.65087538957595825 0.65087538957595825
0.72698372602462769 0.72698372602462769 0.72698372602462769
0.4839627742767334 0.4839627742767334 0.4839627742767334
0.54505640268325806 0.54505640268325806 0.54505640268325806
0.66506528854370117 0.66506528854370117 0.66506528854370117
0.74007326364517212 0.74007326364517212 0.74007326364517212
0.78996682167053223 0.78996682167053223 0.78996682167053223
0.66991990804672241 0.66991990804672241 0.66991990804672241
0.700065016746521 0.700065016746521 0.700065016746521
0.77590656280517578 0.77590656280517578 0.77590656280517578
0.84514504671096802 0.84514504671096802 0.84514504671096802
0.91516584157943726 0.91516584157943726 0.91516584157943726
0.92313182353973389 0.92313182353973389 0.92313182353973389
0.93441474437713623 0.93441474437713623 0.93441474437713623
0.94705098867416382 0.94705098867416382 0.94705098867416382
0.9600483775138855 0.9600483775138855 0.9600483775138855
0.98744463920593262 0.98744463920593262 0.98744463920593262
0.71289199590682983 0.71289199590682983 0.71289199590682983
0.73566317558288574 0.73566317558288574 0.73566317558288574
0.79698473215103149 0.79698473215103149 0.79698473215103149
0.89007842540740967 0.89007842540740967 0.89007842540740967
0.89636743068695068 0.89636743068695068 0.89636743068695068
0.73746383190155029 0.73746383190155029 0.73746383190155029
0.77093786001205444 0.77093786001205444 0.77093786001205444
0.82137149572372437 0.82137149572372437 0.82137149572372437
0.88413375616073608 0.88413375616073608 0.88413375616073608
0.89657580852508545 0.89657580852508545 0.89657580852508545
0.76854169368743896 0.76854169368743896 0.76854169368743896
0.80911105871200562 0.80911105871200562 0.80911105871200562
0.85738646984100342 0.85738646984100342 0.85738646984100342
0.90743803977966309 0.90743803977966309 0.90743803977966309
0.9217570424079895 0.9217570424079895 0.9217570424079895
0.77279990911483765 0.77279990911483765 0.77279990911483765
0.79839611053466797 0.79839611053466797 0.79839611053466797
0.86055409908294678 0.86055409908294678 0.86055409908294678
0.93322771787643433 0.93322771787643433 0.93322771787643433
0.97880178689956665 0.97880178689956665 0.97880178689956665
0.93688040971755981 0.93688040971755981 0.93688040971755981
0.93164741992950439 0.93164741992950439 0.93164741992950439
0.95181679725646973 0.95181679725646973 0.95181679725646973
0.97375869750976562 0.97375869750976562 0.97375869750976562
0.98668324947357178 0.98668324947357178 0.98668324947357178
