luts/negative_old/fuji_superia_800_-.cube
# Created by: G'MIC (https://gmic.eu)
TITLE "fuji_superia_800_-"
# LUT size
LUT_3D_SIZE 13
# Data domain
DOMAIN_MIN 0.0 0.0 0.0
DOMAIN_MAX 1.0 1.0 1.0
# LUT data points
0.0033142238389700651 0.027133207768201828 0.02790253609418869
0.01517302542924881 0.024126794189214706 0.024521980434656143
0.082263872027397156 0.031349465250968933 0.026143318042159081
0.16563425958156586 0.038451716303825378 0.020451683551073074
0.25552710890769958 0.036562196910381317 0.014348707161843777
0.35628515481948853 0.023885510861873627 0.011946973390877247
0.4583580493927002 0.010835191234946251 0.0074777938425540924
0.55795490741729736 0.0068406197242438793 0.0050395145080983639
0.65459823608398438 0.0072715757414698601 0.0044528734870254993
0.74434810876846313 0.004747054073959589 0.0039215688593685627
0.83125758171081543 0.0038678934797644615 0.0022027706727385521
0.9144585132598877 0.0034488004166632891 0.00020303165365476161
0.98447740077972412 0.012211638502776623 0
0.0016232659108936787 0.057686854153871536 0.02797832153737545
0.016412219032645226 0.069196172058582306 0.024429021403193474
0.089212484657764435 0.075874343514442444 0.024629181250929832
0.17666661739349365 0.080566555261611938 0.01856626570224762
0.26584649085998535 0.075711913406848907 0.014078387059271336
0.3654988706111908 0.070975072681903839 0.011636756360530853
0.46640589833259583 0.052036583423614502 0.0084797581657767296
0.56696778535842896 0.02769705094397068 0.0057398178614675999
0.66263014078140259 0.020331557840108871 0.0039386823773384094
0.75208622217178345 0.016127074137330055 0.0022817575372755527
0.8383331298828125 0.011541284620761871 0.00045619290904141963
0.91901260614395142 0.023113565519452095 0
0.98418384790420532 0.07087765634059906 0
0.0021394018549472094 0.13164563477039337 0.032437238842248917
0.011355351656675339 0.13682578504085541 0.027792133390903473
0.086843065917491913 0.14819905161857605 0.019285120069980621
0.19208551943302155 0.15276916325092316 0.011332194320857525
0.28540328145027161 0.14720967411994934 0.011983535252511501
0.38413366675376892 0.13903971016407013 0.0072579775005578995
0.47851988673210144 0.12483423203229904 0.0064615583978593349
0.57546061277389526 0.11176065355539322 0.0078535489737987518
0.67122256755828857 0.097141027450561523 0.0045078503899276257
0.7590787410736084 0.093654662370681763 0.0033163630869239569
0.84363853931427002 0.097712665796279907 0.0019587050192058086
0.92246460914611816 0.12630575895309448 0
0.98490101099014282 0.16991697251796722 0.00014896766515448689
0.00085009407484903932 0.2291543185710907 0.046364009380340576
0.0043226801790297031 0.23241515457630157 0.04073772206902504
0.052755109965801239 0.23959527909755707 0.028260475024580956
0.18877877295017242 0.25251495838165283 0.013028223067522049
0.31731423735618591 0.26150429248809814 0.0079718343913555145
0.4171149730682373 0.25017073750495911 0.0062203053385019302
0.49984782934188843 0.22660224139690399 0.0043364432640373707
0.59142541885375977 0.21451187133789062 0.0048275217413902283
0.68118572235107422 0.20815412700176239 0.0039826934225857258
0.76556396484375 0.20847567915916443 0.0043554417788982391
0.84651309251785278 0.21842485666275024 0.0039749443531036377
0.92569315433502197 0.24081707000732422 0.0016092187725007534
0.98595088720321655 0.26110810041427612 0.0010114033939316869
0 0.34647122025489807 0.072659388184547424
0.0020195904653519392 0.34963080286979675 0.07375054806470871
0.016384543851017952 0.35644453763961792 0.059342611581087112
0.14952661097049713 0.36647728085517883 0.031371172517538071
0.31328773498535156 0.37640219926834106 0.012235678732395172
0.44367235898971558 0.37691739201545715 0.0032186619937419891
0.53311902284622192 0.35520395636558533 0.0011087155435234308
0.61435329914093018 0.33374884724617004 0.0022700740955770016
0.69441342353820801 0.3196469247341156 0.0019476647721603513
0.77343267202377319 0.31402426958084106 0.0036166023928672075
0.85206294059753418 0.32474076747894287 0.003499393817037344
0.92831528186798096 0.34267768263816833 0.0014969769399613142
0.98347008228302002 0.35565659403800964 8.6167283370741643e-06
0.00015276740305125713 0.4684600830078125 0.11885600537061691
0.0038788740057498217 0.47338801622390747 0.12218151986598969
0.0071618473157286644 0.47852897644042969 0.11187776923179626
0.10391845554113388 0.48230022192001343 0.086560823023319244
0.28099262714385986 0.48691868782043457 0.039460424333810806
0.42570623755455017 0.49389886856079102 0.010150759480893612
0.56166446208953857 0.49930605292320251 0.0023575129453092813
0.65021693706512451 0.47794386744499207 0.0025771795772016048
0.71886157989501953 0.44742706418037415 0.0025472005363553762
0.78497946262359619 0.42099082469940186 0.00061241601360961795
0.85735845565795898 0.4233035147190094 0.0029176599346101284
0.93179750442504883 0.43717464804649353 0.0018067304044961929
0.98592215776443481 0.44677907228469849 0.00043786742025986314
0.001362280803732574 0.5846133828163147 0.1678059995174408
0.0049506989307701588 0.58928292989730835 0.17350782454013824
0.007752392441034317 0.5912097692489624 0.16879755258560181
0.082307420670986176 0.59320330619812012 0.15141896903514862
0.26021033525466919 0.59306448698043823 0.10735724866390228
0.40426185727119446 0.59885281324386597 0.04922708123922348
0.53819030523300171 0.60411727428436279 0.012954083271324635
0.66414231061935425 0.60475194454193115 0.0031066895462572575
0.7456512451171875 0.58212345838546753 0.00096944172400981188
0.80980342626571655 0.55280029773712158 0.0031610974110662937
0.87371259927749634 0.54178178310394287 0.0053381975740194321
0.93809956312179565 0.53999823331832886 0.0056055258028209209
0.98609465360641479 0.54030394554138184 0.004024251364171505
0.0016730513889342546 0.6856040358543396 0.22525936365127563
0.0046222759410738945 0.68779665231704712 0.22964942455291748
0.010386373847723007 0.6903228759765625 0.22431868314743042
0.10890788584947586 0.69088214635848999 0.21703192591667175
0.26725661754608154 0.68849456310272217 0.19479715824127197
0.40060773491859436 0.69287800788879395 0.15271332859992981
0.52014458179473877 0.69538861513137817 0.098303429782390594
0.63760215044021606 0.69593793153762817 0.035194158554077148
0.7517969012260437 0.69683295488357544 0.0043815462850034237
0.83658623695373535 0.68456435203552246 0.0023990108165889978
0.89437609910964966 0.66386121511459351 0.0041731442324817181
0.94879662990570068 0.65101885795593262 0.0072129042819142342
0.99089640378952026 0.64483159780502319 0.0053973929025232792
0.0083850184455513954 0.77469551563262939 0.28925016522407532
0.017713179811835289 0.77647286653518677 0.29110622406005859
0.074801124632358551 0.77695858478546143 0.28913718461990356
0.20602048933506012 0.77458035945892334 0.29019004106521606
0.31923958659172058 0.7742878794670105 0.28273680806159973
0.42554125189781189 0.77559566497802734 0.2596302330493927
0.52808696031570435 0.7729872465133667 0.22478765249252319
0.63270580768585205 0.77449172735214233 0.16014723479747772
0.73297053575515747 0.77611231803894043 0.087346665561199188
0.83551567792892456 0.77919852733612061 0.0233472790569067
0.91036128997802734 0.77112787961959839 0.0068810554221272469
0.95966547727584839 0.75577473640441895 0.0093817021697759628
0.9931190013885498 0.74781310558319092 0.016569368541240692
0.16519932448863983 0.84752190113067627 0.37331041693687439
0.20607417821884155 0.84806692600250244 0.37445226311683655
0.26466402411460876 0.84567439556121826 0.37753906846046448
0.33718410134315491 0.84332728385925293 0.38248887658119202
0.41306275129318237 0.84167522192001343 0.37970161437988281
0.47909605503082275 0.83862549066543579 0.36753988265991211
0.56067806482315063 0.84025293588638306 0.34006971120834351
0.64865976572036743 0.84199202060699463 0.30069807171821594
0.73550033569335938 0.84029293060302734 0.2505778968334198
0.81945359706878662 0.8429381251335144 0.1903264969587326
0.90242403745651245 0.84720367193222046 0.10943585634231567
0.96739953756332397 0.84504169225692749 0.050587806850671768
0.99274325370788574 0.83209103345870972 0.094051331281661987
0.38540589809417725 0.90111607313156128 0.478727787733078
0.39955037832260132 0.89969855546951294 0.47835573554039001
0.43100297451019287 0.89890140295028687 0.48132738471031189
0.46320188045501709 0.89706891775131226 0.48087987303733826
0.50679045915603638 0.89346373081207275 0.48309221863746643
0.56275653839111328 0.88934361934661865 0.47824886441230774
0.62698739767074585 0.89148759841918945 0.45320019125938416
0.68253064155578613 0.89393973350524902 0.42753180861473083
0.74970591068267822 0.89155048131942749 0.39138609170913696
0.81944465637207031 0.89371562004089355 0.35675850510597229
0.88635653257369995 0.89554458856582642 0.30856442451477051
0.94976723194122314 0.89723265171051025 0.24392248690128326
0.98785209655761719 0.89691835641860962 0.21838299930095673
0.53957474231719971 0.94306486845016479 0.58412349224090576
0.54702615737915039 0.94116789102554321 0.58391231298446655
0.55909353494644165 0.93957364559173584 0.58457809686660767
0.57414674758911133 0.93484604358673096 0.58348947763442993
0.60299152135848999 0.93419116735458374 0.58530128002166748
0.64483016729354858 0.93312740325927734 0.58421659469604492
0.69164538383483887 0.93371784687042236 0.56756973266601562
0.73056244850158691 0.93419116735458374 0.55115824937820435
0.77844375371932983 0.93419116735458374 0.52722710371017456
0.83073580265045166 0.9364057183265686 0.50218600034713745
0.88009524345397949 0.93822222948074341 0.4739341139793396
0.9329572319984436 0.93897145986557007 0.43615543842315674
0.97367525100708008 0.94001930952072144 0.38763931393623352
0.65878474712371826 0.97453153133392334 0.68040227890014648
0.66196990013122559 0.97366714477539062 0.68041205406188965
0.66815018653869629 0.9723050594329834 0.67876738309860229
0.68017297983169556 0.97070157527923584 0.68003952503204346
0.6974065899848938 0.97114968299865723 0.6831548810005188
0.72298908233642578 0.97167664766311646 0.68346470594406128
0.75128638744354248 0.97091764211654663 0.67529618740081787
0.7784314751625061 0.97105163335800171 0.66820240020751953
0.81092417240142822 0.97159028053283691 0.654460608959198
0.84626501798629761 0.97183650732040405 0.63592547178268433
0.88398653268814087 0.97222357988357544 0.61584103107452393
0.92428618669509888 0.97317665815353394 0.59354704618453979
0.96270847320556641 0.97492247819900513 0.56299746036529541
0.0028256734367460012 0.025199292227625847 0.053541339933872223
0.019785098731517792 0.023121748119592667 0.051560167223215103
0.078574024140834808 0.023939633741974831 0.052081089466810226
0.16953790187835693 0.022013615816831589 0.049768708646297455
0.26531893014907837 0.014406675472855568 0.043957356363534927
0.36205121874809265 0.008848750963807106 0.042666252702474594
0.46190169453620911 0.004442132543772459 0.036663264036178589
0.56599056720733643 0.0059445099905133247 0.02722250297665596
0.65887784957885742 0.0048568127676844597 0.021177643910050392
0.74645835161209106 0.003429412841796875 0.011339404620230198
0.830577552318573 0.0022144692484289408 0.005489349365234375
0.91456484794616699 0.0033150019589811563 0.0037513284478336573
0.98197448253631592 0.0077377469278872013 0.0015919405268505216
0.0028609330765902996 0.057670831680297852 0.063894547522068024
0.020512495189905167 0.063454873859882355 0.062201570719480515
0.094287127256393433 0.067075006663799286 0.058207597583532333
0.18346244096755981 0.065927229821681976 0.056184042245149612
0.27460956573486328 0.053565561771392822 0.054413888603448868
0.37158173322677612 0.049798943102359772 0.047813490033149719
0.47124004364013672 0.038572918623685837 0.038402408361434937
0.57358276844024658 0.019532147794961929 0.026822857558727264
0.66518086194992065 0.013013757765293121 0.018653495237231255
0.75204813480377197 0.0097541660070419312 0.010685954242944717
0.83532065153121948 0.0088201630860567093 0.0042992085218429565
0.9184720516204834 0.016322432085871696 0.0021518932189792395
0.98448473215103149 0.05905500054359436 0.00099743111059069633
0.0039466558955609798 0.13729788362979889 0.086672015488147736
0.014663352631032467 0.13600987195968628 0.080787718296051025
0.090580642223358154 0.14346514642238617 0.070543058216571808
0.19938783347606659 0.14568346738815308 0.058649789541959763
0.29119914770126343 0.13499771058559418 0.060992669314146042
0.38999688625335693 0.12976914644241333 0.053832963109016418
0.4849669337272644 0.12107344716787338 0.04850151389837265
0.58053570985794067 0.10707102715969086 0.041569579392671585
0.67187929153442383 0.090588726103305817 0.02628408744931221
0.7574658989906311 0.085866428911685944 0.012581500224769115
0.84034383296966553 0.09069330245256424 0.0056008431129157543
0.92120683193206787 0.11886921525001526 0.0039557064883410931
0.98620951175689697 0.15911625325679779 0.0041843936778604984
0.0023627935443073511 0.23055943846702576 0.1030278354883194
0.0078079821541905403 0.23127985000610352 0.10142903029918671
0.065843529999256134 0.23946501314640045 0.09338301420211792
0.20272365212440491 0.2511078417301178 0.069335073232650757
0.32093337178230286 0.25032204389572144 0.051188375800848007
0.41613557934761047 0.23953555524349213 0.05639960989356041
0.50270336866378784 0.22286322712898254 0.056138385087251663
0.59293287992477417 0.21167394518852234 0.050422251224517822
0.68027740716934204 0.20674265921115875 0.034052334725856781
0.76556575298309326 0.20582468807697296 0.015804290771484375
0.84563010931015015 0.21436524391174316 0.0071422350592911243
0.92340445518493652 0.23583883047103882 0.0057680616155266762
0.98418325185775757 0.25892287492752075 0.0055260001681745052
0.0015421549323946238 0.34580153226852417 0.1350412517786026
0.0030058317352086306 0.35030385851860046 0.13632018864154816
0.037039004266262054 0.35534965991973877 0.12859384715557098
0.17347504198551178 0.36681860685348511 0.10155338793992996
0.32222276926040649 0.37346544861793518 0.061855509877204895
0.44531986117362976 0.37285467982292175 0.033504515886306763
0.53289490938186646 0.34996110200881958 0.038707252591848373
0.61218726634979248 0.32568147778511047 0.046852681785821915
0.69032102823257446 0.31357577443122864 0.041218716651201248
0.77169108390808105 0.31181907653808594 0.025523915886878967
0.85061883926391602 0.32038316130638123 0.014067002572119236
0.92745077610015869 0.33579149842262268 0.0061717312783002853
0.98391485214233398 0.35439100861549377 0.0015305463457480073
0.0023454255424439907 0.46871739625930786 0.17514145374298096
0.0046695335768163204 0.47174617648124695 0.1766665130853653
0.017993971705436707 0.47569316625595093 0.17049698531627655
0.14293675124645233 0.48017176985740662 0.15072287619113922
0.29403999447822571 0.48334074020385742 0.11052742600440979
0.43138128519058228 0.4897608757019043 0.061785902827978134
0.56132811307907104 0.49286821484565735 0.02048187330365181
0.64782941341400146 0.46824884414672852 0.019068550318479538
0.71559298038482666 0.44007948040962219 0.028910154476761818
0.78394955396652222 0.42161679267883301 0.032848838716745377
0.85830676555633545 0.42318582534790039 0.029431138187646866
0.93288838863372803 0.43195280432701111 0.011202105320990086
0.98548883199691772 0.4468720555305481 0.0049789277836680412
0.0023939693346619606 0.58265525102615356 0.21190589666366577
0.006092071533203125 0.58847063779830933 0.21829049289226532
0.012062432244420052 0.59063243865966797 0.21303153038024902
0.12720717489719391 0.5904616117477417 0.20064933598041534
0.28011882305145264 0.59010320901870728 0.17156146466732025
0.41570073366165161 0.59406965970993042 0.12240904569625854
0.54432666301727295 0.59979647397994995 0.060842059552669525
0.66261386871337891 0.60049402713775635 0.016467807814478874
0.74567949771881104 0.58004957437515259 0.011011505499482155
0.81011039018630981 0.55434387922286987 0.018023008480668068
0.87469512224197388 0.54059296846389771 0.027409976348280907
0.93914365768432617 0.53412264585494995 0.026699425652623177
0.98617386817932129 0.53975015878677368 0.02496815100312233
0.0046401526778936386 0.68422871828079224 0.26489517092704773
0.0056741451844573021 0.68805503845214844 0.26425236463546753
0.023116571828722954 0.6902197003364563 0.25812241435050964
0.15656521916389465 0.68981021642684937 0.25475737452507019
0.29227983951568604 0.68864774703979492 0.23692427575588226
0.41691151261329651 0.69113403558731079 0.20102755725383759
0.52931922674179077 0.69192713499069214 0.15473470091819763
0.63976621627807617 0.69257235527038574 0.09043458104133606
0.75214266777038574 0.69460666179656982 0.02618693932890892
0.83447098731994629 0.68225830793380737 0.0082426182925701141
0.89475041627883911 0.66222459077835083 0.015572761185467243
0.95001208782196045 0.64682638645172119 0.028416218236088753
0.99091154336929321 0.63991433382034302 0.059002235531806946
0.018609633669257164 0.77411729097366333 0.31984594464302063
0.042238842695951462 0.77583640813827515 0.31952732801437378
0.12246201187372208 0.77519100904464722 0.31978234648704529
0.23164503276348114 0.77103286981582642 0.32242515683174133
0.34013897180557251 0.77077299356460571 0.31710630655288696
0.43684673309326172 0.77254897356033325 0.2974303662776947
0.53491145372390747 0.77141046524047852 0.26096612215042114
0.63700956106185913 0.77149444818496704 0.21083037555217743
0.73584848642349243 0.77267777919769287 0.14427541196346283
0.83674204349517822 0.77919566631317139 0.066108986735343933
0.91162216663360596 0.77246880531311035 0.027212658897042274
0.96027469635009766 0.75490397214889526 0.043482612818479538
0.99442076683044434 0.74362123012542725 0.081566646695137024
0.20878736674785614 0.84617596864700317 0.39904618263244629
0.2413666844367981 0.84471642971038818 0.40130195021629333
0.28799325227737427 0.84105587005615234 0.40516307950019836
0.34584236145019531 0.83742618560791016 0.41098770499229431
0.42302045226097107 0.83622395992279053 0.40750378370285034
0.49185556173324585 0.83637064695358276 0.39455711841583252
0.56896203756332397 0.83906376361846924 0.36745324730873108
0.65147656202316284 0.83893781900405884 0.32938441634178162
0.73898124694824219 0.83680182695388794 0.2840762734413147
0.82264906167984009 0.84090745449066162 0.23502127826213837
0.90379250049591064 0.84650576114654541 0.16130849719047546
0.96594542264938354 0.84285551309585571 0.12826739251613617
0.99227511882781982 0.82964682579040527 0.1507800817489624
0.40566304326057434 0.89877498149871826 0.4989737868309021
0.4157099723815918 0.895771324634552 0.49871343374252319
0.43909713625907898 0.89368563890457153 0.50132501125335693
0.47565373778343201 0.89236277341842651 0.50553756952285767
0.51664930582046509 0.89184302091598511 0.50361061096191406
0.56887125968933105 0.89175516366958618 0.49854743480682373
0.63071680068969727 0.89284288883209229 0.47707381844520569
0.68544924259185791 0.89074623584747314 0.45198339223861694
0.75484400987625122 0.89030885696411133 0.41876640915870667
0.82279866933822632 0.89227330684661865 0.38387081027030945
0.8879019021987915 0.89315271377563477 0.33760640025138855
0.95325219631195068 0.89649206399917603 0.28376871347427368
0.98830777406692505 0.89509910345077515 0.26144015789031982
0.55184996128082275 0.93998157978057861 0.60279577970504761
0.55723196268081665 0.93782639503479004 0.60073059797286987
0.56868237257003784 0.93590700626373291 0.60052800178527832
0.58793902397155762 0.93420684337615967 0.60171324014663696
0.61304390430450439 0.93419116735458374 0.59925711154937744
0.65284532308578491 0.93690007925033569 0.59914743900299072
0.69340687990188599 0.93686068058013916 0.58801817893981934
0.7368730902671814 0.93423879146575928 0.56863903999328613
0.7799992561340332 0.93419116735458374 0.54982811212539673
0.83106625080108643 0.93450307846069336 0.52217251062393188
0.8831067681312561 0.935416579246521 0.49128484725952148
0.93433839082717896 0.93770718574523926 0.45568901300430298
0.97497427463531494 0.94140231609344482 0.41384026408195496
0.66956186294555664 0.97470909357070923 0.69275969266891479
0.66822856664657593 0.9723125696182251 0.68887782096862793
0.67544639110565186 0.97116929292678833 0.68920266628265381
0.68787235021591187 0.97029495239257812 0.69075220823287964
0.70357590913772583 0.97106683254241943 0.69134634733200073
0.7278020977973938 0.97146201133728027 0.69000279903411865
0.75422155857086182 0.9719386100769043 0.68833130598068237
0.78331941366195679 0.97055822610855103 0.67562270164489746
0.81036591529846191 0.97117477655410767 0.66434162855148315
0.84664416313171387 0.97200685739517212 0.64823621511459351
0.88600665330886841 0.97202277183532715 0.62747061252593994
0.92473310232162476 0.97404360771179199 0.60494166612625122
0.9632720947265625 0.97578901052474976 0.57650494575500488
0.0082413321360945702 0.026381682604551315 0.11310750991106033
0.035853829234838486 0.025892280042171478 0.11747527867555618
0.085361331701278687 0.024194275960326195 0.11594425141811371
0.1620124876499176 0.020119551569223404 0.11600106954574585
0.26500901579856873 0.0083787953481078148 0.11353149265050888
0.37159132957458496 0.0039735380560159683 0.10524339973926544
0.47405990958213806 0.0018901600269600749 0.093547031283378601
0.57382112741470337 0.0034495783038437366 0.089812919497489929
0.66430062055587769 0.0026780969928950071 0.08197098970413208
0.74876970052719116 0.0022864248603582382 0.070968106389045715
0.83112764358520508 0.0017131132772192359 0.057755984365940094
0.91585975885391235 0.0020441091619431973 0.036016188561916351
0.97898191213607788 0.005791638046503067 0.020081119611859322
0.0038734436966478825 0.061740487813949585 0.12721969187259674
0.022087950259447098 0.061585146933794022 0.12569503486156464
0.097875498235225677 0.065339840948581696 0.12537996470928192
0.18224214017391205 0.063148930668830872 0.12545351684093475
0.2809620201587677 0.039731837809085846 0.11703884601593018
0.38276317715644836 0.026669206097722054 0.10983438044786453
0.48010027408599854 0.031682707369327545 0.10738983005285263
0.57636600732803345 0.017389126121997833 0.10180717706680298
0.66649806499481201 0.014629902318120003 0.092685118317604065
0.75210684537887573 0.0097501864656805992 0.079629339277744293
0.83515709638595581 0.0093218786641955376 0.058430943638086319
0.91867697238922119 0.013314340263605118 0.035368766635656357
0.98368555307388306 0.053292892873287201 0.020232526585459709
0.003858169773593545 0.13346442580223083 0.14671875536441803
0.016271524131298065 0.1295473724603653 0.14319093525409698
0.1000521332025528 0.13607478141784668 0.1419636458158493
0.20107477903366089 0.13648037612438202 0.13718032836914062
0.29844677448272705 0.12683284282684326 0.13186027109622955
0.39792969822883606 0.12242096662521362 0.12831895053386688
0.49207776784896851 0.11735648661851883 0.12437710911035538
0.58325213193893433 0.10610071569681168 0.11760769784450531
0.67076486349105835 0.095878779888153076 0.10215912014245987
0.755645751953125 0.086915187537670135 0.083553820848464966
0.83812952041625977 0.090603247284889221 0.062151771038770676
0.92099785804748535 0.10989850759506226 0.040827251970767975
0.98409301042556763 0.15826687216758728 0.024961838498711586
0.0033694547601044178 0.22923296689987183 0.16856579482555389
0.028447767719626427 0.22713777422904968 0.16908444464206696
0.10980255901813507 0.23666375875473022 0.16939844191074371
0.21185091137886047 0.24237312376499176 0.16031904518604279
0.31960892677307129 0.2422807365655899 0.14823409914970398
0.4178016185760498 0.23129144310951233 0.14323490858078003
0.50734239816665649 0.21971078217029572 0.14010779559612274
0.59371805191040039 0.21330523490905762 0.13127318024635315
0.67785513401031494 0.2099732905626297 0.11206983774900436
0.76162827014923096 0.20665039122104645 0.087599918246269226
0.84261488914489746 0.21180948615074158 0.067867860198020935
0.9234623908996582 0.23129747807979584 0.044077061116695404
0.98742192983627319 0.25972181558609009 0.024521995335817337
0.0095870373770594597 0.34612306952476501 0.20538331568241119
0.027859406545758247 0.34780791401863098 0.20396216213703156
