luts/negative_old/fuji_superia_800_+.cube
# Created by: G'MIC (https://gmic.eu)
TITLE "fuji_superia_800_+"
# LUT size
LUT_3D_SIZE 13
# Data domain
DOMAIN_MIN 0.0 0.0 0.0
DOMAIN_MAX 1.0 1.0 1.0
# LUT data points
0.012932511977851391 0.10374778509140015 0.10141137987375259
0.038500811904668808 0.10736323148012161 0.10243237018585205
0.095999427139759064 0.10642704367637634 0.10193067044019699
0.1692388653755188 0.10395073890686035 0.10144523531198502
0.25237593054771423 0.10447314381599426 0.10377535223960876
0.34621033072471619 0.1066141203045845 0.098756007850170135
0.45445621013641357 0.10369099676609039 0.086483538150787354
0.57127892971038818 0.083987757563591003 0.071099989116191864
0.68399667739868164 0.061806712299585342 0.053454618901014328
0.78287959098815918 0.051423046737909317 0.030766056850552559
0.87075996398925781 0.063654989004135132 0.015846356749534607
0.95120745897293091 0.10124276578426361 0.0088120708242058754
0.99544912576675415 0.15140661597251892 2.5850184101727791e-05
0.0043836855329573154 0.12390018254518509 0.10136211663484573
0.027641566470265388 0.12613038718700409 0.10042306035757065
0.094339855015277863 0.13169299066066742 0.10006203502416611
0.17116405069828033 0.1365254670381546 0.10002648085355759
0.25325387716293335 0.13804961740970612 0.099078834056854248
0.35500463843345642 0.14618708193302155 0.093828208744525909
0.46821397542953491 0.14154183864593506 0.08486628532409668
0.58550149202346802 0.12340588867664337 0.069755971431732178
0.6889338493347168 0.11425814032554626 0.051387935876846313
0.78639394044876099 0.11182862520217896 0.028222236782312393
0.86961907148361206 0.12808646261692047 0.014213457703590393
0.95051354169845581 0.15402369201183319 0.0065847360529005527
0.99654912948608398 0.18902990221977234 0.00010986327833961695
0.00046380734420381486 0.17596355080604553 0.10648816823959351
0.0079307854175567627 0.17888569831848145 0.10568841546773911
0.071666955947875977 0.18791884183883667 0.10163622349500656
0.17552049458026886 0.19275695085525513 0.095212988555431366
0.26779976487159729 0.1925666332244873 0.092401690781116486
0.37378814816474915 0.19662691652774811 0.089976303279399872
0.48747986555099487 0.1922161728143692 0.083257280290126801
0.60159945487976074 0.19054178893566132 0.068266265094280243
0.69998180866241455 0.18570023775100708 0.048582669347524643
0.79267168045043945 0.1837727278470993 0.025271127000451088
0.87237215042114258 0.19800128042697906 0.0096412207931280136
0.9517408013343811 0.22037744522094727 0.0032860999926924706
0.99374443292617798 0.24719260632991791 0.00031002270407043397
1.3463637515087612e-05 0.26067304611206055 0.12029067426919937
0.0023335923906415701 0.26276895403862 0.11658832430839539
0.030108703300356865 0.26809260249137878 0.10973113030195236
0.15790031850337982 0.28358113765716553 0.092674121260643005
0.29829934239387512 0.28877249360084534 0.070537522435188293
0.40934059023857117 0.2840268611907959 0.065148010849952698
0.51348972320556641 0.26998129487037659 0.072427771985530853
0.61716824769973755 0.26679790019989014 0.065351821482181549
0.71282422542572021 0.26557886600494385 0.046352535486221313
0.80118072032928467 0.26774027943611145 0.023708777502179146
0.88006681203842163 0.27936151623725891 0.0081298677250742912
0.95681452751159668 0.29463258385658264 0.0025299522094428539
0.99371170997619629 0.31634801626205444 0.0017986372113227844
6.3907398725859821e-05 0.37636491656303406 0.13810086250305176
0.0033478979021310806 0.37628975510597229 0.13395147025585175
0.0099296867847442627 0.38483390212059021 0.12287750095129013
0.10858160257339478 0.39517983794212341 0.10233695805072784
0.29849207401275635 0.4067571759223938 0.057324115186929703
0.45641803741455078 0.41266125440597534 0.018535539507865906
0.56162786483764648 0.39532193541526794 0.027439611032605171
0.64840066432952881 0.37172782421112061 0.03579418733716011
0.73139375448226929 0.35843881964683533 0.033270321786403656
0.81167370080947876 0.35614562034606934 0.018820848315954208
0.88636976480484009 0.36841192841529846 0.0072054094634950161
0.95653045177459717 0.37838059663772583 0.0039975335821509361
0.99397629499435425 0.39098241925239563 0.0047548180446028709
0.0010616227518767118 0.49829688668251038 0.15505950152873993
0.0048476275987923145 0.50164783000946045 0.15524256229400635
0.006819616537541151 0.50644487142562866 0.14376597106456757
0.072296783328056335 0.51174700260162354 0.12228675931692123
0.27748024463653564 0.51627570390701294 0.081001251935958862
0.4519660472869873 0.52404284477233887 0.02498207800090313
0.59714746475219727 0.52668321132659912 0.0066174822859466076
0.6915937066078186 0.50542217493057251 0.0048819147050380707
0.76106929779052734 0.47839167714118958 0.010525438003242016
0.82630240917205811 0.45741850137710571 0.0078661898151040077
0.89404046535491943 0.45552355051040649 0.0055848215706646442
0.95946633815765381 0.45942741632461548 0.0059806522913277149
0.99525582790374756 0.46879151463508606 0.0065841227769851685
0.0016497144242748618 0.60917103290557861 0.18252098560333252
0.0036570678930729628 0.6119377613067627 0.18997849524021149
0.0063495561480522156 0.6148332953453064 0.18389956653118134
0.069722287356853485 0.61973923444747925 0.16659906506538391
0.27929040789604187 0.61783057451248169 0.12968018651008606
0.43974581360816956 0.61906254291534424 0.067627176642417908
0.58145308494567871 0.6227155327796936 0.021282659843564034
0.71135920286178589 0.62541568279266357 0.003517091041430831
0.79237622022628784 0.60502028465270996 0.002600501524284482
0.85064798593521118 0.57802677154541016 0.0032877454068511724
0.90946686267852783 0.55428022146224976 0.0042055915109813213
0.96537405252456665 0.54389452934265137 0.0090345349162817001
0.99871891736984253 0.54874026775360107 0.011446290649473667
0.0040188059210777283 0.70224446058273315 0.24389183521270752
0.0059673981741070747 0.70432686805725098 0.24409611523151398
0.019412485882639885 0.70879679918289185 0.23642037808895111
0.14409148693084717 0.70868533849716187 0.22912402451038361
0.30839189887046814 0.70428931713104248 0.20703186094760895
0.44676914811134338 0.70245349407196045 0.16543588042259216
0.56865435838699341 0.70479613542556763 0.11534733325242996
0.68702250719070435 0.70521008968353271 0.043258126825094223
0.79697424173355103 0.70500421524047852 0.0081931622698903084
0.87394225597381592 0.69115996360778809 0.003040313720703125
0.92682057619094849 0.66504818201065063 0.00734710693359375
0.97326070070266724 0.64773720502853394 0.01221039704978466
0.99858003854751587 0.64037692546844482 0.037078559398651123
0.059698592871427536 0.78308504819869995 0.31099799275398254
0.095520287752151489 0.78332638740539551 0.31069678068161011
0.17410241067409515 0.78184860944747925 0.31123760342597961
0.28059503436088562 0.77729707956314087 0.31287428736686707
0.38083741068840027 0.77493751049041748 0.30060148239135742
0.47973909974098206 0.77640962600708008 0.27848631143569946
0.58015483617782593 0.77390563488006592 0.24156494438648224
0.67953073978424072 0.77482879161834717 0.18890973925590515
0.77500021457672119 0.77394378185272217 0.11639855802059174
0.87073397636413574 0.77685290575027466 0.046561684459447861
0.93890446424484253 0.76779294013977051 0.011459230445325375
0.98137706518173218 0.74962532520294189 0.022589679807424545
0.99696505069732666 0.7348443865776062 0.075791545212268829
0.30718868970870972 0.84193545579910278 0.40850591659545898
0.32982903718948364 0.84055382013320923 0.41062310338020325
0.36206692457199097 0.8367462158203125 0.41068306565284729
0.42079815268516541 0.83607316017150879 0.41159746050834656
0.48404073715209961 0.83276635408401489 0.40150612592697144
0.5416145920753479 0.83253377676010132 0.39184939861297607
0.61137467622756958 0.83273476362228394 0.3695065975189209
0.69261139631271362 0.83358597755432129 0.33460345864295959
0.77369147539138794 0.83362120389938354 0.28924992680549622
0.84997498989105225 0.83379501104354858 0.2343250960111618
0.92718040943145752 0.83709537982940674 0.15018320083618164
0.97987544536590576 0.8307194709777832 0.112427718937397
0.99685770273208618 0.81738674640655518 0.16140589118003845
0.48491138219833374 0.88784432411193848 0.51638960838317871
0.49467995762825012 0.88698863983154297 0.51782441139221191
0.51555192470550537 0.88495939970016479 0.51688426733016968
0.54630857706069946 0.8851168155670166 0.51760274171829224
0.58172667026519775 0.88253486156463623 0.51391535997390747
0.61933618783950806 0.88200539350509644 0.51122903823852539
0.67128103971481323 0.88321119546890259 0.49678263068199158
0.72642701864242554 0.88488501310348511 0.47002005577087402
0.78244417905807495 0.88309407234191895 0.43641826510429382
0.84427976608276367 0.88129645586013794 0.39880114793777466
0.90385991334915161 0.88076543807983398 0.35048767924308777
0.96058887243270874 0.88292580842971802 0.29650905728340149
0.99430179595947266 0.88593465089797974 0.27064898610115051
0.61172592639923096 0.92567706108093262 0.61673492193222046
0.61878132820129395 0.92444837093353271 0.61973297595977783
0.63245290517807007 0.92406737804412842 0.6169891357421875
0.64869457483291626 0.9247087836265564 0.61632227897644043
0.66972267627716064 0.92412376403808594 0.61622893810272217
0.69889116287231445 0.92517173290252686 0.61818516254425049
0.72812950611114502 0.92638146877288818 0.61426651477813721
0.7637823224067688 0.92381364107131958 0.59185791015625
0.80280005931854248 0.92307353019714355 0.57098323106765747
0.84756660461425781 0.92275500297546387 0.54536694288253784
0.89208328723907471 0.92245036363601685 0.51167702674865723
0.94097739458084106 0.92381483316421509 0.47702410817146301
0.98104590177536011 0.92737305164337158 0.43877822160720825
0.70551341772079468 0.95763528347015381 0.70145177841186523
0.71268534660339355 0.95696783065795898 0.70413494110107422
0.71831554174423218 0.95466160774230957 0.70080465078353882
0.72915303707122803 0.95420455932617188 0.70274925231933594
0.74257802963256836 0.95314419269561768 0.70211857557296753
0.76046848297119141 0.95467060804367065 0.70574969053268433
0.78094083070755005 0.95590478181838989 0.70500236749649048
0.80200731754302979 0.95750808715820312 0.69799178838729858
0.83012038469314575 0.95847594738006592 0.68662989139556885
0.86011433601379395 0.95747876167297363 0.66850036382675171
0.89343523979187012 0.95707231760025024 0.64674830436706543
0.92948794364929199 0.9595038890838623 0.62421321868896484
0.96501314640045166 0.96132540702819824 0.6008681058883667
0.010849881917238235 0.10687046498060226 0.12239687889814377
0.030576413497328758 0.10482624918222427 0.12032747268676758
0.087462887167930603 0.10545308887958527 0.1191876158118248
0.16639631986618042 0.10292575508356094 0.11788633465766907
0.25279462337493896 0.09803403913974762 0.11716049909591675
0.34612473845481873 0.099322468042373657 0.11513642221689224
0.45627278089523315 0.091257758438587189 0.11181498318910599
0.56901973485946655 0.068896636366844177 0.10487600415945053
0.6793854832649231 0.0436057448387146 0.091797634959220886
0.78057014942169189 0.034835830330848694 0.073067545890808105
0.86908906698226929 0.045800123363733292 0.052061986178159714
0.94781011343002319 0.083716072142124176 0.026768539100885391
0.99555903673171997 0.13914825022220612 0.005315189715474844
0.0052856593392789364 0.12335993349552155 0.12514747679233551
0.027654146775603294 0.13101235032081604 0.12990173697471619
0.090017713606357574 0.13374373316764832 0.12702493369579315
0.17275099456310272 0.13753996789455414 0.12698207795619965
0.26042661070823669 0.13973061740398407 0.12417464703321457
0.36062330007553101 0.13918286561965942 0.11955515295267105
0.47323954105377197 0.1276157945394516 0.11618882417678833
0.58562064170837402 0.11015783250331879 0.10885479301214218
0.68560218811035156 0.10079987347126007 0.095084309577941895
0.78359878063201904 0.10086322575807571 0.075971685349941254
0.8689427375793457 0.11602047085762024 0.051575768738985062
0.94849073886871338 0.14167645573616028 0.021844452247023582
0.99539327621459961 0.17775993049144745 0.0035282808821648359
0.001709418254904449 0.17948082089424133 0.14007262885570526
0.0099424626678228378 0.17721904814243317 0.13749784231185913
0.075424984097480774 0.1847345232963562 0.13382375240325928
0.17600734531879425 0.19044637680053711 0.13164350390434265
0.26877507567405701 0.1880003809928894 0.12588661909103394
0.37776350975036621 0.18893325328826904 0.12212738394737244
0.49366837739944458 0.18740174174308777 0.11845453083515167
0.60258036851882935 0.18022863566875458 0.1079118475317955
0.69756299257278442 0.17431706190109253 0.094501674175262451
0.78932195901870728 0.17486396431922913 0.076768167316913605
0.87318772077560425 0.18931858241558075 0.047607138752937317
0.95219600200653076 0.21162563562393188 0.018028110265731812
0.99164825677871704 0.23784703016281128 0.0063042137771844864
0.0010962542146444321 0.25622981786727905 0.15534950792789459
0.0050467248074710369 0.26145577430725098 0.15388783812522888
0.037685632705688477 0.26806822419166565 0.14720867574214935
0.16209378838539124 0.28063002228736877 0.13834606111049652
0.29528972506523132 0.28416922688484192 0.11972376704216003
0.40657547116279602 0.28021612763404846 0.11175752431154251
0.51364600658416748 0.26977795362472534 0.11682811379432678
0.61689025163650513 0.26057738065719604 0.10765679925680161
0.71100336313247681 0.2592720091342926 0.094680890440940857
0.79734605550765991 0.2621491551399231 0.075236931443214417
0.87932950258255005 0.27316302061080933 0.04520721361041069
0.95688575506210327 0.28842934966087341 0.015120906755328178
0.98977422714233398 0.31041696667671204 0.0065387054346501827
0.0017731909174472094 0.37039849162101746 0.17228145897388458
0.0063044531270861626 0.3759540319442749 0.17203538119792938
0.013932785019278526 0.38080295920372009 0.16501855850219727
0.12931638956069946 0.39015594124794006 0.14895908534526825
0.30115607380867004 0.40078222751617432 0.11614464968442917
0.4487450122833252 0.40389341115951538 0.079052567481994629
0.55310499668121338 0.38783007860183716 0.079595886170864105
0.64120936393737793 0.36623278260231018 0.093015052378177643
0.7259678840637207 0.35468301177024841 0.093124225735664368
0.80622905492782593 0.3523135781288147 0.077551625669002533
0.88296276330947876 0.36214393377304077 0.050930667668581009
0.95638948678970337 0.37306901812553406 0.021197838708758354
0.99704897403717041 0.38602742552757263 0.007155698724091053
0.002063556807115674 0.49441617727279663 0.193140909075737
0.0062750722281634808 0.50083625316619873 0.19666855037212372
0.0093561811372637749 0.50499695539474487 0.1901017427444458
0.094517603516578674 0.50905930995941162 0.17220602929592133
0.28363540768623352 0.51418745517730713 0.14176464080810547
0.45547282695770264 0.51994699239730835 0.089262403547763824
0.59560155868530273 0.52088004350662231 0.037562798708677292
0.68776553869247437 0.50091171264648438 0.036394588649272919
0.75707346200942993 0.47387409210205078 0.051779188215732574
0.82284140586853027 0.45527464151382446 0.066651150584220886
0.89227718114852905 0.45019015669822693 0.061741594225168228
0.95983809232711792 0.45555964112281799 0.03676273301243782
0.99734407663345337 0.46703329682350159 0.017940416932106018
0.0017016392666846514 0.60777026414871216 0.22239455580711365
0.004078300204128027 0.61120843887329102 0.23001076281070709
0.0084481779485940933 0.61547988653182983 0.22405640780925751
0.10033856332302094 0.61854559183120728 0.21183507144451141
0.29654738306999207 0.6167413592338562 0.18719394505023956
0.44499734044075012 0.61367571353912354 0.13528580963611603
0.58506172895431519 0.61687034368515015 0.073500625789165497
0.7094498872756958 0.62068945169448853 0.024734616279602051
0.7894788384437561 0.60030770301818848 0.015687396749854088
0.85119140148162842 0.57600194215774536 0.027059547603130341
0.90940999984741211 0.55205756425857544 0.052768558263778687
0.96208256483078003 0.54142707586288452 0.06915544718503952
0.99517530202865601 0.54751336574554443 0.064033076167106628
0.0052654342725872993 0.70222777128219604 0.27345216274261475
0.0068004531785845757 0.70580166578292847 0.27549305558204651
0.047918401658535004 0.70880377292633057 0.2702946662902832
0.18963664770126343 0.7067674994468689 0.26685929298400879
0.33040547370910645 0.70222371816635132 0.25339457392692566
0.45446854829788208 0.69861018657684326 0.21789261698722839
0.57653331756591797 0.7002069354057312 0.17311367392539978
0.68808776140213013 0.70182991027832031 0.11046039313077927
0.79694181680679321 0.70247364044189453 0.03648395836353302
0.87370467185974121 0.6902349591255188 0.017593817785382271
0.92653346061706543 0.66673696041107178 0.03443947434425354
0.96982532739639282 0.6466972827911377 0.066724099218845367
0.99430167675018311 0.63780170679092407 0.10804064571857452
0.099689513444900513 0.78152006864547729 0.33965328335762024
0.14434519410133362 0.78204071521759033 0.34227517247200012
0.22306317090988159 0.77903467416763306 0.34471017122268677
0.31423771381378174 0.77595853805541992 0.34532657265663147
0.40327239036560059 0.7724907398223877 0.33659219741821289
0.4940434992313385 0.77093356847763062 0.31860566139221191
0.59429574012756348 0.77199053764343262 0.28671690821647644
0.68844151496887207 0.77186894416809082 0.24082984030246735
0.78127008676528931 0.77160197496414185 0.17157828807830811
0.87244623899459839 0.77691167593002319 0.095634803175926208
0.93851476907730103 0.76790034770965576 0.064644291996955872
0.97770768404006958 0.74699872732162476 0.096821025013923645
0.99289596080780029 0.73027223348617554 0.14458607137203217
0.33453759551048279 0.84041398763656616 0.43422421813011169
0.35659968852996826 0.83852589130401611 0.43755170702934265
0.38904154300689697 0.833484947681427 0.44194376468658447
0.44078123569488525 0.82969361543655396 0.44082313776016235
0.4980185329914093 0.82826775312423706 0.43451854586601257
0.5587761402130127 0.831215500831604 0.42229565978050232
0.62388831377029419 0.83449947834014893 0.40096944570541382
0.69830846786499023 0.83342176675796509 0.36854231357574463
0.77749752998352051 0.8301926851272583 0.32470780611038208
0.85348433256149292 0.83073693513870239 0.26939606666564941
0.92558211088180542 0.83420932292938232 0.2100633978843689
0.97843968868255615 0.8296811580657959 0.18626964092254639
0.99360555410385132 0.81428676843643188 0.21567286550998688
0.50102460384368896 0.88723325729370117 0.53477197885513306
0.51535284519195557 0.88661611080169678 0.53875315189361572
0.53387987613677979 0.88294482231140137 0.54046344757080078
0.55768167972564697 0.87883657217025757 0.53958410024642944
0.59777700901031494 0.87857651710510254 0.53659451007843018
0.63754391670227051 0.88117051124572754 0.53252720832824707
0.67788505554199219 0.88321757316589355 0.51919984817504883
0.72537344694137573 0.88221794366836548 0.49469581246376038
0.785716712474823 0.88011389970779419 0.46101945638656616
0.84558582305908203 0.87888109683990479 0.42516317963600159
0.90607541799545288 0.87952685356140137 0.37852603197097778
0.96272540092468262 0.88431316614151001 0.32883995771408081
0.99461334943771362 0.88493704795837402 0.30677041411399841
0.62133467197418213 0.92476987838745117 0.62953203916549683
0.62828952074050903 0.92443537712097168 0.63031226396560669
0.63851261138916016 0.92298483848571777 0.62883353233337402
0.65453851222991943 0.92176234722137451 0.62839716672897339
0.68023395538330078 0.9222373366355896 0.63035875558853149
0.70789563655853271 0.92334175109863281 0.63284498453140259
0.73334592580795288 0.92324423789978027 0.62805914878845215
0.76638710498809814 0.92245185375213623 0.60973018407821655
0.8058621883392334 0.92230087518692017 0.58885484933853149
0.84846669435501099 0.92089402675628662 0.56162893772125244
0.89234364032745361 0.92108821868896484 0.53036612272262573
0.9409109354019165 0.92310613393783569 0.49090594053268433
0.98227393627166748 0.92713272571563721 0.45690366625785828
0.7115931510925293 0.95712363719940186 0.71033763885498047
0.71620839834213257 0.95499348640441895 0.71123790740966797
0.72203183174133301 0.95334923267364502 0.70785045623779297
0.73162668943405151 0.95241576433181763 0.70735573768615723
0.74876922369003296 0.95239591598510742 0.70933699607849121
0.7659766674041748 0.95273476839065552 0.71200501918792725
0.78524649143218994 0.95481902360916138 0.71413487195968628
0.80746114253997803 0.955100417137146 0.70562922954559326
0.83285397291183472 0.9556465744972229 0.69317102432250977
0.86169469356536865 0.95532184839248657 0.67454737424850464
0.8932335376739502 0.95531964302062988 0.65704697370529175
0.92894464731216431 0.95785480737686157 0.63396501541137695
0.96367233991622925 0.96065038442611694 0.6124148964881897
0.010101737454533577 0.10406225174665451 0.16482503712177277
0.032601062208414078 0.10701548308134079 0.16728204488754272
0.087093070149421692 0.10948948562145233 0.16729219257831573
0.1590820848941803 0.1082066223025322 0.16412065923213959
0.24839955568313599 0.09831344336271286 0.15960028767585754
0.35303720831871033 0.075159065425395966 0.15277613699436188
0.46651393175125122 0.047705076634883881 0.14638940989971161
0.5776599645614624 0.035029705613851547 0.14489750564098358
0.68455368280410767 0.023757575079798698 0.1372486799955368
0.7833179235458374 0.019268469884991646 0.12565602362155914
0.86831021308898926 0.026426427066326141 0.11163841933012009
0.94440943002700806 0.051201734691858292 0.089863933622837067
0.98610454797744751 0.11340998858213425 0.0595424585044384
0.0036275675520300865 0.12470822781324387 0.17114171385765076
0.021449819207191467 0.13029782474040985 0.17256642878055573
0.085995644330978394 0.1370006799697876 0.17260618507862091
0.16929203271865845 0.13885942101478577 0.17115901410579681
0.26146486401557922 0.13407368957996368 0.16796018183231354
0.3681451678276062 0.11881999671459198 0.1609155684709549
0.47940748929977417 0.1041378378868103 0.15517443418502808
0.58929687738418579 0.090034186840057373 0.15065869688987732
0.6886182427406311 0.080975867807865143 0.14271125197410583
0.78517645597457886 0.079707235097885132 0.12937954068183899
0.86995130777359009 0.092443384230136871 0.11210354417562485
0.9453355073928833 0.11968851834535599 0.08473522961139679
0.98757755756378174 0.16283193230628967 0.056174617260694504
0.00027043960290029645 0.17612242698669434 0.18516494333744049
0.0112648606300354 0.17675502598285675 0.18247263133525848
0.084548220038414001 0.18510739505290985 0.18233057856559753
0.17937861382961273 0.18689045310020447 0.17876556515693665
0.27844753861427307 0.18351982533931732 0.17384934425354004
0.38880890607833862 0.18372845649719238 0.17127323150634766
0.49930226802825928 0.18052805960178375 0.16408015787601471
0.60394108295440674 0.16824294626712799 0.15570895373821259
0.69974493980407715 0.16105508804321289 0.14706107974052429
0.79016709327697754 0.16095113754272461 0.13273236155509949
0.87445491552352905 0.17190608382225037 0.11088503897190094
0.94957125186920166 0.19515973329544067 0.084848560392856598
0.99106156826019287 0.23222747445106506 0.059796277433633804
0.0017687180079519749 0.25473153591156006 0.2003813236951828
0.009529532864689827 0.25922855734825134 0.19984337687492371
0.065887168049812317 0.26510840654373169 0.19755972921848297
0.18685618042945862 0.27595281600952148 0.19071809947490692
0.30396667122840881 0.27779865264892578 0.18071761727333069
0.41068732738494873 0.27080181241035461 0.17657573521137238
0.51685625314712524 0.26266807317733765 0.1705816239118576
0.61834728717803955 0.2550104558467865 0.16252507269382477
0.71469014883041382 0.25447699427604675 0.15382996201515198
0.79807090759277344 0.25216811895370483 0.13722541928291321
0.8783271312713623 0.26191529631614685 0.11227408051490784
0.95436662435531616 0.27917161583900452 0.087696269154548645
0.99464040994644165 0.30296871066093445 0.062258299440145493
0.0042051877826452255 0.36863765120506287 0.21986925601959229
0.011737912893295288 0.37343528866767883 0.22447940707206726
0.034422315657138824 0.3768564760684967 0.22043278813362122
0.1622319221496582 0.3855012059211731 0.21308210492134094
