luts/negative_old/fuji_neopan_1600_-.cube
# Created by: G'MIC (https://gmic.eu)
TITLE "fuji_neopan_1600_-"
# LUT size
LUT_3D_SIZE 7
# Data domain
DOMAIN_MIN 0.0 0.0 0.0
DOMAIN_MAX 1.0 1.0 1.0
# LUT data points
0.03185310959815979 0.03185310959815979 0.03185310959815979
0.024112731218338013 0.024112731218338013 0.024112731218338013
0.05427328497171402 0.05427328497171402 0.05427328497171402
0.11519582569599152 0.11519582569599152 0.11519582569599152
0.2131803035736084 0.2131803035736084 0.2131803035736084
0.32728880643844604 0.32728880643844604 0.32728880643844604
0.45819199085235596 0.45819199085235596 0.45819199085235596
0.048341654241085052 0.048341654241085052 0.048341654241085052
0.063671708106994629 0.063671708106994629 0.063671708106994629
0.12886814773082733 0.12886814773082733 0.12886814773082733
0.22079551219940186 0.22079551219940186 0.22079551219940186
0.30437514185905457 0.30437514185905457 0.30437514185905457
0.38499140739440918 0.38499140739440918 0.38499140739440918
0.49397236108779907 0.49397236108779907 0.49397236108779907
0.1593882292509079 0.1593882292509079 0.1593882292509079
0.18585744500160217 0.18585744500160217 0.18585744500160217
0.25016936659812927 0.25016936659812927 0.25016936659812927
0.34490218758583069 0.34490218758583069 0.34490218758583069
0.41671693325042725 0.41671693325042725 0.41671693325042725
0.48986774682998657 0.48986774682998657 0.48986774682998657
0.60008502006530762 0.60008502006530762 0.60008502006530762
0.32545632123947144 0.32545632123947144 0.32545632123947144
0.33461365103721619 0.33461365103721619 0.33461365103721619
0.3602355420589447 0.3602355420589447 0.3602355420589447
0.4188849925994873 0.4188849925994873 0.4188849925994873
0.4945710301399231 0.4945710301399231 0.4945710301399231
0.59737658500671387 0.59737658500671387 0.59737658500671387
0.73074120283126831 0.73074120283126831 0.73074120283126831
0.46029424667358398 0.46029424667358398 0.46029424667358398
0.47683817148208618 0.47683817148208618 0.47683817148208618
0.48280644416809082 0.48280644416809082 0.48280644416809082
0.52335906028747559 0.52335906028747559 0.52335906028747559
0.5905764102935791 0.5905764102935791 0.5905764102935791
0.69026148319244385 0.69026148319244385 0.69026148319244385
0.81777524948120117 0.81777524948120117 0.81777524948120117
0.65872138738632202 0.65872138738632202 0.65872138738632202
0.66989070177078247 0.66989070177078247 0.66989070177078247
0.67250430583953857 0.67250430583953857 0.67250430583953857
0.70310592651367188 0.70310592651367188 0.70310592651367188
0.75080996751785278 0.75080996751785278 0.75080996751785278
0.80985873937606812 0.80985873937606812 0.80985873937606812
0.88679599761962891 0.88679599761962891 0.88679599761962891
0.88051390647888184 0.88051390647888184 0.88051390647888184
0.88117069005966187 0.88117069005966187 0.88117069005966187
0.88002496957778931 0.88002496957778931 0.88002496957778931
0.89906871318817139 0.89906871318817139 0.89906871318817139
0.92336571216583252 0.92336571216583252 0.92336571216583252
0.94377100467681885 0.94377100467681885 0.94377100467681885
0.96854257583618164 0.96854257583618164 0.96854257583618164
0.029721338301897049 0.029721338301897049 0.029721338301897049
0.047649383544921875 0.047649383544921875 0.047649383544921875
0.094770140945911407 0.094770140945911407 0.094770140945911407
0.16426891088485718 0.16426891088485718 0.16426891088485718
0.25463521480560303 0.25463521480560303 0.25463521480560303
0.35191905498504639 0.35191905498504639 0.35191905498504639
0.46484443545341492 0.46484443545341492 0.46484443545341492
0.070635221898555756 0.070635221898555756 0.070635221898555756
0.10393524169921875 0.10393524169921875 0.10393524169921875
0.17355398833751678 0.17355398833751678 0.17355398833751678
0.2502007782459259 0.2502007782459259 0.2502007782459259
0.32751625776290894 0.32751625776290894 0.32751625776290894
0.41020143032073975 0.41020143032073975 0.41020143032073975
0.51820880174636841 0.51820880174636841 0.51820880174636841
0.20130400359630585 0.20130400359630585 0.20130400359630585
0.23894082009792328 0.23894082009792328 0.23894082009792328
0.30114671587944031 0.30114671587944031 0.30114671587944031
0.36608999967575073 0.36608999967575073 0.36608999967575073
0.43084827065467834 0.43084827065467834 0.43084827065467834
0.51362651586532593 0.51362651586532593 0.51362651586532593
0.62479376792907715 0.62479376792907715 0.62479376792907715
0.37373721599578857 0.37373721599578857 0.37373721599578857
0.3857576847076416 0.3857576847076416 0.3857576847076416
0.40128585696220398 0.40128585696220398 0.40128585696220398
0.44115868210792542 0.44115868210792542 0.44115868210792542
0.51255959272384644 0.51255959272384644 0.51255959272384644
0.61763244867324829 0.61763244867324829 0.61763244867324829
0.74059504270553589 0.74059504270553589 0.74059504270553589
0.50461018085479736 0.50461018085479736 0.50461018085479736
0.51531177759170532 0.51531177759170532 0.51531177759170532
0.50895065069198608 0.50895065069198608 0.50895065069198608
0.54446953535079956 0.54446953535079956 0.54446953535079956
0.61068540811538696 0.61068540811538696 0.61068540811538696
0.70116037130355835 0.70116037130355835 0.70116037130355835
0.8243604302406311 0.8243604302406311 0.8243604302406311
0.68244314193725586 0.68244314193725586 0.68244314193725586
0.69419586658477783 0.69419586658477783 0.69419586658477783
0.69258016347885132 0.69258016347885132 0.69258016347885132
0.7203669548034668 0.7203669548034668 0.7203669548034668
0.76433497667312622 0.76433497667312622 0.76433497667312622
0.811504065990448 0.811504065990448 0.811504065990448
0.8913344144821167 0.8913344144821167 0.8913344144821167
0.89023411273956299 0.89023411273956299 0.89023411273956299
0.89445823431015015 0.89445823431015015 0.89445823431015015
0.89122658967971802 0.89122658967971802 0.89122658967971802
0.90232330560684204 0.90232330560684204 0.90232330560684204
0.92389947175979614 0.92389947175979614 0.92389947175979614
0.94867783784866333 0.94867783784866333 0.94867783784866333
0.97589623928070068 0.97589623928070068 0.97589623928070068
0.067308299243450165 0.067308299243450165 0.067308299243450165
0.10996662080287933 0.10996662080287933 0.10996662080287933
0.17169547080993652 0.17169547080993652 0.17169547080993652
0.2295413464307785 0.2295413464307785 0.2295413464307785
0.30688947439193726 0.30688947439193726 0.30688947439193726
0.38927289843559265 0.38927289843559265 0.38927289843559265
0.48507463932037354 0.48507463932037354 0.48507463932037354
0.11585646867752075 0.11585646867752075 0.11585646867752075
0.16515874862670898 0.16515874862670898 0.16515874862670898
0.23293298482894897 0.23293298482894897 0.23293298482894897
0.28459405899047852 0.28459405899047852 0.28459405899047852
0.35854145884513855 0.35854145884513855 0.35854145884513855
0.43564110994338989 0.43564110994338989 0.43564110994338989
0.52119362354278564 0.52119362354278564 0.52119362354278564
0.2348286509513855 0.2348286509513855 0.2348286509513855
0.29066911339759827 0.29066911339759827 0.29066911339759827
0.35160189867019653 0.35160189867019653 0.35160189867019653
0.39656394720077515 0.39656394720077515 0.39656394720077515
0.45713746547698975 0.45713746547698975 0.45713746547698975
0.53456336259841919 0.53456336259841919 0.53456336259841919
0.62464320659637451 0.62464320659637451 0.62464320659637451
0.40842032432556152 0.40842032432556152 0.40842032432556152
0.43062672019004822 0.43062672019004822 0.43062672019004822
0.45286935567855835 0.45286935567855835 0.45286935567855835
0.4869849681854248 0.4869849681854248 0.4869849681854248
0.56045806407928467 0.56045806407928467 0.56045806407928467
0.64869511127471924 0.64869511127471924 0.64869511127471924
0.73910421133041382 0.73910421133041382 0.73910421133041382
0.55587047338485718 0.55587047338485718 0.55587047338485718
0.56580823659896851 0.56580823659896851 0.56580823659896851
0.57051277160644531 0.57051277160644531 0.57051277160644531
0.59511864185333252 0.59511864185333252 0.59511864185333252
0.6515272855758667 0.6515272855758667 0.6515272855758667
0.72957485914230347 0.72957485914230347 0.72957485914230347
0.83092254400253296 0.83092254400253296 0.83092254400253296
0.72682380676269531 0.72682380676269531 0.72682380676269531
0.73547637462615967 0.73547637462615967 0.73547637462615967
0.73567122220993042 0.73567122220993042 0.73567122220993042
0.74358981847763062 0.74358981847763062 0.74358981847763062
0.77320808172225952 0.77320808172225952 0.77320808172225952
0.82007735967636108 0.82007735967636108 0.82007735967636108
0.89612585306167603 0.89612585306167603 0.89612585306167603
0.9063037633895874 0.9063037633895874 0.9063037633895874
0.91175442934036255 0.91175442934036255 0.91175442934036255
0.90695750713348389 0.90695750713348389 0.90695750713348389
0.90504169464111328 0.90504169464111328 0.90504169464111328
0.91545617580413818 0.91545617580413818 0.91545617580413818
0.93810015916824341 0.93810015916824341 0.93810015916824341
0.97343981266021729 0.97343981266021729 0.97343981266021729
0.1721360832452774 0.1721360832452774 0.1721360832452774
0.22059467434883118 0.22059467434883118 0.22059467434883118
0.30094075202941895 0.30094075202941895 0.30094075202941895
0.34455025196075439 0.34455025196075439 0.34455025196075439
0.36538895964622498 0.36538895964622498 0.36538895964622498
0.43268105387687683 0.43268105387687683 0.43268105387687683
0.54993307590484619 0.54993307590484619 0.54993307590484619
0.24441571533679962 0.24441571533679962 0.24441571533679962
0.27705508470535278 0.27705508470535278 0.27705508470535278
0.34761354327201843 0.34761354327201843 0.34761354327201843
0.39829492568969727 0.39829492568969727 0.39829492568969727
0.41480562090873718 0.41480562090873718 0.41480562090873718
0.47419029474258423 0.47419029474258423 0.47419029474258423
0.57684499025344849 0.57684499025344849 0.57684499025344849
0.3019661009311676 0.3019661009311676 0.3019661009311676
0.34934860467910767 0.34934860467910767 0.34934860467910767
0.40893149375915527 0.40893149375915527 0.40893149375915527
0.45680522918701172 0.45680522918701172 0.45680522918701172
0.49137291312217712 0.49137291312217712 0.49137291312217712
0.56049937009811401 0.56049937009811401 0.56049937009811401
0.63710588216781616 0.63710588216781616 0.63710588216781616
0.40491819381713867 0.40491819381713867 0.40491819381713867
0.43779715895652771 0.43779715895652771 0.43779715895652771
0.48424693942070007 0.48424693942070007 0.48424693942070007
0.54056411981582642 0.54056411981582642 0.54056411981582642
0.59764879941940308 0.59764879941940308 0.59764879941940308
0.66404420137405396 0.66404420137405396 0.66404420137405396
0.73032766580581665 0.73032766580581665 0.73032766580581665
0.56742244958877563 0.56742244958877563 0.56742244958877563
0.58327430486679077 0.58327430486679077 0.58327430486679077
0.62724637985229492 0.62724637985229492 0.62724637985229492
0.65835088491439819 0.65835088491439819 0.65835088491439819
0.7005380392074585 0.7005380392074585 0.7005380392074585
0.75950080156326294 0.75950080156326294 0.75950080156326294
0.83284920454025269 0.83284920454025269 0.83284920454025269
0.75943601131439209 0.75943601131439209 0.75943601131439209
0.76586240530014038 0.76586240530014038 0.76586240530014038
0.78052800893783569 0.78052800893783569 0.78052800893783569
0.78363567590713501 0.78363567590713501 0.78363567590713501
0.80492484569549561 0.80492484569549561 0.80492484569549561
0.85011565685272217 0.85011565685272217 0.85011565685272217
0.91144680976867676 0.91144680976867676 0.91144680976867676
0.92279863357543945 0.92279863357543945 0.92279863357543945
0.92712920904159546 0.92712920904159546 0.92712920904159546
0.92562711238861084 0.92562711238861084 0.92562711238861084
0.92179453372955322 0.92179453372955322 0.92179453372955322
0.92621016502380371 0.92621016502380371 0.92621016502380371
0.94442760944366455 0.94442760944366455 0.94442760944366455
0.976185142993927 0.976185142993927 0.976185142993927
0.3043956458568573 0.3043956458568573 0.3043956458568573
0.33600485324859619 0.33600485324859619 0.33600485324859619
0.40231958031654358 0.40231958031654358 0.40231958031654358
0.47313004732131958 0.47313004732131958 0.47313004732131958
0.49650117754936218 0.49650117754936218 0.49650117754936218
0.50184684991836548 0.50184684991836548 0.50184684991836548
0.62531054019927979 0.62531054019927979 0.62531054019927979
0.37103703618049622 0.37103703618049622 0.37103703618049622
0.38808828592300415 0.38808828592300415 0.38808828592300415
0.43086379766464233 0.43086379766464233 0.43086379766464233
0.50017040967941284 0.50017040967941284 0.50017040967941284
0.5366673469543457 0.5366673469543457 0.5366673469543457
0.55160146951675415 0.55160146951675415 0.55160146951675415
0.66436022520065308 0.66436022520065308 0.66436022520065308
0.40657371282577515 0.40657371282577515 0.40657371282577515
0.43761470913887024 0.43761470913887024 0.43761470913887024
0.48912322521209717 0.48912322521209717 0.48912322521209717
0.55440545082092285 0.55440545082092285 0.55440545082092285
0.59286785125732422 0.59286785125732422 0.59286785125732422
0.61872631311416626 0.61872631311416626 0.61872631311416626
0.71069175004959106 0.71069175004959106 0.71069175004959106
0.44423875212669373 0.44423875212669373 0.44423875212669373
0.47517305612564087 0.47517305612564087 0.47517305612564087
0.53738129138946533 0.53738129138946533 0.53738129138946533
0.62000471353530884 0.62000471353530884 0.62000471353530884
0.67386919260025024 0.67386919260025024 0.67386919260025024
0.70206654071807861 0.70206654071807861 0.70206654071807861
0.76796680688858032 0.76796680688858032 0.76796680688858032
0.56779676675796509 0.56779676675796509 0.56779676675796509
0.58352375030517578 0.58352375030517578 0.58352375030517578
0.63581055402755737 0.63581055402755737 0.63581055402755737
0.70523011684417725 0.70523011684417725 0.70523011684417725
0.75108826160430908 0.75108826160430908 0.75108826160430908
0.78995645046234131 0.78995645046234131 0.78995645046234131
0.85412013530731201 0.85412013530731201 0.85412013530731201
0.75655263662338257 0.75655263662338257 0.75655263662338257
0.7651246190071106 0.7651246190071106 0.7651246190071106
0.7892882227897644 0.7892882227897644 0.7892882227897644
0.82679641246795654 0.82679641246795654 0.82679641246795654
0.85169482231140137 0.85169482231140137 0.85169482231140137
0.88378942012786865 0.88378942012786865 0.88378942012786865
0.93937557935714722 0.93937557935714722 0.93937557935714722
0.92560476064682007 0.92560476064682007 0.92560476064682007
0.92637765407562256 0.92637765407562256 0.92637765407562256
0.93261229991912842 0.93261229991912842 0.93261229991912842
0.94742560386657715 0.94742560386657715 0.94742560386657715
0.95146858692169189 0.95146858692169189 0.95146858692169189
0.96047323942184448 0.96047323942184448 0.96047323942184448
0.98819124698638916 0.98819124698638916 0.98819124698638916
0.45791113376617432 0.45791113376617432 0.45791113376617432
0.47999280691146851 0.47999280691146851 0.47999280691146851
0.5318484902381897 0.5318484902381897 0.5318484902381897
0.6070549488067627 0.6070549488067627 0.6070549488067627
0.68679678440093994 0.68679678440093994 0.68679678440093994
0.69936597347259521 0.69936597347259521 0.69936597347259521
0.70254552364349365 0.70254552364349365 0.70254552364349365
0.50063925981521606 0.50063925981521606 0.50063925981521606
0.52698570489883423 0.52698570489883423 0.52698570489883423
0.56560462713241577 0.56560462713241577 0.56560462713241577
0.63403898477554321 0.63403898477554321 0.63403898477554321
0.71493351459503174 0.71493351459503174 0.71493351459503174
0.71929025650024414 0.71929025650024414 0.71929025650024414
0.7307315468788147 0.7307315468788147 0.7307315468788147
0.55716145038604736 0.55716145038604736 0.55716145038604736
0.58412772417068481 0.58412772417068481 0.58412772417068481
0.62777841091156006 0.62777841091156006 0.62777841091156006
0.68820995092391968 0.68820995092391968 0.68820995092391968
0.73821049928665161 0.73821049928665161 0.73821049928665161
0.74344921112060547 0.74344921112060547 0.74344921112060547
0.7728767991065979 0.7728767991065979 0.7728767991065979
0.56919914484024048 0.56919914484024048 0.56919914484024048
0.59453189373016357 0.59453189373016357 0.59453189373016357
0.65917813777923584 0.65917813777923584 0.65917813777923584
0.73556220531463623 0.73556220531463623 0.73556220531463623
0.78510200977325439 0.78510200977325439 0.78510200977325439
0.7959250807762146 0.7959250807762146 0.7959250807762146
0.82193088531494141 0.82193088531494141 0.82193088531494141
0.63002258539199829 0.63002258539199829 0.63002258539199829
0.63787710666656494 0.63787710666656494 0.63787710666656494
0.68073481321334839 0.68073481321334839 0.68073481321334839
0.75872504711151123 0.75872504711151123 0.75872504711151123
0.81576120853424072 0.81576120853424072 0.81576120853424072
0.85211336612701416 0.85211336612701416 0.85211336612701416
0.89255595207214355 0.89255595207214355 0.89255595207214355
0.76253044605255127 0.76253044605255127 0.76253044605255127
0.77656656503677368 0.77656656503677368 0.77656656503677368
0.79353505373001099 0.79353505373001099 0.79353505373001099
0.83269506692886353 0.83269506692886353 0.83269506692886353
0.87479174137115479 0.87479174137115479 0.87479174137115479
0.91308867931365967 0.91308867931365967 0.91308867931365967
0.95365947484970093 0.95365947484970093 0.95365947484970093
0.92343860864639282 0.92343860864639282 0.92343860864639282
0.91742384433746338 0.91742384433746338 0.91742384433746338
0.92691189050674438 0.92691189050674438 0.92691189050674438
0.95322328805923462 0.95322328805923462 0.95322328805923462
0.95929610729217529 0.95929610729217529 0.95929610729217529
0.96590971946716309 0.96590971946716309 0.96590971946716309
0.98550021648406982 0.98550021648406982 0.98550021648406982
0.70287013053894043 0.70287013053894043 0.70287013053894043
0.7132914662361145 0.7132914662361145 0.7132914662361145
0.74523937702178955 0.74523937702178955 0.74523937702178955
0.77954071760177612 0.77954071760177612 0.77954071760177612
0.8350595235824585 0.8350595235824585 0.8350595235824585
0.87465840578079224 0.87465840578079224 0.87465840578079224
0.88648194074630737 0.88648194074630737 0.88648194074630737
0.72227567434310913 0.72227567434310913 0.72227567434310913
0.74215376377105713 0.74215376377105713 0.74215376377105713
0.76479226350784302 0.76479226350784302 0.76479226350784302
0.79442310333251953 0.79442310333251953 0.79442310333251953
0.84571737051010132 0.84571737051010132 0.84571737051010132
0.89591765403747559 0.89591765403747559 0.89591765403747559
0.90114021301269531 0.90114021301269531 0.90114021301269531
0.77171635627746582 0.77171635627746582 0.77171635627746582
0.7888113260269165 0.7888113260269165 0.7888113260269165
0.8067130446434021 0.8067130446434021 0.8067130446434021
0.83027511835098267 0.83027511835098267 0.83027511835098267
0.86260038614273071 0.86260038614273071 0.86260038614273071
0.91520899534225464 0.91520899534225464 0.91520899534225464
0.90908336639404297 0.90908336639404297 0.90908336639404297
0.77139896154403687 0.77139896154403687 0.77139896154403687
0.78620398044586182 0.78620398044586182 0.78620398044586182
0.81703150272369385 0.81703150272369385 0.81703150272369385
0.86243021488189697 0.86243021488189697 0.86243021488189697
0.90068811178207397 0.90068811178207397 0.90068811178207397
0.92626076936721802 0.92626076936721802 0.92626076936721802
0.92310744524002075 0.92310744524002075 0.92310744524002075
0.73094862699508667 0.73094862699508667 0.73094862699508667
0.75019019842147827 0.75019019842147827 0.75019019842147827
0.78982716798782349 0.78982716798782349 0.78982716798782349
0.8542938232421875 0.8542938232421875 0.8542938232421875
0.91067582368850708 0.91067582368850708 0.91067582368850708
0.94557243585586548 0.94557243585586548 0.94557243585586548
0.96157848834991455 0.96157848834991455 0.96157848834991455
0.82033622264862061 0.82033622264862061 0.82033622264862061
0.84447669982910156 0.84447669982910156 0.84447669982910156
0.84606963396072388 0.84606963396072388 0.84606963396072388
0.86337888240814209 0.86337888240814209 0.86337888240814209
0.91503375768661499 0.91503375768661499 0.91503375768661499
0.95632326602935791 0.95632326602935791 0.95632326602935791
0.97936677932739258 0.97936677932739258 0.97936677932739258
0.93258607387542725 0.93258607387542725 0.93258607387542725
0.93550676107406616 0.93550676107406616 0.93550676107406616
0.94029510021209717 0.94029510021209717 0.94029510021209717
0.95771902799606323 0.95771902799606323 0.95771902799606323
0.97082388401031494 0.97082388401031494 0.97082388401031494
0.9785768985748291 0.9785768985748291 0.9785768985748291
0.98637962341308594 0.98637962341308594 0.98637962341308594
