luts/negative_old/fuji_superia_400_+.cube
# Created by: G'MIC (https://gmic.eu)
TITLE "fuji_superia_400_+"
# LUT size
LUT_3D_SIZE 13
# Data domain
DOMAIN_MIN 0.0 0.0 0.0
DOMAIN_MAX 1.0 1.0 1.0
# LUT data points
0.021427707746624947 0.070110946893692017 0.063998252153396606
0.056821726262569427 0.075966164469718933 0.069887138903141022
0.11836265027523041 0.079067766666412354 0.067309573292732239
0.19189324975013733 0.079868540167808533 0.060825258493423462
0.29292932152748108 0.074575550854206085 0.056673642247915268
0.4067942202091217 0.056982375681400299 0.050743550062179565
0.53472095727920532 0.020781228318810463 0.040791455656290054
0.65798813104629517 0.0095288446173071861 0.025600103661417961
0.76633530855178833 0.0084572732448577881 0.0099520366638898849
0.85792160034179688 0.010547159239649773 0.0026019527576863766
0.93526846170425415 0.064123041927814484 0.0032335617579519749
0.98986899852752686 0.14784900844097137 0.0025293237995356321
0.99849843978881836 0.21845991909503937 0.0011901705292984843
0.01938394270837307 0.099996589124202728 0.069441534578800201
0.04940357431769371 0.10245874524116516 0.067676931619644165
0.11970701068639755 0.11060971766710281 0.065549246966838837
0.20062460005283356 0.11332264542579651 0.059196531772613525
0.30407869815826416 0.11147914081811905 0.053046014159917831
0.41814965009689331 0.099835008382797241 0.044591385871171951
0.54351723194122314 0.074741214513778687 0.033912390470504761
0.66916638612747192 0.053499843925237656 0.017620895057916641
0.77169716358184814 0.057243198156356812 0.0059708091430366039
0.85826402902603149 0.081161513924598694 0.003500321414321661
0.93154960870742798 0.13031785190105438 0.0034514782018959522
0.9864952564239502 0.1982603520154953 0.0037648219149559736
0.99740093946456909 0.25324350595474243 0.00087278778664767742
0.016529262065887451 0.14562293887138367 0.081665828824043274
0.039688229560852051 0.14920695126056671 0.078241936862468719
0.1069401279091835 0.16207599639892578 0.070625826716423035
0.20781295001506805 0.17772307991981506 0.053117789328098297
0.31985029578208923 0.17801006138324738 0.041118323802947998
0.43435823917388916 0.16842268407344818 0.029460951685905457
0.56108731031417847 0.16187819838523865 0.017377711832523346
0.67749953269958496 0.15705333650112152 0.0084248865023255348
0.77488213777542114 0.1696455329656601 0.0044821794144809246
0.8618704080581665 0.19327753782272339 0.0048483605496585369
0.93432247638702393 0.22313870489597321 0.0039215688593685627
0.98550546169281006 0.25928273797035217 0.0040416042320430279
0.99651563167572021 0.3004225492477417 0.0048707551322877407
0.0088762016966938972 0.20572201907634735 0.098866194486618042
0.02809092216193676 0.21103301644325256 0.099096484482288361
0.085862390697002411 0.22756198048591614 0.08740418404340744
0.19236744940280914 0.26089158654212952 0.056198194622993469
0.3463156521320343 0.29846549034118652 0.018329471349716187
0.47297370433807373 0.29219269752502441 0.0088162887841463089
0.58187407255172729 0.27102881669998169 0.0040602888911962509
0.68369859457015991 0.26531079411506653 0.0033834120258688927
0.7766653299331665 0.27428171038627625 0.0024597018491476774
0.85948902368545532 0.28939491510391235 0.0032587987370789051
0.929851233959198 0.30758440494537354 0.0035090877208858728
0.98195654153823853 0.33413904905319214 0.0045625725761055946
0.99637264013290405 0.3643953800201416 0.0054590711370110512
0.0030039618723094463 0.29119428992271423 0.12123251706361771
0.009839705191552639 0.29425671696662903 0.12248130887746811
0.054129984229803085 0.31300309300422668 0.11498513072729111
0.16571955382823944 0.35152122378349304 0.081264406442642212
0.32484927773475647 0.40215268731117249 0.023976897820830345
0.50220835208892822 0.44060376286506653 0.0014728172682225704
0.61819916963577271 0.42716583609580994 0.0007313448004424572
0.69938784837722778 0.39274471998214722 0.0012467626947909594
0.77516388893127441 0.37143471837043762 0.0010427586967125535
0.85191744565963745 0.37242612242698669 0.00088678993051871657
0.92252588272094727 0.38440969586372375 0.0014960793778300285
0.98167043924331665 0.40503981709480286 0.0029203526210039854
0.99874430894851685 0.42508214712142944 0.0037917192094027996
0.0023047055583447218 0.39628720283508301 0.14822496473789215
0.0055761300027370453 0.40141740441322327 0.15219362080097198
0.027739595621824265 0.40890347957611084 0.14767533540725708
0.14081624150276184 0.43704882264137268 0.12712247669696808
0.28409051895141602 0.47695958614349365 0.077158115804195404
0.45664116740226746 0.5230400562286377 0.018349366262555122
0.62861847877502441 0.55781698226928711 0.0019105798564851284
0.72971409559249878 0.53959208726882935 0.00017646340711507946
0.79312592744827271 0.50325471162796021 0.00075285666389390826
0.85501652956008911 0.47380256652832031 0.0011385600082576275
0.91874468326568604 0.46209979057312012 0.00070794799830764532
0.98096197843551636 0.47188195586204529 0.0012883803574368358
0.99936723709106445 0.48252704739570618 0.0012570698745548725
0.0022343054879456758 0.49352884292602539 0.19046391546726227
0.0080867242068052292 0.49938777089118958 0.19595217704772949
0.030874842777848244 0.50225591659545898 0.19295749068260193
0.14655591547489166 0.5178302526473999 0.18358461558818817
0.27295207977294922 0.54289346933364868 0.15803214907646179
0.41267353296279907 0.57919484376907349 0.1015297994017601
0.5692029595375061 0.61617225408554077 0.038565363734960556
0.72450047731399536 0.64724469184875488 0.0047438228502869606
0.8161466121673584 0.63484656810760498 0.00037707161391153932
0.87196052074432373 0.59774988889694214 0.0017303766217082739
0.92855572700500488 0.56902515888214111 0.0010711968643590808
0.97461223602294922 0.550243079662323 0.00048412248725071549
0.99647295475006104 0.54904145002365112 1.2925092050863896e-05
0.0093762567266821861 0.57725518941879272 0.24489714205265045
0.029597248882055283 0.58344399929046631 0.24983148276805878
0.093275688588619232 0.58434993028640747 0.25324779748916626
0.1955743283033371 0.58961457014083862 0.25167104601860046
0.29708012938499451 0.60330718755722046 0.23835045099258423
0.40487438440322876 0.63042515516281128 0.21184919774532318
0.53087228536605835 0.65995681285858154 0.17105087637901306
0.66462552547454834 0.68994855880737305 0.10274279862642288
0.80067020654678345 0.71905368566513062 0.039065208286046982
0.88852506875991821 0.71403425931930542 0.010719867423176765
0.94103169441223145 0.68438845872879028 0.0051806583069264889
0.97908622026443481 0.65777736902236938 0.0037640740629285574
0.99802482128143311 0.63750344514846802 0.0023453207686543465
0.12964355945587158 0.65522754192352295 0.31517916917800903
0.17130926251411438 0.65594649314880371 0.32114905118942261
0.22010265290737152 0.65657216310501099 0.32576248049736023
0.28137996792793274 0.65700334310531616 0.32568424940109253
0.34660914540290833 0.66175329685211182 0.32040464878082275
0.42856729030609131 0.68207263946533203 0.30825579166412354
0.52789157629013062 0.7063908576965332 0.29164162278175354
0.6368674635887146 0.73095184564590454 0.2632966935634613
0.75332015752792358 0.75565081834793091 0.21697252988815308
0.86451858282089233 0.78242456912994385 0.16226136684417725
0.94342976808547974 0.78429216146469116 0.098274841904640198
0.98710614442825317 0.76419973373413086 0.042758658528327942
0.99962568283081055 0.74102550745010376 0.011819533072412014
0.29319781064987183 0.72418510913848877 0.40786242485046387
0.30915191769599915 0.72235220670700073 0.40871152281761169
0.3387700617313385 0.72270470857620239 0.40896692872047424
0.37557330727577209 0.72285789251327515 0.40769875049591064
0.42136609554290771 0.72445249557495117 0.41068103909492493
0.48050382733345032 0.7362481951713562 0.40656426548957825
0.55536246299743652 0.75570619106292725 0.39894425868988037
0.63781893253326416 0.77529054880142212 0.38698366284370422
0.73168951272964478 0.796256422996521 0.37003752589225769
0.82357972860336304 0.81705242395401001 0.3460267186164856
0.91227686405181885 0.83812546730041504 0.31615641713142395
0.97939658164978027 0.84404057264328003 0.27236029505729675
0.99885779619216919 0.82962417602539062 0.20650894939899445
0.42709767818450928 0.78399807214736938 0.510154128074646
0.43991807103157043 0.78488898277282715 0.50643479824066162
0.45712777972221375 0.78700417280197144 0.5026659369468689
0.4822271466255188 0.78811955451965332 0.50401163101196289
0.51852893829345703 0.78828448057174683 0.5110093355178833
0.55742061138153076 0.79373091459274292 0.50959396362304688
0.60663294792175293 0.80654948949813843 0.5026288628578186
0.66627353429794312 0.8211173415184021 0.49776911735534668
0.7377312183380127 0.83816230297088623 0.49252063035964966
0.80981069803237915 0.85415160655975342 0.48033991456031799
0.87838101387023926 0.8714326024055481 0.46892717480659485
0.94972056150436401 0.88926976919174194 0.45294275879859924
0.99250072240829468 0.89581286907196045 0.43125593662261963
0.5602375864982605 0.84589427709579468 0.61351281404495239
0.56870472431182861 0.84685426950454712 0.61089229583740234
0.57730048894882202 0.84820210933685303 0.60564702749252319
0.5927543044090271 0.84834557771682739 0.60710090398788452
0.6218152642250061 0.84861385822296143 0.61572659015655518
0.65275150537490845 0.85262268781661987 0.61747092008590698
0.68539005517959595 0.85969781875610352 0.61162936687469482
0.71837419271469116 0.86940383911132812 0.60942083597183228
0.76387614011764526 0.88138872385025024 0.60591208934783936
0.81929969787597656 0.8942636251449585 0.60035407543182373
0.86779195070266724 0.90605747699737549 0.59489017724990845
0.91877114772796631 0.9188234806060791 0.58677071332931519
0.97144156694412231 0.93192636966705322 0.5778469443321228
0.68705940246582031 0.9055296778678894 0.71205484867095947
0.6925315260887146 0.90619206428527832 0.71288156509399414
0.6983494758605957 0.90638810396194458 0.71321415901184082
0.70782876014709473 0.90558749437332153 0.7136915922164917
0.7236592173576355 0.90673071146011353 0.71750885248184204
0.74497485160827637 0.90864378213882446 0.72198766469955444
0.76543068885803223 0.91163772344589233 0.72055131196975708
0.78503268957138062 0.91668635606765747 0.71682977676391602
0.81120747327804565 0.92546951770782471 0.71798926591873169
0.84563255310058594 0.93363022804260254 0.71441978216171265
0.87589114904403687 0.94163680076599121 0.71300709247589111
0.9109492301940918 0.94883322715759277 0.70459461212158203
0.94909197092056274 0.9570508599281311 0.69969338178634644
0.01881001703441143 0.073303058743476868 0.092299669981002808
0.055106714367866516 0.075389489531517029 0.09147334098815918
0.11112214624881744 0.079260550439357758 0.091346442699432373
0.19210569560527802 0.08022598922252655 0.092037096619606018
0.29476675391197205 0.072152547538280487 0.090706661343574524
0.4109978973865509 0.0550118088722229 0.089125357568264008
0.54142409563064575 0.024209445342421532 0.084031172096729279
0.66488778591156006 0.010321897454559803 0.072302274405956268
0.76811313629150391 0.0092459879815578461 0.058606121689081192
0.85811746120452881 0.015780026093125343 0.038741648197174072
0.93381780385971069 0.06701941043138504 0.024508398026227951
0.99013000726699829 0.14848420023918152 0.011855196207761765
0.99995815753936768 0.21464921534061432 0.0074318530969321728
0.018670085817575455 0.10154390335083008 0.095914952456951141
0.054169658571481705 0.10617334395647049 0.097289130091667175
0.11903166025876999 0.11434870958328247 0.097369521856307983
0.20676884055137634 0.11839661002159119 0.094937674701213837
0.31295138597488403 0.1149514764547348 0.090856991708278656
0.42462360858917236 0.10197098553180695 0.087340518832206726
0.54998612403869629 0.079184889793395996 0.080810606479644775
0.67084646224975586 0.060815788805484772 0.066344104707241058
0.77175331115722656 0.067985102534294128 0.048863939940929413
0.86031389236450195 0.089086242020130157 0.031602296978235245
0.9342418909072876 0.13646149635314941 0.018799006938934326
0.98848074674606323 0.19503682851791382 0.010098147206008434
0.99863547086715698 0.24837817251682281 0.0057696620933711529
0.024056738242506981 0.1520940363407135 0.10797856748104095
0.059863042086362839 0.15660956501960754 0.10936331748962402
0.11702360212802887 0.16441231966018677 0.10490491986274719
0.21402628719806671 0.17416615784168243 0.093480624258518219
0.325874924659729 0.17523559927940369 0.083263888955116272
0.44225811958312988 0.16917140781879425 0.076073527336120605
0.56449794769287109 0.1676526665687561 0.062967531383037567
0.67840772867202759 0.16587702929973602 0.045248456299304962
0.77609658241271973 0.17650742828845978 0.029672645032405853
0.86290985345840454 0.19367145001888275 0.015668367967009544
0.93587875366210938 0.22393395006656647 0.010251453146338463
0.98794299364089966 0.25771981477737427 0.0076774447225034237
0.99817347526550293 0.30064263939857483 0.0081499889492988586
0.020149007439613342 0.21950589120388031 0.12739616632461548
0.056745283305644989 0.22077959775924683 0.12936970591545105
0.10632383823394775 0.22840429842472076 0.12212870270013809
0.20609675347805023 0.25966361165046692 0.10179425776004791
0.3499143123626709 0.29148334264755249 0.065315723419189453
0.47505810856819153 0.28504207730293274 0.047533296048641205
0.58526599407196045 0.26886245608329773 0.030351316556334496
0.68875592947006226 0.26699444651603699 0.017976664006710052
0.77778369188308716 0.27353054285049438 0.011554209515452385
0.85924279689788818 0.28499540686607361 0.007866324856877327
0.9299730658531189 0.30523425340652466 0.007264111191034317
0.98347693681716919 0.33368894457817078 0.0086633870378136635
0.9982447624206543 0.36526072025299072 0.0069697359576821327
0.0061213774606585503 0.309253990650177 0.15254019200801849
0.025028498843312263 0.31197404861450195 0.15269604325294495
0.086966544389724731 0.32133328914642334 0.14978836476802826
0.18785056471824646 0.35217326879501343 0.12955865263938904
0.33446991443634033 0.40065237879753113 0.079198993742465973
0.50431686639785767 0.43766269087791443 0.023193269968032837
0.61592036485671997 0.41743987798690796 0.010671009309589863
0.69822984933853149 0.38607627153396606 0.0063328612595796585
0.77545422315597534 0.37005817890167236 0.0052282446995377541
0.85344082117080688 0.3720213770866394 0.0047678179107606411
0.92443954944610596 0.38182511925697327 0.0047613405622541904
0.98241782188415527 0.4041423499584198 0.0064680958166718483
0.99926000833511353 0.42635676264762878 0.0060349856503307819
0.0029791439883410931 0.41144222021102905 0.18110023438930511
0.0072284024208784103 0.41487613320350647 0.18304617702960968
0.062312569469213486 0.4219113290309906 0.18300400674343109
0.16925947368144989 0.44019147753715515 0.17169937491416931
0.29678583145141602 0.47713860869407654 0.13871657848358154
0.4643576443195343 0.52429044246673584 0.071533575654029846
0.6294596791267395 0.55566275119781494 0.016955131664872169
0.72672802209854126 0.53476780652999878 0.0034578810445964336
0.79241859912872314 0.49978935718536377 0.0060445899143815041
0.85559231042861938 0.47441336512565613 0.0050078597851097584
0.92032527923583984 0.46635869145393372 0.0047348472289741039
0.9795917272567749 0.47459453344345093 0.0049059251323342323
0.99833685159683228 0.48647880554199219 0.0041448404081165791
0.0033989700023084879 0.50526493787765503 0.22154399752616882
0.010461096651852131 0.51056939363479614 0.22537349164485931
0.069102615118026733 0.512134850025177 0.22715894877910614
0.18203896284103394 0.52310580015182495 0.22279557585716248
0.28937718272209167 0.54459142684936523 0.20632624626159668
0.42313718795776367 0.57944142818450928 0.16696430742740631
0.57421016693115234 0.61593019962310791 0.10034427791833878
0.7257503867149353 0.64639437198638916 0.030533479526638985
0.8166431188583374 0.63249963521957397 0.0073166941292583942
0.87236517667770386 0.5978081226348877 0.0055628758855164051
0.92806136608123779 0.57252377271652222 0.0024863299913704395
0.97541874647140503 0.55598390102386475 0.0035241518635302782
0.99777126312255859 0.55241423845291138 0.0026799221523106098
0.031287502497434616 0.58608353137969971 0.27286988496780396
0.074711322784423828 0.59092843532562256 0.2798311710357666
0.14304494857788086 0.58998221158981323 0.28479716181755066
0.22625966370105743 0.59301978349685669 0.28340142965316772
0.31785231828689575 0.60434257984161377 0.27435612678527832
0.41572019457817078 0.63024258613586426 0.25412178039550781
0.5346379280090332 0.66053801774978638 0.22241412103176117
0.67056655883789062 0.69105023145675659 0.16982850432395935
0.80059075355529785 0.71697628498077393 0.10019351541996002
0.88821285963058472 0.71373635530471802 0.04099566861987114
0.94136524200439453 0.68697053194046021 0.0096472343429923058
0.98148661851882935 0.66011494398117065 0.0057529672048985958
0.9988785982131958 0.63969194889068604 0.0031535278540104628
0.17480312287807465 0.65999829769134521 0.3428991436958313
0.20969502627849579 0.66012156009674072 0.34978225827217102
0.25068002939224243 0.660500168800354 0.35301470756530762
0.30142733454704285 0.65820825099945068 0.35065385699272156
0.36189821362495422 0.6612897515296936 0.34548965096473694
0.44033968448638916 0.68143361806869507 0.33695155382156372
0.53571599721908569 0.70669424533843994 0.32557076215744019
0.64192205667495728 0.73139679431915283 0.30187323689460754
0.75296390056610107 0.75575488805770874 0.2680305540561676
0.8649945855140686 0.78264528512954712 0.22339814901351929
0.94402796030044556 0.78442561626434326 0.16193349659442902
0.98829317092895508 0.76346182823181152 0.087070226669311523
0.99991363286972046 0.74081134796142578 0.034818999469280243
0.31557592749595642 0.72673743963241577 0.42552173137664795
0.33601349592208862 0.72579449415206909 0.42750802636146545
0.35987326502799988 0.72533231973648071 0.42719322443008423
0.39146775007247925 0.72444611787796021 0.4274270236492157
0.43667727708816528 0.72526198625564575 0.43051093816757202
0.49769559502601624 0.73859238624572754 0.42765706777572632
0.56264746189117432 0.75620704889297485 0.42336341738700867
0.64511376619338989 0.77494770288467407 0.41176941990852356
0.73423713445663452 0.79604506492614746 0.39796867966651917
0.82374542951583862 0.81803303956985474 0.37996125221252441
0.91574591398239136 0.84037995338439941 0.35491180419921875
0.97933357954025269 0.84434092044830322 0.31691816449165344
0.99782174825668335 0.82717549800872803 0.256460040807724
0.44755595922470093 0.78893762826919556 0.52218890190124512
0.45837551355361938 0.78882694244384766 0.52112764120101929
0.4741254448890686 0.78833723068237305 0.51980084180831909
0.49537160992622375 0.78876370191574097 0.52086174488067627
0.52719563245773315 0.79001706838607788 0.52519094944000244
0.56311148405075073 0.79501622915267944 0.52258318662643433
0.60788154602050781 0.80547243356704712 0.51835578680038452
0.6731574535369873 0.82086139917373657 0.51559120416641235
0.74254715442657471 0.83820503950119019 0.51288330554962158
0.80837917327880859 0.85399574041366577 0.50350397825241089
0.87778234481811523 0.87208688259124756 0.49120813608169556
0.94810992479324341 0.88957065343856812 0.47780707478523254
0.99267232418060303 0.89574342966079712 0.45795288681983948
0.57033765316009521 0.84820866584777832 0.62014317512512207
0.57778102159500122 0.8483390212059021 0.61982327699661255
0.5892874002456665 0.84836101531982422 0.61943525075912476
0.60626715421676636 0.84888315200805664 0.62156975269317627
0.62917011976242065 0.85040163993835449 0.62629556655883789
0.65388137102127075 0.85250675678253174 0.62448066473007202
0.68044650554656982 0.85736197233200073 0.62253010272979736
0.72242838144302368 0.86832380294799805 0.62343019247055054
0.76987588405609131 0.88099408149719238 0.62172538042068481
0.82116460800170898 0.89354944229125977 0.61611902713775635
0.86970394849777222 0.90605688095092773 0.61054146289825439
0.9204828143119812 0.9179425835609436 0.60211396217346191
0.97165805101394653 0.93191635608673096 0.59362995624542236
0.69130450487136841 0.90610277652740479 0.71660298109054565
0.69594317674636841 0.90659981966018677 0.71716254949569702
0.7024693489074707 0.90690451860427856 0.71818900108337402
0.71404534578323364 0.90760666131973267 0.72043037414550781
0.72969299554824829 0.90823984146118164 0.72466516494750977
0.7449336051940918 0.90813720226287842 0.72615379095077515
0.76359373331069946 0.9105832576751709 0.72771292924880981
0.78988450765609741 0.91774439811706543 0.72944408655166626
0.81344890594482422 0.92391020059585571 0.72400367259979248
0.84408330917358398 0.93243497610092163 0.72310876846313477
0.87913095951080322 0.94063538312911987 0.7190396785736084
0.91401147842407227 0.94909918308258057 0.71602243185043335
0.95146918296813965 0.95622551441192627 0.70817184448242188
0.01982676237821579 0.07699507474899292 0.14086435735225677
0.06190592423081398 0.078584544360637665 0.13957507908344269
0.11290102452039719 0.083128772675991058 0.1366957426071167
0.18717768788337708 0.084863416850566864 0.13577961921691895
0.2898959219455719 0.073934592306613922 0.13768239319324493
0.41023486852645874 0.036492187529802322 0.13713920116424561
0.54602289199829102 0.0096467863768339157 0.13704979419708252
0.67194193601608276 0.0050304639153182507 0.13571406900882721
0.77546423673629761 0.0076011954806745052 0.13417324423789978
0.86124324798583984 0.030051527544856071 0.12708212435245514
0.93300002813339233 0.096510030329227448 0.11526201665401459
0.98709762096405029 0.16628782451152802 0.10308592766523361
0.99932295083999634 0.22917711734771729 0.09248034656047821
0.014522463083267212 0.10706072300672531 0.14549563825130463
0.060090441256761551 0.11151347309350967 0.14843596518039703
0.1202349066734314 0.11919097602367401 0.14596116542816162
0.201473668217659 0.12179261445999146 0.14299161732196808
0.31208983063697815 0.11281187832355499 0.14279893040657043
0.43037736415863037 0.089839383959770203 0.14230220019817352
0.56073558330535889 0.067550495266914368 0.14224852621555328
0.68019860982894897 0.066093072295188904 0.14060254395008087
0.77930647134780884 0.08148849755525589 0.13021938502788544
0.8638235330581665 0.11291753500699997 0.11845163255929947
0.93557339906692505 0.15785294771194458 0.10574197024106979
0.98647993803024292 0.20880307257175446 0.092804990708827972
0.9992557168006897 0.258535236120224 0.082979463040828705
0.016241934150457382 0.15767288208007812 0.15081377327442169
0.064207799732685089 0.16498234868049622 0.15748442709445953
0.12840946018695831 0.17368783056735992 0.16009804606437683
0.21756018698215485 0.17675139009952545 0.1511380672454834
0.32798069715499878 0.17292815446853638 0.14455515146255493
0.45286217331886292 0.16637568175792694 0.14168448746204376
0.57951515913009644 0.1684979647397995 0.13946641981601715
0.68818491697311401 0.17409037053585052 0.13180257380008698
0.78128784894943237 0.18756970763206482 0.1188996285200119
0.86559545993804932 0.20820964872837067 0.10256751626729965
0.93606019020080566 0.23559750616550446 0.091452427208423615
0.98696935176849365 0.26882678270339966 0.077311478555202484
0.99935925006866455 0.30732005834579468 0.065569169819355011
0.031932052224874496 0.23231586813926697 0.16956372559070587
0.077056959271430969 0.23447123169898987 0.17217247188091278
0.13255350291728973 0.24466095864772797 0.17567379772663116
0.22171841561794281 0.2603391706943512 0.1690526157617569
0.35381922125816345 0.27948126196861267 0.15144847333431244
0.4780120849609375 0.27309051156044006 0.13388773798942566
0.59253251552581787 0.26881486177444458 0.12132586538791656
0.69305741786956787 0.27392855286598206 0.10967900604009628
0.78048992156982422 0.28283408284187317 0.092485688626766205
0.86129534244537354 0.29223942756652832 0.076410792768001556
0.93158894777297974 0.30970364809036255 0.06580701470375061
0.98704224824905396 0.33447521924972534 0.053908150643110275
0.99999356269836426 0.36786234378814697 0.046315856277942657
0.031453885138034821 0.33312627673149109 0.20375536382198334
0.067120634019374847 0.33596724271774292 0.20561100542545319
0.13849788904190063 0.34247109293937683 0.20901781320571899
