luts/negative_old/fuji_superia_100_++.cube
# Created by: G'MIC (https://gmic.eu)
TITLE "fuji_superia_100_++"
# LUT size
LUT_3D_SIZE 13
# Data domain
DOMAIN_MIN 0.0 0.0 0.0
DOMAIN_MAX 1.0 1.0 1.0
# LUT data points
0.052175797522068024 0.09988943487405777 0.1054241731762886
0.076972648501396179 0.099656425416469574 0.10354632139205933
0.12438829988241196 0.10002244263887405 0.10014379024505615
0.19066433608531952 0.10131005942821503 0.096568822860717773
0.2825104296207428 0.10189250856637955 0.090395517647266388
0.38542905449867249 0.10458628088235855 0.07964063435792923
0.50268912315368652 0.11133014410734177 0.062898300588130951
0.61543041467666626 0.11807337403297424 0.043205950409173965
0.71321958303451538 0.13148464262485504 0.020390737801790237
0.7965654730796814 0.14652073383331299 0.005616416223347187
0.87082576751708984 0.16253432631492615 0.0039963964372873306
0.94555330276489258 0.18801485002040863 0.0025818319991230965
0.99109292030334473 0.20554056763648987 0.0021567102521657944
0.037817519158124924 0.11779909580945969 0.099266096949577332
0.067016899585723877 0.11985374987125397 0.099164389073848724
0.12114223092794418 0.12374692410230637 0.098460085690021515
0.19509017467498779 0.13094127178192139 0.095269657671451569
0.29329937696456909 0.13751274347305298 0.087154045701026917
0.39904689788818359 0.1477825939655304 0.072425812482833862
0.51807212829589844 0.15923537313938141 0.050579026341438293
0.63095217943191528 0.16956280171871185 0.027399534359574318
0.72021013498306274 0.18248119950294495 0.016439685598015785
0.79980236291885376 0.19368100166320801 0.010780902579426765
0.87372946739196777 0.20106847584247589 0.0072496752254664898
0.94843423366546631 0.22693200409412384 0.0038130516186356544
0.99341374635696411 0.24363549053668976 0.0025763867888599634
0.0083729010075330734 0.1729433536529541 0.10334435105323792
0.02876262366771698 0.17236390709877014 0.10436698794364929
0.098495721817016602 0.1752132922410965 0.099614225327968597
0.18994209170341492 0.18148836493492126 0.09234561026096344
0.29673776030540466 0.19903092086315155 0.07788703590631485
0.42382374405860901 0.21951918303966522 0.048897299915552139
0.54178982973098755 0.23504093289375305 0.026816215366125107
0.64671897888183594 0.24876484274864197 0.015437480993568897
0.7305564284324646 0.25043460726737976 0.012128433212637901
0.80664026737213135 0.25274014472961426 0.011820893734693527
0.88103592395782471 0.26294955611228943 0.0083600059151649475
0.95473635196685791 0.27910742163658142 0.0036361843813210726
0.9970405101776123 0.28882086277008057 0.0021005070302635431
0.0033010444603860378 0.26240617036819458 0.1085263267159462
0.007663053460419178 0.2653355598449707 0.10731271654367447
0.04290568083524704 0.26429861783981323 0.10147640854120255
0.16742286086082458 0.26698005199432373 0.090593136847019196
0.30361917614936829 0.28277188539505005 0.067041434347629547
0.44182369112968445 0.30464482307434082 0.029881570488214493
0.56364494562149048 0.32052233815193176 0.010828115046024323
0.66474819183349609 0.33245250582695007 0.0090805506333708763
0.74617981910705566 0.33158814907073975 0.0081699294969439507
0.81895500421524048 0.3292088508605957 0.0092657050117850304
0.89204657077789307 0.3413892388343811 0.0062681608833372593
0.95955997705459595 0.34954115748405457 0.0031416201964020729
0.99281257390975952 0.3507617712020874 0.0023284314665943384
0.0010624754941090941 0.39086633920669556 0.10965320467948914
0.0039863735437393188 0.39057847857475281 0.10869409888982773
0.0093384534120559692 0.38689440488815308 0.10477873682975769
0.11046767979860306 0.39017722010612488 0.088501095771789551
0.29096895456314087 0.3920709490776062 0.062766820192337036
0.44150623679161072 0.40276291966438293 0.022917428985238075
0.56911790370941162 0.41266044974327087 0.0049144220538437366
0.67632967233657837 0.4193992018699646 0.004505576565861702
0.76045471429824829 0.42005789279937744 0.0027578915469348431
0.83345282077789307 0.41836768388748169 0.0043376102112233639
0.90391308069229126 0.42157661914825439 0.0036210902035236359
0.95922791957855225 0.421303391456604 0.0024674807209521532
0.98944234848022461 0.41991502046585083 0.0023284314665943384
0 0.5174560546875 0.1246599406003952
0.00072845758404582739 0.52008992433547974 0.12751208245754242
0.0039823194965720177 0.51890069246292114 0.12175091356039047
0.032007448375225067 0.52014672756195068 0.10443861782550812
0.24290293455123901 0.51374143362045288 0.079031325876712799
0.4189859926700592 0.50626319646835327 0.036700934171676636
0.55539512634277344 0.50573170185089111 0.009860738180577755
0.66486477851867676 0.50622808933258057 0.0044029084965586662
0.75541490316390991 0.50492918491363525 0.0032468459103256464
0.83975714445114136 0.50294280052185059 0.0030185326468199492
0.91180437803268433 0.49986213445663452 0.0018725077388808131
0.9668121337890625 0.49456954002380371 0.001750257913954556
0.99252307415008545 0.49191513657569885 0.0020567502360790968
0 0.62179148197174072 0.177569180727005
0 0.62542366981506348 0.18576429784297943
0.0019571492448449135 0.62456256151199341 0.18065355718135834
0.0046425163745880127 0.62493693828582764 0.16710560023784637
0.16048148274421692 0.62026017904281616 0.14487442374229431
0.37388071417808533 0.60698425769805908 0.10419142246246338
0.51975971460342407 0.59549409151077271 0.054551802575588226
0.64519518613815308 0.58728551864624023 0.01540552731603384
0.74415189027786255 0.58441579341888428 0.0047782897017896175
0.8304368257522583 0.58404946327209473 0.0067504732869565487
0.90874868631362915 0.58043968677520752 0.0056322133168578148
0.97675120830535889 0.57258576154708862 0.0024433510843664408
0.99805676937103271 0.56793296337127686 0.00064077938441187143
0 0.70976370573043823 0.25741562247276306
0 0.71259337663650513 0.26434376835823059
0.0019987667910754681 0.71263235807418823 0.26245942711830139
0.0043529137037694454 0.71107321977615356 0.25640305876731873
0.10254492610692978 0.70647150278091431 0.24190294742584229
0.32869896292686462 0.69365710020065308 0.21059601008892059
0.47723662853240967 0.67862319946289062 0.15989239513874054
0.60779368877410889 0.66745090484619141 0.10581051558256149
0.72072511911392212 0.66052746772766113 0.043810751289129257
0.81881946325302124 0.66149407625198364 0.01314812432974577
0.89925926923751831 0.65959662199020386 0.0084986221045255661
0.97004169225692749 0.65139591693878174 0.0076339123770594597
0.99840885400772095 0.64546716213226318 0.0051391301676630974
0.00021242628281470388 0.78423392772674561 0.35268092155456543
0.0015128790400922298 0.78638988733291626 0.35367587208747864
0.003499199403449893 0.78681373596191406 0.35208597779273987
0.007894149050116539 0.78662216663360596 0.35197934508323669
0.11202161014080048 0.78283649682998657 0.34552830457687378
0.31903889775276184 0.77245968580245972 0.32359582185745239
0.45492342114448547 0.75976824760437012 0.28833732008934021
0.57747113704681396 0.75060576200485229 0.25005030632019043
0.68554013967514038 0.73892593383789062 0.19553670287132263
0.78901159763336182 0.73567003011703491 0.12849834561347961
0.88486909866333008 0.73620176315307617 0.07043100893497467
0.96124356985092163 0.7312244176864624 0.041602294892072678
0.99689656496047974 0.72431027889251709 0.026589248329401016
0.0048400131054222584 0.85242927074432373 0.44435527920722961
0.011043952777981758 0.85358911752700806 0.44508910179138184
0.028823209926486015 0.85283011198043823 0.44299530982971191
0.095945008099079132 0.85310190916061401 0.44478407502174377
0.22833992540836334 0.84950602054595947 0.44341281056404114
0.35045310854911804 0.84278619289398193 0.43130788207054138
0.45686334371566772 0.83546382188796997 0.40900436043739319
0.56107360124588013 0.829151451587677 0.37992033362388611
0.66052937507629395 0.81767618656158447 0.33913770318031311
0.7604709267616272 0.81166136264801025 0.29236641526222229
0.85561418533325195 0.80926018953323364 0.24176852405071259
0.94008249044418335 0.80633819103240967 0.20456239581108093
0.99366366863250732 0.80344277620315552 0.1797940582036972
0.16657362878322601 0.91057884693145752 0.53287750482559204
0.19135773181915283 0.90990781784057617 0.53271424770355225
0.23159286379814148 0.90716934204101562 0.53387701511383057
0.2932831346988678 0.90792578458786011 0.53701508045196533
0.34684479236602783 0.90530723333358765 0.53656536340713501
0.41089513897895813 0.90087085962295532 0.5293460488319397
0.48973551392555237 0.89940714836120605 0.51678860187530518
0.56766414642333984 0.8949742317199707 0.49478653073310852
0.64953041076660156 0.88989496231079102 0.47099816799163818
0.7343064546585083 0.88301748037338257 0.43744665384292603
0.82007753849029541 0.87537658214569092 0.39797219634056091
0.90465939044952393 0.87198412418365479 0.36483925580978394
0.97906094789505005 0.87343829870223999 0.34407871961593628
0.39538136124610901 0.95500558614730835 0.62389975786209106
0.39839392900466919 0.95275020599365234 0.62237817049026489
0.41463455557823181 0.95002293586730957 0.6227295994758606
0.44278421998023987 0.95013785362243652 0.62503618001937866
0.47278732061386108 0.9497826099395752 0.6260991096496582
0.50925987958908081 0.95084583759307861 0.62454718351364136
0.55394333600997925 0.95114248991012573 0.61804670095443726
0.60837489366531372 0.94831997156143188 0.60481208562850952
0.66830247640609741 0.94478976726531982 0.58865749835968018
0.72780042886734009 0.94052839279174805 0.5678449273109436
0.79637044668197632 0.93656784296035767 0.5399850606918335
0.86937469244003296 0.93344449996948242 0.51359844207763672
0.94922357797622681 0.93310415744781494 0.48976099491119385
0.54518884420394897 0.98720049858093262 0.70788615942001343
0.5421978235244751 0.98467826843261719 0.70535469055175781
0.55456972122192383 0.983132004737854 0.70785129070281982
0.56835603713989258 0.98251461982727051 0.70775371789932251
0.58938956260681152 0.98413121700286865 0.71059530973434448
0.61262720823287964 0.98561340570449829 0.71144652366638184
0.63882452249526978 0.98639172315597534 0.71255064010620117
0.67139345407485962 0.98520779609680176 0.70239162445068359
0.70981299877166748 0.98383080959320068 0.69234687089920044
0.75434643030166626 0.98068928718566895 0.676261305809021
0.80166196823120117 0.98056197166442871 0.66298651695251465
0.85807579755783081 0.97762644290924072 0.64312291145324707
0.91618466377258301 0.97647780179977417 0.63160532712936401
0.049615208059549332 0.09574495255947113 0.12217670679092407
0.075939804315567017 0.098272509872913361 0.12204264849424362
0.12867243587970734 0.09651387482881546 0.1224391981959343
0.19555796682834625 0.091751426458358765 0.12351249158382416
0.28523504734039307 0.079314559698104858 0.11721852421760559
0.38723939657211304 0.075654245913028717 0.10884582251310349
0.50131231546401978 0.079736314713954926 0.097884580492973328
0.61687886714935303 0.073916070163249969 0.084455914795398712
0.71278876066207886 0.07999776303768158 0.068598635494709015
0.79526311159133911 0.10365211963653564 0.049935076385736465
0.86979085206985474 0.13227477669715881 0.02641214057803154
0.94226199388504028 0.16105203330516815 0.0099909016862511635
0.99146658182144165 0.18042631447315216 0.0070826960727572441
0.037223801016807556 0.12083818018436432 0.12506040930747986
0.072682231664657593 0.1285480409860611 0.12892183661460876
0.12925203144550323 0.12711444497108459 0.12841011583805084
0.1991887241601944 0.12216752022504807 0.12051054835319519
0.29578787088394165 0.12297707051038742 0.11463760584592819
0.40047013759613037 0.12620528042316437 0.1072888970375061
0.51795452833175659 0.13195852935314178 0.091195426881313324
0.62977659702301025 0.13929589092731476 0.075071059167385101
0.71956765651702881 0.14447121322154999 0.060484074056148529
0.79957085847854614 0.16362982988357544 0.041676301509141922
0.87380266189575195 0.1818908154964447 0.018574358895421028
0.94673925638198853 0.20395146310329437 0.0096679683774709702
0.99270588159561157 0.21957540512084961 0.006599815096706152
0.018097357824444771 0.17829947173595428 0.13519059121608734
0.044473055750131607 0.17502069473266602 0.1323036402463913
0.10477739572525024 0.18178480863571167 0.13267688453197479
0.19406896829605103 0.18893700838088989 0.12566421926021576
0.30568984150886536 0.19587330520153046 0.1148742213845253
0.42281544208526611 0.20187419652938843 0.096444912254810333
0.54344981908798218 0.21220710873603821 0.073224209249019623
0.64610373973846436 0.22448106110095978 0.0577835813164711
0.73032593727111816 0.22836950421333313 0.040278669446706772
0.80813759565353394 0.23940213024616241 0.026273032650351524
0.88138002157211304 0.2495758980512619 0.013245675712823868
0.952583909034729 0.26326403021812439 0.0084471907466650009
0.99398469924926758 0.27300441265106201 0.0064040687866508961
0.0045286291278898716 0.2666327953338623 0.14660681784152985
0.010411355644464493 0.26412773132324219 0.14444732666015625
0.053979836404323578 0.26621344685554504 0.13860903680324554
0.17933911085128784 0.27345395088195801 0.13028106093406677
0.31354621052742004 0.28089725971221924 0.11368998885154724
0.44306695461273193 0.29486054182052612 0.084291614592075348
0.57160401344299316 0.30880999565124512 0.048458833247423172
0.66829150915145874 0.31668812036514282 0.032446753233671188
0.74690884351730347 0.31787970662117004 0.020283432677388191
0.81989222764968872 0.31918635964393616 0.01333911344408989
0.89076715707778931 0.32542312145233154 0.01075954083353281
0.95766866207122803 0.33305203914642334 0.0058161118067800999
0.99167001247406006 0.3376564085483551 0.0063800136558711529
0.0035596960224211216 0.39492085576057434 0.15925306081771851
0.0056570763699710369 0.3890019953250885 0.16053749620914459
0.0098985405638813972 0.39031001925468445 0.15358780324459076
0.11593834310770035 0.39411351084709167 0.13976001739501953
0.29613402485847473 0.39453545212745667 0.11942868679761887
0.44800996780395508 0.39951497316360474 0.082325942814350128
0.57561576366424561 0.40742301940917969 0.039697099477052689
0.68015563488006592 0.41140338778495789 0.016278121620416641
0.75959664583206177 0.41038474440574646 0.0090684033930301666
0.83081310987472534 0.40781974792480469 0.0088378004729747772
0.90200024843215942 0.40696573257446289 0.0064688739366829395
0.95940506458282471 0.40590924024581909 0.0042090471833944321
0.98953258991241455 0.40807574987411499 0.0057866265997290611
0.0014816583134233952 0.51862764358520508 0.18427069485187531
0.0017490162281319499 0.52112728357315063 0.18447080254554749
0.0042324438691139221 0.52019000053405762 0.17911744117736816
0.039021704345941544 0.52258843183517456 0.16596607863903046
0.24860890209674835 0.51522541046142578 0.14614829421043396
0.42283612489700317 0.50729179382324219 0.11192605644464493
0.56244039535522461 0.50418418645858765 0.057120904326438904
0.67222899198532104 0.50370436906814575 0.019836276769638062
0.7595595121383667 0.5001646876335144 0.0082849990576505661
0.83949607610702515 0.49633985757827759 0.0063800588250160217
0.90854275226593018 0.49229910969734192 0.0053092804737389088
0.96611720323562622 0.48725742101669312 0.0052388808690011501
0.99216586351394653 0.48486533761024475 0.0045889760367572308
8.1484926340635866e-05 0.62244945764541626 0.23164686560630798
0 0.62726199626922607 0.23749946057796478
0.0032579908147454262 0.62570929527282715 0.2358175665140152
0.0085258185863494873 0.6264035701751709 0.22614371776580811
0.18069241940975189 0.61987113952636719 0.20613579452037811
0.38601228594779968 0.60810393095016479 0.17548714578151703
0.52559494972229004 0.59878617525100708 0.12409389764070511
0.65020132064819336 0.58921867609024048 0.062191683799028397
0.74814808368682861 0.58397579193115234 0.026367217302322388
0.83303320407867432 0.58007270097732544 0.01486644335091114
0.90788275003433228 0.57583975791931152 0.0099575864151120186
0.97181236743927002 0.56942945718765259 0.0058416328392922878
0.99684768915176392 0.56402933597564697 0.0033165276981890202
0.00053456623572856188 0.70744931697845459 0.30199369788169861
0.00093323952751234174 0.71214509010314941 0.31226429343223572
0.0039570825174450874 0.7116694450378418 0.31258797645568848
0.0086791394278407097 0.71160411834716797 0.30565443634986877
0.14477503299713135 0.70650464296340942 0.29030981659889221
0.3510209321975708 0.6953311562538147 0.26586443185806274
0.48857316374778748 0.68342739343643188 0.22276777029037476
0.6136968731880188 0.67230629920959473 0.16588090360164642
0.72304648160934448 0.66274744272232056 0.1102127805352211
0.8183751106262207 0.66101372241973877 0.057908181101083755
0.90061372518539429 0.65836608409881592 0.028164492920041084
0.97003734111785889 0.65014255046844482 0.015131512656807899
0.99893903732299805 0.64258009195327759 0.0091175604611635208
0.0031142290681600571 0.78227138519287109 0.38583618402481079
0.0032845290843397379 0.78459912538528442 0.38771358132362366
0.0057914135977625847 0.78547310829162598 0.38745835423469543
0.02803669311106205 0.7856411337852478 0.38577240705490112
0.17488197982311249 0.78239893913269043 0.38132005929946899
0.34034949541091919 0.77213793992996216 0.36491668224334717
0.47414621710777283 0.76156836748123169 0.33505657315254211
0.58337211608886719 0.75309848785400391 0.29949423670768738
0.68954622745513916 0.74137026071548462 0.24856667220592499
0.78803318738937378 0.73811149597167969 0.1909346729516983
0.88102847337722778 0.73728281259536743 0.136797234416008
0.95793294906616211 0.72943979501724243 0.1041371077299118
0.9952576756477356 0.72159916162490845 0.07551313191652298
0.024270150810480118 0.85097783803939819 0.46573689579963684
0.038480751216411591 0.85193365812301636 0.46615958213806152
0.079559102654457092 0.85178542137145996 0.46786114573478699
0.16978424787521362 0.85088908672332764 0.47029998898506165
0.27522110939025879 0.84827500581741333 0.47050514817237854
0.37573593854904175 0.84231680631637573 0.46105855703353882
0.48013287782669067 0.83522152900695801 0.44042357802391052
0.57038551568984985 0.82780545949935913 0.41593307256698608
0.66471552848815918 0.82095301151275635 0.37967902421951294
0.76069480180740356 0.81640219688415527 0.33435580134391785
0.85709482431411743 0.81140697002410889 0.28599452972412109
0.94245296716690063 0.80623829364776611 0.24838630855083466
0.99269145727157593 0.80260854959487915 0.2311704158782959
0.22646360099315643 0.90772324800491333 0.5502244234085083
0.24703755974769592 0.90735495090484619 0.55039256811141968
0.27906563878059387 0.90469527244567871 0.55179589986801147
0.3318941593170166 0.90386736392974854 0.55484926700592041
0.38180944323539734 0.90287011861801147 0.55479699373245239
0.43815228343009949 0.90246474742889404 0.55223721265792847
0.505898118019104 0.89809530973434448 0.53896456956863403
0.57615202665328979 0.89368671178817749 0.51655513048171997
0.65304195880889893 0.88988703489303589 0.49161368608474731
0.73728030920028687 0.88277363777160645 0.46264475584030151
0.82754838466644287 0.87692689895629883 0.4223426878452301
0.90953797101974487 0.87368643283843994 0.39152029156684875
0.97911596298217773 0.87339890003204346 0.37212985754013062
0.42044147849082947 0.95249217748641968 0.63671565055847168
0.42379030585289001 0.95088708400726318 0.63450717926025391
0.43840798735618591 0.94909274578094482 0.63506484031677246
0.46550437808036804 0.94785547256469727 0.63868159055709839
0.49576058983802795 0.94652527570724487 0.63833093643188477
0.52903276681900024 0.94819945096969604 0.63880699872970581
0.56809705495834351 0.94710034132003784 0.63275265693664551
0.61600559949874878 0.94746142625808716 0.61796164512634277
0.66915446519851685 0.94545406103134155 0.60001617670059204
0.73150038719177246 0.94113707542419434 0.57988613843917847
0.80089384317398071 0.93802827596664429 0.55550509691238403
0.87725269794464111 0.93335855007171631 0.53109824657440186
0.95170027017593384 0.93309652805328369 0.50703221559524536
0.56233960390090942 0.98687732219696045 0.71742808818817139
0.55880391597747803 0.98480445146560669 0.71480029821395874
0.56720155477523804 0.98360270261764526 0.71596193313598633
0.58421391248703003 0.98377358913421631 0.71811318397521973
0.601490318775177 0.98294073343276978 0.71820509433746338
0.62196558713912964 0.98360776901245117 0.71922856569290161
0.6493229866027832 0.98459416627883911 0.72164726257324219
0.68017202615737915 0.98506975173950195 0.71267879009246826
0.71587485074996948 0.98334133625030518 0.70018875598907471
0.75775384902954102 0.98275297880172729 0.68769413232803345
0.80504578351974487 0.98220270872116089 0.6740109920501709
0.86334168910980225 0.97876852750778198 0.6562577486038208
0.92009061574935913 0.97627347707748413 0.64037793874740601
0.035582598298788071 0.094186641275882721 0.18155716359615326
0.077527843415737152 0.094795599579811096 0.18344324827194214
0.13702662289142609 0.092691116034984589 0.1809065043926239
0.2015264630317688 0.08626103401184082 0.17214708030223846
0.29086530208587646 0.065722309052944183 0.16607506573200226
0.39791595935821533 0.029535720124840736 0.15783427655696869
0.51236450672149658 0.017215294763445854 0.15005899965763092
0.62347239255905151 0.012947770766913891 0.14002984762191772
0.71826362609863281 0.02140858955681324 0.13029524683952332
0.79662609100341797 0.039915017783641815 0.11887679994106293
0.86975210905075073 0.056351799517869949 0.10035587102174759
0.94099146127700806 0.093379557132720947 0.075821384787559509
0.9935263991355896 0.13578081130981445 0.049164433032274246
0.019720772281289101 0.12216759473085403 0.18195311725139618
0.06449764221906662 0.12788017094135284 0.18658596277236938
0.13433752954006195 0.12917467951774597 0.18664728105068207
0.21023371815681458 0.12054099142551422 0.17802587151527405
0.30603227019309998 0.11083149909973145 0.17079430818557739
0.41169330477714539 0.086610130965709686 0.16069400310516357
0.52627402544021606 0.065206117928028107 0.1486407071352005
0.63285744190216064 0.064554162323474884 0.13882814347743988
0.72376441955566406 0.071151629090309143 0.1261509507894516
0.80125361680984497 0.10324246436357498 0.1136762723326683
0.87395524978637695 0.12922568619251251 0.092015869915485382
0.94620925188064575 0.15855167806148529 0.069173760712146759
0.99288904666900635 0.18413029611110687 0.045779779553413391
0.014503045007586479 0.17954918742179871 0.18415297567844391
0.054118361324071884 0.17645232379436493 0.18468470871448517
0.12356986105442047 0.18061116337776184 0.18449826538562775
0.21533359587192535 0.18467311561107635 0.1824166476726532
0.32163411378860474 0.18224087357521057 0.17678602039813995
0.43364766240119934 0.17410117387771606 0.16310268640518188
0.54854303598403931 0.17238594591617584 0.14492760598659515
0.64891129732131958 0.1773885041475296 0.13431969285011292
0.73289066553115845 0.17734713852405548 0.11712922900915146
0.81002134084701538 0.19786274433135986 0.10156110674142838
0.88120919466018677 0.21361900866031647 0.083427295088768005
0.9512639045715332 0.23083353042602539 0.059091828763484955
0.99159997701644897 0.24714374542236328 0.039809297770261765
0.0065792608074843884 0.26523950695991516 0.19821308553218842
0.030096346512436867 0.26380068063735962 0.20011778175830841
0.09179261326789856 0.26847931742668152 0.19765515625476837
0.20099367201328278 0.27710270881652832 0.19429224729537964
0.32967019081115723 0.28046277165412903 0.18337498605251312
0.4547465443611145 0.28509137034416199 0.16217432916164398
0.57358962297439575 0.2898440957069397 0.13862533867359161
0.6706233024597168 0.29340502619743347 0.12075593322515488
0.7485811710357666 0.29243782162666321 0.10509811341762543
0.8212084174156189 0.2940821647644043 0.089029110968112946
0.89146918058395386 0.29963815212249756 0.0687895268201828
0.95751619338989258 0.3111473023891449 0.045887742191553116
0.9930112361907959 0.31939560174942017 0.030765727162361145
0.0061405557207763195 0.38987672328948975 0.23494410514831543
0.0099732642993330956 0.39016282558441162 0.23678410053253174
0.026400741189718246 0.39459794759750366 0.225441575050354
0.14167340099811554 0.39792084693908691 0.21435189247131348
0.31185582280158997 0.39725619554519653 0.19793197512626648
