luts/negative_old/fuji_superia_800_++.cube
# Created by: G'MIC (https://gmic.eu)
TITLE "fuji_superia_800_++"
# LUT size
LUT_3D_SIZE 5
# Data domain
DOMAIN_MIN 0.0 0.0 0.0
DOMAIN_MAX 1.0 1.0 1.0
# LUT data points
0.084698081016540527 0.19376245141029358 0.19343337416648865
0.19591253995895386 0.18965022265911102 0.19122005999088287
0.46467900276184082 0.19251225888729095 0.18233278393745422
0.78301143646240234 0.20138795673847198 0.16267582774162292
0.97655683755874634 0.26090851426124573 0.12939052283763885
0.011028693988919258 0.29523810744285583 0.20050199329853058
0.20640803873538971 0.3226495087146759 0.19036698341369629
0.54471290111541748 0.33344224095344543 0.18447709083557129
0.7985188364982605 0.33743292093276978 0.16348832845687866
0.98068547248840332 0.36553871631622314 0.12682455778121948
0.00053897930774837732 0.63876926898956299 0.26521551609039307
0.19983223080635071 0.64462637901306152 0.25661817193031311
0.61882138252258301 0.63861089944839478 0.16492635011672974
0.83838897943496704 0.58884453773498535 0.14630021154880524
0.98462837934494019 0.56291496753692627 0.18716393411159515
0.39633634686470032 0.82151561975479126 0.47276845574378967
0.48310908675193787 0.81768572330474854 0.47579124569892883
0.6350710391998291 0.81421124935150146 0.4436299204826355
0.83937317132949829 0.81594210863113403 0.36031082272529602
0.98520439863204956 0.80187737941741943 0.34143641591072083
0.7410731315612793 0.93078643083572388 0.71125853061676025
0.75650680065155029 0.93018448352813721 0.71174687147140503
0.79486745595932007 0.92958760261535645 0.71065658330917358
0.86115866899490356 0.93153315782546997 0.69058328866958618
0.95078915357589722 0.93551051616668701 0.65600919723510742
0.08193766325712204 0.18700949847698212 0.26248946785926819
0.19010947644710541 0.18894529342651367 0.26666092872619629
0.48187297582626343 0.15508800745010376 0.27078258991241455
0.78070729970932007 0.077133521437644958 0.23660357296466827
0.97561585903167725 0.18842633068561554 0.22384659945964813
0.025071043521165848 0.29158487915992737 0.29822346568107605
0.23283065855503082 0.30514988303184509 0.30635440349578857
0.54940938949584961 0.29447567462921143 0.2904914915561676
0.79748201370239258 0.29635447263717651 0.26236674189567566
0.98776650428771973 0.33261492848396301 0.23113736510276794
0.13453875482082367 0.62610900402069092 0.41269934177398682
0.32174921035766602 0.62678384780883789 0.40949013829231262
0.60599946975708008 0.61771082878112793 0.35109859704971313
0.82249706983566284 0.57212507724761963 0.31285646557807922
0.9824531078338623 0.55972343683242798 0.3045075535774231
0.49361130595207214 0.81155979633331299 0.56021213531494141
0.55376553535461426 0.80873686075210571 0.56219738721847534
0.67267787456512451 0.80901831388473511 0.55047577619552612
0.84850937128067017 0.80783307552337646 0.47587814927101135
0.97999346256256104 0.79817986488342285 0.46673247218132019
0.76239114999771118 0.9286954402923584 0.74008393287658691
0.77259552478790283 0.92731553316116333 0.73815751075744629
0.80834156274795532 0.92770445346832275 0.74074971675872803
0.87170779705047607 0.92865931987762451 0.7242850661277771
0.94818848371505737 0.93429446220397949 0.70273494720458984
0.070991814136505127 0.18184894323348999 0.47185969352722168
0.23940263688564301 0.1818920224905014 0.47707006335258484
0.49216112494468689 0.17511789500713348 0.48546710610389709
0.77200078964233398 0.18600389361381531 0.49833160638809204
0.98804688453674316 0.084423676133155823 0.4546068012714386
0.0047383029013872147 0.27436673641204834 0.51826435327529907
0.24649600684642792 0.29385960102081299 0.52445226907730103
0.5441630482673645 0.31814950704574585 0.51890385150909424
0.79196381568908691 0.34091666340827942 0.51170724630355835
0.99124050140380859 0.25774672627449036 0.43907150626182556
0.13242018222808838 0.58430123329162598 0.57862359285354614
0.36661359667778015 0.5823972225189209 0.580405592918396
0.58327996730804443 0.56880444288253784 0.56447237730026245
0.80663830041885376 0.54733872413635254 0.52906143665313721
0.97801417112350464 0.54306536912918091 0.50050550699234009
0.60709553956985474 0.79872637987136841 0.6840975284576416
0.65013694763183594 0.79922568798065186 0.68273788690567017
0.71245419979095459 0.79730105400085449 0.6732555627822876
0.84350597858428955 0.79909569025039673 0.64127451181411743
0.97061491012573242 0.78754597902297974 0.61343097686767578
0.80155110359191895 0.92443704605102539 0.79541134834289551
0.80627322196960449 0.92381906509399414 0.79037165641784668
0.83591353893280029 0.92258697748184204 0.78941506147384644
0.88237690925598145 0.92849057912826538 0.78454971313476562
0.95355647802352905 0.93385809659957886 0.76111656427383423
0.19986645877361298 0.17091482877731323 0.69878631830215454
0.34225639700889587 0.17601765692234039 0.69898241758346558
0.55259251594543457 0.16508838534355164 0.69643688201904297
0.78309577703475952 0.20084172487258911 0.69770187139511108
0.96075421571731567 0.37019717693328857 0.70910531282424927
0.16426815092563629 0.26893129944801331 0.71870648860931396
0.33238154649734497 0.28255179524421692 0.71473109722137451
0.57041049003601074 0.29567548632621765 0.70681977272033691
0.78728371858596802 0.35795634984970093 0.70310360193252563
0.96039950847625732 0.47962042689323425 0.72149854898452759
0.0029191409703344107 0.46855378150939941 0.71411758661270142
0.21255446970462799 0.47790706157684326 0.71461027860641479
0.55882549285888672 0.52194017171859741 0.71585416793823242
0.80203932523727417 0.57859128713607788 0.72291749715805054
0.95487046241760254 0.63637292385101318 0.73527693748474121
0.5368768572807312 0.77190130949020386 0.77116316556930542
0.59411197900772095 0.77106577157974243 0.77115625143051147
0.70366042852401733 0.76766824722290039 0.77066373825073242
0.82518941164016724 0.76731151342391968 0.75622546672821045
0.96179735660552979 0.76337939500808716 0.73717957735061646
0.82439714670181274 0.92321598529815674 0.84993857145309448
0.83628886938095093 0.92240101099014282 0.8510395884513855
0.8631020188331604 0.92191725969314575 0.85293352603912354
0.89683383703231812 0.92216694355010986 0.8484000563621521
0.95646697282791138 0.9272688627243042 0.83288806676864624
0.44449111819267273 0.20669324696063995 0.88791131973266602
0.52553242444992065 0.22143487632274628 0.88813930749893188
0.68029475212097168 0.25627920031547546 0.88195937871932983
0.85337930917739868 0.36295998096466064 0.87833505868911743
0.97667950391769409 0.48192718625068665 0.87706619501113892
0.43867862224578857 0.31623756885528564 0.88973194360733032
0.51998692750930786 0.32883372902870178 0.88689911365509033
0.68261152505874634 0.36709144711494446 0.88511031866073608
0.84326952695846558 0.45128071308135986 0.87324345111846924
0.97802400588989258 0.54919499158859253 0.87662810087203979
0.32188773155212402 0.48196116089820862 0.8898855447769165
0.46573060750961304 0.50421452522277832 0.88677334785461426
0.66044473648071289 0.54186433553695679 0.88130712509155273
0.83967858552932739 0.60143160820007324 0.87960773706436157
0.96104252338409424 0.66170483827590942 0.87079936265945435
0.41068622469902039 0.72061729431152344 0.89114350080490112
0.45851457118988037 0.70711958408355713 0.8897930383682251
0.59218680858612061 0.70320183038711548 0.88703912496566772
0.81237351894378662 0.74766761064529419 0.88840693235397339
0.95248895883560181 0.79737234115600586 0.88423645496368408
0.78505337238311768 0.9206128716468811 0.91283696889877319
0.7993772029876709 0.91956019401550293 0.91306871175765991
0.83333837985992432 0.91662341356277466 0.91245943307876587
0.89769607782363892 0.91877973079681396 0.90866124629974365
0.94817304611206055 0.92350262403488159 0.91444104909896851
