luts/negative_old/fuji_superia_100_+.cube
# Created by: G'MIC (https://gmic.eu)
TITLE "fuji_superia_100_+"
# LUT size
LUT_3D_SIZE 5
# Data domain
DOMAIN_MIN 0.0 0.0 0.0
DOMAIN_MAX 1.0 1.0 1.0
# LUT data points
0.0037831026129424572 0.049710039049386978 0.056652188301086426
0.16155765950679779 0.063400492072105408 0.04653555154800415
0.51288241147994995 0.066470995545387268 0.015836348757147789
0.79993695020675659 0.092759288847446442 0.003352191299200058
0.98997491598129272 0.16965295374393463 0.0020705577917397022
0 0.25913941860198975 0.080216303467750549
0.14067853987216949 0.26123523712158203 0.050728444010019302
0.57371914386749268 0.30769005417823792 0.0077345455065369606
0.82162570953369141 0.31442877650260925 0.0038363737985491753
0.99063152074813843 0.32195776700973511 0.001840494223870337
0 0.61843335628509521 0.19495224952697754
0.0061727934516966343 0.62069576978683472 0.1900615394115448
0.52616709470748901 0.5869787335395813 0.072807177901268005
0.82752126455307007 0.5710068941116333 0.007075335830450058
0.99538731575012207 0.55569654703140259 0.001773400348611176
0.021297110244631767 0.83851957321166992 0.43680039048194885
0.16475984454154968 0.83850336074829102 0.44132828712463379
0.48738116025924683 0.82004064321517944 0.40280696749687195
0.75729644298553467 0.80122107267379761 0.30775803327560425
0.98960334062576294 0.78963369131088257 0.20555438101291656
0.53402316570281982 0.98241537809371948 0.68822777271270752
0.56573808193206787 0.98065221309661865 0.69050699472427368
0.63915997743606567 0.98239439725875854 0.69446271657943726
0.75720083713531494 0.98005557060241699 0.66008657217025757
0.92095398902893066 0.97340887784957886 0.61069154739379883
0.0014221341116353869 0.036846760660409927 0.29091322422027588
0.19859232008457184 0.023713145405054092 0.271829754114151
0.54650306701660156 0.0035418341867625713 0.24099476635456085
0.80681794881820679 0.003556928364560008 0.18246671557426453
0.99144411087036133 0.01204153336584568 0.15798434615135193
0.0022255543153733015 0.26243680715560913 0.28920099139213562
0.21995222568511963 0.27113783359527588 0.2940315306186676
0.58666813373565674 0.24374048411846161 0.24628880620002747
0.81572133302688599 0.24212315678596497 0.2059529572725296
0.99278253316879272 0.2741638720035553 0.16063311696052551
0.13789685070514679 0.61112815141677856 0.4198743999004364
0.23823675513267517 0.6127743124961853 0.39671999216079712
0.56355220079421997 0.58637374639511108 0.33366960287094116
0.83110964298248291 0.5602421760559082 0.25466981530189514
0.99324339628219604 0.54915481805801392 0.20438858866691589
0.34234750270843506 0.82874494791030884 0.5523993968963623
0.39606586098670959 0.82966899871826172 0.54619044065475464
0.55394667387008667 0.82104367017745972 0.52710223197937012
0.77944010496139526 0.79709839820861816 0.45064002275466919
0.98641139268875122 0.79412358999252319 0.37830522656440735
0.61162203550338745 0.97866648435592651 0.73824679851531982
0.63322383165359497 0.97754216194152832 0.73770105838775635
0.68219554424285889 0.9776274561882019 0.73566907644271851
0.78482991456985474 0.97147482633590698 0.70437556505203247
0.92887437343597412 0.97410452365875244 0.66698801517486572
0.0052470038644969463 0.0069296741858124733 0.61698412895202637
0.28056728839874268 0.0076463734731078148 0.61273539066314697
0.60881239175796509 0.0048029730096459389 0.59993433952331543
0.83251839876174927 0.0065588857978582382 0.52100485563278198
0.99639517068862915 0.0039924620650708675 0.45650839805603027
0.0065086064860224724 0.27114108204841614 0.61927759647369385
0.25330615043640137 0.26584875583648682 0.62010544538497925
0.61342132091522217 0.26683047413825989 0.59897243976593018
0.82916367053985596 0.28405338525772095 0.52668493986129761
0.99439096450805664 0.18864171206951141 0.45289409160614014
0.14104810357093811 0.59988677501678467 0.61002832651138306
0.39136895537376404 0.58990120887756348 0.6108289361000061
0.60301917791366577 0.57166296243667603 0.59365296363830566
0.82029008865356445 0.54447799921035767 0.54326289892196655
0.98940789699554443 0.50578808784484863 0.49859845638275146
0.55096811056137085 0.81106078624725342 0.70846378803253174
0.60573601722717285 0.81758731603622437 0.7127760648727417
0.66832524538040161 0.81437623500823975 0.69646269083023071
0.81631660461425781 0.79606151580810547 0.64180094003677368
0.99064582586288452 0.78450459241867065 0.57900369167327881
0.73614895343780518 0.96858268976211548 0.83016937971115112
0.74244093894958496 0.96811658143997192 0.82712584733963013
0.77001774311065674 0.96970272064208984 0.82222145795822144
0.82781988382339478 0.97282040119171143 0.80223780870437622
0.94363498687744141 0.97154426574707031 0.76039457321166992
0.008849005214869976 0.002839451190084219 0.86014711856842041
0.28824648261070251 0.0076774894259870052 0.8538699746131897
0.5996394157409668 0.0074811000376939774 0.84653681516647339
0.85355299711227417 0.015676535665988922 0.83161634206771851
0.99597567319869995 0.24069038033485413 0.76529890298843384
0.0080918110907077789 0.26670357584953308 0.85645836591720581
0.30367603898048401 0.2682250440120697 0.84849649667739868
0.60044580698013306 0.28532397747039795 0.84316307306289673
0.84815752506256104 0.34188464283943176 0.82349580526351929
0.99399679899215698 0.40779125690460205 0.77317631244659424
0.080435343086719513 0.56255882978439331 0.83795839548110962
0.35121431946754456 0.56681686639785767 0.82810348272323608
0.61203444004058838 0.56703060865402222 0.82409507036209106
0.83564209938049316 0.59203433990478516 0.81481415033340454
0.98578035831451416 0.58757299184799194 0.76540422439575195
0.4934786856174469 0.80658966302871704 0.83134281635284424
0.56137579679489136 0.80413150787353516 0.83074522018432617
0.69531846046447754 0.80180108547210693 0.83205366134643555
0.83510643243789673 0.78677397966384888 0.80985403060913086
0.98753738403320312 0.7529914379119873 0.76314276456832886
0.77774381637573242 0.97016698122024536 0.90084171295166016
0.79714184999465942 0.96818822622299194 0.90371346473693848
0.8477635383605957 0.96765726804733276 0.91047406196594238
0.89084929227828979 0.97134536504745483 0.90600812435150146
0.96253925561904907 0.96952855587005615 0.87620800733566284
0.12861229479312897 0.0039367377758026123 0.99447786808013916
0.3324713408946991 0.010687525384128094 0.99266034364700317
0.57274562120437622 0.065176360309123993 0.99678194522857666
0.80381691455841064 0.24443341791629791 0.98441845178604126
0.98833918571472168 0.37570270895957947 0.98250859975814819
0.22060117125511169 0.28872105479240417 0.99064034223556519
0.36973121762275696 0.29587572813034058 0.99294877052307129
0.60039907693862915 0.34665918350219727 0.98720097541809082
0.81138348579406738 0.41835805773735046 0.98241341114044189
0.98877185583114624 0.477897047996521 0.98019450902938843
0.3494892418384552 0.56403428316116333 0.98466205596923828
0.46164107322692871 0.57296663522720337 0.98420339822769165
0.63804405927658081 0.58249032497406006 0.98233062028884888
0.82654190063476562 0.6146274209022522 0.98065251111984253
0.9883231520652771 0.64228707551956177 0.97847700119018555
0.45501852035522461 0.76469171047210693 0.98190242052078247
0.52234059572219849 0.76122486591339111 0.98041856288909912
0.65704286098480225 0.77284801006317139 0.98241651058197021
0.84364104270935059 0.80236071348190308 0.97650659084320068
0.98369330167770386 0.82641702890396118 0.97604596614837646
0.73898601531982422 0.96591633558273315 0.9810832142829895
0.76557725667953491 0.96369105577468872 0.98057931661605835
0.82123446464538574 0.96064639091491699 0.98310297727584839
0.90489757061004639 0.97246593236923218 0.98382961750030518
0.98005831241607666 0.97293835878372192 0.98073959350585938
