luts/negative_old/fuji_neopan_1600_+.cube
# Created by: G'MIC (https://gmic.eu)
TITLE "fuji_neopan_1600_+"
# LUT size
LUT_3D_SIZE 7
# Data domain
DOMAIN_MIN 0.0 0.0 0.0
DOMAIN_MAX 1.0 1.0 1.0
# LUT data points
0.089255809783935547 0.089255809783935547 0.089255809783935547
0.087619602680206299 0.087619602680206299 0.087619602680206299
0.11229690909385681 0.11229690909385681 0.11229690909385681
0.1578734964132309 0.1578734964132309 0.1578734964132309
0.21369865536689758 0.21369865536689758 0.21369865536689758
0.29248881340026855 0.29248881340026855 0.29248881340026855
0.42354291677474976 0.42354291677474976 0.42354291677474976
0.1013750433921814 0.1013750433921814 0.1013750433921814
0.11023171991109848 0.11023171991109848 0.11023171991109848
0.15383285284042358 0.15383285284042358 0.15383285284042358
0.21785943210124969 0.21785943210124969 0.21785943210124969
0.2825811505317688 0.2825811505317688 0.2825811505317688
0.35620573163032532 0.35620573163032532 0.35620573163032532
0.48961931467056274 0.48961931467056274 0.48961931467056274
0.15993694961071014 0.15993694961071014 0.15993694961071014
0.17546391487121582 0.17546391487121582 0.17546391487121582
0.22591201961040497 0.22591201961040497 0.22591201961040497
0.30423003435134888 0.30423003435134888 0.30423003435134888
0.39402908086776733 0.39402908086776733 0.39402908086776733
0.48562616109848022 0.48562616109848022 0.48562616109848022
0.6084287166595459 0.6084287166595459 0.6084287166595459
0.27286839485168457 0.27286839485168457 0.27286839485168457
0.29069271683692932 0.29069271683692932 0.29069271683692932
0.32530269026756287 0.32530269026756287 0.32530269026756287
0.38811296224594116 0.38811296224594116 0.38811296224594116
0.48459455370903015 0.48459455370903015 0.48459455370903015
0.61613094806671143 0.61613094806671143 0.61613094806671143
0.74579131603240967 0.74579131603240967 0.74579131603240967
0.43952581286430359 0.43952581286430359 0.43952581286430359
0.45486858487129211 0.45486858487129211 0.45486858487129211
0.47136840224266052 0.47136840224266052 0.47136840224266052
0.51473057270050049 0.51473057270050049 0.51473057270050049
0.5955238938331604 0.5955238938331604 0.5955238938331604
0.7140268087387085 0.7140268087387085 0.7140268087387085
0.8274344801902771 0.8274344801902771 0.8274344801902771
0.66000795364379883 0.66000795364379883 0.66000795364379883
0.67288887500762939 0.67288887500762939 0.67288887500762939
0.68055152893066406 0.68055152893066406 0.68055152893066406
0.70480608940124512 0.70480608940124512 0.70480608940124512
0.7548365592956543 0.7548365592956543 0.7548365592956543
0.81901884078979492 0.81901884078979492 0.81901884078979492
0.88943827152252197 0.88943827152252197 0.88943827152252197
0.88007926940917969 0.88007926940917969 0.88007926940917969
0.88662910461425781 0.88662910461425781 0.88662910461425781
0.89066857099533081 0.89066857099533081 0.89066857099533081
0.90337210893630981 0.90337210893630981 0.90337210893630981
0.92459011077880859 0.92459011077880859 0.92459011077880859
0.94180351495742798 0.94180351495742798 0.94180351495742798
0.96693253517150879 0.96693253517150879 0.96693253517150879
0.082223765552043915 0.082223765552043915 0.082223765552043915
0.093079015612602234 0.093079015612602234 0.093079015612602234
0.1257084459066391 0.1257084459066391 0.1257084459066391
0.17424216866493225 0.17424216866493225 0.17424216866493225
0.23563072085380554 0.23563072085380554 0.23563072085380554
0.31589993834495544 0.31589993834495544 0.31589993834495544
0.44712063670158386 0.44712063670158386 0.44712063670158386
0.10522161424160004 0.10522161424160004 0.10522161424160004
0.12904258072376251 0.12904258072376251 0.12904258072376251
0.17670720815658569 0.17670720815658569 0.17670720815658569
0.2337862104177475 0.2337862104177475 0.2337862104177475
0.29516074061393738 0.29516074061393738 0.29516074061393738
0.37389600276947021 0.37389600276947021 0.37389600276947021
0.50497549772262573 0.50497549772262573 0.50497549772262573
0.18491007387638092 0.18491007387638092 0.18491007387638092
0.21391601860523224 0.21391601860523224 0.21391601860523224
0.26020309329032898 0.26020309329032898 0.26020309329032898
0.32392197847366333 0.32392197847366333 0.32392197847366333
0.40176850557327271 0.40176850557327271 0.40176850557327271
0.48908242583274841 0.48908242583274841 0.48908242583274841
0.60638093948364258 0.60638093948364258 0.60638093948364258
0.32128474116325378 0.32128474116325378 0.32128474116325378
0.34328055381774902 0.34328055381774902 0.34328055381774902
0.36340194940567017 0.36340194940567017 0.36340194940567017
0.41995292901992798 0.41995292901992798 0.41995292901992798
0.51382601261138916 0.51382601261138916 0.51382601261138916
0.62627279758453369 0.62627279758453369 0.62627279758453369
0.74412411451339722 0.74412411451339722 0.74412411451339722
0.48938834667205811 0.48938834667205811 0.48938834667205811
0.49709039926528931 0.49709039926528931 0.49709039926528931
0.49438968300819397 0.49438968300819397 0.49438968300819397
0.53838598728179932 0.53838598728179932 0.53838598728179932
0.6176074743270874 0.6176074743270874 0.6176074743270874
0.71651482582092285 0.71651482582092285 0.71651482582092285
0.82521200180053711 0.82521200180053711 0.82521200180053711
0.68685418367385864 0.68685418367385864 0.68685418367385864
0.69103521108627319 0.69103521108627319 0.69103521108627319
0.68976384401321411 0.68976384401321411 0.68976384401321411
0.71139931678771973 0.71139931678771973 0.71139931678771973
0.75949752330780029 0.75949752330780029 0.75949752330780029
0.81735789775848389 0.81735789775848389 0.81735789775848389
0.88802683353424072 0.88802683353424072 0.88802683353424072
0.88447874784469604 0.88447874784469604 0.88447874784469604
0.88808375597000122 0.88808375597000122 0.88808375597000122
0.88969224691390991 0.88969224691390991 0.88969224691390991
0.90169340372085571 0.90169340372085571 0.90169340372085571
0.92676776647567749 0.92676776647567749 0.92676776647567749
0.94936525821685791 0.94936525821685791 0.94936525821685791
0.9717598557472229 0.9717598557472229 0.9717598557472229
0.10501554608345032 0.10501554608345032 0.10501554608345032
0.12529045343399048 0.12529045343399048 0.12529045343399048
0.16776105761528015 0.16776105761528015 0.16776105761528015
0.2065778374671936 0.2065778374671936 0.2065778374671936
0.26645860075950623 0.26645860075950623 0.26645860075950623
0.35107949376106262 0.35107949376106262 0.35107949376106262
0.45645305514335632 0.45645305514335632 0.45645305514335632
0.13498157262802124 0.13498157262802124 0.13498157262802124
0.17050476372241974 0.17050476372241974 0.17050476372241974
0.22947666049003601 0.22947666049003601 0.22947666049003601
0.27240541577339172 0.27240541577339172 0.27240541577339172
0.31865653395652771 0.31865653395652771 0.31865653395652771
0.40613219141960144 0.40613219141960144 0.40613219141960144
0.52142763137817383 0.52142763137817383 0.52142763137817383
0.21869838237762451 0.21869838237762451 0.21869838237762451
0.2600942850112915 0.2600942850112915 0.2600942850112915
0.31887087225914001 0.31887087225914001 0.31887087225914001
0.36883428692817688 0.36883428692817688 0.36883428692817688
0.42716675996780396 0.42716675996780396 0.42716675996780396
0.51567757129669189 0.51567757129669189 0.51567757129669189
0.63194918632507324 0.63194918632507324 0.63194918632507324
0.36747419834136963 0.36747419834136963 0.36747419834136963
0.40377819538116455 0.40377819538116455 0.40377819538116455
0.43048599362373352 0.43048599362373352 0.43048599362373352
0.47744223475456238 0.47744223475456238 0.47744223475456238
0.56191349029541016 0.56191349029541016 0.56191349029541016
0.65606510639190674 0.65606510639190674 0.65606510639190674
0.74520301818847656 0.74520301818847656 0.74520301818847656
0.54513353109359741 0.54513353109359741 0.54513353109359741
0.56514590978622437 0.56514590978622437 0.56514590978622437
0.57430535554885864 0.57430535554885864 0.57430535554885864
0.59415793418884277 0.59415793418884277 0.59415793418884277
0.65894573926925659 0.65894573926925659 0.65894573926925659
0.73795729875564575 0.73795729875564575 0.73795729875564575
0.82497304677963257 0.82497304677963257 0.82497304677963257
0.72570717334747314 0.72570717334747314 0.72570717334747314
0.73253792524337769 0.73253792524337769 0.73253792524337769
0.73486781120300293 0.73486781120300293 0.73486781120300293
0.74159222841262817 0.74159222841262817 0.74159222841262817
0.78110873699188232 0.78110873699188232 0.78110873699188232
0.8307986855506897 0.8307986855506897 0.8307986855506897
0.89396029710769653 0.89396029710769653 0.89396029710769653
0.89595818519592285 0.89595818519592285 0.89595818519592285
0.89684438705444336 0.89684438705444336 0.89684438705444336
0.90093672275543213 0.90093672275543213 0.90093672275543213
0.91121262311935425 0.91121262311935425 0.91121262311935425
0.93398517370223999 0.93398517370223999 0.93398517370223999
0.95618832111358643 0.95618832111358643 0.95618832111358643
0.97511804103851318 0.97511804103851318 0.97511804103851318
0.1726853996515274 0.1726853996515274 0.1726853996515274
0.19303460419178009 0.19303460419178009 0.19303460419178009
0.25522705912590027 0.25522705912590027 0.25522705912590027
0.31314584612846375 0.31314584612846375 0.31314584612846375
0.32483363151550293 0.32483363151550293 0.32483363151550293
0.41400673985481262 0.41400673985481262 0.41400673985481262
0.54458236694335938 0.54458236694335938 0.54458236694335938
0.227804034948349 0.227804034948349 0.227804034948349
0.24554337561130524 0.24554337561130524 0.24554337561130524
0.31046554446220398 0.31046554446220398 0.31046554446220398
0.35404512286186218 0.35404512286186218 0.35404512286186218
0.36456218361854553 0.36456218361854553 0.36456218361854553
0.46574845910072327 0.46574845910072327 0.46574845910072327
0.57907885313034058 0.57907885313034058 0.57907885313034058
0.27406162023544312 0.27406162023544312 0.27406162023544312
0.30766949057579041 0.30766949057579041 0.30766949057579041
0.38577321171760559 0.38577321171760559 0.38577321171760559
0.44053208827972412 0.44053208827972412 0.44053208827972412
0.4643515944480896 0.4643515944480896 0.4643515944480896
0.55232757329940796 0.55232757329940796 0.55232757329940796
0.63868612051010132 0.63868612051010132 0.63868612051010132
0.38030543923377991 0.38030543923377991 0.38030543923377991
0.42028102278709412 0.42028102278709412 0.42028102278709412
0.4756985604763031 0.4756985604763031 0.4756985604763031
0.53498613834381104 0.53498613834381104 0.53498613834381104
0.59893679618835449 0.59893679618835449 0.59893679618835449
0.6679236888885498 0.6679236888885498 0.6679236888885498
0.74342751502990723 0.74342751502990723 0.74342751502990723
0.57802468538284302 0.57802468538284302 0.57802468538284302
0.60118061304092407 0.60118061304092407 0.60118061304092407
0.63686966896057129 0.63686966896057129 0.63686966896057129
0.65336805582046509 0.65336805582046509 0.65336805582046509
0.70370447635650635 0.70370447635650635 0.70370447635650635
0.76702201366424561 0.76702201366424561 0.76702201366424561
0.83693766593933105 0.83693766593933105 0.83693766593933105
0.75983649492263794 0.75983649492263794 0.75983649492263794
0.77031642198562622 0.77031642198562622 0.77031642198562622
0.78538936376571655 0.78538936376571655 0.78538936376571655
0.79234820604324341 0.79234820604324341 0.79234820604324341
0.82055914402008057 0.82055914402008057 0.82055914402008057
0.86231237649917603 0.86231237649917603 0.86231237649917603
0.91443842649459839 0.91443842649459839 0.91443842649459839
0.9144396185874939 0.9144396185874939 0.9144396185874939
0.91679733991622925 0.91679733991622925 0.91679733991622925
0.92467457056045532 0.92467457056045532 0.92467457056045532
0.93431729078292847 0.93431729078292847 0.93431729078292847
0.94575756788253784 0.94575756788253784 0.94575756788253784
0.9591183066368103 0.9591183066368103 0.9591183066368103
0.97881793975830078 0.97881793975830078 0.97881793975830078
0.27683952450752258 0.27683952450752258 0.27683952450752258
0.3028537929058075 0.3028537929058075 0.3028537929058075
0.36661651730537415 0.36661651730537415 0.36661651730537415
0.46178373694419861 0.46178373694419861 0.46178373694419861
0.48595747351646423 0.48595747351646423 0.48595747351646423
0.49444591999053955 0.49444591999053955 0.49444591999053955
0.61858165264129639 0.61858165264129639 0.61858165264129639
0.3432527482509613 0.3432527482509613 0.3432527482509613
0.36274024844169617 0.36274024844169617 0.36274024844169617
0.41605818271636963 0.41605818271636963 0.41605818271636963
0.50023257732391357 0.50023257732391357 0.50023257732391357
0.53408282995223999 0.53408282995223999 0.53408282995223999
0.53923869132995605 0.53923869132995605 0.53923869132995605
0.66311740875244141 0.66311740875244141 0.66311740875244141
0.39536720514297485 0.39536720514297485 0.39536720514297485
0.42288288474082947 0.42288288474082947 0.42288288474082947
0.48721012473106384 0.48721012473106384 0.48721012473106384
0.56675255298614502 0.56675255298614502 0.56675255298614502
0.60229265689849854 0.60229265689849854 0.60229265689849854
0.61957639455795288 0.61957639455795288 0.61957639455795288
0.71379256248474121 0.71379256248474121 0.71379256248474121
0.43212312459945679 0.43212312459945679 0.43212312459945679
0.45653483271598816 0.45653483271598816 0.45653483271598816
0.52739518880844116 0.52739518880844116 0.52739518880844116
0.60994213819503784 0.60994213819503784 0.60994213819503784
0.67292875051498413 0.67292875051498413 0.67292875051498413
0.70710593461990356 0.70710593461990356 0.70710593461990356
0.76815927028656006 0.76815927028656006 0.76815927028656006
0.56905919313430786 0.56905919313430786 0.56905919313430786
0.59800690412521362 0.59800690412521362 0.59800690412521362
0.63734567165374756 0.63734567165374756 0.63734567165374756
0.697581946849823 0.697581946849823 0.697581946849823
0.75456511974334717 0.75456511974334717 0.75456511974334717
0.79756945371627808 0.79756945371627808 0.79756945371627808
0.85765320062637329 0.85765320062637329 0.85765320062637329
0.76362156867980957 0.76362156867980957 0.76362156867980957
0.77212750911712646 0.77212750911712646 0.77212750911712646
0.79539698362350464 0.79539698362350464 0.79539698362350464
0.83142191171646118 0.83142191171646118 0.83142191171646118
0.8597419261932373 0.8597419261932373 0.8597419261932373
0.89128077030181885 0.89128077030181885 0.89128077030181885
0.94246304035186768 0.94246304035186768 0.94246304035186768
0.92561149597167969 0.92561149597167969 0.92561149597167969
0.93032604455947876 0.93032604455947876 0.93032604455947876
0.93775314092636108 0.93775314092636108 0.93775314092636108
0.94980072975158691 0.94980072975158691 0.94980072975158691
0.95658135414123535 0.95658135414123535 0.95658135414123535
0.96551293134689331 0.96551293134689331 0.96551293134689331
0.98814523220062256 0.98814523220062256 0.98814523220062256
0.45700544118881226 0.45700544118881226 0.45700544118881226
0.48108559846878052 0.48108559846878052 0.48108559846878052
0.52234292030334473 0.52234292030334473 0.52234292030334473
0.60742884874343872 0.60742884874343872 0.60742884874343872
0.69576948881149292 0.69576948881149292 0.69576948881149292
0.69701671600341797 0.69701671600341797 0.69701671600341797
0.72329699993133545 0.72329699993133545 0.72329699993133545
0.49061381816864014 0.49061381816864014 0.49061381816864014
0.52617579698562622 0.52617579698562622 0.52617579698562622
0.56609463691711426 0.56609463691711426 0.56609463691711426
0.64058488607406616 0.64058488607406616 0.64058488607406616
0.72850078344345093 0.72850078344345093 0.72850078344345093
0.71438688039779663 0.71438688039779663 0.71438688039779663
0.74748969078063965 0.74748969078063965 0.74748969078063965
0.57020372152328491 0.57020372152328491 0.57020372152328491
0.59353470802307129 0.59353470802307129 0.59353470802307129
0.63805800676345825 0.63805800676345825 0.63805800676345825
0.6812555193901062 0.6812555193901062 0.6812555193901062
0.74477893114089966 0.74477893114089966 0.74477893114089966
0.7587817907333374 0.7587817907333374 0.7587817907333374
0.78704541921615601 0.78704541921615601 0.78704541921615601
0.55999678373336792 0.55999678373336792 0.55999678373336792
0.59259086847305298 0.59259086847305298 0.59259086847305298
0.66764265298843384 0.66764265298843384 0.66764265298843384
0.72857129573822021 0.72857129573822021 0.72857129573822021
0.78183102607727051 0.78183102607727051 0.78183102607727051
0.80868411064147949 0.80868411064147949 0.80868411064147949
0.82050842046737671 0.82050842046737671 0.82050842046737671
0.62365972995758057 0.62365972995758057 0.62365972995758057
0.65171897411346436 0.65171897411346436 0.65171897411346436
0.68342345952987671 0.68342345952987671 0.68342345952987671
0.7606080174446106 0.7606080174446106 0.7606080174446106
0.82278203964233398 0.82278203964233398 0.82278203964233398
0.85295838117599487 0.85295838117599487 0.85295838117599487
0.89093893766403198 0.89093893766403198 0.89093893766403198
0.76706880331039429 0.76706880331039429 0.76706880331039429
0.77252840995788574 0.77252840995788574 0.77252840995788574
0.79718053340911865 0.79718053340911865 0.79718053340911865
0.84092384576797485 0.84092384576797485 0.84092384576797485
0.88488054275512695 0.88488054275512695 0.88488054275512695
0.91581088304519653 0.91581088304519653 0.91581088304519653
0.9532470703125 0.9532470703125 0.9532470703125
0.91831541061401367 0.91831541061401367 0.91831541061401367
0.92815989255905151 0.92815989255905151 0.92815989255905151
0.93122351169586182 0.93122351169586182 0.93122351169586182
0.94212347269058228 0.94212347269058228 0.94212347269058228
0.95515704154968262 0.95515704154968262 0.95515704154968262
0.96489882469177246 0.96489882469177246 0.96489882469177246
0.98374748229980469 0.98374748229980469 0.98374748229980469
0.71289199590682983 0.71289199590682983 0.71289199590682983
0.72316688299179077 0.72316688299179077 0.72316688299179077
0.75398933887481689 0.75398933887481689 0.75398933887481689
0.79698473215103149 0.79698473215103149 0.79698473215103149
0.85990947484970093 0.85990947484970093 0.85990947484970093
0.90399885177612305 0.90399885177612305 0.90399885177612305
0.89636743068695068 0.89636743068695068 0.89636743068695068
0.71759492158889771 0.71759492158889771 0.71759492158889771
0.73892742395401001 0.73892742395401001 0.73892742395401001
0.771373450756073 0.771373450756073 0.771373450756073
0.81025236845016479 0.81025236845016479 0.81025236845016479
0.86395299434661865 0.86395299434661865 0.86395299434661865
0.88777071237564087 0.88777071237564087 0.88777071237564087
0.89130562543869019 0.89130562543869019 0.89130562543869019
0.7639203667640686 0.7639203667640686 0.7639203667640686
0.77732163667678833 0.77732163667678833 0.77732163667678833
0.80697327852249146 0.80697327852249146 0.80697327852249146
0.83347213268280029 0.83347213268280029 0.83347213268280029
0.86826211214065552 0.86826211214065552 0.86826211214065552
0.89922279119491577 0.89922279119491577 0.89922279119491577
0.90301263332366943 0.90301263332366943 0.90301263332366943
0.76854169368743896 0.76854169368743896 0.76854169368743896
0.79377502202987671 0.79377502202987671 0.79377502202987671
0.82722097635269165 0.82722097635269165 0.82722097635269165
0.85738646984100342 0.85738646984100342 0.85738646984100342
0.88864505290985107 0.88864505290985107 0.88864505290985107
0.91899299621582031 0.91899299621582031 0.91899299621582031
0.9217570424079895 0.9217570424079895 0.9217570424079895
0.73864203691482544 0.73864203691482544 0.73864203691482544
0.76455056667327881 0.76455056667327881 0.76455056667327881
0.79726797342300415 0.79726797342300415 0.79726797342300415
0.85450869798660278 0.85450869798660278 0.85450869798660278
0.90632820129394531 0.90632820129394531 0.90632820129394531
0.93927299976348877 0.93927299976348877 0.93927299976348877
0.96483415365219116 0.96483415365219116 0.96483415365219116
0.83577471971511841 0.83577471971511841 0.83577471971511841
0.8381962776184082 0.8381962776184082 0.8381962776184082
0.84516048431396484 0.84516048431396484 0.84516048431396484
0.88321012258529663 0.88321012258529663 0.88321012258529663
0.92722344398498535 0.92722344398498535 0.92722344398498535
0.95702069997787476 0.95702069997787476 0.95702069997787476
0.98265594244003296 0.98265594244003296 0.98265594244003296
0.93688040971755981 0.93688040971755981 0.93688040971755981
0.93309050798416138 0.93309050798416138 0.93309050798416138
0.93572413921356201 0.93572413921356201 0.93572413921356201
0.95181679725646973 0.95181679725646973 0.95181679725646973
0.9686126708984375 0.9686126708984375 0.9686126708984375
0.97719979286193848 0.97719979286193848 0.97719979286193848
0.98668324947357178 0.98668324947357178 0.98668324947357178
