luts/negative_old/fuji_superia_1600_+.cube
# Created by: G'MIC (https://gmic.eu)
TITLE "fuji_superia_1600_+"
# LUT size
LUT_3D_SIZE 5
# Data domain
DOMAIN_MIN 0.0 0.0 0.0
DOMAIN_MAX 1.0 1.0 1.0
# LUT data points
0.099052995443344116 0.14035810530185699 0.13825857639312744
0.21944993734359741 0.14021983742713928 0.13129250705242157
0.51164799928665161 0.15529496967792511 0.12537075579166412
0.77485203742980957 0.17094831168651581 0.10972248017787933
0.97361171245574951 0.26282936334609985 0.099596895277500153
0.013448633253574371 0.27037498354911804 0.14639908075332642
0.21055786311626434 0.29892942309379578 0.12627409398555756
0.57226258516311646 0.31232538819313049 0.10787708312273026
0.79970556497573853 0.32253885269165039 0.10476439446210861
0.98866647481918335 0.36697483062744141 0.10090924799442291
0.00089856318663805723 0.53344237804412842 0.2226884514093399
0.14061452448368073 0.53475749492645264 0.21666830778121948
0.54050338268280029 0.58166009187698364 0.15661954879760742
0.84196162223815918 0.58729737997055054 0.12000813335180283
0.99569660425186157 0.56557220220565796 0.16928939521312714
0.25440770387649536 0.74815022945404053 0.39247742295265198
0.34584194421768188 0.73583203554153442 0.38577675819396973
0.53212743997573853 0.7517055869102478 0.37278500199317932
0.78744697570800781 0.79199641942977905 0.34768706560134888
0.98976808786392212 0.81857270002365112 0.34547293186187744
0.61558741331100464 0.92081350088119507 0.63265210390090942
0.64052855968475342 0.91976404190063477 0.63292574882507324
0.70099896192550659 0.92015451192855835 0.63360309600830078
0.80851233005523682 0.93346768617630005 0.62705260515213013
0.93627583980560303 0.95031934976577759 0.62142521142959595
0.094158843159675598 0.14453224837779999 0.25012707710266113
0.23465383052825928 0.14090584218502045 0.24897599220275879
0.53013896942138672 0.12744742631912231 0.24833981692790985
0.76693534851074219 0.15538904070854187 0.23696593940258026
0.96831667423248291 0.26947665214538574 0.24894163012504578
0.038099251687526703 0.28957566618919373 0.28034821152687073
0.26345410943031311 0.30470219254493713 0.28533869981765747
0.5607951283454895 0.30806708335876465 0.27323010563850403
0.78025752305984497 0.32550594210624695 0.26722705364227295
0.98029357194900513 0.37476640939712524 0.26323792338371277
0.23500004410743713 0.55656397342681885 0.38481256365776062
0.31531766057014465 0.54917508363723755 0.3660266101360321
0.5664101243019104 0.57487457990646362 0.33879062533378601
0.83022797107696533 0.5718730092048645 0.32433661818504333
0.99112910032272339 0.56560546159744263 0.32638022303581238
0.38154605031013489 0.75458788871765137 0.48199576139450073
0.43546196818351746 0.7475394606590271 0.47904285788536072
0.56916177272796631 0.7497936487197876 0.46808245778083801
0.79508680105209351 0.78677237033843994 0.45249250531196594
0.98646217584609985 0.81119954586029053 0.45198887586593628
0.65318673849105835 0.92229801416397095 0.67473363876342773
0.66900497674942017 0.91928309202194214 0.67065399885177612
0.71894216537475586 0.92029094696044922 0.66959565877914429
0.81506884098052979 0.92986154556274414 0.66233688592910767
0.93643224239349365 0.94944322109222412 0.6624302864074707
0.063986711204051971 0.14269204437732697 0.4900241494178772
0.27801030874252319 0.1551574319601059 0.49438682198524475
0.55192035436630249 0.18577320873737335 0.5115283727645874
0.80945199728012085 0.26752805709838867 0.52147728204727173
0.99271255731582642 0.28231713175773621 0.49012225866317749
0.011195193976163864 0.27654862403869629 0.50941133499145508
0.28858548402786255 0.30747652053833008 0.51717072725296021
0.57052040100097656 0.34895431995391846 0.5269353985786438
0.80624186992645264 0.39229914546012878 0.53223949670791626
0.98879867792129517 0.36930814385414124 0.48410922288894653
0.25202324986457825 0.56254631280899048 0.56424933671951294
0.40165233612060547 0.56194651126861572 0.56337833404541016
0.58987128734588623 0.55645668506622314 0.55006188154220581
0.80046284198760986 0.55184495449066162 0.53035241365432739
0.97956830263137817 0.55812245607376099 0.51346027851104736
0.57000517845153809 0.77658200263977051 0.65894860029220581
0.60482966899871826 0.77009421586990356 0.64954525232315063
0.64999866485595703 0.75540840625762939 0.62191617488861084
0.81393063068389893 0.78247749805450439 0.61365365982055664
0.98261749744415283 0.79155629873275757 0.61069732904434204
0.73404061794281006 0.92571145296096802 0.7606472373008728
0.7341994047164917 0.92464691400527954 0.75033771991729736
0.76428747177124023 0.92289900779724121 0.74263948202133179
0.83947718143463135 0.92901140451431274 0.74124044179916382
0.94494396448135376 0.95032185316085815 0.74252849817276001
0.22485780715942383 0.17057143151760101 0.71273946762084961
0.37880870699882507 0.18136344850063324 0.71706336736679077
0.61132824420928955 0.23596639931201935 0.72086131572723389
0.82716947793960571 0.32197266817092896 0.7305985689163208
0.98156952857971191 0.44287186861038208 0.74114024639129639
0.22599132359027863 0.30265611410140991 0.71714276075363159
0.38724520802497864 0.31803283095359802 0.72154444456100464
0.6236603856086731 0.37021389603614807 0.72996282577514648
0.82271033525466919 0.43046024441719055 0.73287224769592285
0.98093479871749878 0.52969050407409668 0.75064635276794434
0.048696734011173248 0.48620465397834778 0.7102961540222168
0.30449917912483215 0.49253171682357788 0.71368765830993652
0.59457880258560181 0.5322800874710083 0.72674006223678589
0.82058501243591309 0.59896665811538696 0.74379992485046387
0.98018938302993774 0.65968042612075806 0.76240545511245728
0.52783161401748657 0.77096080780029297 0.77662605047225952
0.5837443470954895 0.77038681507110596 0.77724367380142212
0.69812691211700439 0.76543939113616943 0.77863907814025879
0.82556617259979248 0.76258927583694458 0.76219052076339722
0.97207742929458618 0.76577138900756836 0.74832248687744141
0.80076712369918823 0.93708235025405884 0.858661949634552
0.81654971837997437 0.93921911716461182 0.86019295454025269
0.84494894742965698 0.93574506044387817 0.85787981748580933
0.87371313571929932 0.92960399389266968 0.83850163221359253
0.95642775297164917 0.94764554500579834 0.84202110767364502
0.50391501188278198 0.29443180561065674 0.91773974895477295
0.58014142513275146 0.30910429358482361 0.91662150621414185
0.72704929113388062 0.36553284525871277 0.91502964496612549
0.88369840383529663 0.47044989466667175 0.91305112838745117
0.99164968729019165 0.56283771991729736 0.91080158948898315
0.50035685300827026 0.39210358262062073 0.91768008470535278
0.57616114616394043 0.40526607632637024 0.91599202156066895
0.72247892618179321 0.44252252578735352 0.9116816520690918
0.87948161363601685 0.5320131778717041 0.91468167304992676
0.9886314868927002 0.61205106973648071 0.91127258539199829
0.37622693181037903 0.51370936632156372 0.91713690757751465
0.4978770911693573 0.53320634365081787 0.9166451096534729
0.69670522212982178 0.57232928276062012 0.91428840160369873
0.86655706167221069 0.63927143812179565 0.91525578498840332
0.98539572954177856 0.70687788724899292 0.91673439741134644
0.37053993344306946 0.7239575982093811 0.9171222448348999
0.43465697765350342 0.71236097812652588 0.91802573204040527
0.57230472564697266 0.70217704772949219 0.91813027858734131
0.82840347290039062 0.75587278604507446 0.91993659734725952
0.97228211164474487 0.82739841938018799 0.92506891489028931
0.75356495380401611 0.93544501066207886 0.94219005107879639
0.78049302101135254 0.93463891744613647 0.93947625160217285
0.82359600067138672 0.9369814395904541 0.94854170083999634
0.8906368613243103 0.9417651891708374 0.94969445466995239
0.96679419279098511 0.94898813962936401 0.94802594184875488
