luts/negative_old/fuji_superia_800_++.cube
# Created by: G'MIC (https://gmic.eu)
TITLE "fuji_superia_800_++"
# LUT size
LUT_3D_SIZE 13
# Data domain
DOMAIN_MIN 0.0 0.0 0.0
DOMAIN_MAX 1.0 1.0 1.0
# LUT data points
0.084698081016540527 0.19376245141029358 0.19343337416648865
0.10128465294837952 0.18831267952919006 0.19215723872184753
0.13800546526908875 0.18606337904930115 0.19127762317657471
0.19591253995895386 0.18965022265911102 0.19122005999088287
0.26213946938514709 0.19100321829319 0.18890978395938873
0.35942170023918152 0.19164168834686279 0.18630228936672211
0.46467900276184082 0.19251225888729095 0.18233278393745422
0.58391368389129639 0.19053727388381958 0.17648129165172577
0.6980292797088623 0.19167916476726532 0.16984197497367859
0.78301143646240234 0.20138795673847198 0.16267582774162292
0.86263227462768555 0.21365180611610413 0.15406046807765961
0.92661750316619873 0.23520477116107941 0.14276948571205139
0.97655683755874634 0.26090851426124573 0.12939052283763885
0.077882193028926849 0.20078065991401672 0.19427753984928131
0.097166843712329865 0.20478425920009613 0.19509685039520264
0.13749071955680847 0.20659485459327698 0.1930723637342453
0.2000197172164917 0.20666854083538055 0.19115075469017029
0.27312958240509033 0.20914508402347565 0.1889413595199585
0.37292054295539856 0.21252559125423431 0.18666595220565796
0.47822928428649902 0.21782559156417847 0.1831122487783432
0.59388786554336548 0.21882766485214233 0.17773720622062683
0.70522034168243408 0.22280897200107574 0.16998492181301117
0.78715944290161133 0.23290911316871643 0.16165757179260254
0.86616015434265137 0.24425742030143738 0.15255400538444519
0.92962402105331421 0.26369020342826843 0.14060112833976746
0.97717052698135376 0.28647857904434204 0.12644056975841522
0.056162260472774506 0.23274511098861694 0.197040855884552
0.081898003816604614 0.24028116464614868 0.19668439030647278
0.13016423583030701 0.24518595635890961 0.19419603049755096
0.19990232586860657 0.24658662080764771 0.19104388356208801
0.28625506162643433 0.24305516481399536 0.18726953864097595
0.39363741874694824 0.25364673137664795 0.18787412345409393
0.50779539346694946 0.26581251621246338 0.18512454628944397
0.62041842937469482 0.26768484711647034 0.17728134989738464
0.71581363677978516 0.26744616031646729 0.1694098562002182
0.79277050495147705 0.27713805437088013 0.16173496842384338
0.86999529600143433 0.28543964028358459 0.15156960487365723
0.93155378103256226 0.30045685172080994 0.13902124762535095
0.9790956974029541 0.32085531949996948 0.12413345277309418
0.011028693988919258 0.29523810744285583 0.20050199329853058
0.037835527211427689 0.30368533730506897 0.20006424188613892
0.11027360707521439 0.31276741623878479 0.19620919227600098
0.20640803873538971 0.3226495087146759 0.19036698341369629
0.32876890897750854 0.33054569363594055 0.18019776046276093
0.44541898369789124 0.33827263116836548 0.17831356823444366
0.54471290111541748 0.33344224095344543 0.18447709083557129
0.64026808738708496 0.3310123085975647 0.17814654111862183
0.72357386350631714 0.33100154995918274 0.16929997503757477
0.7985188364982605 0.33743292093276978 0.16348832845687866
0.86844611167907715 0.34606343507766724 0.15607300400733948
0.92755192518234253 0.35448560118675232 0.14228346943855286
0.98068547248840332 0.36553871631622314 0.12682455778121948
0.001982714980840683 0.41257220506668091 0.20972347259521484
0.0064360974356532097 0.42154714465141296 0.20911572873592377
0.050376445055007935 0.42536044120788574 0.203752800822258
0.20176184177398682 0.43588194251060486 0.19285640120506287
0.36128067970275879 0.45086559653282166 0.17508590221405029
0.49722859263420105 0.45457944273948669 0.15642149746417999
0.58914452791213989 0.44099658727645874 0.15503832697868347
0.6662030816078186 0.4182436466217041 0.16039074957370758
0.73686319589614868 0.40156868100166321 0.16521428525447845
0.80298352241516113 0.40235444903373718 0.16554489731788635
0.8676421046257019 0.41008162498474121 0.15989260375499725
0.92789143323898315 0.41522654891014099 0.14755292236804962
0.9825860857963562 0.42133447527885437 0.13484238088130951
5.7444853155175224e-05 0.54047662019729614 0.22881714999675751
0.0032275479752570391 0.54436451196670532 0.23037177324295044
0.018388321623206139 0.54861253499984741 0.22410832345485687
0.17996157705783844 0.55004531145095825 0.212307408452034
0.35250124335289001 0.55406332015991211 0.19474886357784271
0.49824237823486328 0.55842530727386475 0.16196843981742859
0.62584155797958374 0.55847960710525513 0.12333785742521286
0.70577210187911987 0.53533691167831421 0.12228792905807495
0.76098388433456421 0.50352758169174194 0.14704474806785583
0.81453609466552734 0.48485058546066284 0.16162168979644775
0.87292468547821045 0.477437824010849 0.160959392786026
0.93295711278915405 0.4819340705871582 0.15552899241447449
0.98606246709823608 0.48754382133483887 0.1503680944442749
0.00053897930774837732 0.63876926898956299 0.26521551609039307
0.0029844546224921942 0.64199751615524292 0.26814183592796326
0.033655561506748199 0.64687997102737427 0.26384398341178894
0.19983223080635071 0.64462637901306152 0.25661817193031311
0.35247209668159485 0.64370381832122803 0.23666025698184967
0.48868748545646667 0.64041411876678467 0.20758949220180511
0.61882138252258301 0.63861089944839478 0.16492635011672974
0.72362649440765381 0.63705629110336304 0.11777052283287048
0.78821837902069092 0.61550724506378174 0.12243448942899704
0.83838897943496704 0.58884453773498535 0.14630021154880524
0.88794028759002686 0.56844902038574219 0.16162973642349243
0.93909049034118652 0.56520122289657593 0.17408208549022675
0.98462837934494019 0.56291496753692627 0.18716393411159515
0.017807425931096077 0.71381181478500366 0.31579935550689697
0.057745959609746933 0.71776854991912842 0.31920111179351807
0.14960955083370209 0.71736568212509155 0.31959334015846252
0.26791578531265259 0.71475356817245483 0.31845247745513916
0.3811366856098175 0.71244829893112183 0.30498474836349487
0.48823350667953491 0.70802801847457886 0.28155973553657532
0.60324454307556152 0.7041923999786377 0.24383421242237091
0.70183682441711426 0.7026558518409729 0.19995118677616119
0.7896876335144043 0.70100206136703491 0.15628226101398468
0.85851585865020752 0.68854933977127075 0.14918018877506256
0.90568703413009644 0.66839492321014404 0.1754412055015564
0.94995564222335815 0.65479964017868042 0.20083589851856232
0.98529541492462158 0.64599663019180298 0.22379258275032043
0.20109686255455017 0.7717050313949585 0.38437440991401672
0.2473355233669281 0.77285540103912354 0.39005810022354126
0.3004601001739502 0.77141344547271729 0.39314672350883484
0.36505010724067688 0.7702215313911438 0.39380499720573425
0.43673735857009888 0.76864296197891235 0.38591623306274414
0.51265311241149902 0.76694518327713013 0.36509841680526733
0.5918891429901123 0.76508665084838867 0.33888253569602966
0.68012017011642456 0.76220393180847168 0.30785709619522095
0.76788884401321411 0.76253139972686768 0.27103444933891296
0.85699999332427979 0.76520699262619019 0.2303890734910965
0.91691279411315918 0.75795471668243408 0.2263980358839035
0.95881873369216919 0.74133998155593872 0.24765664339065552
0.98430651426315308 0.72939950227737427 0.26724880933761597
0.39633634686470032 0.82151561975479126 0.47276845574378967
0.40844038128852844 0.8200337290763855 0.47371897101402283
0.43672126531600952 0.81929194927215576 0.47588813304901123
0.48310908675193787 0.81768572330474854 0.47579124569892883
0.5229337215423584 0.81606060266494751 0.47068110108375549
0.57549256086349487 0.81448608636856079 0.45992982387542725
0.6350710391998291 0.81421124935150146 0.4436299204826355
0.69585144519805908 0.81673020124435425 0.42615973949432373
0.76503312587738037 0.81640356779098511 0.3971213698387146
0.83937317132949829 0.81594210863113403 0.36031082272529602
0.9075169563293457 0.8176347017288208 0.33033034205436707
0.95831722021102905 0.81479537487030029 0.32099279761314392
0.98520439863204956 0.80187737941741943 0.34143641591072083
0.54105275869369507 0.86441177129745483 0.56004661321640015
0.54672116041183472 0.86130261421203613 0.56022578477859497
0.56274306774139404 0.86186313629150391 0.56335943937301636
0.59090971946716309 0.86095023155212402 0.56289434432983398
0.61479610204696655 0.85906410217285156 0.56011980772018433
0.65093344449996948 0.86004269123077393 0.55839568376541138
0.69249659776687622 0.85944628715515137 0.54504024982452393
0.73315554857254028 0.86211621761322021 0.5332074761390686
0.7783743143081665 0.86054444313049316 0.51049482822418213
0.83058178424835205 0.85912281274795532 0.48603785037994385
0.88732451200485229 0.86124229431152344 0.46430683135986328
0.94106733798980713 0.86346560716629028 0.44012978672981262
0.98192977905273438 0.86148947477340698 0.43499359488487244
0.65476399660110474 0.90116596221923828 0.6406409740447998
0.65880215167999268 0.8995213508605957 0.63968569040298462
0.66963553428649902 0.90012043714523315 0.6417696475982666
0.68010258674621582 0.89971446990966797 0.64236623048782349
0.69661992788314819 0.89815860986709595 0.64158344268798828
0.71880859136581421 0.89973711967468262 0.64322608709335327
0.74398320913314819 0.89867866039276123 0.63364970684051514
0.77299827337265015 0.89974063634872437 0.62544333934783936
0.80508929491043091 0.89842075109481812 0.61069655418395996
0.84428346157073975 0.89783483743667603 0.59322571754455566
0.88314253091812134 0.90057104825973511 0.58129203319549561
0.92431432008743286 0.90221560001373291 0.5642085075378418
0.97033518552780151 0.90590983629226685 0.54551905393600464
0.7410731315612793 0.93078643083572388 0.71125853061676025
0.74188458919525146 0.92890501022338867 0.70884406566619873
0.74888181686401367 0.9298861026763916 0.71090066432952881
0.75650680065155029 0.93018448352813721 0.71174687147140503
0.76652830839157104 0.92997866868972778 0.71258479356765747
0.78035205602645874 0.92972159385681152 0.71245837211608887
0.79486745595932007 0.92958760261535645 0.71065658330917358
0.81491565704345703 0.92970955371856689 0.70468413829803467
0.83444422483444214 0.92964786291122437 0.69697129726409912
0.86115866899490356 0.93153315782546997 0.69058328866958618
0.88976186513900757 0.93315428495407104 0.68179267644882202
0.91992866992950439 0.93453311920166016 0.67192864418029785
0.95078915357589722 0.93551051616668701 0.65600919723510742
0.082840099930763245 0.19101276993751526 0.20425441861152649
0.098524056375026703 0.18876360356807709 0.20238915085792542
0.13863265514373779 0.18901392817497253 0.20318175852298737
0.19466167688369751 0.19047993421554565 0.2056049257516861
0.2690986692905426 0.18661010265350342 0.20354516804218292
0.36171522736549377 0.18347501754760742 0.19786368310451508
0.46839019656181335 0.18424013257026672 0.19566762447357178
0.58489817380905151 0.17791591584682465 0.19316156208515167
0.69045615196228027 0.17353600263595581 0.19020447134971619
0.77736741304397583 0.18204081058502197 0.18413574993610382
0.85638350248336792 0.19531248509883881 0.17781071364879608
0.92160654067993164 0.21998032927513123 0.16671676933765411
0.97475129365921021 0.24833892285823822 0.15265221893787384
0.0762038454413414 0.20210854709148407 0.20729750394821167
0.1013396754860878 0.20888189971446991 0.21022370457649231
0.14405237138271332 0.20902697741985321 0.20900584757328033
0.1977277547121048 0.20646196603775024 0.20444278419017792
0.27840164303779602 0.20443540811538696 0.20320913195610046
0.37354394793510437 0.20680415630340576 0.19945192337036133
0.48166343569755554 0.20998296141624451 0.19814670085906982
0.59494376182556152 0.2028840184211731 0.19727842509746552
0.69718068838119507 0.20324501395225525 0.19170799851417542
0.78271442651748657 0.21628239750862122 0.18227829039096832
0.86244988441467285 0.23081621527671814 0.17274600267410278
0.92787325382232666 0.25110000371932983 0.16141334176063538
0.97964358329772949 0.27367490530014038 0.14858098328113556
0.069496676325798035 0.23251871764659882 0.21267504990100861
0.096350833773612976 0.23920457065105438 0.21516291797161102
0.14097803831100464 0.24409744143486023 0.2123541533946991
0.20259229838848114 0.24063251912593842 0.20641997456550598
0.2919805645942688 0.24190934002399445 0.20493832230567932
0.39455482363700867 0.24547258019447327 0.20188494026660919
0.51087796688079834 0.2557578980922699 0.20029023289680481
0.61725848913192749 0.2554813027381897 0.1977258175611496
0.70656269788742065 0.25529998540878296 0.19319690763950348
0.78893512487411499 0.2644597589969635 0.18220479786396027
0.86706817150115967 0.2745610773563385 0.17090043425559998
0.93130993843078613 0.29144904017448425 0.15925487875938416
0.98266452550888062 0.30781629681587219 0.14691035449504852
0.020788619294762611 0.29324346780776978 0.21895675361156464
0.056631214916706085 0.30123996734619141 0.22133418917655945
0.11810901015996933 0.30558484792709351 0.21862213313579559
0.21295902132987976 0.31280851364135742 0.21067298948764801
0.33267474174499512 0.3237203061580658 0.20402064919471741
0.43971014022827148 0.32317438721656799 0.20104861259460449
0.54287838935852051 0.32125905156135559 0.20004236698150635
0.63650000095367432 0.32099184393882751 0.19676584005355835
0.71738153696060181 0.32277128100395203 0.19245178997516632
0.7946476936340332 0.32942003011703491 0.1837761402130127
0.86547839641571045 0.33759590983390808 0.17443175613880157
0.92595541477203369 0.34785225987434387 0.16432952880859375
0.97908449172973633 0.35855913162231445 0.15540707111358643
0.0033972496166825294 0.4087047278881073 0.23613910377025604
0.010583376511931419 0.41772258281707764 0.23672215640544891
0.065645940601825714 0.4218640923500061 0.2322399914264679
0.21464797854423523 0.43060475587844849 0.22319115698337555
0.3659881055355072 0.44323951005935669 0.20737676322460175
0.49560061097145081 0.44711589813232422 0.18788988888263702
0.5838935375213623 0.42863428592681885 0.18629786372184753
0.65923714637756348 0.40904057025909424 0.18961367011070251
0.7323678731918335 0.39912635087966919 0.19048614799976349
0.80284309387207031 0.39839115738868713 0.1860077977180481
0.86654180288314819 0.40362069010734558 0.17965397238731384
0.92701137065887451 0.40958619117736816 0.17255139350891113
0.98050457239151001 0.41658839583396912 0.16583733260631561
0.0014382306253537536 0.53172236680984497 0.25900214910507202
0.0050243153236806393 0.53883606195449829 0.26291030645370483
0.03689989447593689 0.54444491863250732 0.2582402229309082
0.20431414246559143 0.54648905992507935 0.25069394707679749
0.35927563905715942 0.55026388168334961 0.22998636960983276
0.50212061405181885 0.55349308252334595 0.20152184367179871
0.62043941020965576 0.54815375804901123 0.17324496805667877
0.69796907901763916 0.52737557888031006 0.16793709993362427
0.75616693496704102 0.4982847273349762 0.17968784272670746
0.81335461139678955 0.48264995217323303 0.19038794934749603
0.87304413318634033 0.47967875003814697 0.19262908399105072
0.93252742290496826 0.48141959309577942 0.18769530951976776
0.98436599969863892 0.48484593629837036 0.18167169392108917
0.00036897844984196126 0.63154828548431396 0.29642438888549805
0.0061276005581021309 0.63904702663421631 0.29903379082679749
0.071261085569858551 0.64409995079040527 0.29538077116012573
0.2233985960483551 0.64114254713058472 0.29184335470199585
0.36034134030342102 0.63940739631652832 0.27547964453697205
0.4891960620880127 0.63672256469726562 0.24747948348522186
0.61231619119644165 0.63445711135864258 0.20770455896854401
0.71798259019851685 0.63252359628677368 0.17096306383609772
0.78356772661209106 0.60985934734344482 0.17193634808063507
0.83611029386520386 0.58585625886917114 0.18579979240894318
0.88708925247192383 0.57093989849090576 0.19974175095558167
0.94027209281921387 0.56585657596588135 0.20452819764614105
0.9875023365020752 0.56182283163070679 0.208476722240448
0.044443391263484955 0.71227461099624634 0.343157559633255
0.099605515599250793 0.71633070707321167 0.34833309054374695
0.19231653213500977 0.71429944038391113 0.35129603743553162
0.28908613324165344 0.7113955020904541 0.35021668672561646
0.39711940288543701 0.70938217639923096 0.33616092801094055
0.48995035886764526 0.70659536123275757 0.31301796436309814
0.59465843439102173 0.70293682813644409 0.28015875816345215
0.69567406177520752 0.69985634088516235 0.24433860182762146
0.78932499885559082 0.69861018657684326 0.20491191744804382
0.85507583618164062 0.6854357123374939 0.19978545606136322
0.90175169706344604 0.66561979055404663 0.22110496461391449
0.9472428560256958 0.65375816822052002 0.23744377493858337
0.98585593700408936 0.64809644222259521 0.25252097845077515
0.24353164434432983 0.77013790607452393 0.40966212749481201
0.28022903203964233 0.77012771368026733 0.41707316040992737
0.31938573718070984 0.76817417144775391 0.42103865742683411
0.37938225269317627 0.76697707176208496 0.42029398679733276
0.45345357060432434 0.76548629999160767 0.41282308101654053
0.52417123317718506 0.76489770412445068 0.392843097448349
0.59581536054611206 0.76441949605941772 0.36909860372543335
0.68237578868865967 0.76121795177459717 0.34332749247550964
0.77147078514099121 0.76119524240493774 0.3081781268119812
0.85556024312973022 0.7634817361831665 0.27210333943367004
0.9129822850227356 0.75365358591079712 0.26874658465385437
0.9553559422492981 0.73883354663848877 0.28465959429740906
0.98381972312927246 0.72889310121536255 0.29780769348144531
0.42051994800567627 0.81950604915618896 0.49271795153617859
0.43231633305549622 0.81890952587127686 0.49590709805488586
0.45807281136512756 0.81803524494171143 0.49845251441001892
0.49763774871826172 0.81553047895431519 0.49506983160972595
0.53442645072937012 0.81405329704284668 0.49047726392745972
0.58260947465896606 0.81352877616882324 0.48183572292327881
0.64067679643630981 0.81503021717071533 0.4677811861038208
0.70117443799972534 0.81666058301925659 0.45013830065727234
0.76769757270812988 0.8166431188583374 0.42133685946464539
0.83577871322631836 0.81521910429000854 0.39080801606178284
0.90482872724533081 0.81466406583786011 0.3620002269744873
0.95691478252410889 0.81350243091583252 0.35005596280097961
0.97841739654541016 0.80053377151489258 0.36702945828437805
0.55441945791244507 0.86034774780273438 0.57399880886077881
0.56418716907501221 0.86029469966888428 0.57686758041381836
0.57820659875869751 0.86029082536697388 0.57899212837219238
0.59678936004638672 0.85780400037765503 0.57554835081100464
0.61853146553039551 0.85514158010482788 0.57048165798187256
0.65548741817474365 0.85761141777038574 0.57202637195587158
0.70028239488601685 0.85965543985366821 0.56173408031463623
0.73801499605178833 0.86052805185317993 0.54952836036682129
0.78382128477096558 0.85885477066040039 0.52643740177154541
0.83397001028060913 0.85773015022277832 0.50321662425994873
0.88764214515686035 0.86036938428878784 0.4819827675819397
0.94081360101699829 0.8615797758102417 0.45979920029640198
0.97815364599227905 0.85979986190795898 0.45665463805198669
0.66191947460174561 0.89898794889450073 0.64999496936798096
0.66876482963562012 0.89878940582275391 0.65136706829071045
0.67498165369033813 0.89744657278060913 0.65239179134368896
0.68152469396591187 0.89589673280715942 0.65058737993240356
0.69900417327880859 0.89480012655258179 0.64825713634490967
0.72430640459060669 0.8964729905128479 0.65087431669235229
0.75151610374450684 0.89642661809921265 0.64062243700027466
0.77770191431045532 0.89634352922439575 0.63243609666824341
0.81074267625808716 0.89551925659179688 0.61974692344665527
0.848610520362854 0.89663279056549072 0.60473394393920898
0.88262420892715454 0.90018880367279053 0.59499222040176392
0.92225682735443115 0.90137159824371338 0.57940381765365601
0.96470522880554199 0.90285658836364746 0.56560969352722168
0.74666637182235718 0.93086820840835571 0.71785944700241089
0.74800229072570801 0.92903035879135132 0.71611636877059937
0.75130456686019897 0.92845654487609863 0.71627509593963623
0.75687712430953979 0.92861717939376831 0.71660494804382324
0.76869624853134155 0.92905765771865845 0.71715569496154785
0.78222036361694336 0.92804074287414551 0.71666854619979858
0.79857140779495239 0.92807090282440186 0.71346962451934814
0.81696981191635132 0.9281432032585144 0.70942825078964233
0.8399662971496582 0.92985033988952637 0.70607489347457886
0.86467152833938599 0.93063777685165405 0.69497644901275635
0.8892320990562439 0.93166345357894897 0.68753832578659058
0.91752195358276367 0.93303269147872925 0.67903953790664673
0.9489101767539978 0.93622738122940063 0.67238718271255493
0.079481311142444611 0.18944315612316132 0.2259085476398468
0.10331049561500549 0.18875877559185028 0.22519789636135101
0.13932646811008453 0.18924866616725922 0.22568421065807343
0.18663129210472107 0.18895696103572845 0.22541290521621704
0.26400360465049744 0.18671602010726929 0.2271621972322464
0.36625903844833374 0.17258009314537048 0.2215634286403656
0.47836768627166748 0.15757432579994202 0.21656380593776703
0.58885788917541504 0.14526554942131042 0.21365134418010712
0.68835532665252686 0.14745384454727173 0.21142461895942688
0.77449321746826172 0.15589600801467896 0.20830187201499939
0.85134005546569824 0.16754239797592163 0.20477554202079773
0.91705912351608276 0.19260857999324799 0.19544686377048492
0.97584623098373413 0.22756956517696381 0.18072551488876343
0.073389314115047455 0.19914667308330536 0.22883154451847076
0.10119691491127014 0.20639804005622864 0.23366031050682068
0.14494068920612335 0.20916222035884857 0.23443882167339325
0.19751177728176117 0.20723196864128113 0.23180355131626129
0.2828790545463562 0.20031030476093292 0.23039983212947845
0.3818640410900116 0.18984344601631165 0.22330410778522491
0.49289590120315552 0.18649931252002716 0.2213006317615509
0.60217225551605225 0.18255600333213806 0.21940955519676208
0.69651252031326294 0.18215784430503845 0.21606919169425964
0.78100109100341797 0.18902501463890076 0.20922121405601501
0.85836291313171387 0.20389676094055176 0.20099073648452759
0.92416983842849731 0.22570139169692993 0.1910908967256546
0.97939324378967285 0.25163036584854126 0.17955154180526733
0.068723209202289581 0.22986523807048798 0.2374173104763031
0.096709936857223511 0.23353509604930878 0.24098733067512512
0.14449873566627502 0.23868860304355621 0.24080957472324371
0.2062874436378479 0.23876620829105377 0.23801633715629578
0.30568030476570129 0.23973487317562103 0.23987297713756561
0.41184276342391968 0.23849059641361237 0.23592790961265564
0.52081912755966187 0.2334132045507431 0.23028495907783508
0.61961185932159424 0.23496533930301666 0.22500143945217133
0.70610332489013672 0.23709927499294281 0.22182488441467285
0.78838884830474854 0.24476948380470276 0.21088890731334686
0.86525613069534302 0.25654304027557373 0.19781655073165894
0.93044793605804443 0.27519917488098145 0.18956434726715088
0.98494112491607666 0.29145932197570801 0.17961917817592621
0.04313233494758606 0.2899324893951416 0.25169140100479126
0.081200331449508667 0.29689612984657288 0.25550082325935364
0.1397702544927597 0.30520200729370117 0.2573494017124176
0.22321861982345581 0.30990424752235413 0.25237733125686646
0.33411228656768799 0.31754809617996216 0.24939458072185516
0.44311872124671936 0.31549406051635742 0.24422019720077515
0.54562056064605713 0.30866438150405884 0.24045820534229279
0.63736087083816528 0.30543622374534607 0.23335051536560059
0.7184566855430603 0.3086792528629303 0.22475519776344299
0.79525196552276611 0.3145483136177063 0.21299085021018982
0.86631417274475098 0.32421034574508667 0.20396032929420471
0.92977088689804077 0.33651953935623169 0.1968403160572052
0.98278498649597168 0.34841930866241455 0.18913282454013824
0.0067560235038399696 0.40287238359451294 0.28247776627540588
0.029245577752590179 0.41315910220146179 0.28262543678283691
0.10794978588819504 0.42005178332328796 0.28055080771446228
0.23079974949359894 0.42569664120674133 0.27356609702110291
0.36473101377487183 0.43344298005104065 0.25918787717819214
0.48760196566581726 0.43312603235244751 0.24270997941493988
0.57743799686431885 0.41810262203216553 0.23967987298965454
0.6545061469078064 0.39966306090354919 0.23823417723178864
