luts/negative_old/fuji_superia_400_++.cube
# Created by: G'MIC (https://gmic.eu)
TITLE "fuji_superia_400_++"
# LUT size
LUT_3D_SIZE 7
# Data domain
DOMAIN_MIN 0.0 0.0 0.0
DOMAIN_MAX 1.0 1.0 1.0
# LUT data points
0.031224314123392105 0.088883116841316223 0.079508699476718903
0.1362423300743103 0.09971185028553009 0.081287994980812073
0.30460172891616821 0.090517051517963409 0.073545239865779877
0.54366844892501831 0.044067233800888062 0.061739422380924225
0.79372978210449219 0.013845660723745823 0.027141362428665161
0.9643256664276123 0.039380092173814774 0.0050157434307038784
0.99905073642730713 0.19785831868648529 0.0024223627988249063
0.028473423793911934 0.15987887978553772 0.098838895559310913
0.12713116407394409 0.17720581591129303 0.087200969457626343
0.33228316903114319 0.19305343925952911 0.05769774317741394
0.5629391074180603 0.17966935038566589 0.032897021621465683
0.7893517017364502 0.17432288825511932 0.013214410282671452
0.95702862739562988 0.21580398082733154 0.0063714119605720043
0.99701094627380371 0.27530673146247864 0.0077515845187008381
0.0092464368790388107 0.30837252736091614 0.14073885977268219
0.091865509748458862 0.32920879125595093 0.13321897387504578
0.33855727314949036 0.4090467095375061 0.046219561249017715
0.62712752819061279 0.43409106135368347 0.00071108946576714516
0.79155862331390381 0.37770527601242065 0.0027437845710664988
0.95189577341079712 0.38515859842300415 0.0036124733742326498
0.99940395355224609 0.42961767315864563 0.0021954106632620096
0.0037401237059384584 0.50350356101989746 0.20405036211013794
0.057379238307476044 0.51457172632217407 0.20719100534915924
0.28034093976020813 0.55436879396438599 0.17912217974662781
0.57482266426086426 0.63687795400619507 0.04661623015999794
0.83745861053466797 0.66161692142486572 0.00045930451597087085
0.95783388614654541 0.58858597278594971 0.0022748610936105251
0.99998706579208374 0.57617092132568359 0.0019500881899148226
0.083970837295055389 0.67872053384780884 0.31990337371826172
0.19288605451583862 0.67708557844161987 0.3278830349445343
0.33194345235824585 0.68491166830062866 0.32483997941017151
0.52850615978240967 0.74054116010665894 0.2911866307258606
0.76943504810333252 0.79873311519622803 0.21125492453575134
0.96200716495513916 0.82863903045654297 0.082219742238521576
1 0.78889524936676025 0.0077226976864039898
0.40799990296363831 0.82647931575775146 0.49920392036437988
0.44112369418144226 0.8263472318649292 0.50226658582687378
0.50913310050964355 0.8254551887512207 0.50875276327133179
0.60437661409378052 0.84419059753417969 0.50620096921920776
0.75582247972488403 0.87907856702804565 0.49284011125564575
0.89709746837615967 0.90844142436981201 0.4647156298160553
0.99193614721298218 0.92459046840667725 0.43400943279266357
0.71521908044815063 0.94088292121887207 0.73157739639282227
0.7181127667427063 0.93460220098495483 0.72859501838684082
0.73983055353164673 0.93382734060287476 0.73322921991348267
0.78013879060745239 0.93723601102828979 0.73894989490509033
0.82851016521453857 0.94861584901809692 0.7334829568862915
0.89436769485473633 0.96238088607788086 0.73079210519790649
0.95761865377426147 0.96996134519577026 0.72193211317062378
0.03748944029211998 0.092460289597511292 0.15241089463233948
0.13270682096481323 0.10211040824651718 0.15430530905723572
0.30406507849693298 0.087579332292079926 0.1526196300983429
0.5540691614151001 0.024271182715892792 0.15283122658729553
0.7951815128326416 0.017594430595636368 0.15261721611022949
0.96619200706481934 0.077274248003959656 0.13856348395347595
1 0.22816452383995056 0.11399061977863312
0.036235854029655457 0.17460091412067413 0.16841395199298859
0.15046015381813049 0.18834711611270905 0.17270071804523468
0.336588054895401 0.19648641347885132 0.16470704972743988
0.58260571956634521 0.19131357967853546 0.15734699368476868
0.79759883880615234 0.18929848074913025 0.13605473935604095
0.9653131365776062 0.22709251940250397 0.11788379400968552
1 0.29906037449836731 0.086785979568958282
0.072389282286167145 0.34220805764198303 0.21855823695659637
0.17262029647827148 0.35530707240104675 0.22606320679187775
0.36068639159202576 0.40662920475006104 0.19072172045707703
0.61673140525817871 0.40967252850532532 0.12168724089860916
0.80011022090911865 0.37748947739601135 0.074436604976654053
0.96162563562393188 0.38678491115570068 0.053633566945791245
1 0.43259567022323608 0.043266970664262772
0.039518874138593674 0.53051066398620605 0.28489390015602112
0.17335048317909241 0.53581970930099487 0.29471585154533386
0.32775753736495972 0.55714064836502075 0.28532811999320984
0.59201234579086304 0.63607096672058105 0.21474754810333252
0.83608269691467285 0.64828956127166748 0.090598642826080322
0.95539122819900513 0.57961195707321167 0.016300231218338013
0.99955087900161743 0.57404404878616333 0.0088067296892404556
0.20580828189849854 0.69119918346405029 0.39173650741577148
0.28253826498985291 0.68984949588775635 0.39662837982177734
0.37836280465126038 0.69204521179199219 0.39490529894828796
0.5460200309753418 0.73878335952758789 0.38404810428619385
0.77463990449905396 0.79643839597702026 0.33164283633232117
0.95787680149078369 0.82280117273330688 0.25277513265609741
0.99979817867279053 0.78110414743423462 0.094906061887741089
0.4517551064491272 0.83267331123352051 0.54054504632949829
0.48012059926986694 0.83066380023956299 0.54497402906417847
0.53926903009414673 0.83104455471038818 0.54859399795532227
0.62478888034820557 0.84463578462600708 0.55243963003158569
0.75888913869857788 0.87900292873382568 0.54549765586853027
0.90151691436767578 0.9090762734413147 0.53125143051147461
0.99365639686584473 0.92751729488372803 0.5110321044921875
0.71806854009628296 0.93589037656784058 0.7439422607421875
0.72705107927322388 0.93583583831787109 0.7429356575012207
0.75001901388168335 0.93515384197235107 0.74688863754272461
0.78767853975296021 0.93923723697662354 0.75408363342285156
0.83841985464096069 0.94901317358016968 0.7572522759437561
0.89783567190170288 0.95904266834259033 0.74102246761322021
0.95993137359619141 0.97014808654785156 0.74431115388870239
0.016897881403565407 0.10074041038751602 0.31753844022750854
0.15415358543395996 0.1110294982790947 0.31762245297431946
0.31053665280342102 0.12042085081338882 0.31471157073974609
0.54221260547637939 0.086212441325187683 0.33538386225700378
0.78851431608200073 0.0099400542676448822 0.33271753787994385
0.971119225025177 0.017787350341677666 0.31514981389045715
1 0.24840652942657471 0.34667778015136719
0.0074488320387899876 0.1802837997674942 0.34369766712188721
0.1465090811252594 0.19819051027297974 0.3486267626285553
0.34693616628646851 0.22423775494098663 0.3527953028678894
0.5817682147026062 0.2053854912519455 0.35047170519828796
0.80515414476394653 0.17366500198841095 0.33824920654296875
0.97033929824829102 0.23665627837181091 0.34129062294960022
1 0.3539242148399353 0.35680201649665833
0.025018265470862389 0.3706306517124176 0.36947879195213318
0.1535404771566391 0.38313126564025879 0.38465780019760132
0.38809221982955933 0.40610471367835999 0.39641848206520081
0.61199498176574707 0.40632873773574829 0.37048950791358948
0.80301153659820557 0.41040080785751343 0.36060115694999695
0.95834952592849731 0.43098419904708862 0.34555119276046753
0.99988925457000732 0.47249522805213928 0.33267715573310852
0.20895899832248688 0.57167565822601318 0.44355171918869019
0.30980870127677917 0.57687443494796753 0.45221361517906189
0.42058610916137695 0.58088237047195435 0.45102283358573914
0.61174160242080688 0.62520605325698853 0.43205571174621582
0.81192785501480103 0.60986065864562988 0.36947643756866455
0.94724357128143311 0.57935589551925659 0.30070275068283081
0.99714881181716919 0.59538310766220093 0.29301118850708008
0.3770374059677124 0.71959596872329712 0.52127629518508911
0.40867632627487183 0.71912002563476562 0.51999282836914062
0.4748043417930603 0.71382015943527222 0.51865488290786743
0.58324849605560303 0.73235654830932617 0.51145094633102417
0.78217947483062744 0.79278242588043213 0.49930229783058167
0.94495242834091187 0.80997896194458008 0.45751753449440002
0.99904465675354004 0.76327675580978394 0.34730136394500732
0.52673548460006714 0.84234058856964111 0.62172609567642212
0.548370361328125 0.84165865182876587 0.62143796682357788
0.59719067811965942 0.83932119607925415 0.62684327363967896
0.65578114986419678 0.84227132797241211 0.62228286266326904
0.77118599414825439 0.87436056137084961 0.62842321395874023
0.89997506141662598 0.90761512517929077 0.63141196966171265
0.98867344856262207 0.92068517208099365 0.60960227251052856
0.73696231842041016 0.9390711784362793 0.77027302980422974
0.74670279026031494 0.93945217132568359 0.77343416213989258
0.76839143037796021 0.93767517805099487 0.77805346250534058
0.79768246412277222 0.93715882301330566 0.77765524387359619
0.84148120880126953 0.94588577747344971 0.78335273265838623
0.90199548006057739 0.96061056852340698 0.78352063894271851
0.95916378498077393 0.96946936845779419 0.77902477979660034
0.010250061750411987 0.10992144048213959 0.53911805152893066
0.14672523736953735 0.11865918338298798 0.54139262437820435
0.36967125535011292 0.12347401678562164 0.54403400421142578
0.57291632890701294 0.13241812586784363 0.55375128984451294
0.76212388277053833 0.13979142904281616 0.5449833869934082
0.94630807638168335 0.18447768688201904 0.54880928993225098
0.9979737401008606 0.27294334769248962 0.54628866910934448
0.0079103810712695122 0.19479051232337952 0.56257587671279907
0.1626560389995575 0.20967507362365723 0.57096821069717407
0.39375820755958557 0.2414095550775528 0.57046127319335938
0.58979159593582153 0.26301312446594238 0.56984031200408936
0.77304339408874512 0.2639828622341156 0.55528157949447632
0.9488757848739624 0.30372044444084167 0.55591392517089844
0.99888306856155396 0.36235025525093079 0.55058103799819946
0.0045570372603833675 0.36058443784713745 0.57683485746383667
0.053853247314691544 0.37352785468101501 0.59553569555282593
0.39131072163581848 0.40944883227348328 0.59393882751464844
0.61018699407577515 0.44559833407402039 0.59374767541885376
0.78639429807662964 0.45200836658477783 0.57700133323669434
0.94505935907363892 0.46487602591514587 0.57075041532516479
0.99950575828552246 0.50596672296524048 0.57272595167160034
0.071801580488681793 0.5878416895866394 0.58812254667282104
0.22984480857849121 0.59088647365570068 0.60037857294082642
0.44028273224830627 0.60317635536193848 0.607643723487854
0.62765640020370483 0.62201261520385742 0.61774963140487671
0.7955511212348938 0.62259763479232788 0.59201651811599731
0.9337087869644165 0.62680387496948242 0.57476258277893066
0.99858611822128296 0.6444324254989624 0.56507784128189087
0.4392026960849762 0.74327194690704346 0.64156132936477661
0.47587981820106506 0.7433428168296814 0.64474809169769287
0.55659419298171997 0.7457088828086853 0.6500089168548584
0.64804732799530029 0.74500828981399536 0.65197384357452393
0.79543834924697876 0.78921902179718018 0.65464979410171509
0.92694485187530518 0.78278815746307373 0.61104887723922729
0.99664443731307983 0.75226366519927979 0.53550738096237183
0.61452794075012207 0.85728204250335693 0.72176945209503174
0.62985312938690186 0.85528016090393066 0.71799927949905396
0.66240578889846802 0.85420650243759155 0.71522331237792969
0.70818215608596802 0.85027956962585449 0.71191954612731934
0.78525716066360474 0.86873465776443481 0.71436506509780884
0.90070408582687378 0.90632182359695435 0.72886186838150024
0.98657393455505371 0.91102993488311768 0.70881587266921997
0.76925033330917358 0.94079685211181641 0.81441688537597656
0.77638465166091919 0.94062501192092896 0.81646221876144409
0.7897641658782959 0.9378930926322937 0.81471925973892212
0.81689488887786865 0.93942147493362427 0.81462907791137695
0.85236471891403198 0.94425958395004272 0.81832045316696167
0.90653365850448608 0.9588010311126709 0.8251844048500061
0.95825076103210449 0.96811777353286743 0.82835263013839722
0.039623558521270752 0.11575347185134888 0.73748588562011719
0.23177321255207062 0.12400319427251816 0.73868435621261597
0.43450886011123657 0.14388389885425568 0.74166542291641235
0.62574809789657593 0.20518139004707336 0.73719525337219238
0.78823184967041016 0.24280588328838348 0.73074054718017578
0.92236554622650146 0.29134899377822876 0.72393649816513062
0.99725884199142456 0.4212031364440918 0.73796641826629639
0.080159254372119904 0.2154068797826767 0.7507367730140686
0.25229209661483765 0.22737017273902893 0.75008773803710938
0.44445711374282837 0.25417804718017578 0.74628806114196777
0.63034665584564209 0.31020334362983704 0.73945486545562744
0.79435259103775024 0.35235664248466492 0.73803210258483887
0.92782014608383179 0.39007362723350525 0.73546117544174194
0.99733436107635498 0.48730140924453735 0.74405401945114136
0.021783895790576935 0.36289289593696594 0.75442218780517578
0.20236067473888397 0.38355785608291626 0.75917673110961914
0.44022458791732788 0.42223170399665833 0.75202184915542603
0.6374819278717041 0.46624445915222168 0.74591684341430664
0.79362714290618896 0.50698018074035645 0.74384856224060059
0.9236295223236084 0.53171652555465698 0.74192875623703003
0.99746233224868774 0.58517688512802124 0.7505190372467041
0.0054676579311490059 0.55964088439941406 0.74519574642181396
0.092609062790870667 0.56312382221221924 0.75044989585876465
0.39246717095375061 0.57615584135055542 0.7526276707649231
0.63108736276626587 0.61055314540863037 0.75680768489837646
0.79151278734207153 0.64898216724395752 0.75384920835494995
0.91726446151733398 0.66837441921234131 0.75132107734680176
0.99300122261047363 0.6943657398223877 0.75217539072036743
0.34543460607528687 0.74985837936401367 0.75415408611297607
0.41912069916725159 0.75038313865661621 0.75097686052322388
0.53748297691345215 0.7552419900894165 0.75877481698989868
0.67355561256408691 0.76221185922622681 0.77014750242233276
0.80432611703872681 0.78466856479644775 0.7727360725402832
0.91049051284790039 0.78492105007171631 0.75501871109008789
0.9887118935585022 0.79007470607757568 0.74213767051696777
0.63450425863265991 0.86919140815734863 0.79691451787948608
0.65406191349029541 0.86931556463241577 0.79692775011062622
0.69819217920303345 0.87033188343048096 0.7979089617729187
0.75387948751449585 0.86785084009170532 0.79776036739349365
0.81094717979431152 0.87376934289932251 0.80112147331237793
0.90385699272155762 0.90514802932739258 0.81604653596878052
0.98212146759033203 0.89665913581848145 0.78829479217529297
0.78717678785324097 0.94318825006484985 0.86337262392044067
0.80049920082092285 0.94475239515304565 0.86518126726150513
0.82039099931716919 0.94542837142944336 0.86547636985778809
0.83812886476516724 0.94392353296279907 0.86231118440628052
0.87060528993606567 0.94724553823471069 0.86654901504516602
0.91370981931686401 0.95512038469314575 0.86660575866699219
0.95714610815048218 0.96398502588272095 0.8728068470954895
0.30935224890708923 0.17583756148815155 0.87932103872299194
0.39084795117378235 0.17786535620689392 0.87827485799789429
0.5313602089881897 0.20302382111549377 0.87606710195541382
0.68822801113128662 0.26449337601661682 0.87167060375213623
0.83042120933532715 0.37633001804351807 0.86624372005462646
0.94103068113327026 0.44106936454772949 0.86265546083450317
0.99649131298065186 0.49456924200057983 0.85764998197555542
0.31615349650382996 0.26358139514923096 0.87874722480773926
0.40193518996238708 0.27605220675468445 0.87701725959777832
0.54128921031951904 0.30573552846908569 0.87480396032333374
0.69295239448547363 0.3563653826713562 0.87202852964401245
0.82903432846069336 0.43674862384796143 0.86521977186203003
0.93778961896896362 0.49830543994903564 0.86366826295852661
0.98862123489379883 0.54689592123031616 0.86288338899612427
0.29905542731285095 0.40700364112854004 0.88158243894577026
0.38862878084182739 0.42145678400993347 0.8797265887260437
0.5339430570602417 0.45144733786582947 0.87270253896713257
0.6956973671913147 0.49134024977684021 0.87062615156173706
0.82844609022140503 0.56040984392166138 0.86441314220428467
0.92735707759857178 0.60720610618591309 0.86741077899932861
0.99183428287506104 0.64255392551422119 0.86768364906311035
0.044356342405080795 0.53431975841522217 0.87366795539855957
0.22398859262466431 0.54875165224075317 0.87381058931350708
0.47596621513366699 0.58340603113174438 0.86956608295440674
0.67189264297485352 0.61796754598617554 0.86989390850067139
0.81582045555114746 0.67408186197280884 0.86582893133163452
0.91113561391830444 0.71609008312225342 0.86357808113098145
0.9827888011932373 0.74643599987030029 0.86848044395446777
0.24383926391601562 0.73002451658248901 0.86558037996292114
0.32425785064697266 0.72428685426712036 0.86563074588775635
0.4655115008354187 0.72796750068664551 0.86655211448669434
0.62519890069961548 0.73457551002502441 0.86913597583770752
0.7937806248664856 0.77517759799957275 0.8674931526184082
0.90051603317260742 0.81224542856216431 0.86521381139755249
0.97734397649765015 0.83328557014465332 0.86695164442062378
0.57401996850967407 0.87264275550842285 0.86925041675567627
0.60875672101974487 0.87222957611083984 0.87114095687866211
0.66385382413864136 0.87187522649765015 0.87373983860015869
0.74299943447113037 0.87277251482009888 0.87760770320892334
0.82699692249298096 0.88398784399032593 0.88283354043960571
0.90251082181930542 0.8971368670463562 0.88457149267196655
0.96956253051757812 0.90393185615539551 0.87605684995651245
0.80324435234069824 0.95322185754776001 0.90370666980743408
0.80862891674041748 0.95284974575042725 0.90304529666900635
0.82850939035415649 0.95144951343536377 0.90450268983840942
0.85497075319290161 0.95220029354095459 0.90810233354568481
0.87926936149597168 0.95210450887680054 0.9109693169593811
0.92585521936416626 0.95731544494628906 0.91549646854400635
0.96604794263839722 0.966228187084198 0.92105817794799805
0.54435664415359497 0.32521572709083557 0.97489213943481445
0.59018725156784058 0.33686181902885437 0.97355973720550537
0.67742919921875 0.37363103032112122 0.97040486335754395
0.78400075435638428 0.4409431517124176 0.9638480544090271
0.88264119625091553 0.52692776918411255 0.95899325609207153
0.9476855993270874 0.62363743782043457 0.94763284921646118
0.99300128221511841 0.67521440982818604 0.94735747575759888
0.54916739463806152 0.39251556992530823 0.97269713878631592
0.59242981672286987 0.40525555610656738 0.97070544958114624
0.68221843242645264 0.44102644920349121 0.96755522489547729
0.78609174489974976 0.4970342218875885 0.96252268552780151
0.87578326463699341 0.57067298889160156 0.95577645301818848
0.94874686002731323 0.65714925527572632 0.94854611158370972
0.99265378713607788 0.70455628633499146 0.94821107387542725
0.54256361722946167 0.50004899501800537 0.96900069713592529
0.58800780773162842 0.51172780990600586 0.96684110164642334
0.67013287544250488 0.53149765729904175 0.96181982755661011
0.78169751167297363 0.58542901277542114 0.96033275127410889
0.87286561727523804 0.64711415767669678 0.95516228675842285
0.94085502624511719 0.71713900566101074 0.94806146621704102
0.99108779430389404 0.75020760297775269 0.94606733322143555
0.46691271662712097 0.6064302921295166 0.96682447195053101
0.53420805931091309 0.61668175458908081 0.96645122766494751
0.64342820644378662 0.63983261585235596 0.96138811111450195
0.75766336917877197 0.67651122808456421 0.95645987987518311
0.85335975885391235 0.72404390573501587 0.94937622547149658
0.91881471872329712 0.77556896209716797 0.94295340776443481
0.98175877332687378 0.81101721525192261 0.94542306661605835
0.34425845742225647 0.71657085418701172 0.96249127388000488
0.40888294577598572 0.71746402978897095 0.96139758825302124
0.53239703178405762 0.72855418920516968 0.96039891242980957
0.69458246231079102 0.7583388090133667 0.95386737585067749
0.82959651947021484 0.80226743221282959 0.94922506809234619
0.91534054279327393 0.84414643049240112 0.94469982385635376
0.96875399351119995 0.86794048547744751 0.94295340776443481
0.59124159812927246 0.87475055456161499 0.95302200317382812
0.60998779535293579 0.87537890672683716 0.95143973827362061
0.65181618928909302 0.87028950452804565 0.95156985521316528
0.7155492901802063 0.86843383312225342 0.94944149255752563
0.80164480209350586 0.87508171796798706 0.9512258768081665
0.90536677837371826 0.90335524082183838 0.95392918586730957
0.96668320894241333 0.92301720380783081 0.95247715711593628
0.7862975001335144 0.95821815729141235 0.95646512508392334
0.79183614253997803 0.95782077312469482 0.95590001344680786
0.81323432922363281 0.95633852481842041 0.95483225584030151
0.84439939260482788 0.95774835348129272 0.95752358436584473
0.88065361976623535 0.95795357227325439 0.95620834827423096
0.92732113599777222 0.95791864395141602 0.9561084508895874
0.9694705605506897 0.9680246114730835 0.96316951513290405
