luts/negative_old/fuji_neopan_1600.cube
# Created by: G'MIC (https://gmic.eu)
TITLE "fuji_neopan_1600"
# LUT size
LUT_3D_SIZE 5
# Data domain
DOMAIN_MIN 0.0 0.0 0.0
DOMAIN_MAX 1.0 1.0 1.0
# LUT data points
0.033827207982540131 0.033827207982540131 0.033827207982540131
0.034273006021976471 0.034273006021976471 0.034273006021976471
0.085489757359027863 0.085489757359027863 0.085489757359027863
0.20851309597492218 0.20851309597492218 0.20851309597492218
0.41378232836723328 0.41378232836723328 0.41378232836723328
0.069655820727348328 0.069655820727348328 0.069655820727348328
0.11551615595817566 0.11551615595817566 0.11551615595817566
0.21377131342887878 0.21377131342887878 0.21377131342887878
0.33940210938453674 0.33940210938453674 0.33940210938453674
0.51755672693252563 0.51755672693252563 0.51755672693252563
0.23611670732498169 0.23611670732498169 0.23611670732498169
0.27620497345924377 0.27620497345924377 0.27620497345924377
0.36262980103492737 0.36262980103492737 0.36262980103492737
0.52353489398956299 0.52353489398956299 0.52353489398956299
0.72067224979400635 0.72067224979400635 0.72067224979400635
0.53493005037307739 0.53493005037307739 0.53493005037307739
0.54694777727127075 0.54694777727127075 0.54694777727127075
0.59804773330688477 0.59804773330688477 0.59804773330688477
0.70971208810806274 0.70971208810806274 0.70971208810806274
0.85250699520111084 0.85250699520111084 0.85250699520111084
0.87634378671646118 0.87634378671646118 0.87634378671646118
0.87370055913925171 0.87370055913925171 0.87370055913925171
0.89708173274993896 0.89708173274993896 0.89708173274993896
0.93495571613311768 0.93495571613311768 0.93495571613311768
0.96839296817779541 0.96839296817779541 0.96839296817779541
0.031173616647720337 0.031173616647720337 0.031173616647720337
0.066494554281234741 0.066494554281234741 0.066494554281234741
0.1296619325876236 0.1296619325876236 0.1296619325876236
0.24695190787315369 0.24695190787315369 0.24695190787315369
0.41212129592895508 0.41212129592895508 0.41212129592895508
0.10590420663356781 0.10590420663356781 0.10590420663356781
0.17234630882740021 0.17234630882740021 0.17234630882740021
0.25316253304481506 0.25316253304481506 0.25316253304481506
0.36256948113441467 0.36256948113441467 0.36256948113441467
0.54736286401748657 0.54736286401748657 0.54736286401748657
0.33277970552444458 0.33277970552444458 0.33277970552444458
0.35073673725128174 0.35073673725128174 0.35073673725128174
0.4186059832572937 0.4186059832572937 0.4186059832572937
0.57777690887451172 0.57777690887451172 0.57777690887451172
0.73582351207733154 0.73582351207733154 0.73582351207733154
0.5909850001335144 0.5909850001335144 0.5909850001335144
0.59916955232620239 0.59916955232620239 0.59916955232620239
0.63740122318267822 0.63740122318267822 0.63740122318267822
0.72304338216781616 0.72304338216781616 0.72304338216781616
0.86266607046127319 0.86266607046127319 0.86266607046127319
0.88303130865097046 0.88303130865097046 0.88303130865097046
0.8864675760269165 0.8864675760269165 0.8864675760269165
0.90561819076538086 0.90561819076538086 0.90561819076538086
0.93695443868637085 0.93695443868637085 0.93695443868637085
0.97676199674606323 0.97676199674606323 0.97676199674606323
0.12108074873685837 0.12108074873685837 0.12108074873685837
0.18016491830348969 0.18016491830348969 0.18016491830348969
0.28704896569252014 0.28704896569252014 0.28704896569252014
0.33252710103988647 0.33252710103988647 0.33252710103988647
0.52457970380783081 0.52457970380783081 0.52457970380783081
0.2159947007894516 0.2159947007894516 0.2159947007894516
0.28085920214653015 0.28085920214653015 0.28085920214653015
0.37620872259140015 0.37620872259140015 0.37620872259140015
0.43239986896514893 0.43239986896514893 0.43239986896514893
0.59574192762374878 0.59574192762374878 0.59574192762374878
0.35263550281524658 0.35263550281524658 0.35263550281524658
0.42687132954597473 0.42687132954597473 0.42687132954597473
0.52091169357299805 0.52091169357299805 0.52091169357299805
0.61673742532730103 0.61673742532730103 0.61673742532730103
0.73272252082824707 0.73272252082824707 0.73272252082824707
0.65212458372116089 0.65212458372116089 0.65212458372116089
0.68623906373977661 0.68623906373977661 0.68623906373977661
0.72444742918014526 0.72444742918014526 0.72444742918014526
0.77540057897567749 0.77540057897567749 0.77540057897567749
0.89429610967636108 0.89429610967636108 0.89429610967636108
0.90583795309066772 0.90583795309066772 0.90583795309066772
0.91988581418991089 0.91988581418991089 0.91988581418991089
0.92876756191253662 0.92876756191253662 0.92876756191253662
0.93610286712646484 0.93610286712646484 0.93610286712646484
0.97870939970016479 0.97870939970016479 0.97870939970016479
0.32621213793754578 0.32621213793754578 0.32621213793754578
0.39389151334762573 0.39389151334762573 0.39389151334762573
0.50000602006912231 0.50000602006912231 0.50000602006912231
0.58719909191131592 0.58719909191131592 0.58719909191131592
0.66195780038833618 0.66195780038833618 0.66195780038833618
0.41710612177848816 0.41710612177848816 0.41710612177848816
0.47126501798629761 0.47126501798629761 0.47126501798629761
0.57169902324676514 0.57169902324676514 0.57169902324676514
0.63789480924606323 0.63789480924606323 0.63789480924606323
0.71777802705764771 0.71777802705764771 0.71777802705764771
0.45271864533424377 0.45271864533424377 0.45271864533424377
0.52795672416687012 0.52795672416687012 0.52795672416687012
0.65975463390350342 0.65975463390350342 0.65975463390350342
0.74431449174880981 0.74431449174880981 0.74431449174880981
0.79031944274902344 0.79031944274902344 0.79031944274902344
0.66636687517166138 0.66636687517166138 0.66636687517166138
0.68660366535186768 0.68660366535186768 0.68660366535186768
0.77407622337341309 0.77407622337341309 0.77407622337341309
0.8434557318687439 0.8434557318687439 0.8434557318687439
0.91496503353118896 0.91496503353118896 0.91496503353118896
0.92039823532104492 0.92039823532104492 0.92039823532104492
0.93911844491958618 0.93911844491958618 0.93911844491958618
0.95794391632080078 0.95794391632080078 0.95794391632080078
0.97609096765518188 0.97609096765518188 0.97609096765518188
0.99613547325134277 0.99613547325134277 0.99613547325134277
0.70779561996459961 0.70779561996459961 0.70779561996459961
0.73879456520080566 0.73879456520080566 0.73879456520080566
0.79285311698913574 0.79285311698913574 0.79285311698913574
0.86705893278121948 0.86705893278121948 0.86705893278121948
0.88687056303024292 0.88687056303024292 0.88687056303024292
0.74151468276977539 0.74151468276977539 0.74151468276977539
0.78256392478942871 0.78256392478942871 0.78256392478942871
0.81343132257461548 0.81343132257461548 0.81343132257461548
0.87980496883392334 0.87980496883392334 0.87980496883392334
0.90079265832901001 0.90079265832901001 0.90079265832901001
0.76427435874938965 0.76427435874938965 0.76427435874938965
0.8040090799331665 0.8040090799331665 0.8040090799331665
0.8596232533454895 0.8596232533454895 0.8596232533454895
0.90336322784423828 0.90336322784423828 0.90336322784423828
0.91496872901916504 0.91496872901916504 0.91496872901916504
0.7683144211769104 0.7683144211769104 0.7683144211769104
0.78691500425338745 0.78691500425338745 0.78691500425338745
0.8537285327911377 0.8537285327911377 0.8537285327911377
0.92505168914794922 0.92505168914794922 0.92505168914794922
0.97360169887542725 0.97360169887542725 0.97360169887542725
0.9385296106338501 0.9385296106338501 0.9385296106338501
0.95066022872924805 0.95066022872924805 0.95066022872924805
0.96785145998001099 0.96785145998001099 0.96785145998001099
0.99158132076263428 0.99158132076263428 0.99158132076263428
0.99044996500015259 0.99044996500015259 0.99044996500015259
