luts/negative_old/fuji_superia_400_-.cube
# Created by: G'MIC (https://gmic.eu)
TITLE "fuji_superia_400_-"
# LUT size
LUT_3D_SIZE 7
# Data domain
DOMAIN_MIN 0.0 0.0 0.0
DOMAIN_MAX 1.0 1.0 1.0
# LUT data points
0.0084349093958735466 0.038491971790790558 0.037106741219758987
0.11755341291427612 0.047394771128892899 0.037725426256656647
0.32566612958908081 0.039797957986593246 0.026719694957137108
0.5647997260093689 0.0086322110146284103 0.023868560791015625
0.77810043096542358 0.003768053138628602 0.010529267601668835
0.93524235486984253 0.031477294862270355 0.00010735006799222901
0.99836021661758423 0.21397204697132111 0.0011975605739280581
0.0031123890075832605 0.14731961488723755 0.065290562808513641
0.10597656667232513 0.17070840299129486 0.041852943599224091
0.35325011610984802 0.18195849657058716 0.0099923228845000267
0.58572405576705933 0.15079016983509064 0.0051954532973468304
0.7786935567855835 0.14250688254833221 0.0047254376113414764
0.93201464414596558 0.213724285364151 0.0034462723415344954
0.99848133325576782 0.30319046974182129 0.00085372925968840718
0.0026047800201922655 0.31806376576423645 0.12303079664707184
0.055028427392244339 0.34197986125946045 0.11439599096775055
0.34839227795600891 0.42325425148010254 0.022675232961773872
0.62481290102005005 0.42992150783538818 0.0014880461385473609
0.77567732334136963 0.3728729784488678 0.0033265806268900633
0.91948848962783813 0.38047167658805847 0.0018418853869661689
0.99828845262527466 0.42649668455123901 0.00091914756922051311
0.011333554983139038 0.51178824901580811 0.22980290651321411
0.11320473253726959 0.51581031084060669 0.22959226369857788
0.30556318163871765 0.54980051517486572 0.20093175768852234
0.57064372301101685 0.62264728546142578 0.090674504637718201
0.81151360273361206 0.64599227905273438 0.0029046002309769392
0.92570310831069946 0.58557581901550293 0.0016966875409707427
0.99812310934066772 0.56216400861740112 0.00023579316621180624
0.20972625911235809 0.65737396478652954 0.34946313500404358
0.27648749947547913 0.65754187107086182 0.35438293218612671
0.37128570675849915 0.66541987657546997 0.35272747278213501
0.53239291906356812 0.71455889940261841 0.32553064823150635
0.74389195442199707 0.76892542839050293 0.26915186643600464
0.94028913974761963 0.80250626802444458 0.15266440808773041
0.99995404481887817 0.76621365547180176 0.036227356642484665
0.42258545756340027 0.79769939184188843 0.50204342603683472
0.45978429913520813 0.79817056655883789 0.50907820463180542
0.50653600692749023 0.79648667573928833 0.51058268547058105
0.59458029270172119 0.81875163316726685 0.5048331618309021
0.73145419359207153 0.85404527187347412 0.49797442555427551
0.88656347990036011 0.88822507858276367 0.46525716781616211
0.99152600765228271 0.91366750001907349 0.44496095180511475
0.67594367265701294 0.92099857330322266 0.70674377679824829
0.69086414575576782 0.92180716991424561 0.71194231510162354
0.71365869045257568 0.92016977071762085 0.71387368440628052
0.75203526020050049 0.92495816946029663 0.71428048610687256
0.81050986051559448 0.94077974557876587 0.715423583984375
0.88297873735427856 0.95698213577270508 0.70994734764099121
0.95653057098388672 0.97155028581619263 0.69654875993728638
0.00863622035831213 0.04689750075340271 0.13926520943641663
0.11422730982303619 0.057539068162441254 0.13733756542205811
0.32532700896263123 0.034669481217861176 0.14171448349952698
0.57510125637054443 0.006934700533747673 0.14607667922973633
0.77737945318222046 0.035351186990737915 0.15057232975959778
0.92671686410903931 0.13339860737323761 0.14052307605743408
0.99876183271408081 0.25584542751312256 0.12212153524160385
0.006564839743077755 0.1641426682472229 0.16211923956871033
0.14192882180213928 0.17935775220394135 0.16138589382171631
0.36466312408447266 0.18520979583263397 0.14994677901268005
0.5967133641242981 0.19156268239021301 0.14706002175807953
0.78070175647735596 0.20789253711700439 0.13557833433151245
0.93030506372451782 0.25531333684921265 0.11479455977678299
0.99891465902328491 0.33225959539413452 0.11208634078502655
0.057793531566858292 0.35931649804115295 0.22655604779720306
0.17095412313938141 0.36952847242355347 0.23680464923381805
0.37889009714126587 0.42176753282546997 0.20171461999416351
0.61921495199203491 0.41646027565002441 0.12938213348388672
0.77787977457046509 0.38195052742958069 0.086077988147735596
0.92514985799789429 0.39805266261100769 0.067504391074180603
0.99906796216964722 0.44245684146881104 0.066341489553451538
0.1339154839515686 0.52992725372314453 0.31079450249671936
0.23405052721500397 0.5361020565032959 0.32576879858970642
0.35169646143913269 0.55071002244949341 0.30390951037406921
0.58495855331420898 0.62062311172485352 0.25635141134262085
0.80046969652175903 0.63394993543624878 0.15412420034408569
0.9204176664352417 0.57422894239425659 0.037475943565368652
0.99916625022888184 0.57477480173110962 0.019931210204958916
0.28294682502746582 0.67016327381134033 0.41357579827308655
0.33391177654266357 0.67278945446014404 0.41864657402038574
0.41188770532608032 0.67513895034790039 0.41276216506958008
0.54752761125564575 0.71319288015365601 0.39897254109382629
0.74838471412658691 0.7700875997543335 0.36494451761245728
0.93311506509780884 0.79642140865325928 0.29690423607826233
0.99839955568313599 0.75846880674362183 0.17022623121738434
0.4560253918170929 0.80375081300735474 0.53678005933761597
0.48041838407516479 0.80518478155136108 0.5399775505065918
0.53098320960998535 0.80111509561538696 0.54549294710159302
0.61461764574050903 0.81725811958312988 0.54485017061233521
0.73708367347717285 0.85282248258590698 0.5387800931930542
0.88096219301223755 0.88686454296112061 0.52315866947174072
0.98847872018814087 0.91067051887512207 0.50171124935150146
0.6892889142036438 0.92320787906646729 0.72319608926773071
0.69857406616210938 0.92305994033813477 0.72370737791061401
0.72240167856216431 0.92316979169845581 0.72780495882034302
0.75940781831741333 0.92553555965423584 0.73378527164459229
0.81772494316101074 0.94079184532165527 0.73323541879653931
0.88600969314575195 0.95761901140213013 0.72628664970397949
0.95336675643920898 0.97083836793899536 0.71943867206573486
0.0088907582685351372 0.059690676629543304 0.34029260277748108
0.12627695500850677 0.069682136178016663 0.33407646417617798
0.33252158761024475 0.089514791965484619 0.33201771974563599
0.55725955963134766 0.071310602128505707 0.3438909649848938
0.76684856414794922 0.049582134932279587 0.34055095911026001
0.93281042575836182 0.10020189732313156 0.33079385757446289
0.99985295534133911 0.30325263738632202 0.36558213829994202
0.0027123545296490192 0.17537669837474823 0.35684964060783386
0.13579584658145905 0.19673153758049011 0.36575406789779663
0.36247852444648743 0.22337223589420319 0.36262279748916626
0.58770579099655151 0.23059278726577759 0.36395359039306641
0.77818453311920166 0.23207460343837738 0.35600113868713379
0.93023169040679932 0.29459711909294128 0.36201822757720947
0.99994903802871704 0.38684526085853577 0.37794968485832214
0.023553870618343353 0.38806313276290894 0.3843003511428833
0.17933796346187592 0.39728203415870667 0.40337842702865601
0.39552292227745056 0.41762635111808777 0.40952381491661072
0.60627514123916626 0.42315366864204407 0.38951346278190613
0.77231091260910034 0.42741090059280396 0.37472355365753174
0.91796320676803589 0.44902074337005615 0.35935249924659729
0.99668270349502563 0.4840388298034668 0.35435393452644348
0.26548543572425842 0.56402480602264404 0.45058134198188782
0.34484541416168213 0.57272487878799438 0.46389588713645935
0.43576917052268982 0.57493764162063599 0.45927196741104126
0.59563910961151123 0.61319971084594727 0.44321900606155396
0.77784723043441772 0.60089582204818726 0.38769429922103882
0.91079729795455933 0.5738794207572937 0.32278868556022644
0.99215561151504517 0.58924335241317749 0.31975844502449036
0.39676770567893982 0.69600743055343628 0.52048641443252563
0.42438632249832153 0.69757735729217529 0.5211067795753479
0.47839570045471191 0.69365531206130981 0.51862096786499023
0.58055233955383301 0.71071535348892212 0.51513218879699707
0.75743299722671509 0.76916074752807617 0.50660097599029541
0.92133665084838867 0.78245741128921509 0.46083799004554749
0.99622374773025513 0.74190157651901245 0.37050548195838928
0.51550889015197754 0.81617385149002075 0.60831689834594727
0.5352473258972168 0.81509089469909668 0.60863721370697021
0.57859891653060913 0.81203508377075195 0.60946941375732422
0.63517719507217407 0.81583815813064575 0.6085018515586853
0.74425959587097168 0.84971863031387329 0.61692476272583008
0.87896740436553955 0.88535887002944946 0.60818880796432495
0.9915001392364502 0.90732568502426147 0.59793365001678467
0.7081904411315918 0.92780148983001709 0.75289559364318848
0.71617573499679565 0.92767703533172607 0.75280451774597168
0.73814404010772705 0.92395693063735962 0.75274419784545898
0.77131152153015137 0.92704492807388306 0.76159632205963135
0.82212263345718384 0.93838649988174438 0.76127827167510986
0.88652259111404419 0.95628666877746582 0.76424968242645264
0.95699548721313477 0.97100538015365601 0.76199299097061157
0.0025398253928869963 0.07760167121887207 0.55143338441848755
0.12349047511816025 0.088100150227546692 0.5464673638343811
0.37675189971923828 0.12423287332057953 0.54505234956741333
0.57361668348312378 0.15849775075912476 0.55095595121383667
0.7390325665473938 0.20096439123153687 0.54649513959884644
0.90124475955963135 0.25891473889350891 0.54553455114364624
0.99664437770843506 0.31201314926147461 0.54734140634536743
0.0060450383462011814 0.1996050626039505 0.56463444232940674
0.1813175231218338 0.21931728720664978 0.56577008962631226
0.40811964869499207 0.25475972890853882 0.5646132230758667
0.58764505386352539 0.29457107186317444 0.567790687084198
0.74512761831283569 0.31473985314369202 0.55894261598587036
0.90805166959762573 0.34353935718536377 0.55770063400268555
0.99729794263839722 0.37945565581321716 0.54898136854171753
0.0025797525886446238 0.3768918514251709 0.57622331380844116
0.11891687661409378 0.39005672931671143 0.58774983882904053
0.416270911693573 0.42409300804138184 0.58785724639892578
0.60077643394470215 0.45436501502990723 0.5838315486907959
0.7528570294380188 0.46578270196914673 0.57275533676147461
0.90570509433746338 0.47173771262168884 0.56350278854370117
0.99706423282623291 0.50257062911987305 0.56835949420928955
0.17011494934558868 0.57994985580444336 0.5826224684715271
0.29980412125587463 0.58335739374160767 0.59036499261856079
0.45512115955352783 0.58766847848892212 0.6005968451499939
0.6109321117401123 0.60859954357147217 0.60422956943511963
0.7628554105758667 0.60867929458618164 0.58363157510757446
0.90244185924530029 0.61173504590988159 0.56755250692367554
0.99144661426544189 0.6279790997505188 0.55784636735916138
0.44031968712806702 0.71710169315338135 0.62735295295715332
0.48047253489494324 0.71808922290802002 0.63285219669342041
0.54438322782516479 0.71927475929260254 0.63391220569610596
0.63035768270492554 0.7223057746887207 0.63744997978210449
0.76759564876556396 0.76395130157470703 0.63949859142303467
0.90329855680465698 0.75668501853942871 0.59633249044418335
0.99364006519317627 0.72668963670730591 0.53396010398864746
0.59416550397872925 0.82982033491134644 0.69959956407546997
0.60463005304336548 0.82893013954162598 0.696117103099823
0.63354343175888062 0.82681256532669067 0.69293886423110962
0.67827707529067993 0.82632476091384888 0.69160586595535278
0.75970345735549927 0.84484744071960449 0.69845092296600342
0.89293599128723145 0.88817483186721802 0.70877635478973389
0.98822474479675293 0.89951837062835693 0.68996530771255493
0.74038422107696533 0.93011480569839478 0.798359215259552
0.74367010593414307 0.93117016553878784 0.79530638456344604
0.75790858268737793 0.93153482675552368 0.79362303018569946
0.78851497173309326 0.93174976110458374 0.79811841249465942
0.83408790826797485 0.93840378522872925 0.80291521549224854
0.89333981275558472 0.95456773042678833 0.80613845586776733
0.96182703971862793 0.97029685974121094 0.80726122856140137
0.064846262335777283 0.10316620022058487 0.72021090984344482
0.25019493699073792 0.11835359781980515 0.71881991624832153
0.44276338815689087 0.15969668328762054 0.71987473964691162
0.61832284927368164 0.23435939848423004 0.71484619379043579
0.76221555471420288 0.29146677255630493 0.71201109886169434
0.8835681676864624 0.33429211378097534 0.70367896556854248
0.9909633994102478 0.42980891466140747 0.71959912776947021
0.15830574929714203 0.23052936792373657 0.73133069276809692
0.2936633825302124 0.24647346138954163 0.72730726003646851
0.46103987097740173 0.27724069356918335 0.72315019369125366
0.62702459096908569 0.33914652466773987 0.72129732370376587
0.76458525657653809 0.37740993499755859 0.71764653921127319
0.89180535078048706 0.41334331035614014 0.71425157785415649
0.98980647325515747 0.48170554637908936 0.72484779357910156
0.074887655675411224 0.37877485156059265 0.73514676094055176
0.27233156561851501 0.40224027633666992 0.7350195050239563
0.45512118935585022 0.42974427342414856 0.72956365346908569
0.63249510526657104 0.4754537045955658 0.72936385869979858
0.76225584745407104 0.50898188352584839 0.72357046604156494
0.88140493631362915 0.52540284395217896 0.7215733528137207
0.98682713508605957 0.57090502977371216 0.73271483182907104
0.038207575678825378 0.55959171056747437 0.72448503971099854
0.19958630204200745 0.55712825059890747 0.72614008188247681
0.41005119681358337 0.56788235902786255 0.72824776172637939
0.61260032653808594 0.60219359397888184 0.73359417915344238
0.76570117473602295 0.6402440071105957 0.73289251327514648
0.89121848344802856 0.65376687049865723 0.72943294048309326
0.98929071426391602 0.66206276416778564 0.73068386316299438
0.36595416069030762 0.71837371587753296 0.7359621524810791
0.43135514855384827 0.72271734476089478 0.73470824956893921
0.51976698637008667 0.72617310285568237 0.73654931783676147
0.64912110567092896 0.73494315147399902 0.74581879377365112
0.77292454242706299 0.75646340847015381 0.7543066143989563
0.89165687561035156 0.75531286001205444 0.72887343168258667
0.9877210259437561 0.75775545835494995 0.71831810474395752
0.6133040189743042 0.84628254175186157 0.77645313739776611
0.63215100765228271 0.84508830308914185 0.7759937047958374
0.67506974935531616 0.84680920839309692 0.78033548593521118
0.73250216245651245 0.84816396236419678 0.78438133001327515
0.79057168960571289 0.84988230466842651 0.78520017862319946
0.89784705638885498 0.88600403070449829 0.79958820343017578
0.98587316274642944 0.87504124641418457 0.7675057053565979
0.76468318700790405 0.93695765733718872 0.84996038675308228
0.77411234378814697 0.93814682960510254 0.84975075721740723
0.78998905420303345 0.93711239099502563 0.85074436664581299
0.81910938024520874 0.93830686807632446 0.85102218389511108
0.85001885890960693 0.93981963396072388 0.85291266441345215
0.90107220411300659 0.95228415727615356 0.85592401027679443
0.96813869476318359 0.97060120105743408 0.86232459545135498
0.33720862865447998 0.18420019745826721 0.85664039850234985
0.41291844844818115 0.20034295320510864 0.85564357042312622
0.53988409042358398 0.23336809873580933 0.8561089038848877
0.67692285776138306 0.30089062452316284 0.85180354118347168
0.80338412523269653 0.39283531904220581 0.84711891412734985
0.90791445970535278 0.45323595404624939 0.84498953819274902
0.99011522531509399 0.492179274559021 0.84318798780441284
0.35634511709213257 0.29162511229515076 0.85628920793533325
0.42536216974258423 0.2989560067653656 0.85636991262435913
0.54872381687164307 0.33267095685005188 0.85312479734420776
0.68207579851150513 0.38052788376808167 0.85532474517822266
0.80018359422683716 0.45538666844367981 0.84680306911468506
0.90449148416519165 0.50732654333114624 0.84182679653167725
0.98372107744216919 0.53723812103271484 0.84119212627410889
0.34206074476242065 0.42306807637214661 0.86055374145507812
0.4062056839466095 0.43827322125434875 0.85667210817337036
0.52856707572937012 0.45977321267127991 0.85295897722244263
0.67545080184936523 0.49423867464065552 0.85342681407928467
0.7982909083366394 0.55833840370178223 0.84935754537582397
0.89417892694473267 0.58887004852294922 0.84240341186523438
0.97912263870239258 0.62166005373001099 0.84608334302902222
0.10727793723344803 0.53767454624176025 0.85441923141479492
0.27584913372993469 0.54421877861022949 0.85366213321685791
0.47296437621116638 0.57238626480102539 0.8545805811882019
0.64893603324890137 0.60860562324523926 0.85318088531494141
0.7856561541557312 0.65586560964584351 0.849609375
0.88481718301773071 0.68251246213912964 0.84397810697555542
0.97420388460159302 0.7108008861541748 0.85484117269515991
0.26445934176445007 0.70376360416412354 0.84906792640686035
0.35145249962806702 0.70388078689575195 0.84963828325271606
0.45179271697998047 0.70718318223953247 0.8486936092376709
0.60145789384841919 0.71335577964782715 0.85410469770431519
0.7747265100479126 0.75422710180282593 0.85694414377212524
0.89184975624084473 0.78565889596939087 0.85407018661499023
0.97771316766738892 0.80258893966674805 0.86185884475708008
0.54715228080749512 0.84909522533416748 0.85836911201477051
0.57078284025192261 0.84830045700073242 0.85330760478973389
0.63234049081802368 0.85297524929046631 0.86093223094940186
0.70997172594070435 0.85217559337615967 0.86491107940673828
0.80252015590667725 0.86143451929092407 0.87169384956359863
0.89254212379455566 0.88209104537963867 0.87937694787979126
0.98048228025436401 0.88175666332244873 0.86494940519332886
0.77117055654525757 0.94719034433364868 0.89726299047470093
0.77286547422409058 0.94558024406433105 0.89627784490585327
0.80071735382080078 0.94576728343963623 0.89864194393157959
0.83623224496841431 0.94790011644363403 0.90339648723602295
0.87319374084472656 0.95051521062850952 0.90829133987426758
0.91956508159637451 0.95745891332626343 0.91198909282684326
0.97313195466995239 0.97083753347396851 0.91814446449279785
0.55062222480773926 0.34597736597061157 0.96921169757843018
0.58706504106521606 0.3605811595916748 0.9687122106552124
0.65704929828643799 0.3938240110874176 0.95991206169128418
0.75541555881500244 0.4448930025100708 0.96096128225326538
0.84891456365585327 0.51963448524475098 0.95461207628250122
0.93111997842788696 0.60965502262115479 0.9484550952911377
0.99119400978088379 0.64647454023361206 0.948283851146698
0.54568582773208618 0.40547606348991394 0.96675103902816772
0.58846950531005859 0.4206409752368927 0.96723645925521851
0.66029578447341919 0.44237580895423889 0.96351379156112671
0.75738811492919922 0.49456200003623962 0.95782053470611572
0.85259169340133667 0.56523764133453369 0.95560848712921143
0.92462581396102905 0.63728231191635132 0.94420337677001953
0.98844462633132935 0.67351359128952026 0.94682991504669189
0.53130543231964111 0.50613456964492798 0.96470814943313599
0.57463699579238892 0.51558822393417358 0.96387159824371338
0.65272361040115356 0.53792089223861694 0.96189886331558228
0.75120526552200317 0.57543152570724487 0.95846503973007202
0.84262758493423462 0.62586009502410889 0.95205450057983398
0.91959273815155029 0.68208605051040649 0.94249492883682251
0.98464834690093994 0.71847653388977051 0.94429320096969604
0.44883805513381958 0.59713113307952881 0.96501177549362183
0.51214468479156494 0.60485714673995972 0.96500229835510254
0.60828757286071777 0.62439984083175659 0.96145325899124146
0.72110193967819214 0.65741467475891113 0.95527726411819458
0.82473349571228027 0.69900929927825928 0.94904881715774536
0.91668188571929932 0.74098938703536987 0.94664192199707031
0.98303210735321045 0.77320766448974609 0.94823849201202393
0.31856456398963928 0.69877117872238159 0.96161121129989624
0.37571576237678528 0.69795233011245728 0.96269798278808594
0.49866732954978943 0.70472323894500732 0.9608074426651001
0.66321289539337158 0.73144036531448364 0.957469642162323
0.80286723375320435 0.77472841739654541 0.95216494798660278
0.90860152244567871 0.81140220165252686 0.94969034194946289
0.97377192974090576 0.83895468711853027 0.94845420122146606
0.53694677352905273 0.85161685943603516 0.95222538709640503
0.56487882137298584 0.8523755669593811 0.95516848564147949
0.610759437084198 0.84744185209274292 0.95491266250610352
0.68132752180099487 0.84535688161849976 0.95670288801193237
0.770038902759552 0.84605330228805542 0.9553261399269104
0.89336091279983521 0.87881773710250854 0.95685696601867676
0.97015857696533203 0.91305899620056152 0.96018761396408081
0.73723948001861572 0.95553672313690186 0.96060234308242798
0.75003039836883545 0.95637893676757812 0.95891135931015015
0.77877593040466309 0.95485830307006836 0.96311873197555542
0.81556767225265503 0.95458245277404785 0.96439093351364136
0.86281305551528931 0.95512861013412476 0.96375137567520142
0.91745173931121826 0.95753127336502075 0.96602135896682739
0.97248607873916626 0.97114771604537964 0.97165626287460327
