luts/negative_old/fuji_superia_1600_+.cube
# Created by: G'MIC (https://gmic.eu)
TITLE "fuji_superia_1600_+"
# LUT size
LUT_3D_SIZE 7
# Data domain
DOMAIN_MIN 0.0 0.0 0.0
DOMAIN_MAX 1.0 1.0 1.0
# LUT data points
0.099052995443344116 0.14035810530185699 0.13825857639312744
0.15317957103252411 0.13888087868690491 0.13345777988433838
0.31070569157600403 0.14578185975551605 0.13202741742134094
0.51164799928665161 0.15529496967792511 0.12537075579166412
0.69483011960983276 0.15832087397575378 0.11501123756170273
0.84861564636230469 0.19238300621509552 0.10277146100997925
0.97361171245574951 0.26282936334609985 0.099596895277500153
0.060811735689640045 0.19852587580680847 0.14021918177604675
0.14691421389579773 0.21460892260074615 0.13240215182304382
0.33519867062568665 0.22780081629753113 0.12429460883140564
0.54076117277145386 0.23590743541717529 0.1155436784029007
0.71721953153610229 0.24283599853515625 0.10998391360044479
0.85957324504852295 0.27203091979026794 0.10023133456707001
0.98714649677276611 0.31938007473945618 0.097381457686424255
0.0046717175282537937 0.36208620667457581 0.16347384452819824
0.045161932706832886 0.36483004689216614 0.15509906411170959
0.32477867603302002 0.40889227390289307 0.12049476802349091
0.59277480840682983 0.42598360776901245 0.083793625235557556
0.75001144409179688 0.39471173286437988 0.10109268128871918
0.88146895170211792 0.39645573496818542 0.1028764620423317
0.98987627029418945 0.42663753032684326 0.11248927563428879
0.00089856318663805723 0.53344237804412842 0.2226884514093399
0.017117459326982498 0.53260344266891479 0.22114835679531097
0.28318959474563599 0.54503792524337769 0.20615383982658386
0.54050338268280029 0.58166009187698364 0.15661954879760742
0.77497482299804688 0.60555601119995117 0.10415423661470413
0.90433776378631592 0.57031315565109253 0.13553820550441742
0.99569660425186157 0.56557220220565796 0.16928939521312714
0.10174719244241714 0.68016535043716431 0.32557252049446106
0.19462192058563232 0.6735464334487915 0.32496339082717896
0.33011284470558167 0.67031067609786987 0.31704285740852356
0.51313620805740356 0.69452506303787231 0.30110415816307068
0.71341311931610107 0.72499608993530273 0.27010968327522278
0.90641677379608154 0.75745874643325806 0.24467518925666809
0.99330472946166992 0.73744809627532959 0.27772030234336853
0.37564027309417725 0.81077539920806885 0.45997008681297302
0.40574237704277039 0.8072509765625 0.45899090170860291
0.46346735954284668 0.79891794919967651 0.45396703481674194
0.57062327861785889 0.80856704711914062 0.44957226514816284
0.69966685771942139 0.82679200172424316 0.44291990995407104
0.85168874263763428 0.85108238458633423 0.42648190259933472
0.98024660348892212 0.88161581754684448 0.42407751083374023
0.61558741331100464 0.92081350088119507 0.63265210390090942
0.6291002631187439 0.92028170824050903 0.63510215282440186
0.65649580955505371 0.91820204257965088 0.63297247886657715
0.70099896192550659 0.92015451192855835 0.63360309600830078
0.76904076337814331 0.92694520950317383 0.62669765949249268
0.85097014904022217 0.93920910358428955 0.62575048208236694
0.93627583980560303 0.95031934976577759 0.62142521142959595
0.10056698322296143 0.13573929667472839 0.18476048111915588
0.16688601672649384 0.13619786500930786 0.18544659018516541
0.31312105059623718 0.1307474821805954 0.18631982803344727
0.50944364070892334 0.12581664323806763 0.17995670437812805
0.68425846099853516 0.1603141725063324 0.18728587031364441
0.83698517084121704 0.20256447792053223 0.18840581178665161
0.97532302141189575 0.26644980907440186 0.18350066244602203
0.077327519655227661 0.21149709820747375 0.20777279138565063
0.16372168064117432 0.2183326780796051 0.20434905588626862
0.33698350191116333 0.22290980815887451 0.19756731390953064
0.53785723447799683 0.23733898997306824 0.19782304763793945
0.70335453748703003 0.24587161839008331 0.19521938264369965
0.84858018159866333 0.27589914202690125 0.1920335441827774
0.98161989450454712 0.32526767253875732 0.18989172577857971
0.056038547307252884 0.38154333829879761 0.24929878115653992
0.14412917196750641 0.37919628620147705 0.24265147745609283
0.35218051075935364 0.40594220161437988 0.22406382858753204
0.58557754755020142 0.40896320343017578 0.21285182237625122
0.73990607261657715 0.39222908020019531 0.208695188164711
0.87168037891387939 0.40053510665893555 0.20899055898189545
0.98486030101776123 0.43288019299507141 0.21432554721832275
0.059083390980958939 0.54772168397903442 0.30607706308364868
0.1703362762928009 0.54359954595565796 0.30628335475921631
0.33198508620262146 0.54669475555419922 0.29334792494773865
0.55259013175964355 0.57749909162521362 0.26674643158912659
0.76863032579421997 0.59370177984237671 0.24615401029586792
0.89800375699996948 0.56444531679153442 0.25233367085456848
0.99305480718612671 0.56588935852050781 0.26412683725357056
0.23910543322563171 0.68751698732376099 0.38953256607055664
0.28371772170066833 0.68103611469268799 0.38814371824264526
0.37962871789932251 0.67148470878601074 0.38019567728042603
0.53252971172332764 0.69183170795440674 0.3695642352104187
0.72500407695770264 0.7212788462638855 0.34796601533889771
0.90253728628158569 0.75338935852050781 0.33721756935119629
0.99247640371322632 0.73248672485351562 0.3490149974822998
0.42832118272781372 0.81424617767333984 0.50479114055633545
0.45055028796195984 0.81065970659255981 0.50183480978012085
0.49627754092216492 0.80356961488723755 0.49382159113883972
0.59193313121795654 0.80943351984024048 0.49399319291114807
0.71261239051818848 0.8276057243347168 0.48851540684700012
0.85042154788970947 0.84908109903335571 0.47196763753890991
0.97881478071212769 0.87747746706008911 0.4712577760219574
0.63595521450042725 0.92248719930648804 0.65513622760772705
0.64696943759918213 0.92186808586120605 0.65445601940155029
0.66887480020523071 0.91749227046966553 0.65198904275894165
0.71034407615661621 0.92032712697982788 0.65038871765136719
0.77294313907623291 0.92833149433135986 0.64954018592834473
0.84874188899993896 0.93761521577835083 0.64624851942062378
0.93524706363677979 0.94966417551040649 0.64388656616210938
0.082490779459476471 0.14574010670185089 0.32714667916297913
0.18177676200866699 0.14000661671161652 0.33077892661094666
0.3260502815246582 0.15277485549449921 0.32905632257461548
0.53912138938903809 0.16431307792663574 0.34230965375900269
0.71845585107803345 0.14333656430244446 0.32653376460075378
0.85555177927017212 0.14410832524299622 0.29848751425743103
0.9737013578414917 0.25241908431053162 0.3104299008846283
0.025272848084568977 0.20442821085453033 0.33741870522499084
0.1698935329914093 0.2202412486076355 0.3427375853061676
0.34863904118537903 0.24306412041187286 0.35224747657775879
0.55816096067428589 0.25810039043426514 0.35782667994499207
0.71586740016937256 0.24241490662097931 0.33076387643814087
0.85006457567214966 0.26651710271835327 0.32057717442512512
0.97307705879211426 0.3195803165435791 0.32415682077407837
0.036839205771684647 0.39438614249229431 0.38226670026779175
0.20318342745304108 0.39539229869842529 0.3870023787021637
0.37997317314147949 0.39969292283058167 0.38293758034706116
0.56902623176574707 0.40035924315452576 0.37078279256820679
0.717113196849823 0.39870598912239075 0.35873743891716003
0.85827189683914185 0.40806785225868225 0.35084891319274902
0.98136478662490845 0.43399766087532043 0.34462079405784607
0.29633837938308716 0.56955450773239136 0.45419111847877502
0.3552524745464325 0.56579458713531494 0.44981798529624939
0.418535977602005 0.55187094211578369 0.432005375623703
0.57958269119262695 0.56955301761627197 0.41440239548683167
0.75392246246337891 0.5738837718963623 0.40168547630310059
0.88345009088516235 0.55927938222885132 0.3949190080165863
0.98664981126785278 0.56493061780929565 0.39159557223320007
0.41394719481468201 0.69784748554229736 0.51007044315338135
0.42279961705207825 0.69546818733215332 0.49896642565727234
0.47134155035018921 0.68536204099655151 0.48713597655296326
0.56777137517929077 0.68583852052688599 0.47465837001800537
0.73492556810379028 0.71785885095596313 0.4674011766910553
0.89452457427978516 0.73829764127731323 0.46379613876342773
0.98910361528396606 0.72229820489883423 0.46185991168022156
0.51321041584014893 0.81832617521286011 0.58018755912780762
0.5273740291595459 0.81580168008804321 0.57791823148727417
0.56434684991836548 0.81116914749145508 0.57082325220108032
0.61874186992645264 0.80680221319198608 0.56054431200027466
0.73030716180801392 0.8242916464805603 0.55881154537200928
0.86015850305557251 0.84824830293655396 0.55629795789718628
0.97929519414901733 0.87355637550354004 0.55879813432693481
0.67377358675003052 0.92365950345993042 0.69757872819900513
0.6798587441444397 0.92255687713623047 0.69605028629302979
0.70127993822097778 0.92062830924987793 0.69379866123199463
0.73099422454833984 0.91991686820983887 0.69027233123779297
0.78530246019363403 0.92515116930007935 0.68738168478012085
0.85736262798309326 0.93551743030548096 0.68601709604263306
0.93749094009399414 0.94841957092285156 0.68458020687103271
0.063986711204051971 0.14269204437732697 0.4900241494178772
0.19491378962993622 0.14654485881328583 0.49089917540550232
0.3682582676410675 0.16390268504619598 0.50005793571472168
0.55192035436630249 0.18577320873737335 0.5115283727645874
0.72585028409957886 0.23143291473388672 0.51655524969100952
0.87988781929016113 0.28575435280799866 0.51438635587692261
0.99271255731582642 0.28231713175773621 0.49012225866317749
0.040613465011119843 0.21899019181728363 0.50082242488861084
0.19659537076950073 0.23397479951381683 0.50405526161193848
0.3832726776599884 0.25583153963088989 0.51365077495574951
0.5676581859588623 0.27948400378227234 0.52410459518432617
0.72659057378768921 0.31883314251899719 0.52540105581283569
0.87751215696334839 0.34496879577636719 0.51949292421340942
0.9893258810043335 0.33321037888526917 0.48494625091552734
0.001918852562084794 0.35700133442878723 0.51719790697097778
0.15147902071475983 0.36514139175415039 0.52093440294265747
0.39591324329376221 0.39148285984992981 0.52648156881332397
0.57485556602478027 0.41899684071540833 0.53226196765899658
0.73534864187240601 0.44353610277175903 0.53902238607406616
0.86679941415786743 0.43062868714332581 0.51240015029907227
0.9844697117805481 0.42147189378738403 0.48492431640625
0.25202324986457825 0.56254631280899048 0.56424933671951294
0.34044435620307922 0.55860298871994019 0.56803596019744873
0.46750926971435547 0.55927282571792603 0.5606808066368103
0.58987128734588623 0.55645668506622314 0.55006188154220581
0.73271733522415161 0.55639028549194336 0.53869432210922241
0.86213725805282593 0.54936003684997559 0.52068889141082764
0.97956830263137817 0.55812245607376099 0.51346027851104736
0.49955266714096069 0.71982806921005249 0.62943077087402344
0.53246480226516724 0.71686094999313354 0.62602806091308594
0.58197897672653198 0.70629656314849854 0.61598533391952515
0.62572610378265381 0.69278585910797119 0.59510844945907593
0.7478751540184021 0.71114391088485718 0.58798152208328247
0.88588005304336548 0.72055363655090332 0.58124089241027832
0.98521536588668823 0.70952433347702026 0.57177817821502686
0.63596433401107788 0.83107239007949829 0.69196599721908569
0.64552932977676392 0.82930213212966919 0.6854783296585083
0.65466701984405518 0.82278025150299072 0.67103558778762817
0.67923742532730103 0.81422394514083862 0.65211623907089233
0.75120234489440918 0.81789898872375488 0.64457505941390991
0.87341153621673584 0.85006129741668701 0.65114289522171021
0.97679764032363892 0.86614346504211426 0.65309441089630127
0.73404061794281006 0.92571145296096802 0.7606472373008728
0.73309206962585449 0.92636901140213013 0.75584787130355835
0.74221831560134888 0.92635846138000488 0.74788516759872437
0.76428747177124023 0.92289900779724121 0.74263948202133179
0.80839866399765015 0.92607718706130981 0.74111390113830566
0.87116926908493042 0.93572551012039185 0.74208170175552368
0.94494396448135376 0.95032185316085815 0.74252849817276001
0.14735905826091766 0.15521563589572906 0.63952481746673584
0.25675329566001892 0.16199721395969391 0.64476609230041504
0.41811737418174744 0.18219773471355438 0.64922130107879639
0.58852672576904297 0.21828171610832214 0.65635126829147339
0.74432528018951416 0.26889869570732117 0.6636582612991333
0.87127876281738281 0.32803112268447876 0.66546022891998291
0.98808395862579346 0.43512123823165894 0.68587565422058105
0.15994894504547119 0.23954512178897858 0.64671015739440918
0.26889607310295105 0.248199462890625 0.65057212114334106
0.42983105778694153 0.26585575938224792 0.65511035919189453
0.60180455446243286 0.30015546083450317 0.66087198257446289
0.74355775117874146 0.34166565537452698 0.6640440821647644
0.87375271320343018 0.39123436808586121 0.66769415140151978
0.98307502269744873 0.47936186194419861 0.68970662355422974
0.073271535336971283 0.34864473342895508 0.65138447284698486
0.25094151496887207 0.36755251884460449 0.65407323837280273
0.42823624610900879 0.3902248740196228 0.65748929977416992
0.59832727909088135 0.42327845096588135 0.66746419668197632
0.74302941560745239 0.45996826887130737 0.67070025205612183
0.87175869941711426 0.49510791897773743 0.67688822746276855
0.98627001047134399 0.54564929008483887 0.69146496057510376
0.11901246756315231 0.51124113798141479 0.65782618522644043
0.23962466418743134 0.50964373350143433 0.65844953060150146
0.40108188986778259 0.51317667961120605 0.65670382976531982
0.58694964647293091 0.53727257251739502 0.66668808460235596
0.74547719955444336 0.57633787393569946 0.68024337291717529
0.87887811660766602 0.6069495677947998 0.68990135192871094
0.98246049880981445 0.59859728813171387 0.6704975962638855
0.43901270627975464 0.70299577713012695 0.70648515224456787
0.4865439236164093 0.70256626605987549 0.70785921812057495
0.56322753429412842 0.70011073350906372 0.70680004358291626
0.65702950954437256 0.69712948799133301 0.70707058906555176
0.76404827833175659 0.70196741819381714 0.69894999265670776
0.87286442518234253 0.7002606987953186 0.68513351678848267
0.97729790210723877 0.69345027208328247 0.67069369554519653
0.68879729509353638 0.85299158096313477 0.77751374244689941
0.70088022947311401 0.85077017545700073 0.777843177318573
0.72656548023223877 0.84475654363632202 0.773212730884552
0.75887304544448853 0.83857607841491699 0.76435405015945435
0.7954566478729248 0.8222883939743042 0.74603259563446045
0.88448524475097656 0.8439476490020752 0.74177408218383789
0.97506004571914673 0.85159897804260254 0.74223029613494873
0.78504586219787598 0.93356388807296753 0.83096915483474731
0.79246872663497925 0.93379223346710205 0.83136475086212158
0.80597496032714844 0.93153053522109985 0.82708466053009033
0.82027590274810791 0.92975354194641113 0.81790757179260254
0.84316897392272949 0.92539602518081665 0.80785161256790161
0.884102463722229 0.93444603681564331 0.80415397882461548
0.95202475786209106 0.94950151443481445 0.80809026956558228
0.31381383538246155 0.1948464959859848 0.78263258934020996
0.37903672456741333 0.19626347720623016 0.78624624013900757
0.49948042631149292 0.21499364078044891 0.78516334295272827
0.64458507299423218 0.26410439610481262 0.78497225046157837
0.78218615055084229 0.33195722103118896 0.78969621658325195
0.9014514684677124 0.38405913114547729 0.79606223106384277
0.98590004444122314 0.45334851741790771 0.7969977855682373
0.31512013077735901 0.26046127080917358 0.78419387340545654
0.38647007942199707 0.27204570174217224 0.78741550445556641
0.50759875774383545 0.29222455620765686 0.78798788785934448
0.65008246898651123 0.33016180992126465 0.78984314203262329
0.78681319952011108 0.38819193840026855 0.79247647523880005
0.89914429187774658 0.43691805005073547 0.79847258329391479
0.98186671733856201 0.49516388773918152 0.79827892780303955
0.28737270832061768 0.37240853905677795 0.78273230791091919
0.36344876885414124 0.38313353061676025 0.78329825401306152
0.49759769439697266 0.40577602386474609 0.78457796573638916
0.64569211006164551 0.43589892983436584 0.79123079776763916
0.78173238039016724 0.48412969708442688 0.79671180248260498
0.89101612567901611 0.52251940965652466 0.80097031593322754
0.98121160268783569 0.57194989919662476 0.80894792079925537
0.084414087235927582 0.47627952694892883 0.77332836389541626
0.24280247092247009 0.48156651854515076 0.77642881870269775
0.43327257037162781 0.50073468685150146 0.78027570247650146
0.61531120538711548 0.5342591404914856 0.78818851709365845
0.76851755380630493 0.5786585807800293 0.79617416858673096
0.87943136692047119 0.62378406524658203 0.80302375555038452
0.97526770830154419 0.66749268770217896 0.812641441822052
0.3011913001537323 0.66070830821990967 0.79464006423950195
0.35552924871444702 0.65416812896728516 0.79622644186019897
0.44377860426902771 0.6443294882774353 0.79201120138168335
0.56617683172225952 0.64092129468917847 0.78835856914520264
0.74466127157211304 0.67683613300323486 0.79531610012054443
0.88418734073638916 0.72859030961990356 0.81458711624145508
0.97312825918197632 0.76362460851669312 0.82339274883270264
0.61123555898666382 0.83173227310180664 0.84200781583786011
0.63128179311752319 0.83044928312301636 0.84086781740188599
0.68081843852996826 0.83172875642776489 0.8442491888999939
0.7445749044418335 0.83318662643432617 0.84094512462615967
0.80984687805175781 0.82783949375152588 0.83807468414306641
0.8827214241027832 0.83040833473205566 0.82736408710479736
0.96854376792907715 0.83407938480377197 0.81920772790908813
0.81700021028518677 0.94278788566589355 0.88883364200592041
0.82314932346343994 0.94292038679122925 0.89042145013809204
0.83737105131149292 0.94073212146759033 0.88966232538223267
0.86040264368057251 0.94086438417434692 0.89055037498474121
0.88535082340240479 0.93892520666122437 0.88739097118377686
0.9057079553604126 0.93672102689743042 0.87299156188964844
0.96154773235321045 0.94790929555892944 0.87595164775848389
0.50391501188278198 0.29443180561065674 0.91773974895477295
0.54457700252532959 0.29900023341178894 0.91567695140838623
0.62336444854736328 0.32321867346763611 0.91673874855041504
0.72704929113388062 0.36553284525871277 0.91502964496612549
0.83194327354431152 0.43186888098716736 0.91111797094345093
0.9270014762878418 0.50891542434692383 0.91095525026321411
0.99164968729019165 0.56283771991729736 0.91080158948898315
0.50564289093017578 0.3485124409198761 0.91912537813186646
0.54346179962158203 0.35381013154983521 0.91816425323486328
0.62472772598266602 0.37621393799781799 0.91607105731964111
0.72605609893798828 0.40866422653198242 0.91361862421035767
0.83271330595016479 0.46773901581764221 0.91319328546524048
0.92355674505233765 0.53765571117401123 0.91134333610534668
0.98968374729156494 0.58980423212051392 0.91217720508575439
0.48455685377120972 0.43597987294197083 0.91799074411392212
0.5256391167640686 0.44283992052078247 0.91607433557510376
0.60888570547103882 0.45728880167007446 0.91406464576721191
0.72053462266921997 0.48774287104606628 0.91485393047332764
0.82634240388870239 0.5321725606918335 0.91312837600708008
0.92049449682235718 0.59599107503890991 0.91241985559463501
0.98884236812591553 0.64144015312194824 0.91397428512573242
0.37622693181037903 0.51370936632156372 0.91713690757751465
0.44416916370391846 0.52442085742950439 0.91677761077880859
0.55989038944244385 0.54387062788009644 0.91492891311645508
0.69670522212982178 0.57232928276062012 0.91428840160369873
0.8149605393409729 0.61236721277236938 0.91396886110305786
0.90823352336883545 0.66551822423934937 0.91362088918685913
0.98539572954177856 0.70687788724899292 0.91673439741134644
0.21222484111785889 0.63117891550064087 0.91658914089202881
0.28702661395072937 0.62822675704956055 0.91578370332717896
0.42617577314376831 0.62770617008209229 0.91544491052627563
0.61041176319122314 0.64724093675613403 0.91595232486724854
0.77926325798034668 0.69108611345291138 0.91405254602432251
0.90035331249237061 0.74272102117538452 0.91865402460098267
0.97620058059692383 0.7896726131439209 0.922931969165802
0.53246587514877319 0.8135610818862915 0.92568510770797729
0.55312716960906982 0.80979734659194946 0.92646187543869019
0.59203934669494629 0.80267643928527832 0.92338597774505615
0.6511613130569458 0.79219973087310791 0.92766839265823364
0.73636776208877563 0.78632068634033203 0.92259114980697632
0.87582284212112427 0.82047861814498901 0.92637461423873901
0.96880590915679932 0.86710971593856812 0.93178248405456543
0.75356495380401611 0.93544501066207886 0.94219005107879639
0.76766961812973022 0.93622738122940063 0.94269728660583496
0.79013288021087646 0.93534880876541138 0.94467073678970337
0.82359600067138672 0.9369814395904541 0.94854170083999634
0.86456447839736938 0.9394453763961792 0.94483482837677002
0.91454833745956421 0.93800032138824463 0.94877421855926514
0.96679419279098511 0.94898813962936401 0.94802594184875488
