luts/negative_old/fuji_neopan_1600_++.cube
# Created by: G'MIC (https://gmic.eu)
TITLE "fuji_neopan_1600_++"
# LUT size
LUT_3D_SIZE 7
# Data domain
DOMAIN_MIN 0.0 0.0 0.0
DOMAIN_MAX 1.0 1.0 1.0
# LUT data points
0.14551128447055817 0.14551128447055817 0.14551128447055817
0.14760708808898926 0.14760708808898926 0.14760708808898926
0.16100910305976868 0.16100910305976868 0.16100910305976868
0.1867794394493103 0.1867794394493103 0.1867794394493103
0.23001225292682648 0.23001225292682648 0.23001225292682648
0.3087233304977417 0.3087233304977417 0.3087233304977417
0.44408252835273743 0.44408252835273743 0.44408252835273743
0.15974314510822296 0.15974314510822296 0.15974314510822296
0.16769997775554657 0.16769997775554657 0.16769997775554657
0.19232985377311707 0.19232985377311707 0.19232985377311707
0.23560795187950134 0.23560795187950134 0.23560795187950134
0.28734555840492249 0.28734555840492249 0.28734555840492249
0.35550549626350403 0.35550549626350403 0.35550549626350403
0.49561777710914612 0.49561777710914612 0.49561777710914612
0.19918206334114075 0.19918206334114075 0.19918206334114075
0.21059350669384003 0.21059350669384003 0.21059350669384003
0.24468392133712769 0.24468392133712769 0.24468392133712769
0.30937135219573975 0.30937135219573975 0.30937135219573975
0.39099317789077759 0.39099317789077759 0.39099317789077759
0.48037678003311157 0.48037678003311157 0.48037678003311157
0.61408644914627075 0.61408644914627075 0.61408644914627075
0.27979478240013123 0.27979478240013123 0.27979478240013123
0.29036518931388855 0.29036518931388855 0.29036518931388855
0.31989458203315735 0.31989458203315735 0.31989458203315735
0.38343626260757446 0.38343626260757446 0.38343626260757446
0.49234318733215332 0.49234318733215332 0.49234318733215332
0.62658596038818359 0.62658596038818359 0.62658596038818359
0.75285965204238892 0.75285965204238892 0.75285965204238892
0.43754750490188599 0.43754750490188599 0.43754750490188599
0.44580677151679993 0.44580677151679993 0.44580677151679993
0.46327963471412659 0.46327963471412659 0.46327963471412659
0.51090449094772339 0.51090449094772339 0.51090449094772339
0.60624188184738159 0.60624188184738159 0.60624188184738159
0.7200501561164856 0.7200501561164856 0.7200501561164856
0.82869267463684082 0.82869267463684082 0.82869267463684082
0.68042004108428955 0.68042004108428955 0.68042004108428955
0.67679828405380249 0.67679828405380249 0.67679828405380249
0.68256771564483643 0.68256771564483643 0.68256771564483643
0.7049674391746521 0.7049674391746521 0.7049674391746521
0.75028520822525024 0.75028520822525024 0.75028520822525024
0.80684560537338257 0.80684560537338257 0.80684560537338257
0.88431441783905029 0.88431441783905029 0.88431441783905029
0.89281117916107178 0.89281117916107178 0.89281117916107178
0.89473038911819458 0.89473038911819458 0.89473038911819458
0.89933973550796509 0.89933973550796509 0.89933973550796509
0.90321272611618042 0.90321272611618042 0.90321272611618042
0.91721248626708984 0.91721248626708984 0.91721248626708984
0.93792253732681274 0.93792253732681274 0.93792253732681274
0.96662622690200806 0.96662622690200806 0.96662622690200806
0.14850415289402008 0.14850415289402008 0.14850415289402008
0.15796087682247162 0.15796087682247162 0.15796087682247162
0.17256622016429901 0.17256622016429901 0.17256622016429901
0.19136565923690796 0.19136565923690796 0.19136565923690796
0.22904683649539948 0.22904683649539948 0.22904683649539948
0.30678534507751465 0.30678534507751465 0.30678534507751465
0.44394403696060181 0.44394403696060181 0.44394403696060181
0.17041575908660889 0.17041575908660889 0.17041575908660889
0.18208363652229309 0.18208363652229309 0.18208363652229309
0.20410498976707458 0.20410498976707458 0.20410498976707458
0.24145248532295227 0.24145248532295227 0.24145248532295227
0.29054823517799377 0.29054823517799377 0.29054823517799377
0.36947658658027649 0.36947658658027649 0.36947658658027649
0.51707947254180908 0.51707947254180908 0.51707947254180908
0.22440841794013977 0.22440841794013977 0.22440841794013977
0.24075017869472504 0.24075017869472504 0.24075017869472504
0.27062135934829712 0.27062135934829712 0.27062135934829712
0.33529508113861084 0.33529508113861084 0.33529508113861084
0.4068179726600647 0.4068179726600647 0.4068179726600647
0.50153082609176636 0.50153082609176636 0.50153082609176636
0.63782119750976562 0.63782119750976562 0.63782119750976562
0.32274916768074036 0.32274916768074036 0.32274916768074036
0.34231263399124146 0.34231263399124146 0.34231263399124146
0.35836043953895569 0.35836043953895569 0.35836043953895569
0.41759482026100159 0.41759482026100159 0.41759482026100159
0.51994985342025757 0.51994985342025757 0.51994985342025757
0.64348572492599487 0.64348572492599487 0.64348572492599487
0.76593989133834839 0.76593989133834839 0.76593989133834839
0.47334030270576477 0.47334030270576477 0.47334030270576477
0.4936622679233551 0.4936622679233551 0.4936622679233551
0.50081551074981689 0.50081551074981689 0.50081551074981689
0.53846341371536255 0.53846341371536255 0.53846341371536255
0.62449353933334351 0.62449353933334351 0.62449353933334351
0.73130518198013306 0.73130518198013306 0.73130518198013306
0.84089165925979614 0.84089165925979614 0.84089165925979614
0.69002866744995117 0.69002866744995117 0.69002866744995117
0.69934362173080444 0.69934362173080444 0.69934362173080444
0.7018013596534729 0.7018013596534729 0.7018013596534729
0.71933275461196899 0.71933275461196899 0.71933275461196899
0.76630097627639771 0.76630097627639771 0.76630097627639771
0.82532984018325806 0.82532984018325806 0.82532984018325806
0.89718210697174072 0.89718210697174072 0.89718210697174072
0.89168703556060791 0.89168703556060791 0.89168703556060791
0.89612293243408203 0.89612293243408203 0.89612293243408203
0.89925116300582886 0.89925116300582886 0.89925116300582886
0.90782701969146729 0.90782701969146729 0.90782701969146729
0.93058496713638306 0.93058496713638306 0.93058496713638306
0.95547288656234741 0.95547288656234741 0.95547288656234741
0.97693783044815063 0.97693783044815063 0.97693783044815063
0.1662837415933609 0.1662837415933609 0.1662837415933609
0.18298099935054779 0.18298099935054779 0.18298099935054779
0.20719577372074127 0.20719577372074127 0.20719577372074127
0.22271119058132172 0.22271119058132172 0.22271119058132172
0.25447040796279907 0.25447040796279907 0.25447040796279907
0.33247944712638855 0.33247944712638855 0.33247944712638855
0.45701193809509277 0.45701193809509277 0.45701193809509277
0.19521191716194153 0.19521191716194153 0.19521191716194153
0.20925967395305634 0.20925967395305634 0.20925967395305634
0.23305903375148773 0.23305903375148773 0.23305903375148773
0.25938969850540161 0.25938969850540161 0.25938969850540161
0.30749726295471191 0.30749726295471191 0.30749726295471191
0.38853830099105835 0.38853830099105835 0.38853830099105835
0.51460355520248413 0.51460355520248413 0.51460355520248413
0.2518007755279541 0.2518007755279541 0.2518007755279541
0.27264854311943054 0.27264854311943054 0.27264854311943054
0.30887290835380554 0.30887290835380554 0.30887290835380554
0.3619951605796814 0.3619951605796814 0.3619951605796814
0.42819896340370178 0.42819896340370178 0.42819896340370178
0.52109807729721069 0.52109807729721069 0.52109807729721069
0.64521938562393188 0.64521938562393188 0.64521938562393188
0.36957845091819763 0.36957845091819763 0.36957845091819763
0.39842382073402405 0.39842382073402405 0.39842382073402405
0.41546103358268738 0.41546103358268738 0.41546103358268738
0.4742177426815033 0.4742177426815033 0.4742177426815033
0.56965124607086182 0.56965124607086182 0.56965124607086182
0.67245298624038696 0.67245298624038696 0.67245298624038696
0.76893538236618042 0.76893538236618042 0.76893538236618042
0.53830510377883911 0.53830510377883911 0.53830510377883911
0.56708359718322754 0.56708359718322754 0.56708359718322754
0.57615143060684204 0.57615143060684204 0.57615143060684204
0.60143524408340454 0.60143524408340454 0.60143524408340454
0.67011165618896484 0.67011165618896484 0.67011165618896484
0.75388699769973755 0.75388699769973755 0.75388699769973755
0.85086488723754883 0.85086488723754883 0.85086488723754883
0.73469239473342896 0.73469239473342896 0.73469239473342896
0.75096172094345093 0.75096172094345093 0.75096172094345093
0.7543681263923645 0.7543681263923645 0.7543681263923645
0.75877499580383301 0.75877499580383301 0.75877499580383301
0.78885161876678467 0.78885161876678467 0.78885161876678467
0.83563637733459473 0.83563637733459473 0.83563637733459473
0.90569508075714111 0.90569508075714111 0.90569508075714111
0.90560019016265869 0.90560019016265869 0.90560019016265869
0.90748816728591919 0.90748816728591919 0.90748816728591919
0.91390544176101685 0.91390544176101685 0.91390544176101685
0.92011022567749023 0.92011022567749023 0.92011022567749023
0.93287014961242676 0.93287014961242676 0.93287014961242676
0.95041394233703613 0.95041394233703613 0.95041394233703613
0.9768139123916626 0.9768139123916626 0.9768139123916626
0.20533525943756104 0.20533525943756104 0.20533525943756104
0.22385929524898529 0.22385929524898529 0.22385929524898529
0.26182869076728821 0.26182869076728821 0.26182869076728821
0.31167015433311462 0.31167015433311462 0.31167015433311462
0.3243834376335144 0.3243834376335144 0.3243834376335144
0.41226372122764587 0.41226372122764587 0.41226372122764587
0.53811067342758179 0.53811067342758179 0.53811067342758179
0.25073248147964478 0.25073248147964478 0.25073248147964478
0.26460683345794678 0.26460683345794678 0.26460683345794678
0.31240332126617432 0.31240332126617432 0.31240332126617432
0.35266780853271484 0.35266780853271484 0.35266780853271484
0.36908793449401855 0.36908793449401855 0.36908793449401855
0.46075356006622314 0.46075356006622314 0.46075356006622314
0.58121097087860107 0.58121097087860107 0.58121097087860107
0.28208529949188232 0.28208529949188232 0.28208529949188232
0.31007292866706848 0.31007292866706848 0.31007292866706848
0.38490918278694153 0.38490918278694153 0.38490918278694153
0.43948769569396973 0.43948769569396973 0.43948769569396973
0.46489855647087097 0.46489855647087097 0.46489855647087097
0.56355518102645874 0.56355518102645874 0.56355518102645874
0.65250605344772339 0.65250605344772339 0.65250605344772339
0.38067626953125 0.38067626953125 0.38067626953125
0.41302883625030518 0.41302883625030518 0.41302883625030518
0.46440750360488892 0.46440750360488892 0.46440750360488892
0.54681134223937988 0.54681134223937988 0.54681134223937988
0.61051595211029053 0.61051595211029053 0.61051595211029053
0.68237137794494629 0.68237137794494629 0.68237137794494629
0.75019532442092896 0.75019532442092896 0.75019532442092896
0.5793796181678772 0.5793796181678772 0.5793796181678772
0.60541665554046631 0.60541665554046631 0.60541665554046631
0.63768726587295532 0.63768726587295532 0.63768726587295532
0.66486436128616333 0.66486436128616333 0.66486436128616333
0.71607714891433716 0.71607714891433716 0.71607714891433716
0.7784959077835083 0.7784959077835083 0.7784959077835083
0.85029596090316772 0.85029596090316772 0.85029596090316772
0.77705520391464233 0.77705520391464233 0.77705520391464233
0.79296302795410156 0.79296302795410156 0.79296302795410156
0.80322128534317017 0.80322128534317017 0.80322128534317017
0.80621689558029175 0.80621689558029175 0.80621689558029175
0.82511341571807861 0.82511341571807861 0.82511341571807861
0.86532926559448242 0.86532926559448242 0.86532926559448242
0.9209398627281189 0.9209398627281189 0.9209398627281189
0.93068945407867432 0.93068945407867432 0.93068945407867432
0.93271857500076294 0.93271857500076294 0.93271857500076294
0.93728595972061157 0.93728595972061157 0.93728595972061157
0.94264382123947144 0.94264382123947144 0.94264382123947144
0.94634890556335449 0.94634890556335449 0.94634890556335449
0.95682358741760254 0.95682358741760254 0.95682358741760254
0.97996944189071655 0.97996944189071655 0.97996944189071655
0.28193461894989014 0.28193461894989014 0.28193461894989014
0.31191158294677734 0.31191158294677734 0.31191158294677734
0.36244213581085205 0.36244213581085205 0.36244213581085205
0.46217513084411621 0.46217513084411621 0.46217513084411621
0.49030396342277527 0.49030396342277527 0.49030396342277527
0.49359077215194702 0.49359077215194702 0.49359077215194702
0.63209021091461182 0.63209021091461182 0.63209021091461182
0.33668184280395508 0.33668184280395508 0.33668184280395508
0.36797535419464111 0.36797535419464111 0.36797535419464111
0.41787457466125488 0.41787457466125488 0.41787457466125488
0.49023169279098511 0.49023169279098511 0.49023169279098511
0.53292983770370483 0.53292983770370483 0.53292983770370483
0.54351812601089478 0.54351812601089478 0.54351812601089478
0.67232620716094971 0.67232620716094971 0.67232620716094971
0.3765164315700531 0.3765164315700531 0.3765164315700531
0.42760908603668213 0.42760908603668213 0.42760908603668213
0.50230962038040161 0.50230962038040161 0.50230962038040161
0.56164216995239258 0.56164216995239258 0.56164216995239258
0.60678237676620483 0.60678237676620483 0.60678237676620483
0.63305884599685669 0.63305884599685669 0.63305884599685669
0.72378033399581909 0.72378033399581909 0.72378033399581909
0.42237326502799988 0.42237326502799988 0.42237326502799988
0.45656666159629822 0.45656666159629822 0.45656666159629822
0.53289937973022461 0.53289937973022461 0.53289937973022461
0.63503116369247437 0.63503116369247437 0.63503116369247437
0.69328922033309937 0.69328922033309937 0.69328922033309937
0.72258740663528442 0.72258740663528442 0.72258740663528442
0.77835649251937866 0.77835649251937866 0.77835649251937866
0.5838083028793335 0.5838083028793335 0.5838083028793335
0.60421204566955566 0.60421204566955566 0.60421204566955566
0.64357274770736694 0.64357274770736694 0.64357274770736694
0.71210378408432007 0.71210378408432007 0.71210378408432007
0.76686549186706543 0.76686549186706543 0.76686549186706543
0.80801504850387573 0.80801504850387573 0.80801504850387573
0.86575531959533691 0.86575531959533691 0.86575531959533691
0.76509344577789307 0.76509344577789307 0.76509344577789307
0.7875400185585022 0.7875400185585022 0.7875400185585022
0.8049771785736084 0.8049771785736084 0.8049771785736084
0.83896100521087646 0.83896100521087646 0.83896100521087646
0.86464560031890869 0.86464560031890869 0.86464560031890869
0.89840596914291382 0.89840596914291382 0.89840596914291382
0.94768065214157104 0.94768065214157104 0.94768065214157104
0.93847489356994629 0.93847489356994629 0.93847489356994629
0.94028627872467041 0.94028627872467041 0.94028627872467041
0.94282346963882446 0.94282346963882446 0.94282346963882446
0.95538556575775146 0.95538556575775146 0.95538556575775146
0.9618680477142334 0.9618680477142334 0.9618680477142334
0.97253221273422241 0.97253221273422241 0.97253221273422241
0.99402189254760742 0.99402189254760742 0.99402189254760742
0.46068316698074341 0.46068316698074341 0.46068316698074341
0.48965656757354736 0.48965656757354736 0.48965656757354736
0.52916651964187622 0.52916651964187622 0.52916651964187622
0.61203324794769287 0.61203324794769287 0.61203324794769287
0.69585037231445312 0.69585037231445312 0.69585037231445312
0.70646244287490845 0.70646244287490845 0.70646244287490845
0.72066223621368408 0.72066223621368408 0.72066223621368408
0.49608314037322998 0.49608314037322998 0.49608314037322998
0.53530091047286987 0.53530091047286987 0.53530091047286987
0.56996333599090576 0.56996333599090576 0.56996333599090576
0.6414756178855896 0.6414756178855896 0.6414756178855896
0.73657703399658203 0.73657703399658203 0.73657703399658203
0.7367367148399353 0.7367367148399353 0.7367367148399353
0.75286018848419189 0.75286018848419189 0.75286018848419189
0.57191228866577148 0.57191228866577148 0.57191228866577148
0.60769665241241455 0.60769665241241455 0.60769665241241455
0.64616745710372925 0.64616745710372925 0.64616745710372925
0.69829750061035156 0.69829750061035156 0.69829750061035156
0.77883058786392212 0.77883058786392212 0.77883058786392212
0.77874624729156494 0.77874624729156494 0.77874624729156494
0.78466761112213135 0.78466761112213135 0.78466761112213135
0.56426286697387695 0.56426286697387695 0.56426286697387695
0.61637210845947266 0.61637210845947266 0.61637210845947266
0.67406988143920898 0.67406988143920898 0.67406988143920898
0.73964500427246094 0.73964500427246094 0.73964500427246094
0.79708802700042725 0.79708802700042725 0.79708802700042725
0.81416946649551392 0.81416946649551392 0.81416946649551392
0.8419262170791626 0.8419262170791626 0.8419262170791626
0.65278202295303345 0.65278202295303345 0.65278202295303345
0.66082477569580078 0.66082477569580078 0.66082477569580078
0.69335871934890747 0.69335871934890747 0.69335871934890747
0.76129019260406494 0.76129019260406494 0.76129019260406494
0.82149308919906616 0.82149308919906616 0.82149308919906616
0.86082231998443604 0.86082231998443604 0.86082231998443604
0.90510356426239014 0.90510356426239014 0.90510356426239014
0.78122776746749878 0.78122776746749878 0.78122776746749878
0.79387283325195312 0.79387283325195312 0.79387283325195312
0.80390048027038574 0.80390048027038574 0.80390048027038574
0.83933162689208984 0.83933162689208984 0.83933162689208984
0.88431954383850098 0.88431954383850098 0.88431954383850098
0.92906194925308228 0.92906194925308228 0.92906194925308228
0.96697437763214111 0.96697437763214111 0.96697437763214111
0.93093699216842651 0.93093699216842651 0.93093699216842651
0.93630111217498779 0.93630111217498779 0.93630111217498779
0.93476587533950806 0.93476587533950806 0.93476587533950806
0.94522863626480103 0.94522863626480103 0.94522863626480103
0.96222364902496338 0.96222364902496338 0.96222364902496338
0.98146891593933105 0.98146891593933105 0.98146891593933105
0.99725353717803955 0.99725353717803955 0.99725353717803955
0.7247580885887146 0.7247580885887146 0.7247580885887146
0.73546308279037476 0.73546308279037476 0.73546308279037476
0.76139241456985474 0.76139241456985474 0.76139241456985474
0.79552656412124634 0.79552656412124634 0.79552656412124634
0.84635335206985474 0.84635335206985474 0.84635335206985474
0.89939647912979126 0.89939647912979126 0.89939647912979126
0.8888663649559021 0.8888663649559021 0.8888663649559021
0.7344968318939209 0.7344968318939209 0.7344968318939209
0.75045549869537354 0.75045549869537354 0.75045549869537354
0.76787382364273071 0.76787382364273071 0.76787382364273071
0.80226784944534302 0.80226784944534302 0.80226784944534302
0.86235427856445312 0.86235427856445312 0.86235427856445312
0.90977472066879272 0.90977472066879272 0.90977472066879272
0.89899492263793945 0.89899492263793945 0.89899492263793945
0.77505940198898315 0.77505940198898315 0.77505940198898315
0.787708580493927 0.787708580493927 0.787708580493927
0.80615592002868652 0.80615592002868652 0.80615592002868652
0.84206557273864746 0.84206557273864746 0.84206557273864746
0.89604431390762329 0.89604431390762329 0.89604431390762329
0.9264451265335083 0.9264451265335083 0.9264451265335083
0.91438090801239014 0.91438090801239014 0.91438090801239014
0.78210508823394775 0.78210508823394775 0.78210508823394775
0.79362362623214722 0.79362362623214722 0.79362362623214722
0.8268694281578064 0.8268694281578064 0.8268694281578064
0.86893165111541748 0.86893165111541748 0.86893165111541748
0.90730339288711548 0.90730339288711548 0.90730339288711548
0.93638962507247925 0.93638962507247925 0.93638962507247925
0.94460779428482056 0.94460779428482056 0.94460779428482056
0.75692212581634521 0.75692212581634521 0.75692212581634521
0.77142524719238281 0.77142524719238281 0.77142524719238281
0.81007897853851318 0.81007897853851318 0.81007897853851318
0.85580623149871826 0.85580623149871826 0.85580623149871826
0.89970093965530396 0.89970093965530396 0.89970093965530396
0.94036561250686646 0.94036561250686646 0.94036561250686646
0.96778607368469238 0.96778607368469238 0.96778607368469238
0.8391261100769043 0.8391261100769043 0.8391261100769043
0.85541564226150513 0.85541564226150513 0.85541564226150513
0.85777729749679565 0.85777729749679565 0.85777729749679565
0.87747782468795776 0.87747782468795776 0.87747782468795776
0.920127272605896 0.920127272605896 0.920127272605896
0.96509808301925659 0.96509808301925659 0.96509808301925659
0.99007004499435425 0.99007004499435425 0.99007004499435425
0.9435388445854187 0.9435388445854187 0.9435388445854187
0.96037387847900391 0.96037387847900391 0.96037387847900391
0.95548278093338013 0.95548278093338013 0.95548278093338013
0.95816344022750854 0.95816344022750854 0.95816344022750854
0.9738280177116394 0.9738280177116394 0.9738280177116394
0.9909738302230835 0.9909738302230835 0.9909738302230835
0.99470561742782593 0.99470561742782593 0.99470561742782593
