luts/negative_old/fuji_superia_400_++.cube
# Created by: G'MIC (https://gmic.eu)
TITLE "fuji_superia_400_++"
# LUT size
LUT_3D_SIZE 5
# Data domain
DOMAIN_MIN 0.0 0.0 0.0
DOMAIN_MAX 1.0 1.0 1.0
# LUT data points
0.031224314123392105 0.088883116841316223 0.079508699476718903
0.2104719877243042 0.095609657466411591 0.076312586665153503
0.54366844892501831 0.044067233800888062 0.061739422380924225
0.8853873610496521 0.013853349722921848 0.014970697462558746
0.99905073642730713 0.19785831868648529 0.0024223627988249063
0.022797558456659317 0.22592860460281372 0.11788634955883026
0.21531233191490173 0.27399897575378418 0.077669940888881683
0.58891063928604126 0.28325393795967102 0.0068097133189439774
0.87376028299331665 0.28721779584884644 0.0089631024748086929
0.99720209836959839 0.35257437825202942 0.0048035117797553539
0.0037401237059384584 0.50350356101989746 0.20405036211013794
0.17134903371334076 0.52707540988922119 0.20003138482570648
0.57482266426086426 0.63687795400619507 0.04661623015999794
0.90032315254211426 0.6229436993598938 0.0021010006312280893
0.99998706579208374 0.57617092132568359 0.0019500881899148226
0.25167194008827209 0.75479346513748169 0.40579122304916382
0.35470569133758545 0.75209248065948486 0.40858170390129089
0.5515139102935791 0.79400640726089478 0.39849823713302612
0.8443414568901062 0.8595120906829834 0.33496645092964172
0.99930942058563232 0.87177306413650513 0.19596531987190247
0.71521908044815063 0.94088292121887207 0.73157739639282227
0.72741532325744629 0.933574378490448 0.72977966070175171
0.78013879060745239 0.93723601102828979 0.73894989490509033
0.86145085096359253 0.95535105466842651 0.72937721014022827
0.95761865377426147 0.96996134519577026 0.72193211317062378
0.030210651457309723 0.095934264361858368 0.22319024801254272
0.2116888016462326 0.11216994374990463 0.22506426274776459
0.54809904098510742 0.03565438836812973 0.23259986937046051
0.89197742938995361 0.029925312846899033 0.22973977029323578
1 0.25264030694961548 0.23617951571941376
0.026113666594028473 0.25341543555259705 0.2469991147518158
0.25099378824234009 0.28380179405212402 0.26963931322097778
0.60383671522140503 0.28916072845458984 0.25002074241638184
0.88903844356536865 0.30886971950531006 0.22890341281890869
1 0.38208296895027161 0.20917010307312012
0.16882435977458954 0.55421537160873413 0.36511901021003723
0.30728712677955627 0.55710071325302124 0.37146973609924316
0.5983462929725647 0.62966489791870117 0.32446199655532837
0.88785749673843384 0.59980219602584839 0.18686816096305847
0.99866199493408203 0.58095777034759521 0.11764511466026306
0.37580254673957825 0.77203142642974854 0.50746101140975952
0.44374096393585205 0.77028894424438477 0.5092894434928894
0.59521985054016113 0.79072415828704834 0.50960510969161987
0.85785067081451416 0.86185252666473389 0.49198517203330994
0.99604296684265137 0.86485403776168823 0.40337243676185608
0.72687304019927979 0.93650442361831665 0.75684767961502075
0.74569171667098999 0.93700641393661499 0.75857532024383545
0.79209929704666138 0.94038587808609009 0.76292109489440918
0.8723258376121521 0.95393377542495728 0.76642125844955444
0.95936733484268188 0.96914225816726685 0.75925427675247192
0.010250061750411987 0.10992144048213959 0.53911805152893066
0.26767343282699585 0.12355955690145493 0.54231768846511841
0.57291632890701294 0.13241812586784363 0.55375128984451294
0.85911375284194946 0.16218340396881104 0.54795557260513306
0.9979737401008606 0.27294334769248962 0.54628866910934448
0.0040682624094188213 0.26459160447120667 0.57191616296768188
0.28397992253303528 0.30146467685699463 0.58653813600540161
0.60780328512191772 0.35349950194358826 0.58236575126647949
0.86999952793121338 0.37090444564819336 0.56491780281066895
0.99970471858978271 0.42523413896560669 0.55650538206100464
0.071801580488681793 0.5878416895866394 0.58812254667282104
0.3464198112487793 0.59532040357589722 0.6037907600402832
0.62765640020370483 0.62201261520385742 0.61774963140487671
0.86885541677474976 0.6199871301651001 0.58060133457183838
0.99858611822128296 0.6444324254989624 0.56507784128189087
0.53208285570144653 0.80563634634017944 0.68090081214904785
0.58626711368560791 0.80502641201019287 0.68272781372070312
0.67108666896820068 0.79913592338562012 0.67543643712997437
0.8564687967300415 0.85470587015151978 0.68966555595397949
0.99451339244842529 0.83876019716262817 0.60939967632293701
0.76925033330917358 0.94079685211181641 0.81441688537597656
0.78116637468338013 0.93886870145797729 0.81469017267227173
0.81689488887786865 0.93942147493362427 0.81462907791137695
0.87631529569625854 0.95158952474594116 0.82179760932922363
0.95825076103210449 0.96811777353286743 0.82835263013839722
0.18198435008525848 0.13510318100452423 0.81803184747695923
0.38924255967140198 0.1496071070432663 0.81759655475616455
0.65377169847488403 0.22382481396198273 0.81023067235946655
0.87609982490539551 0.33748331665992737 0.80463522672653198
0.99538916349411011 0.45158752799034119 0.79923981428146362
0.20252001285552979 0.30895912647247314 0.82288134098052979
0.39852246642112732 0.33120027184486389 0.8185766339302063
0.6625291109085083 0.39883995056152344 0.81188368797302246
0.8685377836227417 0.47998747229576111 0.80653536319732666
0.98804092407226562 0.56011128425598145 0.81022793054580688
0.0056675183586776257 0.53905922174453735 0.81161487102508545
0.27439287304878235 0.55830526351928711 0.81560969352722168
0.64345681667327881 0.61067122220993042 0.81539660692214966
0.85998439788818359 0.67703455686569214 0.8151170015335083
0.98665541410446167 0.72453218698501587 0.82101631164550781
0.47333618998527527 0.81652694940567017 0.81825286149978638
0.55126839876174927 0.81756633520126343 0.81811678409576416
0.70271939039230347 0.8160240650177002 0.82739007472991943
0.85348355770111084 0.84685105085372925 0.83310818672180176
0.9821588397026062 0.85379725694656372 0.81742900609970093
0.79628211259841919 0.94790852069854736 0.88275390863418579
0.8140418529510498 0.94797569513320923 0.88258117437362671
0.85044819116592407 0.9490845799446106 0.88715511560440063
0.89790815114974976 0.95340627431869507 0.88968366384506226
0.96006119251251221 0.9625440239906311 0.8954545259475708
0.54435664415359497 0.32521572709083557 0.97489213943481445
0.62901240587234497 0.35276055335998535 0.97148680686950684
0.78400075435638428 0.4409431517124176 0.9638480544090271
0.91897058486938477 0.57652252912521362 0.95177972316741943
0.99300128221511841 0.67521440982818604 0.94735747575759888
0.54529792070388794 0.44099307060241699 0.97002077102661133
0.63550132513046265 0.47042056918144226 0.96787464618682861
0.78451389074325562 0.54088038206100464 0.96118795871734619
0.91179287433624268 0.64927154779434204 0.95092320442199707
0.99271601438522339 0.72454601526260376 0.94672644138336182
0.46691271662712097 0.6064302921295166 0.96682447195053101
0.58667939901351929 0.62826025485992432 0.96293950080871582
0.75766336917877197 0.67651122808456421 0.95645987987518311
0.88789278268814087 0.74775904417037964 0.94503134489059448
0.98175877332687378 0.81101721525192261 0.94542306661605835
0.45879510045051575 0.80443763732910156 0.95545500516891479
0.5233193039894104 0.80094635486602783 0.95587354898452759
0.66757071018218994 0.8036077618598938 0.9529869556427002
0.87010592222213745 0.85787308216094971 0.9507865309715271
0.96763074398040771 0.89362508058547974 0.94556629657745361
0.7862975001335144 0.95821815729141235 0.95646512508392334
0.8002769947052002 0.95627021789550781 0.95435279607772827
0.84439939260482788 0.95774835348129272 0.95752358436584473
0.90672999620437622 0.95712238550186157 0.95509272813796997
0.9694705605506897 0.9680246114730835 0.96316951513290405
