luts/negative_old/fuji_superia_800_-.cube
# Created by: G'MIC (https://gmic.eu)
TITLE "fuji_superia_800_-"
# LUT size
LUT_3D_SIZE 7
# Data domain
DOMAIN_MIN 0.0 0.0 0.0
DOMAIN_MAX 1.0 1.0 1.0
# LUT data points
0.0033142238389700651 0.027133207768201828 0.02790253609418869
0.082263872027397156 0.031349465250968933 0.026143318042159081
0.25552710890769958 0.036562196910381317 0.014348707161843777
0.4583580493927002 0.010835191234946251 0.0074777938425540924
0.65459823608398438 0.0072715757414698601 0.0044528734870254993
0.83125758171081543 0.0038678934797644615 0.0022027706727385521
0.98447740077972412 0.012211638502776623 0
0.0021394018549472094 0.13164563477039337 0.032437238842248917
0.086843065917491913 0.14819905161857605 0.019285120069980621
0.28540328145027161 0.14720967411994934 0.011983535252511501
0.47851988673210144 0.12483423203229904 0.0064615583978593349
0.67122256755828857 0.097141027450561523 0.0045078503899276257
0.84363853931427002 0.097712665796279907 0.0019587050192058086
0.98490101099014282 0.16991697251796722 0.00014896766515448689
0 0.34647122025489807 0.072659388184547424
0.016384543851017952 0.35644453763961792 0.059342611581087112
0.31328773498535156 0.37640219926834106 0.012235678732395172
0.53311902284622192 0.35520395636558533 0.0011087155435234308
0.69441342353820801 0.3196469247341156 0.0019476647721603513
0.85206294059753418 0.32474076747894287 0.003499393817037344
0.98347008228302002 0.35565659403800964 8.6167283370741643e-06
0.001362280803732574 0.5846133828163147 0.1678059995174408
0.007752392441034317 0.5912097692489624 0.16879755258560181
0.26021033525466919 0.59306448698043823 0.10735724866390228
0.53819030523300171 0.60411727428436279 0.012954083271324635
0.7456512451171875 0.58212345838546753 0.00096944172400981188
0.87371259927749634 0.54178178310394287 0.0053381975740194321
0.98609465360641479 0.54030394554138184 0.004024251364171505
0.0083850184455513954 0.77469551563262939 0.28925016522407532
0.074801124632358551 0.77695858478546143 0.28913718461990356
0.31923958659172058 0.7742878794670105 0.28273680806159973
0.52808696031570435 0.7729872465133667 0.22478765249252319
0.73297053575515747 0.77611231803894043 0.087346665561199188
0.91036128997802734 0.77112787961959839 0.0068810554221272469
0.9931190013885498 0.74781310558319092 0.016569368541240692
0.38540589809417725 0.90111607313156128 0.478727787733078
0.43100297451019287 0.89890140295028687 0.48132738471031189
0.50679045915603638 0.89346373081207275 0.48309221863746643
0.62698739767074585 0.89148759841918945 0.45320019125938416
0.74970591068267822 0.89155048131942749 0.39138609170913696
0.88635653257369995 0.89554458856582642 0.30856442451477051
0.98785209655761719 0.89691835641860962 0.21838299930095673
0.65878474712371826 0.97453153133392334 0.68040227890014648
0.66815018653869629 0.9723050594329834 0.67876738309860229
0.6974065899848938 0.97114968299865723 0.6831548810005188
0.75128638744354248 0.97091764211654663 0.67529618740081787
0.81092417240142822 0.97159028053283691 0.654460608959198
0.88398653268814087 0.97222357988357544 0.61584103107452393
0.96270847320556641 0.97492247819900513 0.56299746036529541
0.0082413321360945702 0.026381682604551315 0.11310750991106033
0.085361331701278687 0.024194275960326195 0.11594425141811371
0.26500901579856873 0.0083787953481078148 0.11353149265050888
0.47405990958213806 0.0018901600269600749 0.093547031283378601
0.66430062055587769 0.0026780969928950071 0.08197098970413208
0.83112764358520508 0.0017131132772192359 0.057755984365940094
0.97898191213607788 0.005791638046503067 0.020081119611859322
0.003858169773593545 0.13346442580223083 0.14671875536441803
0.1000521332025528 0.13607478141784668 0.1419636458158493
0.29844677448272705 0.12683284282684326 0.13186027109622955
0.49207776784896851 0.11735648661851883 0.12437710911035538
0.67076486349105835 0.095878779888153076 0.10215912014245987
0.83812952041625977 0.090603247284889221 0.062151771038770676
0.98409301042556763 0.15826687216758728 0.024961838498711586
0.0095870373770594597 0.34612306952476501 0.20538331568241119
0.10175627470016479 0.35234755277633667 0.20096786320209503
0.33226761221885681 0.36611977219581604 0.16452726721763611
0.52882981300354004 0.34168905019760132 0.14043368399143219
0.68752932548522949 0.31308874487876892 0.12685211002826691
0.84942126274108887 0.31812041997909546 0.08398902416229248
0.98527735471725464 0.35449308156967163 0.032284680753946304
0.0050257067196071148 0.58126074075698853 0.2743506133556366
0.059818748384714127 0.58671301603317261 0.26943030953407288
0.31016641855239868 0.58401095867156982 0.25372800230979919
0.55273783206939697 0.59168332815170288 0.16579003632068634
0.74179965257644653 0.57481825351715088 0.10596770048141479
0.86971473693847656 0.53775954246520996 0.12665453553199768
0.98044276237487793 0.53897351026535034 0.10566499084234238
0.071301542222499847 0.7726142406463623 0.36306878924369812
0.19925433397293091 0.77087461948394775 0.36842790246009827
0.37837305665016174 0.76740342378616333 0.36687213182449341
0.54782015085220337 0.76942473649978638 0.3245488703250885
0.74239283800125122 0.76814848184585571 0.22506363689899445
0.90584677457809448 0.76828289031982422 0.15366329252719879
0.9914742112159729 0.73924404382705688 0.17990072071552277
0.43913853168487549 0.89785730838775635 0.53178328275680542
0.46772950887680054 0.89124041795730591 0.53529870510101318
0.53755193948745728 0.88841593265533447 0.53638523817062378
0.64108240604400635 0.89256888628005981 0.51198393106460571
0.75470638275146484 0.89136594533920288 0.46276018023490906
0.88779574632644653 0.8931766152381897 0.38720715045928955
0.99388831853866577 0.89833348989486694 0.31696945428848267
0.67631494998931885 0.97356677055358887 0.70413637161254883
0.68588113784790039 0.97043943405151367 0.70411002635955811
0.71318387985229492 0.97024476528167725 0.70541012287139893
0.75793302059173584 0.97033190727233887 0.70404374599456787
0.81543803215026855 0.97100627422332764 0.68328523635864258
0.8867344856262207 0.97178411483764648 0.64942252635955811
0.96039110422134399 0.97425496578216553 0.59929722547531128
0.0042242310009896755 0.019092381000518799 0.27380388975143433
0.10765952616930008 0.019886091351509094 0.27298876643180847
0.26930215954780579 0.020021820440888405 0.27810713648796082
0.46428269147872925 0.018058657646179199 0.2831186056137085
0.6631850004196167 0.0062296399846673012 0.26145422458648682
0.84563279151916504 0.00094680784968659282 0.2165418267250061
0.98236614465713501 0.0038935642223805189 0.20195893943309784
0.0037959229666739702 0.12909182906150818 0.29030856490135193
0.10504898428916931 0.13246406614780426 0.29529663920402527
0.29529741406440735 0.14534224569797516 0.29781505465507507
0.49219557642936707 0.1489299088716507 0.29614651203155518
0.68012827634811401 0.060930453240871429 0.26391822099685669
0.84464031457901001 0.061384014785289764 0.23742944002151489
0.9852181077003479 0.13330031931400299 0.2174421101808548
0.016929581761360168 0.33204004168510437 0.33574193716049194
0.15631859004497528 0.33267933130264282 0.34292492270469666
0.34116867184638977 0.33902940154075623 0.33693340420722961
0.52432709932327271 0.32929939031600952 0.31555980443954468
0.69012504816055298 0.31204146146774292 0.29479861259460449
0.84662669897079468 0.31328564882278442 0.26605978608131409
0.98163777589797974 0.34346792101860046 0.23719145357608795
0.18266069889068604 0.56965833902359009 0.41526773571968079
0.26939854025840759 0.57032257318496704 0.41549214720726013
0.37689274549484253 0.56746119260787964 0.4021751880645752
0.55415230989456177 0.56655406951904297 0.36433961987495422
0.72212457656860352 0.5470653772354126 0.3282531201839447
0.85934877395629883 0.52688652276992798 0.30949541926383972
0.98190391063690186 0.535991370677948 0.28193330764770508
0.32051196694374084 0.75776678323745728 0.4994291365146637
0.35716971755027771 0.76117581129074097 0.49403831362724304
0.45556885004043579 0.76087367534637451 0.49709489941596985
0.57907509803771973 0.76139181852340698 0.47336935997009277
0.74863755702972412 0.76532101631164551 0.413312166929245
0.89309161901473999 0.75349932909011841 0.36548492312431335
0.98473477363586426 0.72721368074417114 0.35066169500350952
0.51701563596725464 0.88770008087158203 0.61943513154983521
0.54805397987365723 0.89018005132675171 0.62332665920257568
0.60454338788986206 0.88966530561447144 0.62582850456237793
0.67346084117889404 0.8893667459487915 0.61170065402984619
0.76871722936630249 0.89084595441818237 0.57783865928649902
0.88714116811752319 0.89144939184188843 0.51431721448898315
0.98578178882598877 0.89471626281738281 0.46862027049064636
0.71144086122512817 0.97260755300521851 0.75069433450698853
0.71867567300796509 0.97046208381652832 0.74957484006881714
0.74360328912734985 0.96708661317825317 0.74882334470748901
0.78055888414382935 0.96649253368377686 0.74786216020584106
0.82814240455627441 0.96934032440185547 0.73526716232299805
0.88989126682281494 0.96987593173980713 0.70716041326522827
0.96520078182220459 0.97357797622680664 0.67196261882781982
0.0039215688593685627 0.021309437230229378 0.43602299690246582
0.10153088718652725 0.021932415664196014 0.43601343035697937
0.28398442268371582 0.023723602294921875 0.44080242514610291
0.4711722731590271 0.021763266995549202 0.44512191414833069
0.64689189195632935 0.067663617432117462 0.45002847909927368
0.83800214529037476 0.087071843445301056 0.45421707630157471
0.99003499746322632 0.010973253287374973 0.41457056999206543
0.0040312525816261768 0.13044881820678711 0.45213058590888977
0.12291345000267029 0.13651150465011597 0.45616266131401062
0.31454455852508545 0.15317133069038391 0.45994126796722412
0.49128314852714539 0.17294766008853912 0.45621681213378906
0.66190975904464722 0.20668065547943115 0.46160531044006348
0.84800952672958374 0.17923666536808014 0.45749324560165405
0.99280297756195068 0.044913902878761292 0.40758210420608521
0.0048930598422884941 0.28607699275016785 0.47375404834747314
0.098977826535701752 0.29351061582565308 0.47738999128341675
0.32192167639732361 0.31468507647514343 0.48006170988082886
0.50991487503051758 0.34013783931732178 0.48022845387458801
0.68339067697525024 0.3611888587474823 0.48230499029159546
0.85887712240219116 0.31663256883621216 0.44664260745048523
0.98947012424468994 0.2710573673248291 0.3956107497215271
0.099908448755741119 0.53505313396453857 0.52983862161636353
0.23282416164875031 0.5309566855430603 0.53213226795196533
0.39077842235565186 0.52965265512466431 0.52874505519866943
0.53699058294296265 0.52544373273849487 0.51254826784133911
0.70541924238204956 0.52222704887390137 0.49328860640525818
0.86174523830413818 0.50955414772033691 0.46630328893661499
0.97940468788146973 0.51383727788925171 0.42858871817588806
0.41110095381736755 0.75125479698181152 0.62502813339233398
0.45271867513656616 0.74523270130157471 0.62235689163208008
0.52571284770965576 0.74642044305801392 0.61792826652526855
0.60960888862609863 0.74027228355407715 0.60150432586669922
0.74449437856674194 0.74557018280029297 0.56824654340744019
0.88396549224853516 0.73238503932952881 0.53336405754089355
0.97924971580505371 0.71475338935852051 0.49940508604049683
0.61633968353271484 0.88773828744888306 0.72754818201065063
0.63094437122344971 0.88656508922576904 0.72312444448471069
0.6654973030090332 0.88439333438873291 0.72071665525436401
0.7153734564781189 0.88233858346939087 0.70868813991546631
0.78360438346862793 0.886039137840271 0.69021904468536377
0.88533192873001099 0.88660508394241333 0.65014147758483887
0.98221266269683838 0.88023978471755981 0.60574090480804443
0.75635409355163574 0.9667123556137085 0.80862158536911011
0.75864589214324951 0.96691089868545532 0.80374431610107422
0.77658069133758545 0.96581864356994629 0.80348730087280273
0.80598288774490356 0.96530020236968994 0.79981148242950439
0.84474968910217285 0.96720433235168457 0.79541575908660889
0.89535146951675415 0.96811079978942871 0.77537190914154053
0.96269887685775757 0.97205859422683716 0.74829483032226562
0.0061183404177427292 0.015154027380049229 0.59671568870544434
0.13066965341567993 0.017388258129358292 0.59909474849700928
0.32602658867835999 0.021400332450866699 0.60646843910217285
0.50060814619064331 0.033218741416931152 0.6081123948097229
0.66367143392562866 0.06290995329618454 0.61380159854888916
0.81828373670578003 0.15466418862342834 0.61919313669204712
0.97237914800643921 0.29101529717445374 0.65096276998519897
0.017950484529137611 0.13132683932781219 0.61740177869796753
0.16213464736938477 0.1394682377576828 0.61564153432846069
0.34969338774681091 0.15053682029247284 0.61507207155227661
0.5156821608543396 0.17182677984237671 0.6171184778213501
0.66931819915771484 0.20499357581138611 0.61862635612487793
0.82036393880844116 0.2580426037311554 0.62646222114562988
0.97413760423660278 0.35659483075141907 0.65712952613830566
0.011088681407272816 0.27279788255691528 0.62721657752990723
0.16145707666873932 0.28530594706535339 0.63042324781417847
0.35011470317840576 0.3102019727230072 0.62775427103042603
0.52334201335906982 0.32919713854789734 0.63422775268554688
0.68717068433761597 0.35973811149597168 0.6358799934387207
0.83948320150375366 0.40492883324623108 0.64613264799118042
0.97837233543395996 0.45439416170120239 0.65929257869720459
0.0080080516636371613 0.46387213468551636 0.647239089012146
0.065806835889816284 0.46276789903640747 0.64797276258468628
0.30582502484321594 0.46747276186943054 0.6441541314125061
0.50723296403884888 0.49599570035934448 0.64892470836639404
0.69613063335418701 0.53102803230285645 0.65586179494857788
0.85046267509460449 0.56204777956008911 0.6618502140045166
0.98320388793945312 0.53596550226211548 0.62895256280899048
0.28481596708297729 0.7147863507270813 0.71381080150604248
0.35224476456642151 0.70806354284286499 0.71580225229263306
0.46705105900764465 0.70933663845062256 0.71038514375686646
0.58982950448989868 0.70147502422332764 0.70663297176361084
0.72234809398651123 0.7105744481086731 0.70011532306671143
0.86164259910583496 0.70176881551742554 0.67364436388015747
0.97792518138885498 0.68784034252166748 0.63845181465148926
0.63511675596237183 0.88570624589920044 0.79788511991500854
0.6528548002243042 0.88213485479354858 0.79625159502029419
0.6922529935836792 0.87991529703140259 0.79487806558609009
0.74520117044448853 0.87640833854675293 0.7924187183380127
0.79998725652694702 0.87347477674484253 0.78097784519195557
0.88938456773757935 0.87375766038894653 0.75703203678131104
0.97768872976303101 0.86854779720306396 0.72897452116012573
0.78338730335235596 0.96258151531219482 0.86083984375
0.79466068744659424 0.96275711059570312 0.86089044809341431
0.81241267919540405 0.96281892061233521 0.8612707257270813
0.83313053846359253 0.96170222759246826 0.85621333122253418
0.86542969942092896 0.9643135666847229 0.85554534196853638
0.90703439712524414 0.96855723857879639 0.8451303243637085
0.96989911794662476 0.97267186641693115 0.82072079181671143
0.14941416680812836 0.020587906241416931 0.77735525369644165
0.2606753408908844 0.018988022580742836 0.77882629632949829
0.39990442991256714 0.019629504531621933 0.77460074424743652
0.55697333812713623 0.045206449925899506 0.77536678314208984
0.71266657114028931 0.1214677095413208 0.77645063400268555
0.85821676254272461 0.19003286957740784 0.78095889091491699
0.9734376072883606 0.29304766654968262 0.78797274827957153
0.18816192448139191 0.14707347750663757 0.78303742408752441
0.28428646922111511 0.14796818792819977 0.7796558141708374
0.41442880034446716 0.15237565338611603 0.77718907594680786
0.57122969627380371 0.18305212259292603 0.77929842472076416
0.71873825788497925 0.22598826885223389 0.78085118532180786
0.85864824056625366 0.27961131930351257 0.7843511700630188
0.97467339038848877 0.36349958181381226 0.79369974136352539
0.16160336136817932 0.28397479653358459 0.78637933731079102
0.25833526253700256 0.29117900133132935 0.78407937288284302
0.3979756236076355 0.3031693696975708 0.78344345092773438
0.567047119140625 0.32654222846031189 0.78428322076797485
0.72580766677856445 0.36400982737541199 0.78203302621841431
0.86137515306472778 0.4190765917301178 0.79166793823242188
0.97197967767715454 0.48198539018630981 0.80005133152008057
0.005413728766143322 0.41162288188934326 0.7868536114692688
0.032394364476203918 0.41566169261932373 0.78981810808181763
0.32274088263511658 0.43933954834938049 0.78978067636489868
0.53474187850952148 0.47253406047821045 0.7890738844871521
0.71350312232971191 0.51629972457885742 0.79051750898361206
0.85874992609024048 0.56744641065597534 0.80049329996109009
0.96650248765945435 0.62219876050949097 0.80964189767837524
0.046342439949512482 0.65507537126541138 0.80952972173690796
0.12054850161075592 0.65162158012390137 0.80821257829666138
0.29875311255455017 0.63446545600891113 0.8055189847946167
0.4833323061466217 0.62862324714660645 0.80015051364898682
0.69630402326583862 0.67386436462402344 0.8073570728302002
0.85417699813842773 0.71955925226211548 0.81809580326080322
0.95948237180709839 0.75253903865814209 0.82102072238922119
0.51684796810150146 0.85756140947341919 0.85437303781509399
0.54923874139785767 0.85761755704879761 0.85359287261962891
0.61312079429626465 0.85548734664916992 0.85160249471664429
0.6879999041557312 0.85034620761871338 0.84994101524353027
0.77665364742279053 0.85095340013504028 0.8536522388458252
0.87156373262405396 0.85742580890655518 0.84546589851379395
0.96939176321029663 0.852885901927948 0.8282623291015625
0.79889011383056641 0.96590828895568848 0.9060930609703064
0.80551421642303467 0.96340668201446533 0.90591621398925781
0.82401144504547119 0.96177130937576294 0.90645509958267212
0.85860896110534668 0.96560943126678467 0.91206961870193481
0.89064544439315796 0.96581083536148071 0.91348850727081299
0.92355668544769287 0.96439206600189209 0.90616226196289062
0.97539746761322021 0.96820288896560669 0.88962608575820923
0.42869675159454346 0.12960325181484222 0.92988353967666626
0.4733826220035553 0.13525772094726562 0.92797684669494629
0.56229573488235474 0.15158714354038239 0.92108523845672607
0.68229752779006958 0.18858525156974792 0.92545688152313232
0.80686312913894653 0.25507235527038574 0.92209738492965698
0.91988468170166016 0.34560701251029968 0.92097616195678711
0.99044632911682129 0.42539891600608826 0.92115086317062378
0.43180251121520996 0.22046773135662079 0.93162631988525391
0.4745999276638031 0.22221656143665314 0.9285132884979248
0.56845259666442871 0.23832346498966217 0.92807328701019287
0.68214613199234009 0.26709088683128357 0.92574751377105713
0.80596482753753662 0.31777626276016235 0.92445838451385498
0.91142457723617554 0.3932005763053894 0.91875761747360229
0.99219650030136108 0.47091346979141235 0.92144274711608887
0.40255707502365112 0.33785676956176758 0.93182337284088135
0.45542174577713013 0.34482169151306152 0.93151605129241943
0.55329996347427368 0.35588940978050232 0.92833894491195679
0.67253988981246948 0.38246071338653564 0.92306828498840332
0.79902565479278564 0.42347559332847595 0.92378693819046021
0.91138827800750732 0.497587651014328 0.92213433980941772
0.98687928915023804 0.55344200134277344 0.92108654975891113
0.23106172680854797 0.44608369469642639 0.93517082929611206
0.33622699975967407 0.45897048711776733 0.93363171815872192
0.48864206671714783 0.48090654611587524 0.93130570650100708
0.64415836334228516 0.50693410634994507 0.92906779050827026
0.78205674886703491 0.54308986663818359 0.92558658123016357
0.89682435989379883 0.60207152366638184 0.92338442802429199
0.98349368572235107 0.65355443954467773 0.92316102981567383
0.0044098198413848877 0.61637407541275024 0.93499213457107544
0.026499146595597267 0.60718941688537598 0.93504279851913452
0.27044695615768433 0.60456591844558716 0.93166393041610718
0.5318337082862854 0.62509429454803467 0.9311944842338562
0.74325859546661377 0.67583632469177246 0.93238085508346558
0.87460535764694214 0.71885108947753906 0.92788183689117432
0.97164475917816162 0.76077759265899658 0.9259001612663269
0.40879517793655396 0.83820641040802002 0.94206452369689941
0.43740668892860413 0.83592313528060913 0.94082099199295044
0.5078163743019104 0.8284374475479126 0.94111096858978271
0.58987736701965332 0.81665414571762085 0.94090723991394043
0.69463598728179932 0.80690020322799683 0.93945300579071045
0.85045474767684937 0.83369153738021851 0.93271160125732422
0.96405410766601562 0.86858677864074707 0.93926197290420532
0.7244533896446228 0.95894116163253784 0.95707112550735474
0.74249792098999023 0.95979446172714233 0.9593278169631958
0.76454079151153564 0.95749282836914062 0.96087479591369629
0.80409425497055054 0.95510721206665039 0.96363824605941772
0.85390925407409668 0.95566201210021973 0.96533870697021484
0.91259348392486572 0.95784479379653931 0.96582400798797607
0.97409141063690186 0.96448016166687012 0.96253341436386108
