luts/negative_old/fuji_superia_1600_+.cube
# Created by: G'MIC (https://gmic.eu)
TITLE "fuji_superia_1600_+"
# LUT size
LUT_3D_SIZE 13
# Data domain
DOMAIN_MIN 0.0 0.0 0.0
DOMAIN_MAX 1.0 1.0 1.0
# LUT data points
0.099052995443344116 0.14035810530185699 0.13825857639312744
0.11587585508823395 0.13894622027873993 0.13629518449306488
0.15317957103252411 0.13888087868690491 0.13345777988433838
0.21944993734359741 0.14021983742713928 0.13129250705242157
0.31070569157600403 0.14578185975551605 0.13202741742134094
0.41308850049972534 0.15487417578697205 0.1307864785194397
0.51164799928665161 0.15529496967792511 0.12537075579166412
0.60724693536758423 0.1503237783908844 0.11898208409547806
0.69483011960983276 0.15832087397575378 0.11501123756170273
0.77485203742980957 0.17094831168651581 0.10972248017787933
0.84861564636230469 0.19238300621509552 0.10277146100997925
0.91969466209411621 0.22310172021389008 0.098869174718856812
0.97361171245574951 0.26282936334609985 0.099596895277500153
0.092218853533267975 0.15091423690319061 0.13759152591228485
0.10911615192890167 0.1587415337562561 0.13496316969394684
0.15638846158981323 0.1674778163433075 0.13180539011955261
0.22777493298053741 0.16795219480991364 0.13016532361507416
0.31782853603363037 0.17301908135414124 0.12932203710079193
0.41822931170463562 0.17807930707931519 0.12541703879833221
0.51691293716430664 0.1799754798412323 0.12021332979202271
0.61665958166122437 0.18243199586868286 0.11703911423683167
0.70401865243911743 0.18938134610652924 0.11325282603502274
0.78064769506454468 0.20210520923137665 0.10811040550470352
0.85371768474578857 0.22374734282493591 0.10170470923185349
0.92482644319534302 0.25104609131813049 0.098386712372303009
0.9842032790184021 0.28156769275665283 0.096752732992172241
0.060811735689640045 0.19852587580680847 0.14021918177604675
0.088479675352573395 0.20037002861499786 0.1360396146774292
0.14691421389579773 0.21460892260074615 0.13240215182304382
0.23275162279605865 0.22468015551567078 0.12659196555614471
0.33519867062568665 0.22780081629753113 0.12429460883140564
0.43937209248542786 0.2308969646692276 0.12120869755744934
0.54076117277145386 0.23590743541717529 0.1155436784029007
0.63303619623184204 0.23554928600788116 0.1127956286072731
0.71721953153610229 0.24283599853515625 0.10998391360044479
0.78921031951904297 0.25776964426040649 0.10664445161819458
0.85957324504852295 0.27203091979026794 0.10023133456707001
0.92941415309906006 0.29435843229293823 0.096412196755409241
0.98714649677276611 0.31938007473945618 0.097381457686424255
0.013448633253574371 0.27037498354911804 0.14639908075332642
0.035633627325296402 0.26974043250083923 0.14392830431461334
0.1067497730255127 0.28154796361923218 0.13901162147521973
0.21055786311626434 0.29892942309379578 0.12627409398555756
0.3512662947177887 0.32250311970710754 0.11151374131441116
0.47248673439025879 0.32532718777656555 0.10510797053575516
0.57226258516311646 0.31232538819313049 0.10787708312273026
0.65712958574295044 0.30722597241401672 0.10691314190626144
0.73106187582015991 0.31156492233276367 0.1057477742433548
0.79970556497573853 0.32253885269165039 0.10476439446210861
0.86892527341842651 0.33028367161750793 0.099822007119655609
0.93460094928741455 0.34576416015625 0.098714061081409454
0.98866647481918335 0.36697483062744141 0.10090924799442291
0.0046717175282537937 0.36208620667457581 0.16347384452819824
0.0068179410882294178 0.35867658257484436 0.16151997447013855
0.045161932706832886 0.36483004689216614 0.15509906411170959
0.16933727264404297 0.38426187634468079 0.14312073588371277
0.32477867603302002 0.40889227390289307 0.12049476802349091
0.48122799396514893 0.43336451053619385 0.087867274880409241
0.59277480840682983 0.42598360776901245 0.083793625235557556
0.67739987373352051 0.40397393703460693 0.093340687453746796
0.75001144409179688 0.39471173286437988 0.10109268128871918
0.81584185361862183 0.39275801181793213 0.10321675986051559
0.88146895170211792 0.39645573496818542 0.1028764620423317
0.94143736362457275 0.4105783998966217 0.10817685723304749
0.98987627029418945 0.42663753032684326 0.11248927563428879
0.0016824760241433978 0.45393899083137512 0.18530191481113434
0.0044814762659370899 0.45352104306221008 0.18782253563404083
0.015433426946401596 0.45366817712783813 0.18238812685012817
0.13814879953861237 0.46346026659011841 0.17462813854217529
0.28915467858314514 0.48024085164070129 0.15927715599536896
0.43587720394134521 0.50205874443054199 0.12835484743118286
0.58633637428283691 0.52444219589233398 0.083777330815792084
0.69086569547653198 0.52076131105422974 0.07618403434753418
0.76328092813491821 0.49921739101409912 0.097034648060798645
0.83111768960952759 0.47893723845481873 0.10606834292411804
0.89286184310913086 0.47410887479782104 0.11783556640148163
0.95040524005889893 0.48268204927444458 0.12837390601634979
0.99258303642272949 0.49157595634460449 0.13516336679458618
0.00089856318663805723 0.53344237804412842 0.2226884514093399
0.0031472598202526569 0.53427445888519287 0.22588856518268585
0.017117459326982498 0.53260344266891479 0.22114835679531097
0.14061452448368073 0.53475749492645264 0.21666830778121948
0.28318959474563599 0.54503792524337769 0.20615383982658386
0.40901300311088562 0.56177318096160889 0.18581245839595795
0.54050338268280029 0.58166009187698364 0.15661954879760742
0.67603057622909546 0.60522711277008057 0.11284978687763214
0.77497482299804688 0.60555601119995117 0.10415423661470413
0.84196162223815918 0.58729737997055054 0.12000813335180283
0.90433776378631592 0.57031315565109253 0.13553820550441742
0.95976310968399048 0.56247621774673462 0.15392565727233887
0.99569660425186157 0.56557220220565796 0.16928939521312714
0.0035789490211755037 0.60763329267501831 0.26780343055725098
0.016518881544470787 0.60928243398666382 0.26953226327896118
0.078802011907100677 0.6058923602104187 0.26828601956367493
0.18743608891963959 0.60390359163284302 0.26514372229576111
0.29397991299629211 0.60799568891525269 0.25838044285774231
0.40268415212631226 0.62175071239471436 0.24726888537406921
0.51529073715209961 0.63821488618850708 0.23062402009963989
0.63283973932266235 0.65554183721542358 0.20511946082115173
0.75518882274627686 0.67873841524124146 0.17142942547798157
0.8457714319229126 0.68267673254013062 0.16533559560775757
0.90898782014846802 0.66872632503509521 0.17660908401012421
0.96310263872146606 0.65885299444198608 0.19667167961597443
0.99441945552825928 0.652793288230896 0.22066605091094971
0.10174719244241714 0.68016535043716431 0.32557252049446106
0.14126972854137421 0.67806822061538696 0.32465407252311707
0.19462192058563232 0.6735464334487915 0.32496339082717896
0.2569236159324646 0.66987931728363037 0.32175460457801819
0.33011284470558167 0.67031067609786987 0.31704285740852356
0.41943347454071045 0.67975163459777832 0.30984777212142944
0.51313620805740356 0.69452506303787231 0.30110415816307068
0.61565744876861572 0.70997107028961182 0.28866979479789734
0.71341311931610107 0.72499608993530273 0.27010968327522278
0.81820744276046753 0.74641019105911255 0.25149577856063843
0.90641677379608154 0.75745874643325806 0.24467518925666809
0.96210044622421265 0.74846440553665161 0.25912588834762573
0.99330472946166992 0.73744809627532959 0.27772030234336853
0.25440770387649536 0.74815022945404053 0.39247742295265198
0.27107644081115723 0.74368762969970703 0.39026376605033875
0.30083358287811279 0.73983514308929443 0.38838621973991394
0.34584194421768188 0.73583203554153442 0.38577675819396973
0.39011907577514648 0.73382234573364258 0.38317584991455078
0.45762801170349121 0.74035686254501343 0.37851041555404663
0.53212743997573853 0.7517055869102478 0.37278500199317932
0.61779069900512695 0.76348346471786499 0.3682195246219635
0.6998860239982605 0.77602547407150269 0.36108547449111938
0.78744697570800781 0.79199641942977905 0.34768706560134888
0.87546390295028687 0.80871307849884033 0.33315017819404602
0.95186597108840942 0.82412594556808472 0.3319861888885498
0.98976808786392212 0.81857270002365112 0.34547293186187744
0.37564027309417725 0.81077539920806885 0.45997008681297302
0.38858595490455627 0.80794978141784668 0.45999056100845337
0.40574237704277039 0.8072509765625 0.45899090170860291
0.43215608596801758 0.80242574214935303 0.45639932155609131
0.46346735954284668 0.79891794919967651 0.45396703481674194
0.50929051637649536 0.80177873373031616 0.45224153995513916
0.57062327861785889 0.80856704711914062 0.44957226514816284
0.632027268409729 0.81784516572952271 0.44623258709907532
0.69966685771942139 0.82679200172424316 0.44291990995407104
0.77538734674453735 0.83865123987197876 0.4377906322479248
0.85168874263763428 0.85108238458633423 0.42648190259933472
0.923897385597229 0.86822658777236938 0.42107293009757996
0.98024660348892212 0.88161581754684448 0.42407751083374023
0.49432480335235596 0.86669886112213135 0.5427965521812439
0.50654470920562744 0.86628502607345581 0.5453532338142395
0.51733243465423584 0.86529308557510376 0.5445859432220459
0.53197097778320312 0.86295592784881592 0.54219985008239746
0.5573161244392395 0.86012113094329834 0.53977727890014648
0.58773303031921387 0.86139082908630371 0.54014343023300171
0.63083064556121826 0.86594468355178833 0.53876471519470215
0.67283147573471069 0.87044543027877808 0.53410977125167847
0.72424709796905518 0.87745702266693115 0.53015732765197754
0.78231924772262573 0.88747656345367432 0.5274662971496582
0.8413965106010437 0.89655035734176636 0.52303731441497803
0.90035998821258545 0.90487098693847656 0.51836323738098145
0.95443594455718994 0.91513234376907349 0.51464962959289551
0.61558741331100464 0.92081350088119507 0.63265210390090942
0.62204313278198242 0.92090141773223877 0.63434362411499023
0.6291002631187439 0.92028170824050903 0.63510215282440186
0.64052855968475342 0.91976404190063477 0.63292574882507324
0.65649580955505371 0.91820204257965088 0.63297247886657715
0.67780864238739014 0.9194914698600769 0.63353663682937622
0.70099896192550659 0.92015451192855835 0.63360309600830078
0.73077040910720825 0.92242223024368286 0.63097774982452393
0.76904076337814331 0.92694520950317383 0.62669765949249268
0.80851233005523682 0.93346768617630005 0.62705260515213013
0.85097014904022217 0.93920910358428955 0.62575048208236694
0.89361089468002319 0.94536775350570679 0.62466025352478027
0.93627583980560303 0.95031934976577759 0.62142521142959595
0.10001137107610703 0.13605441153049469 0.15129230916500092
0.11503871530294418 0.13669183850288391 0.14917892217636108
0.15713852643966675 0.13507509231567383 0.14736351370811462
0.22406856715679169 0.13002659380435944 0.14617761969566345
0.31173348426818848 0.13142141699790955 0.14699499309062958
0.40868732333183289 0.13984939455986023 0.14920325577259064
0.50571423768997192 0.150809645652771 0.14872327446937561
0.60377770662307739 0.15296494960784912 0.14924927055835724
0.68970197439193726 0.16084177792072296 0.14845569431781769
0.76732951402664185 0.17659641802310944 0.14543464779853821
0.84253865480422974 0.1953137069940567 0.13617898523807526
0.91403788328170776 0.2268519401550293 0.13558448851108551
0.97502315044403076 0.26530048251152039 0.13639958202838898
0.091836132109165192 0.15469396114349365 0.15740744769573212
0.1133989542722702 0.15826822817325592 0.1544482409954071
0.1656423807144165 0.16421215236186981 0.15330193936824799
0.23252351582050323 0.16721512377262115 0.15097329020500183
0.32050582766532898 0.17020209133625031 0.15090994536876678
0.41621235013008118 0.17355306446552277 0.14939084649085999
0.51467645168304443 0.18115665018558502 0.14747133851051331
0.61114728450775146 0.18560177087783813 0.14892001450061798
0.69770759344100952 0.19314965605735779 0.14775477349758148
0.77340888977050781 0.20875364542007446 0.14385500550270081
0.84811067581176758 0.22549544274806976 0.13586418330669403
0.91840606927871704 0.25455626845359802 0.13460780680179596
0.98145657777786255 0.28684613108634949 0.13371405005455017
0.078556731343269348 0.20456352829933167 0.16450090706348419
0.1037842258810997 0.20565670728683472 0.16062290966510773
0.15643534064292908 0.21796880662441254 0.16031964123249054
0.23285073041915894 0.22594733536243439 0.15634606778621674
0.33320879936218262 0.22494620084762573 0.15187075734138489
0.43822979927062988 0.23142547905445099 0.15077872574329376
0.53709441423416138 0.23692569136619568 0.14873315393924713
0.62693953514099121 0.23928852379322052 0.14667566120624542
0.71218860149383545 0.24348445236682892 0.14383551478385925
0.78444123268127441 0.25801205635070801 0.1410275399684906
0.85514020919799805 0.27308151125907898 0.13676054775714874
0.92483997344970703 0.29665675759315491 0.13488522171974182
0.98456096649169922 0.32308745384216309 0.13621258735656738
0.036338493227958679 0.27533233165740967 0.17288860678672791
0.066758222877979279 0.27648943662643433 0.17159394919872284
0.12767979502677917 0.28239962458610535 0.16919434070587158
0.21984760463237762 0.2978573739528656 0.16068333387374878
0.35330632328987122 0.31857061386108398 0.14986874163150787
0.47087949514389038 0.31962668895721436 0.14868646860122681
0.56936633586883545 0.31076833605766296 0.14798974990844727
0.65357190370559692 0.31008711457252502 0.14634545147418976
0.72882574796676636 0.31092929840087891 0.14360697567462921
0.7960810661315918 0.31819343566894531 0.14357390999794006
0.86525547504425049 0.32918006181716919 0.14001615345478058
0.93112754821777344 0.34756588935852051 0.14062988758087158
0.98573541641235352 0.3696993887424469 0.14265413582324982
0.007098089437931776 0.36862364411354065 0.194367915391922
0.015443705022335052 0.36776608228683472 0.19098773598670959
0.07890813797712326 0.36898553371429443 0.18866205215454102
0.19506582617759705 0.38478901982307434 0.18048214912414551
0.33519047498703003 0.40819546580314636 0.16348560154438019
0.48322251439094543 0.42834383249282837 0.14438262581825256
0.59042930603027344 0.41913300752639771 0.1412842720746994
0.6739344596862793 0.40197759866714478 0.14650236070156097
0.74650639295578003 0.39272952079772949 0.14758194983005524
0.81278848648071289 0.39266037940979004 0.1492832750082016
0.87856000661849976 0.3972054123878479 0.14695793390274048
0.93835854530334473 0.41254359483718872 0.15230463445186615
0.98736584186553955 0.42979592084884644 0.15746614336967468
0.0028736188542097807 0.46102121472358704 0.21905480325222015
0.0049827727489173412 0.46097928285598755 0.21998272836208344
0.047254044562578201 0.45880308747291565 0.21422217786312103
0.17482422292232513 0.46613427996635437 0.20997653901576996
0.30768784880638123 0.48101526498794556 0.19862642884254456
0.44448027014732361 0.501517653465271 0.17619913816452026
0.58639252185821533 0.52097314596176147 0.14955559372901917
0.68897527456283569 0.51577198505401611 0.14329762756824493
0.76006424427032471 0.49537897109985352 0.15368832647800446
0.82796305418014526 0.48095008730888367 0.16036604344844818
0.89090228080749512 0.476785808801651 0.16446550190448761
0.94875907897949219 0.48321112990379333 0.17092417180538177
0.99207150936126709 0.4937746524810791 0.17551539838314056
0.0031936794985085726 0.54028815031051636 0.25545114278793335
0.009491385892033577 0.5407605767250061 0.25510421395301819
0.066228516399860382 0.53662550449371338 0.25108039379119873
0.18477441370487213 0.53742891550064087 0.24772867560386658
0.30042436718940735 0.54752737283706665 0.23954389989376068
0.41822153329849243 0.56288355588912964 0.22423243522644043
0.54377716779708862 0.58150815963745117 0.20184949040412903
0.6764456033706665 0.601970374584198 0.17493370175361633
0.77075505256652832 0.59997850656509399 0.17137493193149567
0.83894598484039307 0.58264815807342529 0.17707152664661407
0.90176582336425781 0.56802594661712646 0.18466480076313019
0.95821118354797363 0.55998444557189941 0.1955539882183075
0.99542766809463501 0.56512272357940674 0.20476259291172028
0.031650260090827942 0.61202633380889893 0.29600566625595093
0.067708618938922882 0.61293900012969971 0.29708683490753174
0.13903219997882843 0.60791808366775513 0.29731762409210205
0.22116689383983612 0.6037757396697998 0.29506543278694153
0.31934776902198792 0.60941451787948608 0.28637534379959106
0.41351211071014404 0.62074589729309082 0.27640655636787415
0.5210120677947998 0.63693380355834961 0.26355239748954773
0.63484978675842285 0.65210247039794922 0.24383851885795593
0.75168752670288086 0.6732749342918396 0.22096681594848633
0.84327942132949829 0.67810022830963135 0.2161373645067215
0.90816378593444824 0.66620814800262451 0.22196395695209503
0.96132183074951172 0.65544795989990234 0.23886182904243469
0.99444115161895752 0.65199172496795654 0.25016269087791443
0.16144931316375732 0.6826176643371582 0.35038465261459351
0.19094894826412201 0.68120276927947998 0.35015681385993958
0.23081870377063751 0.67687630653381348 0.35020458698272705
0.28435680270195007 0.67203408479690552 0.34846574068069458
0.35266262292861938 0.6712145209312439 0.3411334753036499
0.43442496657371521 0.67940211296081543 0.33343642950057983
0.51938116550445557 0.69230073690414429 0.32659965753555298
0.61932319402694702 0.70694863796234131 0.31682512164115906
0.71635377407073975 0.72243839502334595 0.30117550492286682
0.81720155477523804 0.74239575862884521 0.28970533609390259
0.90656965970993042 0.75671052932739258 0.28308436274528503
0.96107470989227295 0.74780541658401489 0.29342186450958252
0.99398326873779297 0.73726063966751099 0.30249902606010437
0.28390908241271973 0.74989205598831177 0.4108574390411377
0.29925030469894409 0.74804115295410156 0.41051283478736877
0.32699039578437805 0.7441522479057312 0.40909257531166077
0.36844241619110107 0.73929041624069214 0.40702170133590698
0.40532520413398743 0.73552727699279785 0.40129926800727844
0.46435254812240601 0.74017179012298584 0.39757606387138367
0.53775829076766968 0.75010186433792114 0.39349356293678284
0.61903500556945801 0.76195168495178223 0.38833266496658325
0.70049625635147095 0.77482134103775024 0.38157227635383606
0.79005563259124756 0.79150116443634033 0.37262889742851257
0.8801921010017395 0.81135368347167969 0.35973694920539856
0.94982296228408813 0.82272666692733765 0.35945633053779602
0.99189639091491699 0.81706416606903076 0.36532321572303772
0.39414995908737183 0.81310439109802246 0.47568145394325256
0.40768828988075256 0.81252008676528931 0.47638812661170959
0.42369565367698669 0.80987679958343506 0.47453328967094421
0.44885134696960449 0.80378502607345581 0.4742732048034668
0.47780784964561462 0.79979163408279419 0.47041445970535278
0.51804047822952271 0.80232071876525879 0.46829935908317566
0.5785515308380127 0.80960899591445923 0.46646249294281006
0.64199614524841309 0.81800615787506104 0.46504917740821838
0.70382696390151978 0.82711803913116455 0.46222370862960815
0.77756994962692261 0.83914566040039062 0.45500043034553528
0.85016816854476929 0.85101920366287231 0.44460707902908325
0.92065048217773438 0.86588698625564575 0.43910074234008789
0.98293983936309814 0.88163977861404419 0.43903335928916931
0.50919806957244873 0.86845880746841431 0.55755138397216797
0.51923632621765137 0.86846697330474854 0.5582740306854248
0.53003919124603271 0.8674207329750061 0.55780339241027832
0.54507261514663696 0.86403542757034302 0.55562335252761841
0.56812381744384766 0.86065793037414551 0.55427044630050659
0.59924256801605225 0.86255204677581787 0.55152696371078491
0.63235622644424438 0.86728417873382568 0.54866486787796021
0.67723363637924194 0.87226521968841553 0.54732590913772583
0.72742867469787598 0.87917572259902954 0.54395759105682373
0.78573596477508545 0.88728159666061401 0.54181969165802002
0.84621918201446533 0.8953474760055542 0.53648281097412109
0.902912437915802 0.90479737520217896 0.53189074993133545
0.95916569232940674 0.9185861349105835 0.53088611364364624
0.62369877099990845 0.9214661717414856 0.641277015209198
0.62874430418014526 0.92147809267044067 0.6425585150718689
0.63625282049179077 0.92022883892059326 0.64209538698196411
0.64419955015182495 0.91839838027954102 0.63924860954284668
0.6615225076675415 0.91962176561355591 0.64113509654998779
0.68240708112716675 0.91953772306442261 0.63931846618652344
0.70254051685333252 0.91950041055679321 0.63722026348114014
0.73277264833450317 0.92408543825149536 0.63869726657867432
0.76909422874450684 0.92895764112472534 0.63684439659118652
0.80916446447372437 0.93395888805389404 0.6366686224937439
0.85109233856201172 0.93931454420089722 0.63426667451858521
0.89527058601379395 0.94622999429702759 0.63214194774627686
0.9365081787109375 0.95063155889511108 0.62969917058944702
0.10056698322296143 0.13573929667472839 0.18476048111915588
0.12362951785326004 0.13559038937091827 0.18495923280715942
0.16688601672649384 0.13619786500930786 0.18544659018516541
0.22730483114719391 0.13374771177768707 0.1853003203868866
0.31312105059623718 0.1307474821805954 0.18631982803344727
0.40934634208679199 0.12368868291378021 0.18240869045257568
0.50944364070892334 0.12581664323806763 0.17995670437812805
0.60296428203582764 0.14055570960044861 0.1832880973815918
0.68425846099853516 0.1603141725063324 0.18728587031364441
0.76162612438201904 0.18148547410964966 0.18893854320049286
0.83698517084121704 0.20256447792053223 0.18840581178665161
0.91094648838043213 0.23180966079235077 0.18455010652542114
0.97532302141189575 0.26644980907440186 0.18350066244602203
0.089612700045108795 0.1568266749382019 0.19366171956062317
0.11858756840229034 0.1601797342300415 0.19496910274028778
0.17061491310596466 0.16684216260910034 0.19658145308494568
0.23646356165409088 0.16984613239765167 0.19373127818107605
0.32308673858642578 0.16819518804550171 0.19036483764648438
0.4190557599067688 0.16456229984760284 0.186692014336586
0.51821660995483398 0.17276440560817719 0.18737126886844635
0.60895919799804688 0.18031935393810272 0.18868407607078552
0.68988549709320068 0.19550856947898865 0.18997132778167725
0.76604443788528442 0.21236501634120941 0.19230958819389343
0.84143871068954468 0.23007361590862274 0.19018509984016418
0.91268420219421387 0.25811964273452759 0.18873900175094604
0.97779178619384766 0.28980851173400879 0.18662597239017487
0.077327519655227661 0.21149709820747375 0.20777279138565063
0.10920988768339157 0.21006383001804352 0.20579136908054352
0.16372168064117432 0.2183326780796051 0.20434905588626862
0.24084308743476868 0.22421598434448242 0.20075874030590057
0.33698350191116333 0.22290980815887451 0.19756731390953064
0.44182991981506348 0.22708116471767426 0.19666345417499542
0.53785723447799683 0.23733898997306824 0.19782304763793945
0.62254804372787476 0.24143099784851074 0.19664090871810913
0.70335453748703003 0.24587161839008331 0.19521938264369965
0.77651381492614746 0.26014775037765503 0.19504973292350769
0.84858018159866333 0.27589914202690125 0.1920335441827774
0.91969209909439087 0.29911825060844421 0.18991221487522125
0.98161989450454712 0.32526767253875732 0.18989172577857971
0.06941649317741394 0.28621825575828552 0.22289915382862091
0.10837891697883606 0.28601619601249695 0.22192016243934631
0.16027690470218658 0.28700935840606689 0.2176598459482193
0.24157913029193878 0.29786312580108643 0.21457947790622711
0.35845574736595154 0.30934226512908936 0.2091309130191803
0.46943429112434387 0.30987578630447388 0.20765753090381622
0.56486231088638306 0.3090326189994812 0.20545282959938049
0.64576971530914307 0.31303313374519348 0.20469723641872406
0.71962076425552368 0.31447014212608337 0.20311194658279419
0.78945082426071167 0.32036480307579041 0.20116430521011353
0.85926920175552368 0.33134946227073669 0.1969316303730011
0.92597371339797974 0.35000687837600708 0.19718275964260101
0.98269689083099365 0.37299531698226929 0.20016573369503021
0.056038547307252884 0.38154333829879761 0.24929878115653992
0.085932664573192596 0.38110801577568054 0.24673162400722504
0.14412917196750641 0.37919628620147705 0.24265147745609283
0.23098175227642059 0.38452094793319702 0.23630531132221222
0.35218051075935364 0.40594220161437988 0.22406382858753204
0.48588937520980835 0.42010858654975891 0.21561649441719055
0.58557754755020142 0.40896320343017578 0.21285182237625122
0.66687518358230591 0.39977985620498657 0.2119022011756897
