luts/negative_old/fuji_superia_800_-.cube
# Created by: G'MIC (https://gmic.eu)
TITLE "fuji_superia_800_-"
# LUT size
LUT_3D_SIZE 5
# Data domain
DOMAIN_MIN 0.0 0.0 0.0
DOMAIN_MAX 1.0 1.0 1.0
# LUT data points
0.0033142238389700651 0.027133207768201828 0.02790253609418869
0.16563425958156586 0.038451716303825378 0.020451683551073074
0.4583580493927002 0.010835191234946251 0.0074777938425540924
0.74434810876846313 0.004747054073959589 0.0039215688593685627
0.98447740077972412 0.012211638502776623 0
0.00085009407484903932 0.2291543185710907 0.046364009380340576
0.18877877295017242 0.25251495838165283 0.013028223067522049
0.49984782934188843 0.22660224139690399 0.0043364432640373707
0.76556396484375 0.20847567915916443 0.0043554417788982391
0.98595088720321655 0.26110810041427612 0.0010114033939316869
0.001362280803732574 0.5846133828163147 0.1678059995174408
0.082307420670986176 0.59320330619812012 0.15141896903514862
0.53819030523300171 0.60411727428436279 0.012954083271324635
0.80980342626571655 0.55280029773712158 0.0031610974110662937
0.98609465360641479 0.54030394554138184 0.004024251364171505
0.16519932448863983 0.84752190113067627 0.37331041693687439
0.33718410134315491 0.84332728385925293 0.38248887658119202
0.56067806482315063 0.84025293588638306 0.34006971120834351
0.81945359706878662 0.8429381251335144 0.1903264969587326
0.99274325370788574 0.83209103345870972 0.094051331281661987
0.65878474712371826 0.97453153133392334 0.68040227890014648
0.68017297983169556 0.97070157527923584 0.68003952503204346
0.75128638744354248 0.97091764211654663 0.67529618740081787
0.84626501798629761 0.97183650732040405 0.63592547178268433
0.96270847320556641 0.97492247819900513 0.56299746036529541
0.0072549409233033657 0.022956488654017448 0.19301669299602509
0.1741088479757309 0.019558072090148926 0.19447758793830872
0.47538730502128601 0.0048369015567004681 0.18722119927406311
0.75309610366821289 0.0019840165041387081 0.14848682284355164
0.9771265983581543 0.0045989244244992733 0.1126580610871315
0.0045138341374695301 0.22357892990112305 0.23320047557353973
0.21571530401706696 0.23348319530487061 0.24143923819065094
0.51161402463912964 0.2151181697845459 0.21668939292430878
0.75948858261108398 0.21081297099590302 0.17912265658378601
0.98293870687484741 0.25667878985404968 0.12277284264564514
0.082869477570056915 0.57606536149978638 0.34446021914482117
0.25888213515281677 0.58047068119049072 0.33637750148773193
0.55993956327438354 0.58205962181091309 0.27538782358169556
0.79764074087142944 0.54606932401657104 0.22185216844081879
0.97924590110778809 0.53795206546783447 0.19578282535076141
0.33559027314186096 0.83764779567718506 0.49090570211410522
0.43689760565757751 0.83197790384292603 0.50351762771606445
0.60464191436767578 0.83497560024261475 0.47649833559989929
0.82617455720901489 0.83865666389465332 0.37573748826980591
0.99168044328689575 0.82748168706893921 0.3160339891910553
0.68979525566101074 0.97276568412780762 0.7228996753692627
0.70954889059066772 0.97013700008392334 0.72371715307235718
0.7666473388671875 0.96766704320907593 0.72703295946121216
0.85188156366348267 0.97124165296554565 0.69347018003463745
0.96326303482055664 0.9738459587097168 0.63495719432830811
0.0039215688593685627 0.021309437230229378 0.43602299690246582
0.1932828426361084 0.024262238293886185 0.43869855999946594
0.4711722731590271 0.021763266995549202 0.44512191414833069
0.74227941036224365 0.10517969727516174 0.45565173029899597
0.99003499746322632 0.010973253287374973 0.41457056999206543
0.002238165121525526 0.19545608758926392 0.46170824766159058
0.23488068580627441 0.22425395250320435 0.47043010592460632
0.50006246566772461 0.25945854187011719 0.46767300367355347
0.76350289583206177 0.28040376305580139 0.47062391042709351
0.99373763799667358 0.12572374939918518 0.39611136913299561
0.099908448755741119 0.53505313396453857 0.52983862161636353
0.31855878233909607 0.53064793348312378 0.53075045347213745
0.53699058294296265 0.52544373273849487 0.51254826784133911
0.78639417886734009 0.51305323839187622 0.47745600342750549
0.97940468788146973 0.51383727788925171 0.42858871817588806
0.51620614528656006 0.82645034790039062 0.67716890573501587
0.56373566389083862 0.82424402236938477 0.66967904567718506
0.6620173454284668 0.81920260190963745 0.65488678216934204
0.82361173629760742 0.82597559690475464 0.60537302494049072
0.98044282197952271 0.79925435781478882 0.5507819652557373
0.75635409355163574 0.9667123556137085 0.80862158536911011
0.76772111654281616 0.96697449684143066 0.80443841218948364
0.80598288774490356 0.96530020236968994 0.79981148242950439
0.86668795347213745 0.96715164184570312 0.78788286447525024
0.96269887685775757 0.97205859422683716 0.74829483032226562
0.030195573344826698 0.011770838871598244 0.69051831960678101
0.26961067318916321 0.013274114578962326 0.69206362962722778
0.52109277248382568 0.029913658276200294 0.69089692831039429
0.76149487495422363 0.11806749552488327 0.70142197608947754
0.9638444185256958 0.29263007640838623 0.7188413143157959
0.089479975402355194 0.20614567399024963 0.70366501808166504
0.29487615823745728 0.21947266161441803 0.70001864433288574
0.54209357500076294 0.2471592128276825 0.70485514402389526
0.76791113615036011 0.30146926641464233 0.70869624614715576
0.97194665670394897 0.42515766620635986 0.73561924695968628
0.004739424679428339 0.42688962817192078 0.71108907461166382
0.14624324440956116 0.43564525246620178 0.7125852108001709
0.50906497240066528 0.47925785183906555 0.7182917594909668
0.78514665365219116 0.54586762189865112 0.72891157865524292
0.96804726123809814 0.61471378803253174 0.74703705310821533
0.39951229095458984 0.79271602630615234 0.79410457611083984
0.48302575945854187 0.78732192516326904 0.79123872518539429
0.6398734450340271 0.78515142202377319 0.78768271207809448
0.80341833829879761 0.78689992427825928 0.77504491806030273
0.97434878349304199 0.77232605218887329 0.73966211080551147
0.79368609189987183 0.96406829357147217 0.8832516074180603
0.81135356426239014 0.9629632830619812 0.88305413722991943
0.84812313318252563 0.96257680654525757 0.88548320531845093
0.89441359043121338 0.96430152654647827 0.88129729032516479
0.97302407026290894 0.97140359878540039 0.85651975870132446
0.42869675159454346 0.12960325181484222 0.92988353967666626
0.51520520448684692 0.14248600602149963 0.92731451988220215
0.68229752779006958 0.18858525156974792 0.92545688152313232
0.86417073011398315 0.29926946759223938 0.92006230354309082
0.99044632911682129 0.42539891600608826 0.92115086317062378
0.42231160402297974 0.27920323610305786 0.93112975358963013
0.51117825508117676 0.28492593765258789 0.92679387331008911
0.68385505676269531 0.32478976249694824 0.926361083984375
0.85907238721847534 0.40330067276954651 0.92079472541809082
0.99076497554779053 0.50865823030471802 0.92132586240768433
0.23106172680854797 0.44608369469642639 0.93517082929611206
0.41449359059333801 0.47066491842269897 0.9333081841468811
0.64415836334228516 0.50693410634994507 0.92906779050827026
0.84399300813674927 0.57270634174346924 0.92482751607894897
0.98349368572235107 0.65355443954467773 0.92316102981567383
0.12350781261920929 0.73848563432693481 0.93453055620193481
0.2580416202545166 0.72402507066726685 0.93570810556411743
0.49236568808555603 0.70402413606643677 0.93332690000534058
0.79566246271133423 0.76002657413482666 0.93412208557128906
0.9687766432762146 0.82111817598342896 0.93346881866455078
0.7244533896446228 0.95894116163253784 0.95707112550735474
0.75212371349334717 0.95938301086425781 0.95928877592086792
0.80409425497055054 0.95510721206665039 0.96363824605941772
0.8828006386756897 0.95501255989074707 0.96437525749206543
0.97409141063690186 0.96448016166687012 0.96253341436386108
