luts/negative_old/fuji_superia_100_-.cube
# Created by: G'MIC (https://gmic.eu)
TITLE "fuji_superia_100_-"
# LUT size
LUT_3D_SIZE 13
# Data domain
DOMAIN_MIN 0.0 0.0 0.0
DOMAIN_MAX 1.0 1.0 1.0
# LUT data points
0.0082556037232279778 0.019597729668021202 0.019341398030519485
0.040508434176445007 0.016589729115366936 0.014017650857567787
0.11560302227735519 0.023645123466849327 0.011045149527490139
0.21241647005081177 0.039749398827552795 0.0091021815314888954
0.32146510481834412 0.055350553244352341 0.0059197070077061653
0.424073725938797 0.07082405686378479 0.0062383315525949001
0.51925796270370483 0.092479556798934937 0.0044339047744870186
0.60587930679321289 0.10996279120445251 0.0041429558768868446
0.68375003337860107 0.12741105258464813 0.0037295471411198378
0.75081592798233032 0.13618777692317963 0.003709202166646719
0.8185308575630188 0.15429893136024475 0.0039215688593685627
0.88922625780105591 0.1770404726266861 0.0039145676419138908
0.95996195077896118 0.20602966845035553 0.0006792853819206357
0.0032792484853416681 0.064001493155956268 0.016738846898078918
0.029060274362564087 0.072659842669963837 0.015552221797406673
0.11781708896160126 0.089168071746826172 0.010530778206884861
0.2246788889169693 0.10721157491207123 0.010190297849476337
0.33285480737686157 0.12328525632619858 0.0076187131926417351
0.43441486358642578 0.13643564283847809 0.0035129471216350794
0.52915173768997192 0.15095192193984985 0.0040017971768975258
0.61449956893920898 0.16323019564151764 0.0050523197278380394
0.68790674209594727 0.17017108201980591 0.0070608248934149742
0.75710052251815796 0.17861945927143097 0.0041283699683845043
0.82493531703948975 0.19315892457962036 0.0038250493817031384
0.89497637748718262 0.21412140130996704 0.0012896070256829262
0.96515434980392456 0.23483049869537354 0.00086753693176433444
0.0013158012880012393 0.16865167021751404 0.025879474356770515
0.0089262267574667931 0.16905046999454498 0.021998357027769089
0.094878688454627991 0.1757829487323761 0.014270199462771416
0.22751319408416748 0.19225496053695679 0.0092345438897609711
0.34392106533050537 0.21033982932567596 0.0083890426903963089
0.45087170600891113 0.21813483536243439 0.0059861424379050732
0.54657894372940063 0.22745071351528168 0.0043716132640838623
0.62805032730102539 0.23535542190074921 0.0062559689395129681
0.6962922215461731 0.23633666336536407 0.0068859322927892208
0.76432853937149048 0.2390778511762619 0.0073388190940022469
0.83200901746749878 0.24852895736694336 0.0048550027422606945
0.90014171600341797 0.26412567496299744 0.0041735032573342323
0.96782004833221436 0.28175193071365356 0.0025106093380600214
0.0018544964259490371 0.2838892936706543 0.051736194640398026
0.0044888216070830822 0.28477635979652405 0.050453290343284607
0.045121151953935623 0.28654181957244873 0.038661599159240723
0.20964539051055908 0.2895197868347168 0.025681305676698685
0.34817671775817871 0.3020777702331543 0.0111352214589715
0.46336549520492554 0.31430065631866455 0.0070922402665019035
0.56557083129882812 0.31971600651741028 0.0042913099750876427
0.64323419332504272 0.31961303949356079 0.00388487265445292
0.71083593368530273 0.31675869226455688 0.0050672045908868313
0.77528977394104004 0.3163677453994751 0.0047139786183834076
0.83981406688690186 0.32314693927764893 0.0054641873575747013
0.90487056970596313 0.32973587512969971 0.0072682099416851997
0.96921026706695557 0.33929485082626343 0.002383123617619276
0.0006466884515248239 0.39848986268043518 0.1107952669262886
0.002294203732162714 0.40310117602348328 0.11524613201618195
0.011569108814001083 0.40665560960769653 0.11084306240081787
0.16510029137134552 0.40386742353439331 0.093451917171478271
0.3279731273651123 0.40254923701286316 0.062723450362682343
0.45807984471321106 0.40537762641906738 0.0297419223934412
0.56309759616851807 0.41049131751060486 0.011487923562526703
0.64886420965194702 0.40792825818061829 0.0062820133753120899
0.72337138652801514 0.40171587467193604 0.0066988030448555946
0.78645050525665283 0.40121442079544067 0.004067110363394022
0.84890830516815186 0.40193721652030945 0.0048680622130632401
0.91385751962661743 0.40314140915870667 0.0050931293517351151
0.97612547874450684 0.409147709608078 0.0039347182027995586
0 0.50441974401473999 0.18406312167644501
0.00026254093972966075 0.5095827579498291 0.1916116327047348
0.0044112559407949448 0.51294624805450439 0.19025345146656036
0.10595168918371201 0.51044648885726929 0.18026900291442871
0.29338401556015015 0.50274980068206787 0.1559993177652359
0.42548367381095886 0.49611419439315796 0.1193244457244873
0.54098707437515259 0.49374276399612427 0.082436583936214447
0.63565462827682495 0.491292804479599 0.046926327049732208
0.71596020460128784 0.48777201771736145 0.032996714115142822
0.78851085901260376 0.4841635525226593 0.011941707693040371
0.85677438974380493 0.48258128762245178 0.0086447028443217278
0.92296475172042847 0.48273327946662903 0.0081748366355895996
0.9833105206489563 0.48559224605560303 0.0060367807745933533
0 0.59824585914611816 0.25324994325637817
0.0002460105752106756 0.60112601518630981 0.25996184349060059
0.0026634067762643099 0.60217863321304321 0.260477215051651
0.057758629322052002 0.60343098640441895 0.25743401050567627
0.25203180313110352 0.59456878900527954 0.2410435676574707
0.38803118467330933 0.58421599864959717 0.21682679653167725
0.50603806972503662 0.57429653406143188 0.18738237023353577
0.60887765884399414 0.57091951370239258 0.1512361466884613
0.70079690217971802 0.56937026977539062 0.11880137026309967
0.77736908197402954 0.56716328859329224 0.08466649055480957
0.85539168119430542 0.56737816333770752 0.0558432936668396
0.92912125587463379 0.5668146014213562 0.032459799200296402
0.98658931255340576 0.56680655479431152 0.030313814058899879
0 0.68306976556777954 0.32149514555931091
0.00055693084141239524 0.6847994327545166 0.32333678007125854
0.0025864844210445881 0.6842542290687561 0.32447817921638489
0.042550269514322281 0.68716162443161011 0.32482048869132996
0.22196823358535767 0.68208318948745728 0.31628173589706421
0.35573717951774597 0.67142808437347412 0.29868224263191223
0.47189769148826599 0.66088336706161499 0.27463680505752563
0.57863372564315796 0.65263491868972778 0.24318337440490723
0.67740613222122192 0.64818042516708374 0.21213504672050476
0.76276379823684692 0.64842599630355835 0.18535321950912476
0.84384888410568237 0.65195316076278687 0.16303533315658569
0.92138504981994629 0.65203166007995605 0.14189188182353973
0.98436957597732544 0.65145772695541382 0.12892152369022369
0.00035089231096208096 0.75972491502761841 0.38681256771087646
0.0033471351489424706 0.76158612966537476 0.38736394047737122
0.007565861102193594 0.76408237218856812 0.38924196362495422
0.071549311280250549 0.76569509506225586 0.38945785164833069
0.22586950659751892 0.76404410600662231 0.38888174295425415
0.33972179889678955 0.75725746154785156 0.3787941038608551
0.44812548160552979 0.74718713760375977 0.36083295941352844
0.5550580620765686 0.73670053482055664 0.33471593260765076
0.64824724197387695 0.7307325005531311 0.30568861961364746
0.74288517236709595 0.7271263599395752 0.27621170878410339
0.83333086967468262 0.73058557510375977 0.25064876675605774
0.90802854299545288 0.73004955053329468 0.2361854612827301
0.9745255708694458 0.7307661771774292 0.22994990646839142
0.016680354252457619 0.83486604690551758 0.45521581172943115
0.033414892852306366 0.83575856685638428 0.45583203434944153
0.085917271673679352 0.83726781606674194 0.45791333913803101
0.17909665405750275 0.83498638868331909 0.45914760231971741
0.27179542183876038 0.83510148525238037 0.46291491389274597
0.36210069060325623 0.83246541023254395 0.4576590359210968
0.45279067754745483 0.82745617628097534 0.44253072142601013
0.54192143678665161 0.82004904747009277 0.42170703411102295
0.62821775674819946 0.80996423959732056 0.3983004093170166
0.71952468156814575 0.80229765176773071 0.37318521738052368
0.8105926513671875 0.80035728216171265 0.34149399399757385
0.89747798442840576 0.80314403772354126 0.32108315825462341
0.96795481443405151 0.80682456493377686 0.32139253616333008
0.19751676917076111 0.89913469552993774 0.53215318918228149
0.22007305920124054 0.89721536636352539 0.53305083513259888
0.25641420483589172 0.89673715829849243 0.53414475917816162
0.30174225568771362 0.89616751670837402 0.53425878286361694
0.35299155116081238 0.8962777853012085 0.53622347116470337
0.4141353964805603 0.8959118127822876 0.53512823581695557
0.48323675990104675 0.89419704675674438 0.52724450826644897
0.55387586355209351 0.88947480916976929 0.51140487194061279
0.6286424994468689 0.88072359561920166 0.4918397068977356
0.70660668611526489 0.87478345632553101 0.4704919159412384
0.78931397199630737 0.86909681558609009 0.44664481282234192
0.87376046180725098 0.86840361356735229 0.42175233364105225
0.95654106140136719 0.87528258562088013 0.41258594393730164
0.38808310031890869 0.94906902313232422 0.61832380294799805
0.39454075694084167 0.94669294357299805 0.61758732795715332
0.40782421827316284 0.94607383012771606 0.61695975065231323
0.4319252073764801 0.94484484195709229 0.61774182319641113
0.46379944682121277 0.94292676448822021 0.61962366104125977
0.50107777118682861 0.94638925790786743 0.62190544605255127
0.54629480838775635 0.94645708799362183 0.61861252784729004
0.59845072031021118 0.94297277927398682 0.6087416410446167
0.65411365032196045 0.94032484292984009 0.59460330009460449
0.71761631965637207 0.93725299835205078 0.57890444993972778
0.78484934568405151 0.93329328298568726 0.56136816740036011
0.85358470678329468 0.93034648895263672 0.54126781225204468
0.92591685056686401 0.92915230989456177 0.52119177579879761
0.54283708333969116 0.98633825778961182 0.70583349466323853
0.54197889566421509 0.98423874378204346 0.70477378368377686
0.54932737350463867 0.98382294178009033 0.70484167337417603
0.56507295370101929 0.98366564512252808 0.70691508054733276
0.58563274145126343 0.98232078552246094 0.70947974920272827
0.60871833562850952 0.98409968614578247 0.71221673488616943
0.63505607843399048 0.98457413911819458 0.71214175224304199
0.66886895895004272 0.98367375135421753 0.70772051811218262
0.70674240589141846 0.98393666744232178 0.69890934228897095
0.75018256902694702 0.98263925313949585 0.68746489286422729
0.80171763896942139 0.98045361042022705 0.6785309910774231
0.85551178455352783 0.97683662176132202 0.66577678918838501
0.91125106811523438 0.97415465116500854 0.65133762359619141
0.0084395762532949448 0.012949191965162754 0.063858538866043091
0.046285651624202728 0.013314415700733662 0.063472181558609009
0.11988192051649094 0.012913677841424942 0.061284743249416351
0.22202014923095703 0.011516585946083069 0.056810803711414337
0.32882648706436157 0.016936372965574265 0.048505969345569611
0.42885479331016541 0.028289167210459709 0.046406883746385574
0.52240568399429321 0.046513695269823074 0.040268618613481522
0.60907751321792603 0.071881584823131561 0.033225670456886292
0.68429523706436157 0.10069935768842697 0.027050318196415901
0.75167924165725708 0.12399009615182877 0.021732494235038757
0.81975656747817993 0.1482427716255188 0.020494198426604271
0.89008080959320068 0.17029228806495667 0.01397883053869009
0.96255338191986084 0.1957346647977829 0.0098753385245800018
0.0048505445010960102 0.068717613816261292 0.071885265409946442
0.036893658339977264 0.073973760008811951 0.072974324226379395
0.12660516798496246 0.079565070569515228 0.066170006990432739
0.23214218020439148 0.0851249098777771 0.061436820775270462
0.33842605352401733 0.092827439308166504 0.052766330540180206
0.43872705101966858 0.10920779407024384 0.046591080725193024
0.53239232301712036 0.12355273216962814 0.038349855691194534
0.61710572242736816 0.14107519388198853 0.032239068299531937
0.69019919633865356 0.15586386620998383 0.026594633236527443
0.75686758756637573 0.17051374912261963 0.021071594208478928
0.82466119527816772 0.18816347420215607 0.019527524709701538
0.89455068111419678 0.20856307446956635 0.017437759786844254
0.96387290954589844 0.22711494565010071 0.012638765387237072
0.0043739769607782364 0.17363472282886505 0.098158799111843109
0.015576845034956932 0.17516419291496277 0.094101309776306152
0.1079527735710144 0.18121638894081116 0.084288470447063446
0.2389286607503891 0.19063274562358856 0.070485301315784454
0.35214346647262573 0.19903095066547394 0.055312450975179672
0.45750394463539124 0.2078225165605545 0.043928466737270355
0.549144446849823 0.2163676917552948 0.039271589368581772
0.62948846817016602 0.22649268805980682 0.040867555886507034
0.6985313892364502 0.23021906614303589 0.034622807055711746
0.76364380121231079 0.23451253771781921 0.023763170465826988
0.83152562379837036 0.24471373856067657 0.022503437474370003
0.89894562959671021 0.25885105133056641 0.020409513264894485
0.96611869335174561 0.27483820915222168 0.015858953818678856
0.0045807184651494026 0.28577020764350891 0.1392432302236557
0.0042890063486993313 0.28709161281585693 0.1317954957485199
0.061741817742586136 0.2895662784576416 0.1221843957901001
0.22410216927528381 0.29574519395828247 0.10754437744617462
0.35632902383804321 0.30466368794441223 0.081033580005168915
0.46949115395545959 0.31080380082130432 0.057779978960752487
0.56677603721618652 0.31405863165855408 0.04682675376534462
0.6441110372543335 0.3127581775188446 0.03846881166100502
0.70974445343017578 0.30990177392959595 0.036985196173191071
0.774089515209198 0.31137147545814514 0.030753714963793755
0.83995896577835083 0.31898778676986694 0.032248865813016891
0.90602058172225952 0.32512345910072327 0.02850036695599556
0.97241431474685669 0.33329468965530396 0.019887004047632217
0.0038059009239077568 0.3998396098613739 0.19036242365837097
0.0036630968097597361 0.4046594500541687 0.1887279748916626
0.024520410224795341 0.40777632594108582 0.18032363057136536
0.19001410901546478 0.40591767430305481 0.16668619215488434
0.33817780017852783 0.40555903315544128 0.14073748886585236
0.46061575412750244 0.40553733706474304 0.1114698052406311
0.56293684244155884 0.4077911376953125 0.086064144968986511
0.64873331785202026 0.40324971079826355 0.060278605669736862
0.7197418212890625 0.39690807461738586 0.049381271004676819
0.7858625054359436 0.39436009526252747 0.040974292904138565
0.85006654262542725 0.39665216207504272 0.038630213588476181
0.9164164662361145 0.39966800808906555 0.036383967846632004
0.97891813516616821 0.40568900108337402 0.033296920359134674
0.00041827032691799104 0.50500506162643433 0.2436152845621109
0.0014516344526782632 0.51041221618652344 0.24774037301540375
0.0092650316655635834 0.51302284002304077 0.24131311476230621
0.14580392837524414 0.51009917259216309 0.23173938691616058
0.30938759446144104 0.50227546691894531 0.21399275958538055
0.43177896738052368 0.49561277031898499 0.19037638604640961
0.54210454225540161 0.49337536096572876 0.15685541927814484
0.63442438840866089 0.48964866995811462 0.12279390543699265
0.71448451280593872 0.48506516218185425 0.10141846537590027
0.78761756420135498 0.48008003830909729 0.075112044811248779
0.85601693391799927 0.47816118597984314 0.062983810901641846
0.92232221364974976 0.47954246401786804 0.06039651483297348
0.98155194520950317 0.48473206162452698 0.064682275056838989
0.00093093572650104761 0.59832227230072021 0.29582804441452026
0.002635088050737977 0.60133522748947144 0.30154353380203247
0.0052328221499919891 0.60362571477890015 0.29714876413345337
0.10982851684093475 0.60303324460983276 0.29382425546646118
0.2748129665851593 0.59390890598297119 0.28262591361999512
0.39569577574729919 0.58345121145248413 0.26468074321746826
0.50977438688278198 0.5740552544593811 0.23837406933307648
0.60908281803131104 0.56802517175674438 0.20453938841819763
0.69631487131118774 0.56554228067398071 0.17736867070198059
0.776528000831604 0.56412595510482788 0.1508869081735611
0.8527597188949585 0.56349295377731323 0.12096542865037918
0.92473745346069336 0.56368958950042725 0.10859346389770508
0.98493671417236328 0.56629610061645508 0.11225971579551697
0.0026144888252019882 0.6802247166633606 0.3551909327507019
0.00087281770538538694 0.68384635448455811 0.35496211051940918
0.0093539664521813393 0.68508851528167725 0.35195162892341614
0.10925083607435226 0.68626302480697632 0.35293269157409668
0.25145432353019714 0.68130689859390259 0.34792160987854004
0.36648252606391907 0.67091602087020874 0.33270615339279175
0.47546565532684326 0.65850734710693359 0.3083137571811676
0.57799732685089111 0.64797085523605347 0.27853831648826599
0.67313873767852783 0.64291989803314209 0.24997295439243317
0.76319998502731323 0.64451152086257935 0.22480008006095886
0.84318035840988159 0.64733707904815674 0.20511949062347412
0.91991496086120605 0.6489863395690918 0.18936863541603088
0.98479586839675903 0.65057754516601562 0.17856618762016296
0.0011135325767099857 0.76077806949615479 0.41012668609619141
0.0064091552048921585 0.76230305433273315 0.40989091992378235
0.038122154772281647 0.76426082849502563 0.40987613797187805
0.1459975391626358 0.76431667804718018 0.41296517848968506
0.25868690013885498 0.76325505971908569 0.4164225161075592
0.35920226573944092 0.756175696849823 0.40488091111183167
0.45957905054092407 0.74558615684509277 0.38378757238388062
0.56159931421279907 0.73405659198760986 0.35816824436187744
0.65219378471374512 0.72622072696685791 0.33006176352500916
0.74177199602127075 0.72372132539749146 0.30222189426422119
0.83297073841094971 0.72866308689117432 0.28321018815040588
0.90904062986373901 0.73047018051147461 0.26998260617256165
0.97481882572174072 0.73087698221206665 0.26219427585601807
0.054786112159490585 0.83587831258773804 0.47130376100540161
0.088495664298534393 0.83663380146026611 0.47368618845939636
0.15229654312133789 0.83604556322097778 0.47580349445343018
0.22337262332439423 0.83334183692932129 0.47834154963493347
0.30212393403053284 0.83357399702072144 0.48437279462814331
0.38392487168312073 0.83257615566253662 0.4799894392490387
0.46453619003295898 0.8276059627532959 0.46183124184608459
0.55074888467788696 0.81950193643569946 0.44089475274085999
0.63682502508163452 0.80647552013397217 0.41552603244781494
0.72033059597015381 0.79966503381729126 0.39165803790092468
0.80940097570419312 0.80085474252700806 0.36521241068840027
0.89772683382034302 0.80350679159164429 0.34540268778800964
0.96751916408538818 0.80693769454956055 0.34391894936561584
0.24060113728046417 0.89731532335281372 0.54641389846801758
0.26145276427268982 0.89564281702041626 0.54703414440155029
0.29006743431091309 0.89443010091781616 0.54778456687927246
0.32661494612693787 0.89515411853790283 0.54829686880111694
0.37725162506103516 0.89579993486404419 0.55191373825073242
0.43037974834442139 0.89594501256942749 0.55039536952972412
0.49211904406547546 0.89419841766357422 0.54054754972457886
0.56131523847579956 0.88813513517379761 0.52526956796646118
0.63411003351211548 0.88060826063156128 0.5064433217048645
0.71198904514312744 0.8728257417678833 0.48789554834365845
0.78945362567901611 0.86904293298721313 0.46200266480445862
0.87423241138458252 0.86896759271621704 0.43762728571891785
0.95723307132720947 0.87501877546310425 0.42858868837356567
0.40682521462440491 0.94764381647109985 0.6282840371131897
0.41105762124061584 0.94454658031463623 0.62721061706542969
0.4256843626499176 0.94425725936889648 0.62701952457427979
0.4490739107131958 0.94574660062789917 0.62757092714309692
0.47840824723243713 0.94676762819290161 0.6309848427772522
0.51368004083633423 0.94722145795822144 0.63183128833770752
0.55624300241470337 0.94440501928329468 0.62730342149734497
0.60420131683349609 0.94334036111831665 0.61875778436660767
0.65765100717544556 0.94032353162765503 0.60661977529525757
0.72098559141159058 0.93748152256011963 0.59230905771255493
0.79003101587295532 0.93006318807601929 0.57170885801315308
0.85754120349884033 0.92584830522537231 0.55064213275909424
0.92825442552566528 0.92814081907272339 0.53223168849945068
0.54797506332397461 0.98413252830505371 0.71106880903244019
0.5511709451675415 0.98358261585235596 0.71140176057815552
0.56131434440612793 0.98373299837112427 0.71246635913848877
0.57688778638839722 0.98408281803131104 0.71483933925628662
0.59566372632980347 0.98474395275115967 0.71708351373672485
0.61732548475265503 0.98498678207397461 0.71875149011611938
0.64427083730697632 0.98376715183258057 0.71856307983398438
0.67542034387588501 0.98368656635284424 0.7150038480758667
0.71206784248352051 0.98327767848968506 0.70750492811203003
0.75679802894592285 0.98206323385238647 0.69849735498428345
0.80575823783874512 0.97868287563323975 0.68706738948822021
0.85973846912384033 0.97490561008453369 0.67316585779190063
0.91306275129318237 0.97467541694641113 0.66063988208770752
0.0067152585834264755 0.01218064222484827 0.16493202745914459
0.05281994491815567 0.011169927194714546 0.16424605250358582
0.13304758071899414 0.011436941102147102 0.16075822710990906
0.23122680187225342 0.0060713673010468483 0.15763740241527557
0.33721080422401428 0.0043307137675583363 0.15023921430110931
0.43596702814102173 0.0061913733370602131 0.14142659306526184
0.52835363149642944 0.0083125848323106766 0.13205540180206299
0.61180800199508667 0.020591706037521362 0.12964247167110443
0.68216085433959961 0.052697423845529556 0.1266702264547348
0.74703699350357056 0.093046776950359344 0.11917798221111298
0.81340736150741577 0.12399493902921677 0.11175845563411713
0.88463324308395386 0.15236937999725342 0.10195683687925339
0.95939695835113525 0.18076047301292419 0.10413997620344162
0.0036510543432086706 0.077637448906898499 0.17168568074703217
0.032423369586467743 0.075998671352863312 0.17146217823028564
0.13406363129615784 0.079127863049507141 0.1695195734500885
0.24200600385665894 0.075690329074859619 0.16499516367912292
0.34691673517227173 0.067401304841041565 0.15461872518062592
0.44533216953277588 0.061098780483007431 0.14571091532707214
0.5363275408744812 0.074955962598323822 0.14061242341995239
0.61696547269821167 0.10224065184593201 0.13736045360565186
0.68701881170272827 0.12600760161876678 0.12937906384468079
0.75173014402389526 0.14837141335010529 0.12149975448846817
0.81788545846939087 0.16904182732105255 0.11552592366933823
0.88817977905273438 0.19305397570133209 0.10977282375097275
0.96209990978240967 0.2160954475402832 0.1075839027762413
0.0030587587971240282 0.18030796945095062 0.18249286711215973
0.025037279352545738 0.17899289727210999 0.1840759664773941
0.13781698048114777 0.1829180121421814 0.18329504132270813
0.25298967957496643 0.18687261641025543 0.17612801492214203
0.35769748687744141 0.18532241880893707 0.16720344126224518
0.45726144313812256 0.19013011455535889 0.15837571024894714
0.54929929971694946 0.19721746444702148 0.15270450711250305
0.62631630897521973 0.20502753555774689 0.14724385738372803
0.69368594884872437 0.21043223142623901 0.1358782947063446
0.75849258899688721 0.21980209648609161 0.12516893446445465
0.82591438293457031 0.23241609334945679 0.11969466507434845
0.89494049549102783 0.25017836689949036 0.11677704006433487
0.9635729193687439 0.2692750096321106 0.1117653027176857
0.0083603803068399429 0.28735476732254028 0.21639783680438995
0.043410267680883408 0.28794321417808533 0.21539589762687683
0.13314452767372131 0.29364785552024841 0.21230150759220123
0.25527244806289673 0.30070886015892029 0.20540702342987061
0.36774498224258423 0.30136805772781372 0.19184505939483643
0.47026050090789795 0.30355352163314819 0.17546090483665466
0.5640873908996582 0.30412155389785767 0.16619761288166046
0.63789582252502441 0.30188333988189697 0.1579507440328598
0.70313900709152222 0.29802879691123962 0.14759813249111176
0.76870834827423096 0.30123186111450195 0.13721157610416412
0.83680444955825806 0.30931189656257629 0.13276611268520355
0.90494734048843384 0.3189951479434967 0.13048456609249115
0.97061294317245483 0.33127185702323914 0.12526607513427734
0.043661229312419891 0.40030419826507568 0.27211320400238037
0.0730767622590065 0.4029059112071991 0.267751544713974
0.12195980548858643 0.40630850195884705 0.25881132483482361
0.23762170970439911 0.40768364071846008 0.25014004111289978
