luts/negative_old/fuji_superia_1600.cube
# Created by: G'MIC (https://gmic.eu)
TITLE "fuji_superia_1600"
# LUT size
LUT_3D_SIZE 7
# Data domain
DOMAIN_MIN 0.0 0.0 0.0
DOMAIN_MAX 1.0 1.0 1.0
# LUT data points
0.069818876683712006 0.10997212678194046 0.10955537110567093
0.1192917600274086 0.11113565415143967 0.10573806613683701
0.26394671201705933 0.11708377301692963 0.09866352379322052
0.48787462711334229 0.11981444805860519 0.087674893438816071
0.69898509979248047 0.12027942389249802 0.066269882023334503
0.85577917098999023 0.16716505587100983 0.035741589963436127
0.97890019416809082 0.24573448300361633 0.011418689973652363
0.025183344259858131 0.16836819052696228 0.10807552188634872
0.10436159372329712 0.18094119429588318 0.10451743751764297
0.30118101835250854 0.20388656854629517 0.089541852474212646
0.53323161602020264 0.21002368628978729 0.073086664080619812
0.72068983316421509 0.22127287089824677 0.049038413912057877
0.86679434776306152 0.25044190883636475 0.019942279905080795
0.97860902547836304 0.31000807881355286 0.0070187589153647423
0.0021430968772619963 0.33443352580070496 0.12616832554340363
0.014289362356066704 0.34731987118721008 0.1156255230307579
0.29607820510864258 0.39944729208946228 0.056875761598348618
0.59285759925842285 0.41633445024490356 0.011155311949551105
0.75728422403335571 0.38512381911277771 0.013895072042942047
0.88410454988479614 0.39254301786422729 0.0099820010364055634
0.98859858512878418 0.42541599273681641 0.0073937359265983105
0.0014849943108856678 0.53245586156845093 0.17614768445491791
0.0054148207418620586 0.53404808044433594 0.17843879759311676
0.22948144376277924 0.55245298147201538 0.14482873678207397
0.53842222690582275 0.59306555986404419 0.059501796960830688
0.77107369899749756 0.62047773599624634 0.006193108856678009
0.89669322967529297 0.58705717325210571 0.016681849956512451
0.99044430255889893 0.57680422067642212 0.078560546040534973
0.01360213290899992 0.6978268027305603 0.29928559064865112
0.078625097870826721 0.69489353895187378 0.29272174835205078
0.26494398713111877 0.69157236814498901 0.28822213411331177
0.49918848276138306 0.716411292552948 0.26129066944122314
0.70257622003555298 0.74727880954742432 0.21761907637119293
0.88691842555999756 0.78046286106109619 0.19149549305438995
0.98814862966537476 0.75741297006607056 0.23913046717643738
0.33527278900146484 0.83199489116668701 0.46424412727355957
0.36669921875 0.82563573122024536 0.46062532067298889
0.43200975656509399 0.82252722978591919 0.45286673307418823
0.54754137992858887 0.83125364780426025 0.45083078742027283
0.69139999151229858 0.8477291464805603 0.4437146782875061
0.82237279415130615 0.86878502368927002 0.42402958869934082
0.96453547477722168 0.89455282688140869 0.42782342433929443
0.58532476425170898 0.93428498506546021 0.65726184844970703
0.59824866056442261 0.93191725015640259 0.65683674812316895
0.62664967775344849 0.93239939212799072 0.65834999084472656
0.66871780157089233 0.93214726448059082 0.65828430652618408
0.74231439828872681 0.94067484140396118 0.6554025411605835
0.82111269235610962 0.94903022050857544 0.6504206657409668
0.91195756196975708 0.9580615758895874 0.64448899030685425
0.067315645515918732 0.10677394270896912 0.15562811493873596
0.12830644845962524 0.10860706120729446 0.1593998521566391
0.27736827731132507 0.10073617845773697 0.15480899810791016
0.4961446225643158 0.070409171283245087 0.14902986586093903
0.69165569543838501 0.10281255096197128 0.14929266273975372
0.84569644927978516 0.15939228236675262 0.14196127653121948
0.9733130931854248 0.24454273283481598 0.13442927598953247
0.027313472703099251 0.18070332705974579 0.17097888886928558
0.12433432787656784 0.1874588280916214 0.17340688407421112
0.30776086449623108 0.19759677350521088 0.16618502140045166
0.53815245628356934 0.20233190059661865 0.16112589836120605
0.71230697631835938 0.21701595187187195 0.15099476277828217
0.85541272163391113 0.24574415385723114 0.14567713439464569
0.97486424446105957 0.3169538676738739 0.13857029378414154
0.00300749228335917 0.36637243628501892 0.21574831008911133
0.063683211803436279 0.3637373149394989 0.20756649971008301
0.32756966352462769 0.39558914303779602 0.18526346981525421
0.58531564474105835 0.40215039253234863 0.16503223776817322
0.74998754262924194 0.38618919253349304 0.161507248878479
0.87544888257980347 0.39975211024284363 0.1559349000453949
0.98457449674606323 0.430855393409729 0.15632234513759613
0.0059329462237656116 0.55298066139221191 0.27684798836708069
0.0596022829413414 0.54966366291046143 0.27147707343101501
0.29214036464691162 0.55139940977096558 0.25567436218261719
0.55554783344268799 0.59296506643295288 0.22085502743721008
0.76063746213912964 0.60668718814849854 0.18700066208839417
0.88931506872177124 0.57819539308547974 0.20419970154762268
0.98933058977127075 0.57924139499664307 0.21968865394592285
0.14490339159965515 0.70497459173202515 0.3702738881111145
0.22067010402679443 0.7010619044303894 0.37044671177864075
0.33754432201385498 0.69199663400650024 0.36079451441764832
0.5208439826965332 0.71413320302963257 0.34500172734260559
0.70395314693450928 0.74980753660202026 0.33097285032272339
0.88474035263061523 0.77519065141677856 0.31289020180702209
0.98160231113433838 0.75098162889480591 0.33441075682640076
0.38419750332832336 0.83013200759887695 0.51337695121765137
0.41718286275863647 0.82624894380569458 0.5078389048576355
0.4677499532699585 0.82471209764480591 0.49895083904266357
0.55914843082427979 0.82735317945480347 0.4937320351600647
0.6838257908821106 0.8499678373336792 0.48543810844421387
0.82401251792907715 0.87004923820495605 0.47964876890182495
0.96790051460266113 0.89457798004150391 0.48365768790245056
0.60774505138397217 0.93325448036193848 0.6814693808555603
0.6183052659034729 0.93353009223937988 0.68189573287963867
0.63995182514190674 0.93124228715896606 0.6771235466003418
0.68147343397140503 0.93123692274093628 0.67569231986999512
0.74502658843994141 0.93719327449798584 0.67523902654647827
0.825359046459198 0.94819635152816772 0.67604529857635498
0.91117531061172485 0.95625042915344238 0.67375034093856812
0.031460676342248917 0.10732725262641907 0.30170777440071106
0.14769652485847473 0.1093653067946434 0.29958829283714294
0.29947355389595032 0.11820228397846222 0.30111807584762573
0.53634500503540039 0.10198836773633957 0.32315889000892639
0.73133951425552368 0.039717983454465866 0.30237984657287598
0.86600136756896973 0.043290112167596817 0.26833179593086243
0.97431463003158569 0.21970856189727783 0.28073078393936157
0.0089163687080144882 0.18134625256061554 0.31583422422409058
0.11916456371545792 0.18916487693786621 0.31992912292480469
0.32739388942718506 0.2132885754108429 0.32809960842132568
0.56297522783279419 0.22028049826622009 0.33946144580841064
0.73020368814468384 0.19261516630649567 0.30561953783035278
0.86055147647857666 0.22321076691150665 0.2936255931854248
0.97394788265228271 0.31504872441291809 0.29914975166320801
0.0060630501247942448 0.38181176781654358 0.36915832757949829
0.13295172154903412 0.38167428970336914 0.37208825349807739
0.36210870742797852 0.38750112056732178 0.36955899000167847
0.57273405790328979 0.38629713654518127 0.35415223240852356
0.73417776823043823 0.38724634051322937 0.34114474058151245
0.86380207538604736 0.40451768040657043 0.33006814122200012
0.97711080312728882 0.43933489918708801 0.33113124966621399
0.25213631987571716 0.57895523309707642 0.45012122392654419
0.32944139838218689 0.57456779479980469 0.44754961133003235
0.41387856006622314 0.56436169147491455 0.42552980780601501
0.57344645261764526 0.58276373147964478 0.40700811147689819
0.75063890218734741 0.58989852666854858 0.39391696453094482
0.87886184453964233 0.57504874467849731 0.37688907980918884
0.97692805528640747 0.58406209945678711 0.37421804666519165
0.38345211744308472 0.71697920560836792 0.51387542486190796
0.40172731876373291 0.71666413545608521 0.50530767440795898
0.45176121592521667 0.70863050222396851 0.48964425921440125
0.55117344856262207 0.71025937795639038 0.47303315997123718
0.71819812059402466 0.74528640508651733 0.46662601828575134
0.87260782718658447 0.76421529054641724 0.46124675869941711
0.96753358840942383 0.74430841207504272 0.46266907453536987
0.4896489679813385 0.84027397632598877 0.59789896011352539
0.50634658336639404 0.83869916200637817 0.59537023305892944
0.54464185237884521 0.83280211687088013 0.58999359607696533
0.59172093868255615 0.82743597030639648 0.5730249285697937
0.70899486541748047 0.84521627426147461 0.57528042793273926
0.8346676230430603 0.86954396963119507 0.57639145851135254
0.96209847927093506 0.88948148488998413 0.58412307500839233
0.64567035436630249 0.93695634603500366 0.72530245780944824
0.65504926443099976 0.93528324365615845 0.72553998231887817
0.67063683271408081 0.93194901943206787 0.71714287996292114
0.70326298475265503 0.93358343839645386 0.71878135204315186
0.75676894187927246 0.93977254629135132 0.7183195948600769
0.83350831270217896 0.9484209418296814 0.71798306703567505
0.91259247064590454 0.95367050170898438 0.71618545055389404
0.0079252058640122414 0.10905486345291138 0.48753663897514343
0.14707817137241364 0.11208418011665344 0.48957616090774536
0.35303312540054321 0.12269719690084457 0.49656170606613159
0.55817186832427979 0.12775439023971558 0.51318967342376709
0.7353859543800354 0.18324793875217438 0.52221965789794922
0.88973915576934814 0.25923791527748108 0.52337586879730225
0.99002397060394287 0.26671147346496582 0.49234530329704285
0.0059393192641437054 0.19094686210155487 0.49434277415275574
0.13215813040733337 0.20129524171352386 0.50671219825744629
0.36478689312934875 0.22504770755767822 0.51331883668899536
0.57143110036849976 0.246925950050354 0.52697104215621948
0.74133694171905518 0.29610151052474976 0.52899956703186035
0.88180923461914062 0.33144012093544006 0.52077996730804443
0.98454421758651733 0.32170680165290833 0.48130068182945251
0.00096818513702601194 0.34002557396888733 0.5180668830871582
0.051660381257534027 0.34668543934822083 0.52693545818328857
0.37217918038368225 0.37758541107177734 0.53173196315765381
0.57713741064071655 0.41175869107246399 0.54239135980606079
0.73925673961639404 0.4371529221534729 0.54424196481704712
0.86623209714889526 0.4292166531085968 0.51231527328491211
0.98057162761688232 0.42494308948516846 0.48717322945594788
0.17869336903095245 0.57419419288635254 0.57270532846450806
0.30059391260147095 0.57051640748977661 0.57785284519195557
0.45500850677490234 0.56515944004058838 0.57221037149429321
0.5941581130027771 0.56715482473373413 0.56350088119506836
0.73245853185653687 0.57018554210662842 0.547649085521698
0.86030864715576172 0.56809401512145996 0.52871555089950562
0.97256457805633545 0.58185988664627075 0.52080029249191284
0.47911971807479858 0.74430662393569946 0.64957892894744873
0.51602828502655029 0.74182844161987305 0.64566445350646973
0.56254595518112183 0.72827285528182983 0.63223820924758911
0.61110985279083252 0.71433508396148682 0.6066402792930603
0.7337111234664917 0.73657602071762085 0.59622359275817871
0.860260009765625 0.74412614107131958 0.59527474641799927
0.96173775196075439 0.73858284950256348 0.59009182453155518
0.60632121562957764 0.85021007061004639 0.71670359373092651
0.618255615234375 0.84963583946228027 0.71097075939178467
0.63295811414718628 0.84618151187896729 0.69990605115890503
0.66139066219329834 0.83600389957427979 0.6788678765296936
0.7267155647277832 0.84039241075515747 0.66803795099258423
0.8426932692527771 0.86639034748077393 0.67261976003646851
0.96100622415542603 0.88231152296066284 0.67819392681121826
0.70831066370010376 0.93621790409088135 0.79237645864486694
0.70685970783233643 0.93597084283828735 0.78415441513061523
0.71515947580337524 0.93834799528121948 0.77889108657836914
0.74129915237426758 0.93598920106887817 0.77426528930664062
0.77694797515869141 0.93650829792022705 0.77063167095184326
0.85020685195922852 0.94493043422698975 0.76895630359649658
0.92668396234512329 0.95572066307067871 0.77471143007278442
0.031372219324111938 0.11364680528640747 0.65626496076583862
0.2086377739906311 0.12368324398994446 0.66012805700302124
0.39859363436698914 0.13166850805282593 0.66832327842712402
0.58604210615158081 0.16845597326755524 0.67341512441635132
0.74821668863296509 0.23165740072727203 0.68276441097259521
0.87660902738571167 0.31843721866607666 0.68652856349945068
0.97790658473968506 0.44446930289268494 0.70449358224868774
0.03699677437543869 0.20265400409698486 0.66598045825958252
0.21403039991855621 0.20993584394454956 0.66948390007019043
0.40773823857307434 0.22980451583862305 0.67674195766448975
0.59253239631652832 0.27731019258499146 0.6789470911026001
0.74357706308364868 0.32578167319297791 0.68428206443786621
0.86958074569702148 0.3908592164516449 0.6883847713470459
0.97723019123077393 0.49134126305580139 0.70873218774795532
0.012331808917224407 0.33018037676811218 0.66866439580917358
0.18016886711120605 0.34772351384162903 0.67484110593795776
0.40694507956504822 0.37054663896560669 0.67935293912887573
0.58721661567687988 0.41458824276924133 0.68355280160903931
0.73793429136276245 0.4575992226600647 0.68931615352630615
0.86361914873123169 0.51121646165847778 0.70284414291381836
0.97177749872207642 0.56471359729766846 0.71105796098709106
0.032724030315876007 0.51364439725875854 0.67936468124389648
0.15698800981044769 0.51217114925384521 0.67905938625335693
0.3831460177898407 0.51648211479187012 0.68013215065002441
0.58069956302642822 0.54953271150588989 0.68883466720581055
0.73775064945220947 0.59334993362426758 0.70159387588500977
0.86041587591171265 0.6325414776802063 0.71440929174423218
0.96686041355133057 0.6258813738822937 0.69092124700546265
0.41285449266433716 0.72595936059951782 0.73977386951446533
0.45443138480186462 0.72119444608688354 0.73946422338485718
0.54626399278640747 0.72165220975875854 0.73669016361236572
0.64154714345932007 0.72059917449951172 0.73085445165634155
0.735004723072052 0.72319704294204712 0.71961760520935059
0.84868603944778442 0.72392505407333374 0.70917993783950806
0.95916730165481567 0.7238193154335022 0.69761019945144653
0.64907950162887573 0.86809980869293213 0.80490404367446899
0.66804170608520508 0.86952614784240723 0.80473560094833374
0.69683784246444702 0.86572784185409546 0.80205202102661133
0.72916650772094727 0.85932010412216187 0.79363209009170532
0.76160657405853271 0.84556370973587036 0.77029317617416382
0.86026662588119507 0.86319923400878906 0.76957958936691284
0.95108729600906372 0.86389398574829102 0.76573437452316284
0.76141339540481567 0.94354003667831421 0.86185908317565918
0.76778048276901245 0.94438773393630981 0.86020076274871826
0.77900218963623047 0.94170349836349487 0.85443669557571411
0.79884809255599976 0.9392889142036438 0.84748190641403198
0.81798839569091797 0.93269777297973633 0.83439445495605469
0.86929279565811157 0.94367867708206177 0.83113718032836914
0.9413001537322998 0.94988608360290527 0.83305412530899048
0.25444048643112183 0.14755934476852417 0.81229513883590698
0.34310862421989441 0.15324495732784271 0.81235241889953613
0.48309433460235596 0.17502360045909882 0.81291848421096802
0.62921839952468872 0.22318851947784424 0.81357878446578979
0.77212977409362793 0.32067802548408508 0.81294304132461548
0.88583791255950928 0.38710629940032959 0.82196342945098877
0.97460579872131348 0.47034221887588501 0.82363921403884888
0.26219373941421509 0.23707324266433716 0.81201893091201782
0.35079583525657654 0.23966564238071442 0.81452471017837524
0.48459330201148987 0.25963908433914185 0.81478202342987061
0.63360625505447388 0.30382952094078064 0.81577950716018677
0.77061790227890015 0.38622027635574341 0.81667876243591309
0.88177955150604248 0.43899014592170715 0.82559669017791748
0.97065228223800659 0.51494795083999634 0.82807475328445435
0.23897264897823334 0.35629981756210327 0.81381607055664062
0.33206617832183838 0.36898854374885559 0.81129282712936401
0.46848464012145996 0.38610002398490906 0.81295859813690186
0.62532180547714233 0.43010726571083069 0.81499451398849487
0.76339912414550781 0.48395335674285889 0.8189091682434082
0.86980563402175903 0.5370715856552124 0.82539445161819458
0.95845997333526611 0.59877830743789673 0.83052980899810791
0.012356208637356758 0.47727254033088684 0.8057858943939209
0.1650945246219635 0.48273861408233643 0.80514085292816162
0.40999141335487366 0.50212764739990234 0.81010305881500244
0.59881889820098877 0.54123640060424805 0.81551945209503174
0.75199258327484131 0.59814000129699707 0.82462483644485474
0.86008703708648682 0.64589822292327881 0.83055824041366577
0.94958627223968506 0.69417893886566162 0.84027516841888428
0.2489086240530014 0.67587244510650635 0.82308155298233032
0.31122446060180664 0.67315042018890381 0.82472586631774902
0.41966515779495239 0.66185063123703003 0.82253670692443848
0.55222368240356445 0.66313314437866211 0.81753027439117432
0.71746563911437988 0.70583277940750122 0.82547414302825928
0.85413885116577148 0.75554764270782471 0.84176069498062134
0.9483913779258728 0.7874799370765686 0.851298987865448
0.57797133922576904 0.85040843486785889 0.86896544694900513
0.6012808084487915 0.85224252939224243 0.86973601579666138
0.64696776866912842 0.85142749547958374 0.86929428577423096
0.7084459662437439 0.84950518608093262 0.86607176065444946
0.78017663955688477 0.8431389331817627 0.86406880617141724
0.85727983713150024 0.8554261326789856 0.85976517200469971
0.9462813138961792 0.85357344150543213 0.84959632158279419
0.79188209772109985 0.95310002565383911 0.91324543952941895
0.80027824640274048 0.95179647207260132 0.91251480579376221
0.81426393985748291 0.95088297128677368 0.91260349750518799
0.84027260541915894 0.9501265287399292 0.91351628303527832
0.85804659128189087 0.94313740730285645 0.9048839807510376
0.89024132490158081 0.94641792774200439 0.90112930536270142
0.94578540325164795 0.95499116182327271 0.90076017379760742
0.47425830364227295 0.26402503252029419 0.94451236724853516
0.51637500524520874 0.2782280445098877 0.94278973340988159
0.60168802738189697 0.30769044160842896 0.94019949436187744
0.70596206188201904 0.36225047707557678 0.93659555912017822
0.80965656042098999 0.43596211075782776 0.93535530567169189
0.89703989028930664 0.52293926477432251 0.92946708202362061
0.98054736852645874 0.59187847375869751 0.93529742956161499
0.473316490650177 0.32818055152893066 0.94287413358688354
0.51995754241943359 0.34423449635505676 0.94138878583908081
0.60061419010162354 0.36751380562782288 0.93635869026184082
0.70562350749969482 0.41351568698883057 0.936992347240448
0.80753672122955322 0.47933733463287354 0.93541425466537476
0.89380514621734619 0.55824005603790283 0.92762267589569092
0.97570270299911499 0.6194801926612854 0.93419164419174194
0.45764186978340149 0.43361669778823853 0.93991434574127197
0.50609296560287476 0.43960019946098328 0.94104886054992676
0.58823424577713013 0.45866057276725769 0.93591374158859253
0.69544523954391479 0.49859946966171265 0.93612885475158691
0.80050277709960938 0.55595988035202026 0.93475919961929321
0.88965070247650146 0.62141162157058716 0.92947673797607422
0.96776431798934937 0.67198950052261353 0.93286812305450439
0.34388566017150879 0.52369707822799683 0.94029927253723145
0.42587873339653015 0.53184407949447632 0.94040536880493164
0.54055792093276978 0.55288851261138916 0.93702805042266846
0.65985935926437378 0.58746504783630371 0.93479722738265991
0.78882843255996704 0.63792717456817627 0.9346422553062439
0.87694936990737915 0.69217526912689209 0.93074434995651245
0.96004360914230347 0.73772883415222168 0.93437552452087402
0.14708958566188812 0.64057928323745728 0.94055640697479248
0.24324753880500793 0.63820892572402954 0.93907374143600464
0.40373805165290833 0.64357650279998779 0.93928229808807373
0.58826500177383423 0.67278492450714111 0.93680864572525024
0.74968439340591431 0.7203526496887207 0.93570375442504883
0.86653870344161987 0.76882320642471313 0.93472397327423096
0.95302116870880127 0.81002944707870483 0.93556809425354004
0.50501888990402222 0.82968175411224365 0.94392186403274536
0.52673351764678955 0.82776683568954468 0.94454079866409302
0.5703049898147583 0.82443022727966309 0.94500869512557983
0.62402075529098511 0.81181758642196655 0.9435233473777771
0.70627874135971069 0.80765235424041748 0.94067549705505371
0.8496890664100647 0.84429973363876343 0.94151246547698975
0.94755315780639648 0.88541674613952637 0.94669729471206665
0.738017737865448 0.94135189056396484 0.95071291923522949
0.74618411064147949 0.94692564010620117 0.95779162645339966
0.77402132749557495 0.94252556562423706 0.95295780897140503
0.80341112613677979 0.94533252716064453 0.95727384090423584
0.85040324926376343 0.9420393705368042 0.95786935091018677
0.90102934837341309 0.94472354650497437 0.95790547132492065
0.95248419046401978 0.95432472229003906 0.95926165580749512
