luts/negative_old/fuji_neopan_1600.cube
# Created by: G'MIC (https://gmic.eu)
TITLE "fuji_neopan_1600"
# LUT size
LUT_3D_SIZE 13
# Data domain
DOMAIN_MIN 0.0 0.0 0.0
DOMAIN_MAX 1.0 1.0 1.0
# LUT data points
0.033827207982540131 0.033827207982540131 0.033827207982540131
0.030048564076423645 0.030048564076423645 0.030048564076423645
0.02962767705321312 0.02962767705321312 0.02962767705321312
0.034273006021976471 0.034273006021976471 0.034273006021976471
0.044582486152648926 0.044582486152648926 0.044582486152648926
0.061268899589776993 0.061268899589776993 0.061268899589776993
0.085489757359027863 0.085489757359027863 0.085489757359027863
0.11937514692544937 0.11937514692544937 0.11937514692544937
0.1614096611738205 0.1614096611738205 0.1614096611738205
0.20851309597492218 0.20851309597492218 0.20851309597492218
0.26382747292518616 0.26382747292518616 0.26382747292518616
0.33228513598442078 0.33228513598442078 0.33228513598442078
0.41378232836723328 0.41378232836723328 0.41378232836723328
0.035659294575452805 0.035659294575452805 0.035659294575452805
0.036704342812299728 0.036704342812299728 0.036704342812299728
0.042114436626434326 0.042114436626434326 0.042114436626434326
0.051765620708465576 0.051765620708465576 0.051765620708465576
0.066618062555789948 0.066618062555789948 0.066618062555789948
0.08723747730255127 0.08723747730255127 0.08723747730255127
0.1147361621260643 0.1147361621260643 0.1147361621260643
0.14992550015449524 0.14992550015449524 0.14992550015449524
0.19082486629486084 0.19082486629486084 0.19082486629486084
0.23424506187438965 0.23424506187438965 0.23424506187438965
0.28380689024925232 0.28380689024925232 0.28380689024925232
0.34865722060203552 0.34865722060203552 0.34865722060203552
0.43139141798019409 0.43139141798019409 0.43139141798019409
0.045538224279880524 0.045538224279880524 0.045538224279880524
0.051669895648956299 0.051669895648956299 0.051669895648956299
0.063069470226764679 0.063069470226764679 0.063069470226764679
0.078817494213581085 0.078817494213581085 0.078817494213581085
0.099660597741603851 0.099660597741603851 0.099660597741603851
0.12656788527965546 0.12656788527965546 0.12656788527965546
0.16009345650672913 0.16009345650672913 0.16009345650672913
0.19871720671653748 0.19871720671653748 0.19871720671653748
0.23971237242221832 0.23971237242221832 0.23971237242221832
0.27920782566070557 0.27920782566070557 0.27920782566070557
0.32420527935028076 0.32420527935028076 0.32420527935028076
0.38539081811904907 0.38539081811904907 0.38539081811904907
0.46553876996040344 0.46553876996040344 0.46553876996040344
0.069655820727348328 0.069655820727348328 0.069655820727348328
0.079735457897186279 0.079735457897186279 0.079735457897186279
0.095308087766170502 0.095308087766170502 0.095308087766170502
0.11551615595817566 0.11551615595817566 0.11551615595817566
0.14102771878242493 0.14102771878242493 0.14102771878242493
0.17359523475170135 0.17359523475170135 0.17359523475170135
0.21377131342887878 0.21377131342887878 0.21377131342887878
0.25862452387809753 0.25862452387809753 0.25862452387809753
0.30060955882072449 0.30060955882072449 0.30060955882072449
0.33940210938453674 0.33940210938453674 0.33940210938453674
0.38405969738960266 0.38405969738960266 0.38405969738960266
0.4428088366985321 0.4428088366985321 0.4428088366985321
0.51755672693252563 0.51755672693252563 0.51755672693252563
0.11198598891496658 0.11198598891496658 0.11198598891496658
0.12291382253170013 0.12291382253170013 0.12291382253170013
0.13920323550701141 0.13920323550701141 0.13920323550701141
0.16056317090988159 0.16056317090988159 0.16056317090988159
0.18769459426403046 0.18769459426403046 0.18769459426403046
0.22278714179992676 0.22278714179992676 0.22278714179992676
0.26698705554008484 0.26698705554008484 0.26698705554008484
0.3177562952041626 0.3177562952041626 0.3177562952041626
0.36366209387779236 0.36366209387779236 0.36366209387779236
0.40512701869010925 0.40512701869010925 0.40512701869010925
0.45239400863647461 0.45239400863647461 0.45239400863647461
0.51125198602676392 0.51125198602676392 0.51125198602676392
0.58167481422424316 0.58167481422424316 0.58167481422424316
0.16895176470279694 0.16895176470279694 0.16895176470279694
0.17909567058086395 0.17909567058086395 0.17909567058086395
0.19419427216053009 0.19419427216053009 0.19419427216053009
0.21366973221302032 0.21366973221302032 0.21366973221302032
0.23897834122180939 0.23897834122180939 0.23897834122180939
0.27227762341499329 0.27227762341499329 0.27227762341499329
0.31480208039283752 0.31480208039283752 0.31480208039283752
0.36509296298027039 0.36509296298027039 0.36509296298027039
0.41628754138946533 0.41628754138946533 0.41628754138946533
0.46675235033035278 0.46675235033035278 0.46675235033035278
0.52117878198623657 0.52117878198623657 0.52117878198623657
0.58341783285140991 0.58341783285140991 0.58341783285140991
0.65256601572036743 0.65256601572036743 0.65256601572036743
0.23611670732498169 0.23611670732498169 0.23611670732498169
0.24612972140312195 0.24612972140312195 0.24612972140312195
0.25992587208747864 0.25992587208747864 0.25992587208747864
0.27620497345924377 0.27620497345924377 0.27620497345924377
0.2970583438873291 0.2970583438873291 0.2970583438873291
0.32547205686569214 0.32547205686569214 0.32547205686569214
0.36262980103492737 0.36262980103492737 0.36262980103492737
0.40959706902503967 0.40959706902503967 0.40959706902503967
0.46486812829971313 0.46486812829971313 0.46486812829971313
0.52353489398956299 0.52353489398956299 0.52353489398956299
0.58524936437606812 0.58524936437606812 0.58524936437606812
0.65176862478256226 0.65176862478256226 0.65176862478256226
0.72067224979400635 0.72067224979400635 0.72067224979400635
0.31546962261199951 0.31546962261199951 0.31546962261199951
0.32615670561790466 0.32615670561790466 0.32615670561790466
0.33833771944046021 0.33833771944046021 0.33833771944046021
0.350881427526474 0.350881427526474 0.350881427526474
0.36699193716049194 0.36699193716049194 0.36699193716049194
0.39053741097450256 0.39053741097450256 0.39053741097450256
0.42246425151824951 0.42246425151824951 0.42246425151824951
0.46482914686203003 0.46482914686203003 0.46482914686203003
0.51977109909057617 0.51977109909057617 0.51977109909057617
0.58025318384170532 0.58025318384170532 0.58025318384170532
0.64338517189025879 0.64338517189025879 0.64338517189025879
0.70976197719573975 0.70976197719573975 0.70976197719573975
0.77633559703826904 0.77633559703826904 0.77633559703826904
0.41486081480979919 0.41486081480979919 0.41486081480979919
0.42456838488578796 0.42456838488578796 0.42456838488578796
0.43338495492935181 0.43338495492935181 0.43338495492935181
0.44149217009544373 0.44149217009544373 0.44149217009544373
0.45351237058639526 0.45351237058639526 0.45351237058639526
0.47351923584938049 0.47351923584938049 0.47351923584938049
0.50225293636322021 0.50225293636322021 0.50225293636322021
0.54056680202484131 0.54056680202484131 0.54056680202484131
0.58805465698242188 0.58805465698242188 0.58805465698242188
0.64146661758422852 0.64146661758422852 0.64146661758422852
0.69820421934127808 0.69820421934127808 0.69820421934127808
0.75787138938903809 0.75787138938903809 0.75787138938903809
0.8174901008605957 0.8174901008605957 0.8174901008605957
0.53493005037307739 0.53493005037307739 0.53493005037307739
0.54075592756271362 0.54075592756271362 0.54075592756271362
0.54382038116455078 0.54382038116455078 0.54382038116455078
0.54694777727127075 0.54694777727127075 0.54694777727127075
0.55531209707260132 0.55531209707260132 0.55531209707260132
0.57242852449417114 0.57242852449417114 0.57242852449417114
0.59804773330688477 0.59804773330688477 0.59804773330688477
0.63068157434463501 0.63068157434463501 0.63068157434463501
0.66824090480804443 0.66824090480804443 0.66824090480804443
0.70971208810806274 0.70971208810806274 0.70971208810806274
0.75467431545257568 0.75467431545257568 0.75467431545257568
0.80289268493652344 0.80289268493652344 0.80289268493652344
0.85250699520111084 0.85250699520111084 0.85250699520111084
0.66251611709594727 0.66251611709594727 0.66251611709594727
0.66431605815887451 0.66431605815887451 0.66431605815887451
0.66114938259124756 0.66114938259124756 0.66114938259124756
0.66010165214538574 0.66010165214538574 0.66010165214538574
0.66549801826477051 0.66549801826477051 0.66549801826477051
0.67933237552642822 0.67933237552642822 0.67933237552642822
0.7009274959564209 0.7009274959564209 0.7009274959564209
0.72710955142974854 0.72710955142974854 0.72710955142974854
0.75510203838348389 0.75510203838348389 0.75510203838348389
0.78445315361022949 0.78445315361022949 0.78445315361022949
0.81630432605743408 0.81630432605743408 0.81630432605743408
0.8506128191947937 0.8506128191947937 0.8506128191947937
0.88830316066741943 0.88830316066741943 0.88830316066741943
0.77823543548583984 0.77823543548583984 0.77823543548583984
0.77900457382202148 0.77900457382202148 0.77900457382202148
0.77396726608276367 0.77396726608276367 0.77396726608276367
0.77110159397125244 0.77110159397125244 0.77110159397125244
0.77442044019699097 0.77442044019699097 0.77442044019699097
0.78537613153457642 0.78537613153457642 0.78537613153457642
0.80261522531509399 0.80261522531509399 0.80261522531509399
0.82308560609817505 0.82308560609817505 0.82308560609817505
0.84281367063522339 0.84281367063522339 0.84281367063522339
0.86163556575775146 0.86163556575775146 0.86163556575775146
0.8808702826499939 0.8808702826499939 0.8808702826499939
0.90152484178543091 0.90152484178543091 0.90152484178543091
0.9265933632850647 0.9265933632850647 0.9265933632850647
0.87634378671646118 0.87634378671646118 0.87634378671646118
0.87840956449508667 0.87840956449508667 0.87840956449508667
0.87560874223709106 0.87560874223709106 0.87560874223709106
0.87370055913925171 0.87370055913925171 0.87370055913925171
0.87591105699539185 0.87591105699539185 0.87591105699539185
0.88407129049301147 0.88407129049301147 0.88407129049301147
0.89708173274993896 0.89708173274993896 0.89708173274993896
0.91215324401855469 0.91215324401855469 0.91215324401855469
0.92475318908691406 0.92475318908691406 0.92475318908691406
0.93495571613311768 0.93495571613311768 0.93495571613311768
0.94422447681427002 0.94422447681427002 0.94422447681427002
0.95398741960525513 0.95398741960525513 0.95398741960525513
0.96839296817779541 0.96839296817779541 0.96839296817779541
0.026991061866283417 0.026991061866283417 0.026991061866283417
0.026546433568000793 0.026546433568000793 0.026546433568000793
0.029725212603807449 0.029725212603807449 0.029725212603807449
0.037156138569116592 0.037156138569116592 0.037156138569116592
0.049320265650749207 0.049320265650749207 0.049320265650749207
0.067423738539218903 0.067423738539218903 0.067423738539218903
0.093442715704441071 0.093442715704441071 0.093442715704441071
0.12764027714729309 0.12764027714729309 0.12764027714729309
0.16782395541667938 0.16782395541667938 0.16782395541667938
0.21197935938835144 0.21197935938835144 0.21197935938835144
0.26383146643638611 0.26383146643638611 0.26383146643638611
0.32833275198936462 0.32833275198936462 0.32833275198936462
0.40693250298500061 0.40693250298500061 0.40693250298500061
0.032550975680351257 0.032550975680351257 0.032550975680351257
0.036207955330610275 0.036207955330610275 0.036207955330610275
0.044312629848718643 0.044312629848718643 0.044312629848718643
0.056468978524208069 0.056468978524208069 0.056468978524208069
0.072739377617835999 0.072739377617835999 0.072739377617835999
0.093838244676589966 0.093838244676589966 0.093838244676589966
0.12185540050268173 0.12185540050268173 0.12185540050268173
0.15670542418956757 0.15670542418956757 0.15670542418956757
0.19550323486328125 0.19550323486328125 0.19550323486328125
0.23676992952823639 0.23676992952823639 0.23676992952823639
0.28457543253898621 0.28457543253898621 0.28457543253898621
0.34729421138763428 0.34729421138763428 0.34729421138763428
0.4280664324760437 0.4280664324760437 0.4280664324760437
0.047662876546382904 0.047662876546382904 0.047662876546382904
0.055725425481796265 0.055725425481796265 0.055725425481796265
0.069030672311782837 0.069030672311782837 0.069030672311782837
0.086372733116149902 0.086372733116149902 0.086372733116149902
0.10806473344564438 0.10806473344564438 0.10806473344564438
0.13432306051254272 0.13432306051254272 0.13432306051254272
0.16638524830341339 0.16638524830341339 0.16638524830341339
0.20348188281059265 0.20348188281059265 0.20348188281059265
0.2417030930519104 0.2417030930519104 0.2417030930519104
0.28044307231903076 0.28044307231903076 0.28044307231903076
0.32478973269462585 0.32478973269462585 0.32478973269462585
0.38532629609107971 0.38532629609107971 0.38532629609107971
0.4654642641544342 0.4654642641544342 0.4654642641544342
0.078242942690849304 0.078242942690849304 0.078242942690849304
0.08893788605928421 0.08893788605928421 0.08893788605928421
0.10533985495567322 0.10533985495567322 0.10533985495567322
0.12599988281726837 0.12599988281726837 0.12599988281726837
0.15146282315254211 0.15146282315254211 0.15146282315254211
0.1824750155210495 0.1824750155210495 0.1824750155210495
0.21996064484119415 0.21996064484119415 0.21996064484119415
0.26156359910964966 0.26156359910964966 0.26156359910964966
0.30196282267570496 0.30196282267570496 0.30196282267570496
0.34039455652236938 0.34039455652236938 0.34039455652236938
0.3840324878692627 0.3840324878692627 0.3840324878692627
0.44169741868972778 0.44169741868972778 0.44169741868972778
0.51777207851409912 0.51777207851409912 0.51777207851409912
0.1264270693063736 0.1264270693063736 0.1264270693063736
0.13765731453895569 0.13765731453895569 0.13765731453895569
0.15326516330242157 0.15326516330242157 0.15326516330242157
0.17371310293674469 0.17371310293674469 0.17371310293674469
0.19970892369747162 0.19970892369747162 0.19970892369747162
0.23278249800205231 0.23278249800205231 0.23278249800205231
0.27395531535148621 0.27395531535148621 0.27395531535148621
0.32061874866485596 0.32061874866485596 0.32061874866485596
0.36569404602050781 0.36569404602050781 0.36569404602050781
0.4080512523651123 0.4080512523651123 0.4080512523651123
0.45412847399711609 0.45412847399711609 0.45412847399711609
0.51089245080947876 0.51089245080947876 0.51089245080947876
0.58263808488845825 0.58263808488845825 0.58263808488845825
0.18813575804233551 0.18813575804233551 0.18813575804233551
0.1986345499753952 0.1986345499753952 0.1986345499753952
0.21149119734764099 0.21149119734764099 0.21149119734764099
0.22890137135982513 0.22890137135982513 0.22890137135982513
0.25139984488487244 0.25139984488487244 0.25139984488487244
0.28303629159927368 0.28303629159927368 0.28303629159927368
0.32399365305900574 0.32399365305900574 0.32399365305900574
0.37280979752540588 0.37280979752540588 0.37280979752540588
0.42377501726150513 0.42377501726150513 0.42377501726150513
0.47419136762619019 0.47419136762619019 0.47419136762619019
0.52743607759475708 0.52743607759475708 0.52743607759475708
0.58806592226028442 0.58806592226028442 0.58806592226028442
0.65734243392944336 0.65734243392944336 0.65734243392944336
0.25748768448829651 0.25748768448829651 0.25748768448829651
0.26743718981742859 0.26743718981742859 0.26743718981742859
0.27805057168006897 0.27805057168006897 0.27805057168006897
0.29034250974655151 0.29034250974655151 0.29034250974655151
0.30822327733039856 0.30822327733039856 0.30822327733039856
0.335793137550354 0.335793137550354 0.335793137550354
0.37415263056755066 0.37415263056755066 0.37415263056755066
0.42223581671714783 0.42223581671714783 0.42223581671714783
0.47721195220947266 0.47721195220947266 0.47721195220947266
0.53496873378753662 0.53496873378753662 0.53496873378753662
0.59525996446609497 0.59525996446609497 0.59525996446609497
0.66086030006408691 0.66086030006408691 0.66086030006408691
0.73033517599105835 0.73033517599105835 0.73033517599105835
0.33382481336593628 0.33382481336593628 0.33382481336593628
0.34465697407722473 0.34465697407722473 0.34465697407722473
0.35430255532264709 0.35430255532264709 0.35430255532264709
0.36259239912033081 0.36259239912033081 0.36259239912033081
0.37507972121238708 0.37507972121238708 0.37507972121238708
0.39854186773300171 0.39854186773300171 0.39854186773300171
0.4338875412940979 0.4338875412940979 0.4338875412940979
0.47950738668441772 0.47950738668441772 0.47950738668441772
0.53350812196731567 0.53350812196731567 0.53350812196731567
0.5912671685218811 0.5912671685218811 0.5912671685218811
0.65285372734069824 0.65285372734069824 0.65285372734069824
0.71914976835250854 0.71914976835250854 0.71914976835250854
0.78729516267776489 0.78729516267776489 0.78729516267776489
0.42636168003082275 0.42636168003082275 0.42636168003082275
0.43711578845977783 0.43711578845977783 0.43711578845977783
0.4451453685760498 0.4451453685760498 0.4451453685760498
0.44972288608551025 0.44972288608551025 0.44972288608551025
0.45822325348854065 0.45822325348854065 0.45822325348854065
0.47888049483299255 0.47888049483299255 0.47888049483299255
0.51177430152893066 0.51177430152893066 0.51177430152893066
0.55253332853317261 0.55253332853317261 0.55253332853317261
0.59848588705062866 0.59848588705062866 0.59848588705062866
0.64856445789337158 0.64856445789337158 0.64856445789337158
0.70338118076324463 0.70338118076324463 0.70338118076324463
0.76366394758224487 0.76366394758224487 0.76366394758224487
0.82490688562393188 0.82490688562393188 0.82490688562393188
0.54066640138626099 0.54066640138626099 0.54066640138626099
0.54822593927383423 0.54822593927383423 0.54822593927383423
0.55164343118667603 0.55164343118667603 0.55164343118667603
0.55319517850875854 0.55319517850875854 0.55319517850875854
0.55982679128646851 0.55982679128646851 0.55982679128646851
0.57781738042831421 0.57781738042831421 0.57781738042831421
0.60651135444641113 0.60651135444641113 0.60651135444641113
0.64012134075164795 0.64012134075164795 0.64012134075164795
0.67530453205108643 0.67530453205108643 0.67530453205108643
0.71299439668655396 0.71299439668655396 0.71299439668655396
0.75570178031921387 0.75570178031921387 0.75570178031921387
0.80511289834976196 0.80511289834976196 0.80511289834976196
0.85670763254165649 0.85670763254165649 0.85670763254165649
0.66389352083206177 0.66389352083206177 0.66389352083206177
0.66728132963180542 0.66728132963180542 0.66728132963180542
0.66617029905319214 0.66617029905319214 0.66617029905319214
0.66530054807662964 0.66530054807662964 0.66530054807662964
0.67029154300689697 0.67029154300689697 0.67029154300689697
0.68522399663925171 0.68522399663925171 0.68522399663925171
0.70841687917709351 0.70841687917709351 0.70841687917709351
0.73444277048110962 0.73444277048110962 0.73444277048110962
0.76038366556167603 0.76038366556167603 0.76038366556167603
0.78727072477340698 0.78727072477340698 0.78727072477340698
0.81746101379394531 0.81746101379394531 0.81746101379394531
0.85253596305847168 0.85253596305847168 0.85253596305847168
0.89146608114242554 0.89146608114242554 0.89146608114242554
0.77830332517623901 0.77830332517623901 0.77830332517623901
0.78012996912002563 0.78012996912002563 0.78012996912002563
0.77712029218673706 0.77712029218673706 0.77712029218673706
0.77524298429489136 0.77524298429489136 0.77524298429489136
0.77894055843353271 0.77894055843353271 0.77894055843353271
0.79051858186721802 0.79051858186721802 0.79051858186721802
0.80820202827453613 0.80820202827453613 0.80820202827453613
0.82799249887466431 0.82799249887466431 0.82799249887466431
0.84717351198196411 0.84717351198196411 0.84717351198196411
0.86603361368179321 0.86603361368179321 0.86603361368179321
0.8851478099822998 0.8851478099822998 0.8851478099822998
0.90524387359619141 0.90524387359619141 0.90524387359619141
0.9302297830581665 0.9302297830581665 0.9302297830581665
0.87772166728973389 0.87772166728973389 0.87772166728973389
0.87960076332092285 0.87960076332092285 0.87960076332092285
0.87829995155334473 0.87829995155334473 0.87829995155334473
0.87648952007293701 0.87648952007293701 0.87648952007293701
0.87951892614364624 0.87951892614364624 0.87951892614364624
0.88780838251113892 0.88780838251113892 0.88780838251113892
0.90035861730575562 0.90035861730575562 0.90035861730575562
0.91471272706985474 0.91471272706985474 0.91471272706985474
0.92802923917770386 0.92802923917770386 0.92802923917770386
0.94000178575515747 0.94000178575515747 0.94000178575515747
0.94989120960235596 0.94989120960235596 0.94989120960235596
0.95886039733886719 0.95886039733886719 0.95886039733886719
0.97286355495452881 0.97286355495452881 0.97286355495452881
0.024815997108817101 0.024815997108817101 0.024815997108817101
0.028265276923775673 0.028265276923775673 0.028265276923775673
0.036106392741203308 0.036106392741203308 0.036106392741203308
0.047274764627218246 0.047274764627218246 0.047274764627218246
0.06146201491355896 0.06146201491355896 0.06146201491355896
0.080918602645397186 0.080918602645397186 0.080918602645397186
0.10858010500669479 0.10858010500669479 0.10858010500669479
0.14428728818893433 0.14428728818893433 0.14428728818893433
0.1838156133890152 0.1838156133890152 0.1838156133890152
0.22582310438156128 0.22582310438156128 0.22582310438156128
0.27349022030830383 0.27349022030830383 0.27349022030830383
0.33299452066421509 0.33299452066421509 0.33299452066421509
0.40640038251876831 0.40640038251876831 0.40640038251876831
0.03382524847984314 0.03382524847984314 0.03382524847984314
0.041019275784492493 0.041019275784492493 0.041019275784492493
0.053451672196388245 0.053451672196388245 0.053451672196388245
0.069374069571495056 0.069374069571495056 0.069374069571495056
0.087387144565582275 0.087387144565582275 0.087387144565582275
0.10812409222126007 0.10812409222126007 0.10812409222126007
0.13571023941040039 0.13571023941040039 0.13571023941040039
0.17076703906059265 0.17076703906059265 0.17076703906059265
0.20898658037185669 0.20898658037185669 0.20898658037185669
0.24913696944713593 0.24913696944713593 0.24913696944713593
0.29584038257598877 0.29584038257598877 0.29584038257598877
0.35590130090713501 0.35590130090713501 0.35590130090713501
0.43237543106079102 0.43237543106079102 0.43237543106079102
0.054239489138126373 0.054239489138126373 0.054239489138126373
0.06504523754119873 0.06504523754119873 0.06504523754119873
0.082075648009777069 0.082075648009777069 0.082075648009777069
0.10299590229988098 0.10299590229988098 0.10299590229988098
0.12549674510955811 0.12549674510955811 0.12549674510955811
0.15010775625705719 0.15010775625705719 0.15010775625705719
0.17922326922416687 0.17922326922416687 0.17922326922416687
0.21377153694629669 0.21377153694629669 0.21377153694629669
0.25090858340263367 0.25090858340263367 0.25090858340263367
0.29023587703704834 0.29023587703704834 0.29023587703704834
0.33578953146934509 0.33578953146934509 0.33578953146934509
0.39622083306312561 0.39622083306312561 0.39622083306312561
0.47560611367225647 0.47560611367225647 0.47560611367225647
0.091435164213180542 0.091435164213180542 0.091435164213180542
0.10413866490125656 0.10413866490125656 0.10413866490125656
0.1229427382349968 0.1229427382349968 0.1229427382349968
0.14539028704166412 0.14539028704166412 0.14539028704166412
0.17113099992275238 0.17113099992275238 0.17113099992275238
0.19955511391162872 0.19955511391162872 0.19955511391162872
0.23228441178798676 0.23228441178798676 0.23228441178798676
0.26929044723510742 0.26929044723510742 0.26929044723510742
0.30845236778259277 0.30845236778259277 0.30845236778259277
0.3481113612651825 0.3481113612651825 0.3481113612651825
0.392426997423172 0.392426997423172 0.392426997423172
0.44921264052391052 0.44921264052391052 0.44921264052391052
0.52746868133544922 0.52746868133544922 0.52746868133544922
0.14753840863704681 0.14753840863704681 0.14753840863704681
0.15944287180900574 0.15944287180900574 0.15944287180900574
0.17548744380474091 0.17548744380474091 0.17548744380474091
0.19568666815757751 0.19568666815757751 0.19568666815757751
0.22058595716953278 0.22058595716953278 0.22058595716953278
0.25090086460113525 0.25090086460113525 0.25090086460113525
