luts/negative_old/fuji_superia_400_-.cube
# Created by: G'MIC (https://gmic.eu)
TITLE "fuji_superia_400_-"
# LUT size
LUT_3D_SIZE 5
# Data domain
DOMAIN_MIN 0.0 0.0 0.0
DOMAIN_MAX 1.0 1.0 1.0
# LUT data points
0.0084349093958735466 0.038491971790790558 0.037106741219758987
0.21642380952835083 0.046953793615102768 0.033729195594787598
0.5647997260093689 0.0086322110146284103 0.023868560791015625
0.85964113473892212 0.0056435228325426579 0.0035292082466185093
0.99836021661758423 0.21397204697132111 0.0011975605739280581
0.00078021781519055367 0.22192065417766571 0.084069721400737762
0.21154186129570007 0.28824710845947266 0.030420819297432899
0.59883064031600952 0.27372968196868896 0.0023249308578670025
0.8543388843536377 0.27731013298034668 0.0061045330949127674
0.9994584321975708 0.36494606733322144 0.0019388984655961394
0.011333554983139038 0.51178824901580811 0.22980290651321411
0.20864871144294739 0.52631491422653198 0.22119484841823578
0.57064372301101685 0.62264728546142578 0.090674504637718201
0.86767035722732544 0.60725271701812744 0.0028504165820777416
0.99812310934066772 0.56216400861740112 0.00023579316621180624
0.31892937421798706 0.72849202156066895 0.42510950565338135
0.39881670475006104 0.72849613428115845 0.43171656131744385
0.54979199171066284 0.76427453756332397 0.41525459289550781
0.82317674160003662 0.83236980438232422 0.36519578099250793
0.99798750877380371 0.84995996952056885 0.25155878067016602
0.67594367265701294 0.92099857330322266 0.70674377679824829
0.70174014568328857 0.92132198810577393 0.71361052989959717
0.75203526020050049 0.92495816946029663 0.71428048610687256
0.8424607515335083 0.94785058498382568 0.7130628228187561
0.95653057098388672 0.97155028581619263 0.69654875993728638
0.0056235818192362785 0.049954164773225784 0.23082588613033295
0.21353264153003693 0.0688515305519104 0.22369182109832764
0.56896835565567017 0.01407069806009531 0.23647475242614746
0.85961216688156128 0.088745251297950745 0.24204471707344055
0.99929028749465942 0.2908826470375061 0.25501266121864319
0.012548379600048065 0.2684909999370575 0.26245132088661194
0.27234023809432983 0.29618105292320251 0.28238117694854736
0.60631448030471802 0.31089538335800171 0.26623407006263733
0.85357183218002319 0.33567577600479126 0.24457666277885437
0.99949151277542114 0.4075564444065094 0.24329149723052979
0.23977258801460266 0.54950565099716187 0.38687825202941895
0.33830991387367249 0.55080229043960571 0.3874804675579071
0.59385639429092407 0.61831825971603394 0.35266926884651184
0.85246163606643677 0.59057945013046265 0.23029100894927979
0.99632781744003296 0.58041441440582275 0.16679674386978149
0.40680205821990967 0.74860435724258423 0.51466482877731323
0.45731118321418762 0.74684828519821167 0.51308220624923706
0.58097583055496216 0.76285815238952637 0.50948023796081543
0.82326322793960571 0.83278650045394897 0.49395656585693359
0.99540728330612183 0.84062892198562622 0.41446512937545776
0.6976780891418457 0.92446208000183105 0.73622024059295654
0.71586889028549194 0.92441803216934204 0.73727226257324219
0.7659142017364502 0.92734265327453613 0.74665200710296631
0.84976917505264282 0.94902640581130981 0.74434524774551392
0.95369189977645874 0.97130465507507324 0.73679018020629883
0.0025398253928869963 0.07760167121887207 0.55143338441848755
0.26388722658157349 0.099378369748592377 0.54604756832122803
0.57361668348312378 0.15849775075912476 0.55095595121383667
0.82276999950408936 0.23381461203098297 0.54748022556304932
0.99664437770843506 0.31201314926147461 0.54734140634536743
0.0064125508069992065 0.27718105912208557 0.57359045743942261
0.30835860967636108 0.31971824169158936 0.57808279991149902
0.59586364030838013 0.3759191632270813 0.5756765604019165
0.83131414651870728 0.40105310082435608 0.56763547658920288
0.99692344665527344 0.43328773975372314 0.55630064010620117
0.17011494934558868 0.57994985580444336 0.5826224684715271
0.37859952449798584 0.58692950010299683 0.59339910745620728
0.6109321117401123 0.60859954357147217 0.60422956943511963
0.83429092168807983 0.60629010200500488 0.57515275478363037
0.99144661426544189 0.6279790997505188 0.55784636735916138
0.51840859651565552 0.77618527412414551 0.66234838962554932
0.5591854453086853 0.77405112981796265 0.66097754240036011
0.64986586570739746 0.77394300699234009 0.6606442928314209
0.83017474412918091 0.82847577333450317 0.66969215869903564
0.99040132761001587 0.81060111522674561 0.59685999155044556
0.74038422107696533 0.93011480569839478 0.798359215259552
0.74876314401626587 0.93229490518569946 0.79404318332672119
0.78851497173309326 0.93174976110458374 0.79811841249465942
0.85975545644760132 0.94706284999847412 0.80748271942138672
0.96182703971862793 0.97029685974121094 0.80726122856140137
0.22086420655250549 0.13662329316139221 0.79534751176834106
0.4043731689453125 0.16596628725528717 0.79139989614486694
0.64686566591262817 0.2620466947555542 0.78624796867370605
0.8398061990737915 0.36824458837509155 0.78047841787338257
0.98917466402053833 0.45423030853271484 0.77930492162704468
0.26463311910629272 0.32892313599586487 0.79873788356781006
0.42242440581321716 0.35499808192253113 0.79292064905166626
0.65219777822494507 0.41705584526062012 0.79230034351348877
0.83599376678466797 0.4925520122051239 0.78367489576339722
0.98013365268707275 0.54901450872421265 0.78752303123474121
0.019638855010271072 0.5428473949432373 0.78963559865951538
0.31654387712478638 0.5512397289276123 0.79239928722381592
0.62237715721130371 0.60268795490264893 0.7941247820854187
0.82954055070877075 0.66143602132797241 0.79121547937393188
0.97974568605422974 0.69282537698745728 0.79889935255050659
0.45171675086021423 0.79022103548049927 0.7930406928062439
0.53644770383834839 0.79034316539764404 0.79870414733886719
0.67518901824951172 0.79335945844650269 0.80785971879959106
0.84244775772094727 0.82310336828231812 0.8201708197593689
0.98341155052185059 0.82310104370117188 0.79803001880645752
0.77128022909164429 0.94217348098754883 0.87254291772842407
0.78531950712203979 0.9413878321647644 0.87414896488189697
0.83131688833236694 0.944122314453125 0.88020426034927368
0.8793567419052124 0.94766008853912354 0.88082104921340942
0.96913045644760132 0.96961444616317749 0.89062559604644775
0.55062222480773926 0.34597736597061157 0.96921169757843018
0.61683690547943115 0.37508887052536011 0.96337330341339111
0.75541555881500244 0.4448930025100708 0.96096128225326538
0.89311039447784424 0.56744647026062012 0.95113861560821533
0.99119400978088379 0.64647454023361206 0.948283851146698
0.54564160108566284 0.45594236254692078 0.96808880567550659
0.61615216732025146 0.472066730260849 0.96373969316482544
0.75896912813186646 0.53582572937011719 0.96076232194900513
0.88801521062850952 0.62456405162811279 0.94950348138809204
0.98717641830444336 0.69851982593536377 0.94500690698623657
0.44883805513381958 0.59713113307952881 0.96501177549362183
0.56070828437805176 0.6135820746421814 0.96333009004592896
0.72110193967819214 0.65741467475891113 0.95527726411819458
0.87379103899002075 0.72295725345611572 0.94860267639160156
0.98303210735321045 0.77320766448974609 0.94823849201202393
0.41694292426109314 0.77879738807678223 0.95283520221710205
0.48437395691871643 0.77685362100601196 0.95812022686004639
0.63126367330551147 0.77593910694122314 0.95794796943664551
0.85262227058410645 0.82927566766738892 0.95542067289352417
0.97168844938278198 0.87569689750671387 0.95366352796554565
0.73723948001861572 0.95553672313690186 0.96060234308242798
0.76495915651321411 0.95857518911361694 0.96226257085800171
0.81556767225265503 0.95458245277404785 0.96439093351364136
0.89022338390350342 0.95449477434158325 0.96247333288192749
0.97248607873916626 0.97114771604537964 0.97165626287460327
