luts/negative_old/fuji_superia_1600.cube
# Created by: G'MIC (https://gmic.eu)
TITLE "fuji_superia_1600"
# LUT size
LUT_3D_SIZE 13
# Data domain
DOMAIN_MIN 0.0 0.0 0.0
DOMAIN_MAX 1.0 1.0 1.0
# LUT data points
0.069818876683712006 0.10997212678194046 0.10955537110567093
0.088930509984493256 0.10967241227626801 0.10833017528057098
0.1192917600274086 0.11113565415143967 0.10573806613683701
0.18592043220996857 0.1142750009894371 0.10237348824739456
0.26394671201705933 0.11708377301692963 0.09866352379322052
0.36861297488212585 0.11834810674190521 0.094626650214195251
0.48787462711334229 0.11981444805860519 0.087674893438816071
0.60230356454849243 0.1218889132142067 0.078321956098079681
0.69898509979248047 0.12027942389249802 0.066269882023334503
0.78110808134078979 0.13551953434944153 0.053300011903047562
0.85577917098999023 0.16716505587100983 0.035741589963436127
0.92536336183547974 0.20407228171825409 0.018706871196627617
0.97890019416809082 0.24573448300361633 0.011418689973652363
0.061667587608098984 0.12083683162927628 0.10759447515010834
0.081307493150234222 0.12793460488319397 0.10702311247587204
0.12309081107378006 0.13479383289813995 0.10489813238382339
0.19474290311336517 0.14170022308826447 0.10129609704017639
0.28118729591369629 0.14525371789932251 0.097002662718296051
0.38397032022476196 0.14692668616771698 0.090510815382003784
0.50425082445144653 0.15021204948425293 0.082689367234706879
0.61786454916000366 0.14905939996242523 0.07292628288269043
0.70704835653305054 0.15879355370998383 0.061993870884180069
0.78757917881011963 0.17434769868850708 0.046109847724437714
0.8609778881072998 0.20017425715923309 0.029430404305458069
0.92672902345657349 0.2342291921377182 0.014160006307065487
0.97774976491928101 0.27201184630393982 0.0089918700978159904
0.025183344259858131 0.16836819052696228 0.10807552188634872
0.050782296806573868 0.17244935035705566 0.10840835422277451
0.10436159372329712 0.18094119429588318 0.10451743751764297
0.19102819263935089 0.19391070306301117 0.098347440361976624
0.30118101835250854 0.20388656854629517 0.089541852474212646
0.41815090179443359 0.20661064982414246 0.081895001232624054
0.53323161602020264 0.21002368628978729 0.073086664080619812
0.63720852136611938 0.21461638808250427 0.060804538428783417
0.72068983316421509 0.22127287089824677 0.049038413912057877
0.79718053340911865 0.23246392607688904 0.034710034728050232
0.86679434776306152 0.25044190883636475 0.019942279905080795
0.92925900220870972 0.27557563781738281 0.010513574816286564
0.97860902547836304 0.31000807881355286 0.0070187589153647423
0.0039760065264999866 0.24200767278671265 0.11367341876029968
0.011361964046955109 0.24231989681720734 0.11233992874622345
0.050753366202116013 0.25162088871002197 0.10487955063581467
0.16456393897533417 0.2743431031703949 0.092173241078853607
0.31670644879341125 0.30329307913780212 0.061736505478620529
0.45663696527481079 0.30677118897438049 0.047869917005300522
0.56619834899902344 0.29753616452217102 0.045829113572835922
0.65987342596054077 0.29342472553253174 0.039849493652582169
0.73910927772521973 0.29457077383995056 0.029603935778141022
0.80908733606338501 0.30257907509803772 0.01864127442240715
0.87331610918045044 0.31636825203895569 0.012825865298509598
0.93426007032394409 0.33671408891677856 0.012290056794881821
0.98159021139144897 0.36381292343139648 0.0080327801406383514
0.0021430968772619963 0.33443352580070496 0.12616832554340363
0.0066877179779112339 0.3377806544303894 0.12580017745494843
0.014289362356066704 0.34731987118721008 0.1156255230307579
0.10593902319669724 0.36827936768531799 0.095915086567401886
0.29607820510864258 0.39944729208946228 0.056875761598348618
0.47284826636314392 0.42539402842521667 0.016229800879955292
0.59285759925842285 0.41633445024490356 0.011155311949551105
0.68207013607025146 0.39753401279449463 0.013623300939798355
0.75728422403335571 0.38512381911277771 0.013895072042942047
0.82439607381820679 0.38487955927848816 0.010290318168699741
0.88410454988479614 0.39254301786422729 0.0099820010364055634
0.94110268354415894 0.40625268220901489 0.011171991936862469
0.98859858512878418 0.42541599273681641 0.0073937359265983105
0.001822991413064301 0.43791300058364868 0.14426824450492859
0.0044049429707229137 0.44093939661979675 0.14428836107254028
0.0056024589575827122 0.44677671790122986 0.13755504786968231
0.058708161115646362 0.45817571878433228 0.1207563653588295
0.25246989727020264 0.47824978828430176 0.090621739625930786
0.42647179961204529 0.50232619047164917 0.039961379021406174
0.58673876523971558 0.52856504917144775 0.0063697067089378834
0.69410687685012817 0.52511560916900635 0.0038633907679468393
0.76818221807479858 0.50181090831756592 0.005115763284265995
0.83408981561660767 0.4865969717502594 0.0076916865073144436
0.89504969120025635 0.48199576139450073 0.011044266633689404
0.95005017518997192 0.48402565717697144 0.014622003771364689
0.99162793159484863 0.49552616477012634 0.024210073053836823
0.0014849943108856678 0.53245586156845093 0.17614768445491791
0.0038056615740060806 0.53199362754821777 0.18116767704486847
0.0054148207418620586 0.53404808044433594 0.17843879759311676
0.040772486478090286 0.53839683532714844 0.16557867825031281
0.22948144376277924 0.55245298147201538 0.14482873678207397
0.3942834734916687 0.57136815786361694 0.10852453112602234
0.53842222690582275 0.59306555986404419 0.059501796960830688
0.67399477958679199 0.62074965238571167 0.018585609272122383
0.77107369899749756 0.62047773599624634 0.006193108856678009
0.83698993921279907 0.60080051422119141 0.0096786795184016228
0.89669322967529297 0.58705717325210571 0.016681849956512451
0.95214962959289551 0.57351154088973999 0.043370414525270462
0.99044430255889893 0.57680422067642212 0.078560546040534973
0.0022266462910920382 0.61582636833190918 0.23462292551994324
0.0028614718466997147 0.61541527509689331 0.23400025069713593
0.0066225538030266762 0.61607170104980469 0.22985804080963135
0.072966694831848145 0.6149100661277771 0.22218994796276093
0.23196499049663544 0.62248504161834717 0.21470384299755096
0.37546223402023315 0.63844746351242065 0.19783827662467957
0.50599175691604614 0.65511679649353027 0.16759482026100159
0.6245914101600647 0.67400056123733521 0.12423384189605713
0.74306368827819824 0.69944101572036743 0.068607807159423828
0.83470648527145386 0.70646429061889648 0.044352080672979355
0.89535731077194214 0.69007962942123413 0.072029337286949158
0.95024538040161133 0.67593246698379517 0.11295147985219955
0.9916379451751709 0.66675090789794922 0.149317666888237
0.01360213290899992 0.6978268027305603 0.29928559064865112
0.031081374734640121 0.69670969247817993 0.29634556174278259
0.078625097870826721 0.69489353895187378 0.29272174835205078
0.16790421307086945 0.68874281644821167 0.29037901759147644
0.26494398713111877 0.69157236814498901 0.28822213411331177
0.38638243079185486 0.70333230495452881 0.27769815921783447
0.49918848276138306 0.716411292552948 0.26129066944122314
0.60628193616867065 0.73098152875900269 0.23885685205459595
0.70257622003555298 0.74727880954742432 0.21761907637119293
0.79803216457366943 0.76705396175384521 0.19693490862846375
0.88691842555999756 0.78046286106109619 0.19149549305438995
0.94613468647003174 0.77073884010314941 0.21549622714519501
0.98814862966537476 0.75741297006607056 0.23913046717643738
0.17165985703468323 0.76961702108383179 0.37500980496406555
0.2015736997127533 0.76719015836715698 0.37414386868476868
0.23792007565498352 0.76346331834793091 0.37159609794616699
0.27957296371459961 0.75758808851242065 0.37027108669281006
0.34206786751747131 0.75811290740966797 0.36688607931137085
0.42304572463035583 0.76575851440429688 0.36085563898086548
0.51532107591629028 0.77580744028091431 0.35423076152801514
0.60825842618942261 0.78691399097442627 0.34984993934631348
0.68962788581848145 0.79805284738540649 0.33953791856765747
0.76676708459854126 0.81162154674530029 0.32477462291717529
0.8511652946472168 0.82966285943984985 0.31131207942962646
0.93257075548171997 0.84393435716629028 0.31198844313621521
0.97850018739700317 0.8384975790977478 0.33406108617782593
0.33527278900146484 0.83199489116668701 0.46424412727355957
0.34734949469566345 0.82836443185806274 0.46265032887458801
0.36669921875 0.82563573122024536 0.46062532067298889
0.39440062642097473 0.82417768239974976 0.45626255869865417
0.43200975656509399 0.82252722978591919 0.45286673307418823
0.48412024974822998 0.82410001754760742 0.45297467708587646
0.54754137992858887 0.83125364780426025 0.45083078742027283
0.62729614973068237 0.84049522876739502 0.44917884469032288
0.69139999151229858 0.8477291464805603 0.4437146782875061
0.75289684534072876 0.85696440935134888 0.43434292078018188
0.82237279415130615 0.86878502368927002 0.42402958869934082
0.89849483966827393 0.88331848382949829 0.42100131511688232
0.96453547477722168 0.89455282688140869 0.42782342433929443
0.4689270555973053 0.88787591457366943 0.56044429540634155
0.47388502955436707 0.88329339027404785 0.56070244312286377
0.4869532585144043 0.88031518459320068 0.55941855907440186
0.50284528732299805 0.88069295883178711 0.55430513620376587
0.52553051710128784 0.8786129355430603 0.55313968658447266
0.55779242515563965 0.87798690795898438 0.55602240562438965
0.59623295068740845 0.88463777303695679 0.55179250240325928
0.64894706010818481 0.89232468605041504 0.54937034845352173
0.70741695165634155 0.89696121215820312 0.54653471708297729
0.7567325234413147 0.90348261594772339 0.54164093732833862
0.80897629261016846 0.91030526161193848 0.53694313764572144
0.87035238742828369 0.91733425855636597 0.5329965353012085
0.93176168203353882 0.92608761787414551 0.53032362461090088
0.58532476425170898 0.93428498506546021 0.65726184844970703
0.59218186140060425 0.93396788835525513 0.65959978103637695
0.59824866056442261 0.93191725015640259 0.65683674812316895
0.60866647958755493 0.9323233962059021 0.65646141767501831
0.62664967775344849 0.93239939212799072 0.65834999084472656
0.64556843042373657 0.9307173490524292 0.65894907712936401
0.66871780157089233 0.93214726448059082 0.65828430652618408
0.70087629556655884 0.93615007400512695 0.65530645847320557
0.74231439828872681 0.94067484140396118 0.6554025411605835
0.78084510564804077 0.94616681337356567 0.65216052532196045
0.82111269235610962 0.94903022050857544 0.6504206657409668
0.86772781610488892 0.95343953371047974 0.64600956439971924
0.91195756196975708 0.9580615758895874 0.64448899030685425
0.068173624575138092 0.11101373285055161 0.12567600607872009
0.08859601616859436 0.1083996370434761 0.12262742221355438
0.12278949469327927 0.10770086944103241 0.11941765993833542
0.19307571649551392 0.10603467375040054 0.11791156232357025
0.2718198299407959 0.1047336682677269 0.11470074951648712
0.37174713611602783 0.10960404574871063 0.1156645268201828
0.48870155215263367 0.11072185635566711 0.11429881304502487
0.60151958465576172 0.10840816050767899 0.11089151352643967
0.69421482086181641 0.11405621469020844 0.10617650300264359
0.77614879608154297 0.13304516673088074 0.097808420658111572
0.85164070129394531 0.16389340162277222 0.085669711232185364
0.91964513063430786 0.20323021709918976 0.070555426180362701
0.9765775203704834 0.24081096053123474 0.058868825435638428
0.059226285666227341 0.12548160552978516 0.12199842929840088
0.08539976179599762 0.12748466432094574 0.12357737123966217
0.12940718233585358 0.13057829439640045 0.12236779928207397
0.20092914998531342 0.13629133999347687 0.12176267057657242
0.28516626358032227 0.14042411744594574 0.11806942522525787
0.3891499936580658 0.14555472135543823 0.11647325754165649
0.50642269849777222 0.14864201843738556 0.11308468133211136
0.6163022518157959 0.14584127068519592 0.10973744094371796
0.70468616485595703 0.15322518348693848 0.10358191281557083
0.78255504369735718 0.16997899115085602 0.094324074685573578
0.85515135526657104 0.1963353306055069 0.081515610218048096
0.92093539237976074 0.23258742690086365 0.069226041436195374
0.97386741638183594 0.2701948881149292 0.058176271617412567
0.033063851296901703 0.17726984620094299 0.13076131045818329
0.061855539679527283 0.17942047119140625 0.13101987540721893
0.11410573124885559 0.18497444689273834 0.12791705131530762
0.19813883304595947 0.19447951018810272 0.12432222813367844
0.30226671695709229 0.19883042573928833 0.1176571249961853
0.4190312922000885 0.20636686682701111 0.1139223575592041
0.53669935464859009 0.21242465078830719 0.11017798632383347
0.63676047325134277 0.21448303759098053 0.10415934771299362
0.71765071153640747 0.22006870806217194 0.095273874700069427
0.79104697704315186 0.22942952811717987 0.085921645164489746
0.86072760820388794 0.24888971447944641 0.076023727655410767
0.92527180910110474 0.27900803089141846 0.067457504570484161
0.97658693790435791 0.31288602948188782 0.056821141391992569
0.0069655324332416058 0.25028452277183533 0.14106695353984833
0.01890837773680687 0.24951957166194916 0.13982023298740387
0.071741335093975067 0.25553625822067261 0.13544231653213501
0.18094322085380554 0.27398011088371277 0.12520423531532288
0.32332152128219604 0.29790037870407104 0.10785854607820511
0.4568169116973877 0.30168953537940979 0.098939754068851471
0.56772494316101074 0.29205441474914551 0.099058128893375397
0.65789037942886353 0.29315561056137085 0.092648543417453766
0.73485767841339111 0.30057242512702942 0.083232983946800232
0.80386114120483398 0.30505537986755371 0.076426096260547638
0.86854392290115356 0.31847050786018372 0.072015978395938873
0.93298530578613281 0.33966755867004395 0.05933048203587532
0.98189699649810791 0.36674767732620239 0.056126449257135391
0.0016996496124193072 0.34745350480079651 0.15766550600528717
0.0062561333179473877 0.34757795929908752 0.15857410430908203
0.024843836203217506 0.35017174482345581 0.15167713165283203
0.13078662753105164 0.37008911371231079 0.13767179846763611
0.30679431557655334 0.39801415801048279 0.11245992034673691
0.47475787997245789 0.42032387852668762 0.076240524649620056
0.59178471565246582 0.41171750426292419 0.067072927951812744
0.67905980348587036 0.39374032616615295 0.075126498937606812
0.75463783740997314 0.38496801257133484 0.073816157877445221
0.82006210088729858 0.38829579949378967 0.071107245981693268
0.88145720958709717 0.39744910597801208 0.066169366240501404
0.93976229429244995 0.41039857268333435 0.061784975230693817
0.98511862754821777 0.42732530832290649 0.068227045238018036
0.0012917312560603023 0.45186987519264221 0.18086488544940948
0.0045703216455876827 0.4520224928855896 0.18507255613803864
0.0073452368378639221 0.45082944631576538 0.17637832462787628
0.081565245985984802 0.46066942811012268 0.16306163370609283
0.26953113079071045 0.48025628924369812 0.14421585202217102
0.43659192323684692 0.50263816118240356 0.10500920563936234
0.59123796224594116 0.52742010354995728 0.053863063454627991
0.69404059648513794 0.52048742771148682 0.042113285511732101
0.76674932241439819 0.49634677171707153 0.05288383737206459
0.83214849233627319 0.4795839786529541 0.06482156366109848
0.88999646902084351 0.48059692978858948 0.073463127017021179
0.94570213556289673 0.48599666357040405 0.076395086944103241
0.9860805869102478 0.49618402123451233 0.094012752175331116
0.0029165230225771666 0.54163652658462524 0.21709281206130981
0.0059642717242240906 0.54137223958969116 0.22277343273162842
0.0077897165901958942 0.53943687677383423 0.21506296098232269
0.078270480036735535 0.54106813669204712 0.20492929220199585
0.25173428654670715 0.55323565006256104 0.1918453723192215
0.40262791514396667 0.57078808546066284 0.16565743088722229
0.54392480850219727 0.59203130006790161 0.13005219399929047
0.67679822444915771 0.61928921937942505 0.073766417801380157
0.76876401901245117 0.61615073680877686 0.056610479950904846
0.83341890573501587 0.59406226873397827 0.073871538043022156
0.89239776134490967 0.5840991735458374 0.096119992434978485
0.94646811485290527 0.57660800218582153 0.12177647650241852
0.98711150884628296 0.57655841112136841 0.14444509148597717
0.0050303889438509941 0.62343114614486694 0.26838061213493347
0.0055413488298654556 0.622802734375 0.26664409041404724
0.026113232597708702 0.62221288681030273 0.2612246572971344
0.12471155077219009 0.61850261688232422 0.25861629843711853
0.26359158754348755 0.62186264991760254 0.25196978449821472
0.39445093274116516 0.63550019264221191 0.23682971298694611
0.51376771926879883 0.65429419279098511 0.21889741718769073
0.62600487470626831 0.6737600564956665 0.18567065894603729
0.73794132471084595 0.69496411085128784 0.1459600031375885
0.83130007982254028 0.70219826698303223 0.13600648939609528
0.89276766777038574 0.68664276599884033 0.15489888191223145
0.94637620449066162 0.67197543382644653 0.1820538341999054
0.98955303430557251 0.66184943914413452 0.19875358045101166
0.04983559250831604 0.70115458965301514 0.32498624920845032
0.072762280702590942 0.70026689767837524 0.32375422120094299
0.13964888453483582 0.69645446538925171 0.32146444916725159
0.21218343079090118 0.69095146656036377 0.31809118390083313
0.29072979092597961 0.68986326456069946 0.31391888856887817
0.40131416916847229 0.69924372434616089 0.30618339776992798
0.50802743434906006 0.71539938449859619 0.29631370306015015
0.60352861881256104 0.73119091987609863 0.28059989213943481
0.70129984617233276 0.7493818998336792 0.26263463497161865
0.80146974325180054 0.76842111349105835 0.24267485737800598
0.88568216562271118 0.77845269441604614 0.2414594292640686
0.94243896007537842 0.76597827672958374 0.26181891560554504
0.98419755697250366 0.7518729567527771 0.27918186783790588
0.20992018282413483 0.76825988292694092 0.39941957592964172
0.23413319885730743 0.76562577486038208 0.39707225561141968
0.27218353748321533 0.76399844884872437 0.39347276091575623
0.30940696597099304 0.7595285177230835 0.39092877507209778
0.35283723473548889 0.75608706474304199 0.38807356357574463
0.42954942584037781 0.76254314184188843 0.38240218162536621
0.5156097412109375 0.77481734752655029 0.3763434886932373
0.6022147536277771 0.7866511344909668 0.36910060048103333
0.68119913339614868 0.7992061972618103 0.36306548118591309
0.76430660486221313 0.81206440925598145 0.35147693753242493
0.85466820001602173 0.83060866594314575 0.34341999888420105
0.93137186765670776 0.84347838163375854 0.34752458333969116
0.97899061441421509 0.83543741703033447 0.36333072185516357
0.35233315825462341 0.82925266027450562 0.48578077554702759
0.36787804961204529 0.82573980093002319 0.48200228810310364
0.3873857855796814 0.82228165864944458 0.48011109232902527
0.41181841492652893 0.82331013679504395 0.47575899958610535
0.44152233004570007 0.8215644359588623 0.47015389800071716
0.48582634329795837 0.82401251792907715 0.46662688255310059
0.55047363042831421 0.82943594455718994 0.46618509292602539
0.61963796615600586 0.83902657032012939 0.46367540955543518
0.68546730279922485 0.84779232740402222 0.45902052521705627
0.75016295909881592 0.85699927806854248 0.45125922560691833
0.82134008407592773 0.86956894397735596 0.44491827487945557
0.89673507213592529 0.88202589750289917 0.44463714957237244
0.96614408493041992 0.89408856630325317 0.44944235682487488
0.4841589629650116 0.88659745454788208 0.57736420631408691
0.4868183434009552 0.88195681571960449 0.57477414608001709
0.49809616804122925 0.87975269556045532 0.5744745135307312
0.51595515012741089 0.88037174940109253 0.5705796480178833
0.53711152076721191 0.87887322902679443 0.56504207849502563
0.5625913143157959 0.87861776351928711 0.5641210675239563
0.60140103101730347 0.8823896050453186 0.56410354375839233
0.65460717678070068 0.88990098237991333 0.56419086456298828
0.70686525106430054 0.89579790830612183 0.5613129734992981
0.76168578863143921 0.90206503868103027 0.55520129203796387
0.8117067813873291 0.90789014101028442 0.55012661218643188
0.87132149934768677 0.91582745313644409 0.54646939039230347
0.92959636449813843 0.9258800745010376 0.54380041360855103
0.59711563587188721 0.9346165657043457 0.66986072063446045
0.59715884923934937 0.93277484178543091 0.66697198152542114
0.60489130020141602 0.93326961994171143 0.66819244623184204
0.61668503284454346 0.93293744325637817 0.66632956266403198
0.63182359933853149 0.93201637268066406 0.66454207897186279
0.65097165107727051 0.93126595020294189 0.66435760259628296
0.67232793569564819 0.93083149194717407 0.66166263818740845
0.70354890823364258 0.93477588891983032 0.66316419839859009
0.74219310283660889 0.93977600336074829 0.66336297988891602
0.78249949216842651 0.94448518753051758 0.66181904077529907
0.82227492332458496 0.94693398475646973 0.65680670738220215
0.86779934167861938 0.95367848873138428 0.65789961814880371
0.91175240278244019 0.95727241039276123 0.65368545055389404
0.067315645515918732 0.10677394270896912 0.15562811493873596
0.090528480708599091 0.10733403265476227 0.16000615060329437
0.12830644845962524 0.10860706120729446 0.1593998521566391
0.19189830124378204 0.10699973255395889 0.1561533510684967
0.27736827731132507 0.10073617845773697 0.15480899810791016
0.38335242867469788 0.085054092109203339 0.15128384530544281
0.4961446225643158 0.070409171283245087 0.14902986586093903
0.60064017772674561 0.080376826226711273 0.14952267706394196
0.69165569543838501 0.10281255096197128 0.14929266273975372
0.77245581150054932 0.12600895762443542 0.14610011875629425
0.84569644927978516 0.15939228236675262 0.14196127653121948
0.91319108009338379 0.1990450918674469 0.13714289665222168
0.9733130931854248 0.24454273283481598 0.13442927598953247
0.04935905709862709 0.1312108188867569 0.16156306862831116
0.08075396716594696 0.13143932819366455 0.16611242294311523
0.13315348327159882 0.13345605134963989 0.16632711887359619
0.20136572420597076 0.13717545568943024 0.16136555373668671
0.2880973219871521 0.13583375513553619 0.15721653401851654
0.39513930678367615 0.13018499314785004 0.1545364111661911
0.51066082715988159 0.12759999930858612 0.15396934747695923
0.61436980962753296 0.13534840941429138 0.15355502068996429
0.70097607374191284 0.14347486197948456 0.15105348825454712
0.77824753522872925 0.16101869940757751 0.14846591651439667
0.84982240200042725 0.19184224307537079 0.14355713129043579
0.91588044166564941 0.23101384937763214 0.13986293971538544
0.97062903642654419 0.27263292670249939 0.13521233201026917
0.027313472703099251 0.18070332705974579 0.17097888886928558
0.065875992178916931 0.18262664973735809 0.17295141518115997
0.12433432787656784 0.1874588280916214 0.17340688407421112
0.20378416776657104 0.19339166581630707 0.16976839303970337
0.30776086449623108 0.19759677350521088 0.16618502140045166
0.42168724536895752 0.20278719067573547 0.16207988560199738
0.53815245628356934 0.20233190059661865 0.16112589836120605
0.63119304180145264 0.20913536846637726 0.15792328119277954
0.71230697631835938 0.21701595187187195 0.15099476277828217
0.78526526689529419 0.22552672028541565 0.1480545848608017
0.85541272163391113 0.24574415385723114 0.14567713439464569
0.92092674970626831 0.2816283106803894 0.14346028864383698
0.97486424446105957 0.3169538676738739 0.13857029378414154
0.0093870125710964203 0.2605840265750885 0.18902565538883209
0.044954441487789154 0.26271665096282959 0.18865178525447845
0.1081165224313736 0.26435771584510803 0.18646702170372009
0.20198254287242889 0.27401295304298401 0.17965292930603027
0.33372670412063599 0.29198399186134338 0.17076224088668823
0.45829695463180542 0.29118621349334717 0.16672702133655548
0.565604567527771 0.28704199194908142 0.16582818329334259
0.65173208713531494 0.29401233792304993 0.16044934093952179
0.73032563924789429 0.30137303471565247 0.15451286733150482
0.79859620332717896 0.30729189515113831 0.15299347043037415
0.8631056547164917 0.32038545608520508 0.15112952888011932
0.92831873893737793 0.34388983249664307 0.14693906903266907
0.982185959815979 0.3696618378162384 0.14337868988513947
0.00300749228335917 0.36637243628501892 0.21574831008911133
0.014586773701012135 0.3647063672542572 0.21173582971096039
0.063683211803436279 0.3637373149394989 0.20756649971008301
0.17712858319282532 0.37260919809341431 0.20121672749519348
0.32756966352462769 0.39558914303779602 0.18526346981525421
