luts/negative_old/fuji_superia_1600_-.cube
# Created by: G'MIC (https://gmic.eu)
TITLE "fuji_superia_1600_-"
# LUT size
LUT_3D_SIZE 7
# Data domain
DOMAIN_MIN 0.0 0.0 0.0
DOMAIN_MAX 1.0 1.0 1.0
# LUT data points
0.032697699964046478 0.054303336888551712 0.069040022790431976
0.097412824630737305 0.05248800665140152 0.056993566453456879
0.28527280688285828 0.058449193835258484 0.048869606107473373
0.50884485244750977 0.031532034277915955 0.028172541409730911
0.69746822118759155 0.024163968861103058 0.009350854903459549
0.8500787615776062 0.10787727683782578 0.007180322427302599
0.97834539413452148 0.22729334235191345 0.00037590475403703749
0.0068954918533563614 0.14053462445735931 0.063217908143997192
0.076343700289726257 0.16497254371643066 0.04729665070772171
0.32020038366317749 0.18195430934429169 0.030168347060680389
0.55109709501266479 0.18066079914569855 0.0145224928855896
0.72121471166610718 0.19565148651599884 0.010604723356664181
0.85977715253829956 0.2244299054145813 0.006190610583871603
0.98317980766296387 0.29760253429412842 0.0043145571835339069
0.0011954214423894882 0.34925758838653564 0.0856948122382164
0.0051731783896684647 0.36258113384246826 0.070175617933273315
0.29565709829330444 0.40473124384880066 0.013793152756989002
0.59173852205276489 0.41062945127487183 0.0045250835828483105
0.75335520505905151 0.38011473417282104 0.0064183254726231098
0.88023185729980469 0.38390684127807617 0.0097600603476166725
0.98643738031387329 0.42230039834976196 0.0071737850084900856
0.0017875970806926489 0.53516829013824463 0.18821734189987183
0.0043071969412267208 0.5331454873085022 0.18806196749210358
0.24352766573429108 0.55084109306335449 0.1574321836233139
0.53193598985671997 0.58728808164596558 0.077548384666442871
0.76538586616516113 0.61629021167755127 0.0093359258025884628
0.89407807588577271 0.58161729574203491 0.03999653086066246
0.99188905954360962 0.58301925659179688 0.10117203742265701
0.04887969046831131 0.69134145975112915 0.31222587823867798
0.14901556074619293 0.68597197532653809 0.3113376796245575
0.31395232677459717 0.68769437074661255 0.30688226222991943
0.49985727667808533 0.70926797389984131 0.28221121430397034
0.69811606407165527 0.74096691608428955 0.24363888800144196
0.88336801528930664 0.77704006433486938 0.21574865281581879
0.98927497863769531 0.75572210550308228 0.25272923707962036
0.33411502838134766 0.83210480213165283 0.46089580655097961
0.36304619908332825 0.82767915725708008 0.45605671405792236
0.43565458059310913 0.82483339309692383 0.45453402400016785
0.5431855320930481 0.83186072111129761 0.45002481341362
0.68431740999221802 0.84989345073699951 0.44309818744659424
0.82579624652862549 0.87620711326599121 0.42308837175369263
0.96987342834472656 0.90337812900543213 0.41827955842018127
0.57298809289932251 0.94389820098876953 0.65253961086273193
0.58732134103775024 0.94377666711807251 0.65013867616653442
0.61609405279159546 0.94426870346069336 0.65016090869903564
0.66239345073699951 0.94485247135162354 0.65073585510253906
0.73822325468063354 0.95116525888442993 0.65087395906448364
0.82597541809082031 0.9593161940574646 0.64173018932342529
0.92161417007446289 0.97004371881484985 0.63796442747116089
0.022578684613108635 0.051129508763551712 0.13323214650154114
0.11049731075763702 0.045928612351417542 0.13010981678962708
0.29387065768241882 0.021734604611992836 0.13064382970333099
0.51972883939743042 0.0089898053556680679 0.127756267786026
0.69050538539886475 0.058908980339765549 0.12780135869979858
0.83981996774673462 0.14549942314624786 0.12126766890287399
0.96612608432769775 0.23882764577865601 0.11544611304998398
0.0037327036261558533 0.15767914056777954 0.156556636095047
0.1073438748717308 0.16570989787578583 0.15627259016036987
0.3280453085899353 0.17515268921852112 0.14553217589855194
0.55345779657363892 0.18904818594455719 0.14073486626148224
0.70894813537597656 0.21131929755210876 0.1385057121515274
0.85068339109420776 0.24727562069892883 0.12613222002983093
0.97571015357971191 0.31297248601913452 0.12424627691507339
0.0065403208136558533 0.37516093254089355 0.22055308520793915
0.056300502270460129 0.37521567940711975 0.2064221054315567
0.3463122546672821 0.40532374382019043 0.17930757999420166
0.58767390251159668 0.40008977055549622 0.16559416055679321
0.74148058891296387 0.39073589444160461 0.16510953009128571
0.86888611316680908 0.39978012442588806 0.156336709856987
0.9789850115776062 0.43524497747421265 0.16322602331638336
0.029139021411538124 0.5484042763710022 0.29025518894195557
0.11863463371992111 0.54477441310882568 0.28596219420433044
0.31364330649375916 0.54711925983428955 0.2744385302066803
0.55441510677337646 0.5849800705909729 0.24153907597064972
0.75437057018280029 0.60622984170913696 0.21414877474308014
0.88743048906326294 0.58031457662582397 0.22079741954803467
0.99082976579666138 0.580413818359375 0.23449981212615967
0.1941627711057663 0.69666540622711182 0.38134506344795227
0.250653475522995 0.69341695308685303 0.38224074244499207
0.36097699403762817 0.68697041273117065 0.37371718883514404
0.51538997888565063 0.70818251371383667 0.3613165020942688
0.70203816890716553 0.74570822715759277 0.34208008646965027
0.88257306814193726 0.77365529537200928 0.32610675692558289
0.98541760444641113 0.75578850507736206 0.34552592039108276
0.38206607103347778 0.83553379774093628 0.50398743152618408
0.40729719400405884 0.83087199926376343 0.50149977207183838
0.46478000283241272 0.8278687596321106 0.4977094829082489
0.55821758508682251 0.83139961957931519 0.4924648106098175
0.68229198455810547 0.85196548700332642 0.48660001158714294
0.83012682199478149 0.87668371200561523 0.48411208391189575
0.97091126441955566 0.90311145782470703 0.4720434844493866
0.59357929229736328 0.94421654939651489 0.67443019151687622
0.6006239652633667 0.94136518239974976 0.6696961522102356
0.6279481053352356 0.94373828172683716 0.67091941833496094
0.67067104578018188 0.94367009401321411 0.66821151971817017
0.73826485872268677 0.94909584522247314 0.6668630838394165
0.82866764068603516 0.9589916467666626 0.66427010297775269
0.92362070083618164 0.97004175186157227 0.66248756647109985
0.00081347295781597495 0.045688435435295105 0.30707910656929016
0.093939729034900665 0.050057206302881241 0.3112693727016449
0.31288596987724304 0.049805182963609695 0.31591185927391052
0.55287635326385498 0.076325558125972748 0.32829186320304871
0.72352200746536255 0.062636718153953552 0.30480244755744934
0.85475820302963257 0.08813253790140152 0.27709871530532837
0.97022873163223267 0.24183781445026398 0.29461172223091125
0.001696418272331357 0.1521984338760376 0.32433900237083435
0.10201508551836014 0.17282025516033173 0.33294326066970825
0.34985765814781189 0.20721112191677094 0.3382403552532196
0.56426417827606201 0.23264351487159729 0.34650230407714844
0.71882730722427368 0.21825607120990753 0.3151765763759613
0.84789043664932251 0.25307047367095947 0.30409586429595947
0.96572190523147583 0.32694271206855774 0.31134039163589478
0.011834283359348774 0.39002135396003723 0.37931209802627563
0.15154658257961273 0.390870600938797 0.38258445262908936
0.37578734755516052 0.39359939098358154 0.37700602412223816
0.56975048780441284 0.3993467390537262 0.36455017328262329
0.72015219926834106 0.39893093705177307 0.35038003325462341
0.84809547662734985 0.41310811042785645 0.34284511208534241
0.97299337387084961 0.44749706983566284 0.34107157588005066
0.28509014844894409 0.57350730895996094 0.45391905307769775
0.34427598118782043 0.56721460819244385 0.44960150122642517
0.41506433486938477 0.55196273326873779 0.42721933126449585
0.57661253213882446 0.57416749000549316 0.40873384475708008
0.74027663469314575 0.58155125379562378 0.39492002129554749
0.87317854166030884 0.57446438074111938 0.38910269737243652
0.97844094038009644 0.58767950534820557 0.39006736874580383
0.38649141788482666 0.7129167914390564 0.51178818941116333
0.39926362037658691 0.71075135469436646 0.49916034936904907
0.45002111792564392 0.69840627908706665 0.48491173982620239
0.55269598960876465 0.70325535535812378 0.47321289777755737
0.71462434530258179 0.74141472578048706 0.46629610657691956
0.87555044889450073 0.76263785362243652 0.46480002999305725
0.9766545295715332 0.75229912996292114 0.46783596277236938
0.47391939163208008 0.84212249517440796 0.58904385566711426
0.49202865362167358 0.83998435735702515 0.58725517988204956
0.52857095003128052 0.83625233173370361 0.57859987020492554
0.58886063098907471 0.82891476154327393 0.57159793376922607
0.69505453109741211 0.84949713945388794 0.56930172443389893
0.83327025175094604 0.87533742189407349 0.56734633445739746
0.97050493955612183 0.89702975749969482 0.57000184059143066
0.63195019960403442 0.94644170999526978 0.71968048810958862
0.6338152289390564 0.94264513254165649 0.71134030818939209
0.66155725717544556 0.94614529609680176 0.71628713607788086
0.69453608989715576 0.94278669357299805 0.71188503503799438
0.75288468599319458 0.94970095157623291 0.71122336387634277
0.83901768922805786 0.9592212438583374 0.71061080694198608
0.92664986848831177 0.96944266557693481 0.70891982316970825
0.0011809405405074358 0.0527191162109375 0.48988685011863708
0.082233265042304993 0.056807812303304672 0.49556779861450195
0.34342485666275024 0.091120503842830658 0.5032273530960083
0.55461794137954712 0.13802440464496613 0.5128973126411438
0.72351938486099243 0.20958356559276581 0.51565587520599365
0.87512290477752686 0.27681219577789307 0.51627367734909058
0.98776966333389282 0.28175842761993408 0.49454623460769653
0.0022541568614542484 0.17092420160770416 0.50207555294036865
0.11936742812395096 0.19154843688011169 0.51071333885192871
0.37201496958732605 0.22750672698020935 0.51666629314422607
0.56183940172195435 0.26689556241035461 0.51887208223342896
0.72623711824417114 0.31340610980987549 0.52780067920684814
0.87337714433670044 0.34690263867378235 0.52274912595748901
0.98226076364517212 0.33055853843688965 0.48312810063362122
0.0015908185159787536 0.34160181879997253 0.51832467317581177
0.095100924372673035 0.35416057705879211 0.52342516183853149
0.38292115926742554 0.38367289304733276 0.52662450075149536
0.57480889558792114 0.41702976822853088 0.53528600931167603
0.72889071702957153 0.44214785099029541 0.54368847608566284
0.85926800966262817 0.43252936005592346 0.51606935262680054
0.97534257173538208 0.42676624655723572 0.48827126622200012
0.23344741761684418 0.56903076171875 0.57130825519561768
0.32676327228546143 0.56831353902816772 0.57422161102294922
0.45862153172492981 0.56410592794418335 0.56775391101837158
0.59110826253890991 0.56613326072692871 0.56021910905838013
0.72395211458206177 0.5655592679977417 0.5415416955947876
0.85498428344726562 0.56279200315475464 0.52912050485610962
0.97092622518539429 0.57357704639434814 0.52210503816604614
0.47162026166915894 0.73822277784347534 0.63931411504745483
0.50607740879058838 0.73547673225402832 0.63949084281921387
0.55782556533813477 0.72364157438278198 0.62894660234451294
0.60326671600341797 0.70645534992218018 0.60085231065750122
0.7248913049697876 0.73352855443954468 0.59583586454391479
0.8667411208152771 0.74683284759521484 0.5916982889175415
0.97114711999893188 0.73583400249481201 0.58179551362991333
0.5930371880531311 0.85571432113647461 0.71305704116821289
0.60483503341674805 0.85141432285308838 0.70803368091583252
0.61732661724090576 0.84752243757247925 0.69102567434310913
0.64734041690826416 0.83775609731674194 0.67208558320999146
0.72253280878067017 0.84605580568313599 0.66270071268081665
0.84499967098236084 0.87456262111663818 0.66913801431655884
0.96807706356048584 0.88792115449905396 0.67264348268508911
0.69971048831939697 0.94872123003005981 0.79196947813034058
0.70208406448364258 0.94753730297088623 0.78689068555831909
0.71318751573562622 0.94720286130905151 0.7808336615562439
0.73415541648864746 0.93996822834014893 0.77103316783905029
0.77758961915969849 0.94533425569534302 0.77262216806411743
0.84809958934783936 0.95775061845779419 0.77239656448364258
0.9374198317527771 0.97216188907623291 0.77539855241775513
0.0049162469804286957 0.075187802314758301 0.65121167898178101
0.16054080426692963 0.090234942734241486 0.65677070617675781
0.38985177874565125 0.13024255633354187 0.66433078050613403
0.58309215307235718 0.19026380777359009 0.66890734434127808
0.7363782525062561 0.25143557786941528 0.67378705739974976
0.85964184999465942 0.33112949132919312 0.67761647701263428
0.97681951522827148 0.44079196453094482 0.70406866073608398
0.034746088087558746 0.19751070439815521 0.66193658113479614
0.20557373762130737 0.21510958671569824 0.66370660066604614
0.40735688805580139 0.24142332375049591 0.66915172338485718
0.59063935279846191 0.29326501488685608 0.67316305637359619
0.73489558696746826 0.33505851030349731 0.67747312784194946
0.86760103702545166 0.40005922317504883 0.68965780735015869
0.97904199361801147 0.48399466276168823 0.70786374807357788
0.033061802387237549 0.34030473232269287 0.66284370422363281
0.2219080775976181 0.36112922430038452 0.66682106256484985
0.41775721311569214 0.38663297891616821 0.6706235408782959
0.58418786525726318 0.42052748799324036 0.67382758855819702
0.72992926836013794 0.45601153373718262 0.68121373653411865
0.85942858457565308 0.50162148475646973 0.69496214389801025
0.97896617650985718 0.55839347839355469 0.71165597438812256
0.080275438725948334 0.51511716842651367 0.67169976234436035
0.20326276123523712 0.51227593421936035 0.67288851737976074
0.38448932766914368 0.51499068737030029 0.671825110912323
0.56424689292907715 0.54163485765457153 0.68076187372207642
0.73312258720397949 0.58840262889862061 0.69833439588546753
0.85912507772445679 0.62298202514648438 0.70859438180923462
0.9732469916343689 0.61482930183410645 0.6856580376625061
0.40169546008110046 0.72144138813018799 0.72945660352706909
0.4516201913356781 0.71778255701065063 0.73918622732162476
0.52973896265029907 0.71919625997543335 0.73044323921203613
0.62787801027297974 0.71648651361465454 0.72557556629180908
0.73200303316116333 0.71928566694259644 0.71559584140777588
0.85040152072906494 0.72081023454666138 0.70493310689926147
0.96444135904312134 0.71665042638778687 0.68723642826080322
0.63990581035614014 0.87482476234436035 0.8074033260345459
0.65730255842208862 0.87446320056915283 0.80597001314163208
0.68789726495742798 0.86763972043991089 0.80403095483779907
0.72146493196487427 0.85990571975708008 0.7923552393913269
0.76241910457611084 0.84767097234725952 0.77212494611740112
0.85947161912918091 0.86854636669158936 0.76903325319290161
0.96186739206314087 0.87141513824462891 0.76506036520004272
0.75046783685684204 0.954986572265625 0.86407488584518433
0.76095008850097656 0.95536601543426514 0.86551320552825928
0.7783510684967041 0.95413070917129517 0.86242443323135376
0.79110687971115112 0.95109736919403076 0.85149532556533813
0.81227612495422363 0.95096683502197266 0.8412436842918396
0.86124974489212036 0.95356720685958862 0.83366972208023071
0.94495564699172974 0.97135376930236816 0.84112650156021118
0.2400781512260437 0.13632956147193909 0.81115090847015381
0.33140948414802551 0.16274586319923401 0.80640327930450439
0.48079976439476013 0.18366768956184387 0.81004935503005981
0.63140439987182617 0.24507501721382141 0.81273311376571655
0.76802486181259155 0.3243429958820343 0.81509286165237427
0.88748431205749512 0.39139547944068909 0.82395660877227783
0.97732353210449219 0.46188628673553467 0.82620638608932495
0.27073737978935242 0.24289683997631073 0.8107982873916626
0.35372945666313171 0.2573445737361908 0.81054854393005371
0.49344384670257568 0.27643924951553345 0.81115823984146118
0.6360400915145874 0.32411700487136841 0.81544870138168335
0.772563636302948 0.39340811967849731 0.82089483737945557
0.88420850038528442 0.4379219114780426 0.82814717292785645
0.97375655174255371 0.50130867958068848 0.83021253347396851
0.26252338290214539 0.36567392945289612 0.8093266487121582
0.34665751457214355 0.37666356563568115 0.80997151136398315
0.48265230655670166 0.39649605751037598 0.81055259704589844
0.62423801422119141 0.43307578563690186 0.8131258487701416
0.76074957847595215 0.47548529505729675 0.81996250152587891
0.87569552659988403 0.52987688779830933 0.82990962266921997
0.96817618608474731 0.59160864353179932 0.83389776945114136
0.031785719096660614 0.47851604223251343 0.79990637302398682
0.19271558523178101 0.48250967264175415 0.80094003677368164
0.41326075792312622 0.50271475315093994 0.8090929388999939
0.5964544415473938 0.53710639476776123 0.8155474066734314
0.75006312131881714 0.59122639894485474 0.82489281892776489
0.87234282493591309 0.6483083963394165 0.83301234245300293
0.96108931303024292 0.68993121385574341 0.84322905540466309
0.23292677104473114 0.67594259977340698 0.82215547561645508
0.29314374923706055 0.66792541742324829 0.82379734516143799
0.40605586767196655 0.66080319881439209 0.82033532857894897
0.53861010074615479 0.65622490644454956 0.81730133295059204
0.71871525049209595 0.70122325420379639 0.82720094919204712
0.86328685283660889 0.75705373287200928 0.84557592868804932
0.95682370662689209 0.78763401508331299 0.85564661026000977
0.56022167205810547 0.85244613885879517 0.87381356954574585
0.58104515075683594 0.85281658172607422 0.87415140867233276
0.63297379016876221 0.85559821128845215 0.87238174676895142
0.69742679595947266 0.85537892580032349 0.87202900648117065
0.77674627304077148 0.85373580455780029 0.86856633424758911
0.86050164699554443 0.85751819610595703 0.86135554313659668
0.95894080400466919 0.86009228229522705 0.85350149869918823
0.78976613283157349 0.96485358476638794 0.92067474126815796
0.79689908027648926 0.96347886323928833 0.92124885320663452
0.81574058532714844 0.9643053412437439 0.92258131504058838
0.83274555206298828 0.95978814363479614 0.91871827840805054
0.86760950088500977 0.96072816848754883 0.9171978235244751
0.89339590072631836 0.95580542087554932 0.90586107969284058
0.95941966772079468 0.96597683429718018 0.90413850545883179
0.48201137781143188 0.2798713743686676 0.94907534122467041
0.52547633647918701 0.29004305601119995 0.94759052991867065
0.61337989568710327 0.31851860880851746 0.94871646165847778
0.71217036247253418 0.36517944931983948 0.94754034280776978
0.81545168161392212 0.43821200728416443 0.945068359375
0.90637987852096558 0.51930886507034302 0.93870025873184204
0.98673069477081299 0.57836765050888062 0.94438070058822632
0.48632386326789856 0.34054645895957947 0.95000261068344116
0.52939057350158691 0.35265621542930603 0.9501146674156189
0.60058879852294922 0.3704063892364502 0.94074660539627075
0.70947927236557007 0.41241633892059326 0.94653254747390747
0.80903232097625732 0.47396007180213928 0.94324976205825806
0.89950621128082275 0.55378901958465576 0.93693667650222778
0.98451298475265503 0.60826897621154785 0.9443669319152832
0.46271705627441406 0.43220922350883484 0.94688200950622559
0.50564777851104736 0.44176021218299866 0.94685178995132446
0.59033989906311035 0.45802780985832214 0.94458729028701782
0.69660717248916626 0.49016183614730835 0.94556421041488647
0.80358970165252686 0.5476568341255188 0.94411325454711914
0.89455121755599976 0.6144641637802124 0.93799597024917603
0.9810747504234314 0.66252481937408447 0.94467204809188843
0.33957734704017639 0.51755297183990479 0.94931197166442871
0.41357812285423279 0.53140830993652344 0.94765150547027588
0.53082311153411865 0.54711723327636719 0.94634687900543213
0.6648634672164917 0.58033758401870728 0.94668811559677124
0.78677690029144287 0.62770110368728638 0.94310915470123291
0.889892578125 0.68804389238357544 0.94206732511520386
0.97316110134124756 0.73256075382232666 0.94427037239074707
0.091213047504425049 0.64192026853561401 0.94945037364959717
0.20411242544651031 0.63806420564651489 0.94923573732376099
0.37915864586830139 0.64168727397918701 0.94505572319030762
0.57547211647033691 0.66451698541641235 0.94704341888427734
0.75191003084182739 0.71259063482284546 0.94639086723327637
0.86927884817123413 0.76752692461013794 0.94454550743103027
0.96432727575302124 0.80722200870513916 0.9459460973739624
0.47452273964881897 0.8344501256942749 0.9564206600189209
0.49653208255767822 0.83374524116516113 0.95569705963134766
0.53605538606643677 0.82268750667572021 0.95277136564254761
0.6110808253288269 0.81231307983398438 0.95208048820495605
0.69768643379211426 0.80862247943878174 0.95068901777267456
0.84990781545639038 0.84508270025253296 0.95211237668991089
0.96257138252258301 0.88910120725631714 0.95505505800247192
0.7269933819770813 0.9579886794090271 0.9712674617767334
0.73658847808837891 0.95758861303329468 0.96969342231750488
0.7610398530960083 0.95711660385131836 0.97139734029769897
0.80078613758087158 0.95987105369567871 0.97165149450302124
0.85148078203201294 0.96011590957641602 0.96970802545547485
0.90763336420059204 0.95921802520751953 0.97175616025924683
0.96396011114120483 0.96528643369674683 0.96955513954162598
