luts/negative_old/fuji_superia_1600_++.cube
# Created by: G'MIC (https://gmic.eu)
TITLE "fuji_superia_1600_++"
# LUT size
LUT_3D_SIZE 13
# Data domain
DOMAIN_MIN 0.0 0.0 0.0
DOMAIN_MAX 1.0 1.0 1.0
# LUT data points
0.15522702038288116 0.21191093325614929 0.19221927225589752
0.16220079362392426 0.21232263743877411 0.19224999845027924
0.18015637993812561 0.21346727013587952 0.19189372658729553
0.21692878007888794 0.21676014363765717 0.19106473028659821
0.26698824763298035 0.21959388256072998 0.1904338151216507
0.34425839781761169 0.22308677434921265 0.18941351771354675
0.43987014889717102 0.22778546810150146 0.18861342966556549
0.53998810052871704 0.23365873098373413 0.18606214225292206
0.63655930757522583 0.23773208260536194 0.18190819025039673
0.71825379133224487 0.24605508148670197 0.1798812597990036
0.79263246059417725 0.26113185286521912 0.17944735288619995
0.86711108684539795 0.27935132384300232 0.17637817561626434
0.93584758043289185 0.29970547556877136 0.16775384545326233
0.15241086483001709 0.22134731709957123 0.19424337148666382
0.1598631739616394 0.22362066805362701 0.19363266229629517
0.1803358793258667 0.22616757452487946 0.19361624121665955
0.21866469085216522 0.22812598943710327 0.19238820672035217
0.27931401133537292 0.23227578401565552 0.19025443494319916
0.36279547214508057 0.23970398306846619 0.1891346275806427
0.46032014489173889 0.24712927639484406 0.18692988157272339
0.55897688865661621 0.25296741724014282 0.18379203975200653
0.64980340003967285 0.25933676958084106 0.18115122616291046
0.72828590869903564 0.2685026228427887 0.18089279532432556
0.80004239082336426 0.27968049049377441 0.17738863825798035
0.87199753522872925 0.29626947641372681 0.17255772650241852
0.94040781259536743 0.3173920214176178 0.16714338958263397
0.14397072792053223 0.24350103735923767 0.19556497037410736
0.15528865158557892 0.24677032232284546 0.19529218971729279
0.17669922113418579 0.2478448748588562 0.19408068060874939
0.22804306447505951 0.2551441490650177 0.19210933148860931
0.29811471700668335 0.26178038120269775 0.18884307146072388
0.38919287919998169 0.26946243643760681 0.18611142039299011
0.48762974143028259 0.27673089504241943 0.18389919400215149
0.5814518928527832 0.28396674990653992 0.18139094114303589
0.66349375247955322 0.28942051529884338 0.17953801155090332
0.74169540405273438 0.3002067506313324 0.17734217643737793
0.81197202205657959 0.30972582101821899 0.1739574670791626
0.87999242544174194 0.32231011986732483 0.17027361690998077
0.94633400440216064 0.34403765201568604 0.16706597805023193
0.12530046701431274 0.28126680850982666 0.19804546236991882
0.13863590359687805 0.28569519519805908 0.19819781184196472
0.16731983423233032 0.29084137082099915 0.1970224529504776
0.22546395659446716 0.30351582169532776 0.19278351962566376
0.3175404965877533 0.32066518068313599 0.18499788641929626
0.4228922426700592 0.33545798063278198 0.17931582033634186
0.51883625984191895 0.33313393592834473 0.17917259037494659
0.60744869709014893 0.33420100808143616 0.17899018526077271
0.68156248331069946 0.33781725168228149 0.1766076534986496
0.75445520877838135 0.34061154723167419 0.1728338748216629
0.82329964637756348 0.35127130150794983 0.17244747281074524
0.88896483182907104 0.36605671048164368 0.17176057398319244
0.9515683650970459 0.382386714220047 0.1686466783285141
0.063333921134471893 0.34973177313804626 0.20352916419506073
0.093055605888366699 0.34883320331573486 0.20325253903865814
0.14187629520893097 0.35603100061416626 0.20327253639698029
0.20605947077274323 0.37001222372055054 0.19884569942951202
0.30921101570129395 0.38962623476982117 0.18486844003200531
0.4403744637966156 0.41753807663917542 0.17060846090316772
0.54323017597198486 0.41817095875740051 0.16864334046840668
0.62458115816116333 0.40586140751838684 0.17218728363513947
0.69844764471054077 0.39863047003746033 0.17231085896492004
0.76712453365325928 0.398774653673172 0.17389556765556335
0.83335143327713013 0.40593442320823669 0.17541484534740448
0.89718329906463623 0.41644641757011414 0.17358362674713135
0.95683670043945312 0.43171876668930054 0.17531195282936096
0.0058436077088117599 0.42985942959785461 0.21489705145359039
0.020527573302388191 0.43103933334350586 0.21353785693645477
0.07915833592414856 0.43574464321136475 0.21312488615512848
0.17572169005870819 0.44325160980224609 0.20907488465309143
0.28260660171508789 0.45727121829986572 0.19785609841346741
0.4063231348991394 0.47770863771438599 0.18193531036376953
0.54232883453369141 0.50227254629135132 0.16401694715023041
0.63979142904281616 0.50275510549545288 0.16137102246284485
0.71424096822738647 0.48760494589805603 0.1676848828792572
0.78022861480712891 0.47457581758499146 0.17422780394554138
0.84451782703399658 0.46871721744537354 0.17935030162334442
0.90411490201950073 0.47505715489387512 0.18539653718471527
0.96316248178482056 0.48854467272758484 0.19229909777641296
0.0025207668077200651 0.50772517919540405 0.23616649210453033
0.0058844923041760921 0.50731498003005981 0.23619453608989716
0.048684649169445038 0.50689244270324707 0.23286080360412598
0.15939922630786896 0.50746393203735352 0.2310713529586792
0.26566186547279358 0.51737898588180542 0.22311265766620636
0.37544712424278259 0.5331084132194519 0.21177667379379272
0.50239920616149902 0.5544135570526123 0.19548271596431732
0.6308213472366333 0.57869994640350342 0.17672896385192871
0.72760248184204102 0.58316045999526978 0.17383258044719696
0.79260355234146118 0.56579244136810303 0.18509337306022644
0.85337406396865845 0.55115187168121338 0.19421645998954773
0.91155588626861572 0.54727596044540405 0.20579668879508972
0.96728408336639404 0.54986709356307983 0.21944350004196167
0.011143493466079235 0.58217263221740723 0.27466294169425964
0.033676519989967346 0.58001887798309326 0.27348864078521729
0.10409867763519287 0.57662642002105713 0.27149233222007751
0.18396715819835663 0.56959587335586548 0.26910856366157532
0.27432838082313538 0.57404607534408569 0.26343753933906555
0.3712916374206543 0.58767974376678467 0.25684964656829834
0.47901564836502075 0.60555171966552734 0.24761632084846497
0.59259212017059326 0.62434035539627075 0.23462361097335815
0.70882272720336914 0.64864283800125122 0.21985997259616852
0.79884093999862671 0.65530645847320557 0.22017098963260651
0.86171215772628784 0.64252042770385742 0.22888660430908203
0.91778922080993652 0.63144189119338989 0.24181704223155975
0.97030085325241089 0.62583732604980469 0.25649353861808777
0.13330629467964172 0.6495826244354248 0.32872644066810608
0.15885730087757111 0.64677965641021729 0.32526549696922302
0.19212143123149872 0.6402735710144043 0.32344642281532288
0.24388304352760315 0.6348952054977417 0.31975233554840088
0.31047877669334412 0.63520795106887817 0.31456249952316284
0.38879483938217163 0.64477741718292236 0.31054496765136719
0.47664088010787964 0.6584966778755188 0.30549129843711853
0.57715380191802979 0.67360830307006836 0.29854214191436768
0.67421633005142212 0.69004148244857788 0.29059258103370667
0.77308666706085205 0.71002811193466187 0.28332149982452393
0.86291754245758057 0.72471940517425537 0.28204914927482605
0.92113369703292847 0.71692794561386108 0.29557350277900696
0.97021704912185669 0.71101969480514526 0.30863800644874573
0.26594102382659912 0.71104156970977783 0.38730394840240479
0.26890292763710022 0.70656907558441162 0.38198244571685791
0.28958919644355774 0.70371484756469727 0.38088619709014893
0.32179948687553406 0.69871026277542114 0.37723669409751892
0.36637800931930542 0.69722694158554077 0.37292474508285522
0.42796984314918518 0.70344007015228271 0.37129032611846924
0.49837550520896912 0.71339333057403564 0.36902934312820435
0.5788695216178894 0.72596639394760132 0.36611029505729675
0.66288071870803833 0.73848509788513184 0.36026600003242493
0.74797350168228149 0.75340193510055542 0.35541749000549316
0.8329157829284668 0.77260410785675049 0.35225486755371094
0.91610395908355713 0.79175031185150146 0.35434019565582275
0.96964025497436523 0.79158645868301392 0.36614736914634705
0.36597806215286255 0.77141642570495605 0.44593906402587891
0.37451639771461487 0.76980382204055786 0.44534805417060852
0.38675782084465027 0.76821726560592651 0.44332417845726013
0.4100010097026825 0.76382613182067871 0.44108456373214722
0.43986645340919495 0.76097297668457031 0.43962150812149048
0.47956860065460205 0.76351231336593628 0.43697986006736755
0.53811907768249512 0.77109044790267944 0.43616709113121033
0.59907931089401245 0.78005224466323853 0.43598753213882446
0.66702288389205933 0.7897493839263916 0.43413767218589783
0.74438422918319702 0.80239403247833252 0.43183371424674988
0.81504136323928833 0.81634438037872314 0.4286811351776123
0.8859860897064209 0.83476859331130981 0.42882567644119263
0.95778125524520874 0.8550993800163269 0.43464276194572449
0.47212943434715271 0.83399909734725952 0.51939791440963745
0.47982662916183472 0.83332914113998413 0.51935088634490967
0.4891086220741272 0.83290112018585205 0.51819717884063721
0.50674110651016235 0.83090978860855103 0.51862454414367676
0.53162699937820435 0.82873177528381348 0.51761847734451294
0.55551111698150635 0.8287656307220459 0.51386231184005737
0.59429305791854858 0.83265483379364014 0.51306372880935669
0.64235955476760864 0.83846181631088257 0.51333129405975342
0.69847935438156128 0.84623056650161743 0.51412254571914673
0.7566344141960144 0.85549312829971313 0.51225072145462036
0.81642842292785645 0.86740022897720337 0.51138216257095337
0.87202930450439453 0.8785783052444458 0.51151347160339355
0.93022119998931885 0.89183729887008667 0.51210910081863403
0.58329582214355469 0.89716368913650513 0.60048627853393555
0.58651453256607056 0.89686000347137451 0.60042893886566162
0.59363609552383423 0.89549285173416138 0.59966892004013062
0.60562139749526978 0.89400410652160645 0.60028564929962158
0.62344509363174438 0.89391934871673584 0.60015857219696045
0.64154016971588135 0.89299750328063965 0.59715366363525391
0.66567468643188477 0.89528673887252808 0.59741324186325073
0.7013823390007019 0.9001045823097229 0.60090726613998413
0.74335116147994995 0.90421199798583984 0.60007143020629883
0.78315675258636475 0.91071367263793945 0.60072845220565796
0.83094692230224609 0.92134612798690796 0.60484647750854492
0.87749707698822021 0.92785584926605225 0.60483050346374512
0.92168617248535156 0.93475735187530518 0.61057835817337036
0.15620499849319458 0.21289731562137604 0.20086592435836792
0.16505663096904755 0.21385678648948669 0.2007354348897934
0.18181833624839783 0.21534615755081177 0.19952988624572754
0.2185891717672348 0.21619927883148193 0.1997353732585907
0.2736876904964447 0.21759989857673645 0.20029570162296295
0.34836667776107788 0.2205837219953537 0.19989031553268433
0.44886809587478638 0.2217877060174942 0.20127013325691223
0.54733103513717651 0.2275124192237854 0.20022810995578766
0.6366955041885376 0.23368485271930695 0.19793179631233215
0.71914589405059814 0.2449018806219101 0.19622235000133514
0.79377633333206177 0.25754091143608093 0.19236157834529877
0.86713999509811401 0.27305641770362854 0.18883086740970612
0.9354395866394043 0.29671159386634827 0.18541663885116577
0.15392422676086426 0.22113651037216187 0.20050919055938721
0.16613581776618958 0.22538518905639648 0.20312590897083282
0.18543626368045807 0.22794909775257111 0.20423662662506104
0.22423402965068817 0.22879323363304138 0.20203548669815063
0.28393071889877319 0.2317088395357132 0.20152947306632996
0.36512371897697449 0.23740142583847046 0.20270992815494537
0.46406304836273193 0.24168381094932556 0.2019941508769989
0.56307494640350342 0.24637772142887115 0.20030036568641663
0.64822828769683838 0.2533109188079834 0.19903175532817841
0.72762322425842285 0.26139053702354431 0.19379594922065735
0.80049365758895874 0.27581271529197693 0.19206804037094116
0.87173724174499512 0.29662692546844482 0.19143871963024139
0.94009006023406982 0.3175092339515686 0.18765419721603394
0.14697173237800598 0.24580158293247223 0.20537777245044708
0.16071859002113342 0.24924047291278839 0.20653714239597321
0.18376012146472931 0.25098291039466858 0.20651741325855255
0.23025313019752502 0.25635102391242981 0.20491319894790649
0.29855477809906006 0.2609105110168457 0.20230354368686676
0.39186230301856995 0.27076238393783569 0.20192788541316986
0.49031329154968262 0.2776738703250885 0.20092214643955231
0.58154702186584473 0.28173255920410156 0.20229218900203705
0.66268891096115112 0.28592965006828308 0.20034298300743103
0.7400861382484436 0.29592576622962952 0.19425655901432037
0.81043267250061035 0.30774596333503723 0.19207713007926941
0.87975150346755981 0.32501867413520813 0.19173374772071838
0.94661104679107666 0.3460439145565033 0.18961511552333832
0.13229091465473175 0.28772732615470886 0.21263663470745087
0.14650548994541168 0.29091843962669373 0.21225196123123169
0.17441505193710327 0.29484838247299194 0.21124225854873657
0.22768357396125793 0.30223894119262695 0.20625542104244232
0.31839078664779663 0.32147040963172913 0.20075930655002594
0.4233585000038147 0.33016505837440491 0.19828368723392487
0.51752549409866333 0.32969257235527039 0.19910605251789093
0.60444813966751099 0.33270329236984253 0.20003931224346161
0.68103456497192383 0.33524972200393677 0.19817577302455902
0.75336587429046631 0.33928745985031128 0.1953047513961792
0.82207214832305908 0.34937337040901184 0.19322989881038666
0.88716137409210205 0.36291790008544922 0.19218133389949799
0.95056557655334473 0.38348141312599182 0.19263441860675812
0.070873484015464783 0.3600497841835022 0.22069492936134338
0.10318386554718018 0.36016073822975159 0.22140420973300934
0.15001267194747925 0.36231395602226257 0.22081053256988525
0.21465654671192169 0.36980685591697693 0.21519310772418976
0.31579145789146423 0.38955587148666382 0.2034974992275238
0.44128289818763733 0.41369512677192688 0.19411256909370422
0.5419420599937439 0.41476500034332275 0.19353543221950531
0.6243060827255249 0.40319111943244934 0.19639666378498077
0.69929498434066772 0.39946085214614868 0.19658111035823822
0.76998722553253174 0.4007594883441925 0.19653999805450439
0.83252441883087158 0.40812221169471741 0.19949722290039062
0.8936346173286438 0.41675060987472534 0.1976245641708374
0.95567983388900757 0.43075105547904968 0.19806180894374847
0.0089322412386536598 0.44094249606132507 0.23513135313987732
0.031731653958559036 0.44064506888389587 0.23299351334571838
0.10459190607070923 0.43993303179740906 0.2332274466753006
0.19121283292770386 0.44350326061248779 0.22838631272315979
0.29491457343101501 0.45809870958328247 0.21957072615623474
0.41400066018104553 0.47801691293716431 0.20609515905380249
0.54614764451980591 0.50072616338729858 0.19243037700653076
0.64195996522903442 0.49971142411231995 0.19137252867221832
0.7158399224281311 0.48419088125228882 0.19709612429141998
0.78252220153808594 0.47232553362846375 0.2029038667678833
0.84196394681930542 0.46915227174758911 0.20787777006626129
0.90067589282989502 0.47604644298553467 0.21237747371196747
0.9628404974937439 0.48960354924201965 0.21813227236270905
0.0070895175449550152 0.51669275760650635 0.2620638906955719
0.023335400968790054 0.51466327905654907 0.25798279047012329
0.095638945698738098 0.51070362329483032 0.25725346803665161
0.18679049611091614 0.51081037521362305 0.25376257300376892
0.28129869699478149 0.51947402954101562 0.2464468777179718
0.38707011938095093 0.53414034843444824 0.23883245885372162
0.50797432661056519 0.55417591333389282 0.22455340623855591
0.63344156742095947 0.57708978652954102 0.20951424539089203
0.7257419228553772 0.57991200685501099 0.21074590086936951
0.7921072244644165 0.56613576412200928 0.22016152739524841
0.85148352384567261 0.55193036794662476 0.22688388824462891
0.90987271070480347 0.54526329040527344 0.23584292829036713
0.96635240316390991 0.55153357982635498 0.24598710238933563
0.056138746440410614 0.58784216642379761 0.29950585961341858
0.097297251224517822 0.58583635091781616 0.29781371355056763
0.15275390446186066 0.57986199855804443 0.2962152361869812
0.21833845973014832 0.57448345422744751 0.29260331392288208
0.29369896650314331 0.5758892297744751 0.28710675239562988
0.38698339462280273 0.58873391151428223 0.28375884890556335
0.48966917395591736 0.60593169927597046 0.27581426501274109
0.59645813703536987 0.62552487850189209 0.26313948631286621
0.71225225925445557 0.64945387840270996 0.25276115536689758
0.79985952377319336 0.65426260232925415 0.25254595279693604
0.86102372407913208 0.64262926578521729 0.26004430651664734
0.91651672124862671 0.63164013624191284 0.27045676112174988
0.96774947643280029 0.62752711772918701 0.2841450572013855
0.18512526154518127 0.6521872878074646 0.34959825873374939
0.19484564661979675 0.64787405729293823 0.34678107500076294
0.22400733828544617 0.64279991388320923 0.34442001581192017
0.27334374189376831 0.63746011257171631 0.34067952632904053
0.33084890246391296 0.63603192567825317 0.33688554167747498
0.40590593218803406 0.64557993412017822 0.33426535129547119
0.49004277586936951 0.65931481122970581 0.32937568426132202
0.58308351039886475 0.67447918653488159 0.32425501942634583
0.67904448509216309 0.69140994548797607 0.31718087196350098
0.78027689456939697 0.71407860517501831 0.31005313992500305
0.86391395330429077 0.7247239351272583 0.30948373675346375
0.92096596956253052 0.71720695495605469 0.31811854243278503
0.97173821926116943 0.71241813898086548 0.33176875114440918
0.28446540236473083 0.71093225479125977 0.40143772959709167
0.29207327961921692 0.70693826675415039 0.39951327443122864
0.31055453419685364 0.70416384935379028 0.39815226197242737
0.34143045544624329 0.7011188268661499 0.3943445086479187
0.38268950581550598 0.69905620813369751 0.39113640785217285
0.43999630212783813 0.70465940237045288 0.38919612765312195
0.50893831253051758 0.71484261751174927 0.38810664415359497
0.58837199211120605 0.72674942016601562 0.38754403591156006
0.66828054189682007 0.73967593908309937 0.38321641087532043
0.7513502836227417 0.75494658946990967 0.37675735354423523
0.83746016025543213 0.7748221755027771 0.37198325991630554
0.91674262285232544 0.79198604822158813 0.37614738941192627
0.96828144788742065 0.78868377208709717 0.38784122467041016
0.38040885329246521 0.77339273691177368 0.45836055278778076
0.39089605212211609 0.76934868097305298 0.45952016115188599
0.40529993176460266 0.76745998859405518 0.45923504233360291
0.42447689175605774 0.76583844423294067 0.45537829399108887
0.45253440737724304 0.76401066780090332 0.45326569676399231
0.48999765515327454 0.76522070169448853 0.45138126611709595
0.54279690980911255 0.77286642789840698 0.44985297322273254
0.60239905118942261 0.78024381399154663 0.450285404920578
0.6737900972366333 0.79116314649581909 0.45084467530250549
0.75280696153640747 0.80432403087615967 0.44666305184364319
0.81983023881912231 0.81697481870651245 0.44344177842140198
0.88801151514053345 0.83541202545166016 0.44601359963417053
0.95784693956375122 0.85418945550918579 0.4515419602394104
0.48305234313011169 0.83654886484146118 0.52913612127304077
0.49098056554794312 0.83326941728591919 0.53052574396133423
0.5016409158706665 0.83220583200454712 0.52965986728668213
0.51535171270370483 0.83310359716415405 0.5271039605140686
0.53718870878219604 0.8321492075920105 0.52600401639938354
0.56202685832977295 0.83110463619232178 0.52276158332824707
0.59843349456787109 0.83360534906387329 0.52222132682800293
0.64446926116943359 0.83833134174346924 0.52490741014480591
0.69785726070404053 0.84687632322311401 0.52399981021881104
0.76120239496231079 0.85788148641586304 0.52264130115509033
0.81916552782058716 0.86718076467514038 0.52148312330245972
0.87342768907546997 0.87921261787414551 0.52274572849273682
0.93175595998764038 0.89349639415740967 0.52561169862747192
0.58613079786300659 0.89624291658401489 0.60448247194290161
0.59443771839141846 0.89686334133148193 0.60739529132843018
0.60016262531280518 0.89525610208511353 0.60627454519271851
0.61108630895614624 0.89606344699859619 0.60607987642288208
0.62734639644622803 0.89682555198669434 0.60692489147186279
0.64569562673568726 0.89566183090209961 0.60460805892944336
0.66560190916061401 0.89279431104660034 0.60042554140090942
0.7016112208366394 0.89839780330657959 0.60512298345565796
0.74374943971633911 0.90629619359970093 0.60707515478134155
0.78660100698471069 0.9145318865776062 0.60983622074127197
0.83195871114730835 0.92061150074005127 0.60986155271530151
0.87704569101333618 0.92821574211120605 0.61398476362228394
0.92139095067977905 0.93505609035491943 0.61904048919677734
0.15646308660507202 0.21294490993022919 0.21514753997325897
0.16797153651714325 0.21479657292366028 0.21787329018115997
0.1860249787569046 0.21585972607135773 0.21783323585987091
0.22157780826091766 0.21635933220386505 0.22085927426815033
0.2792394757270813 0.21666286885738373 0.22331267595291138
0.36446353793144226 0.21217449009418488 0.22114266455173492
0.46327152848243713 0.20551164448261261 0.21726828813552856
0.55550432205200195 0.21370984613895416 0.21782137453556061
0.63874250650405884 0.2237716019153595 0.21898365020751953
0.71941834688186646 0.23589871823787689 0.22011016309261322
0.79393959045410156 0.25142544507980347 0.22058425843715668
0.86587250232696533 0.26977837085723877 0.22005806863307953
0.93428069353103638 0.29503253102302551 0.21799761056900024
0.15286794304847717 0.22368203103542328 0.22427761554718018
0.16701392829418182 0.22680847346782684 0.22351253032684326
0.18902154266834259 0.22865955531597137 0.22089676558971405
0.22675864398479462 0.22900329530239105 0.22210095822811127
0.28882068395614624 0.23091726005077362 0.22539649903774261
0.37245228886604309 0.23016174137592316 0.22351865470409393
0.4705682098865509 0.22952045500278473 0.2202320396900177
0.56351077556610107 0.23516930639743805 0.22259359061717987
0.64659386873245239 0.2434559166431427 0.22258801758289337
0.72587472200393677 0.25420543551445007 0.22106517851352692
0.80016177892684937 0.27210614085197449 0.22287710011005402
0.87102138996124268 0.29477983713150024 0.22374118864536285
0.9389195442199707 0.31558361649513245 0.22049307823181152
0.14665408432483673 0.24780400097370148 0.22989751398563385
0.16267760097980499 0.25114601850509644 0.22971221804618835
0.18786561489105225 0.25096091628074646 0.2256690114736557
0.23546178638935089 0.25529465079307556 0.22726806998252869
0.30419951677322388 0.25997143983840942 0.23077103495597839
0.39689010381698608 0.26284831762313843 0.2261580228805542
0.49084043502807617 0.26896506547927856 0.22570525109767914
0.57780295610427856 0.27388960123062134 0.22779439389705658
0.65909630060195923 0.27975165843963623 0.22533957660198212
0.73651802539825439 0.29025903344154358 0.22287170588970184
0.80840581655502319 0.30368894338607788 0.22353263199329376
0.8786005973815918 0.32406133413314819 0.22368748486042023
0.94395309686660767 0.34555450081825256 0.22390812635421753
0.1410834789276123 0.29501298069953918 0.23920796811580658
0.15671178698539734 0.29819777607917786 0.2394062727689743
0.1852356344461441 0.29735657572746277 0.23542661964893341
0.23815008997917175 0.30093297362327576 0.23478668928146362
0.32536724209785461 0.31731417775154114 0.23322112858295441
0.42571103572845459 0.32116073369979858 0.22892633080482483
0.51640993356704712 0.32387831807136536 0.22901864349842072
0.59953182935714722 0.32855159044265747 0.23055785894393921
0.67668205499649048 0.3316267728805542 0.22836939990520477
0.74947667121887207 0.33680689334869385 0.22538694739341736
0.81781500577926636 0.34747391939163208 0.22573882341384888
0.88395023345947266 0.36160600185394287 0.22662216424942017
0.94875830411911011 0.38346117734909058 0.22878189384937286
0.11961843818426132 0.3708018958568573 0.25761228799819946
0.14069254696369171 0.37105754017829895 0.25610101222991943
0.1738276481628418 0.3675747811794281 0.25164902210235596
0.23106694221496582 0.36999484896659851 0.24816827476024628
0.3274560272693634 0.38961866497993469 0.24067243933677673
0.44535022974014282 0.40718048810958862 0.23297476768493652
0.54150378704071045 0.40382516384124756 0.23144286870956421
0.62303513288497925 0.39535236358642578 0.23424074053764343
