luts/negative_old/fuji_neopan_1600_+.cube
# Created by: G'MIC (https://gmic.eu)
TITLE "fuji_neopan_1600_+"
# LUT size
LUT_3D_SIZE 13
# Data domain
DOMAIN_MIN 0.0 0.0 0.0
DOMAIN_MAX 1.0 1.0 1.0
# LUT data points
0.089255809783935547 0.089255809783935547 0.089255809783935547
0.085851140320301056 0.085851140320301056 0.085851140320301056
0.087619602680206299 0.087619602680206299 0.087619602680206299
0.096487663686275482 0.096487663686275482 0.096487663686275482
0.11229690909385681 0.11229690909385681 0.11229690909385681
0.13321806490421295 0.13321806490421295 0.13321806490421295
0.1578734964132309 0.1578734964132309 0.1578734964132309
0.18468247354030609 0.18468247354030609 0.18468247354030609
0.21369865536689758 0.21369865536689758 0.21369865536689758
0.24753493070602417 0.24753493070602417 0.24753493070602417
0.29248881340026855 0.29248881340026855 0.29248881340026855
0.35238668322563171 0.35238668322563171 0.35238668322563171
0.42354291677474976 0.42354291677474976 0.42354291677474976
0.091415807604789734 0.091415807604789734 0.091415807604789734
0.09040234237909317 0.09040234237909317 0.09040234237909317
0.095444336533546448 0.095444336533546448 0.095444336533546448
0.10893481224775314 0.10893481224775314 0.10893481224775314
0.12901334464550018 0.12901334464550018 0.12901334464550018
0.15450024604797363 0.15450024604797363 0.15450024604797363
0.18279871344566345 0.18279871344566345 0.18279871344566345
0.21177121996879578 0.21177121996879578 0.21177121996879578
0.24051240086555481 0.24051240086555481 0.24051240086555481
0.27189049124717712 0.27189049124717712 0.27189049124717712
0.31466236710548401 0.31466236710548401 0.31466236710548401
0.37657520174980164 0.37657520174980164 0.37657520174980164
0.45071020722389221 0.45071020722389221 0.45071020722389221
0.1013750433921814 0.1013750433921814 0.1013750433921814
0.10182055085897446 0.10182055085897446 0.10182055085897446
0.11023171991109848 0.11023171991109848 0.11023171991109848
0.12849181890487671 0.12849181890487671 0.12849181890487671
0.15383285284042358 0.15383285284042358 0.15383285284042358
0.18443405628204346 0.18443405628204346 0.18443405628204346
0.21785943210124969 0.21785943210124969 0.21785943210124969
0.2513694167137146 0.2513694167137146 0.2513694167137146
0.2825811505317688 0.2825811505317688 0.2825811505317688
0.31416088342666626 0.31416088342666626 0.31416088342666626
0.35620573163032532 0.35620573163032532 0.35620573163032532
0.41664847731590271 0.41664847731590271 0.41664847731590271
0.48961931467056274 0.48961931467056274 0.48961931467056274
0.12310026586055756 0.12310026586055756 0.12310026586055756
0.12482406198978424 0.12482406198978424 0.12482406198978424
0.13553966581821442 0.13553966581821442 0.13553966581821442
0.15695996582508087 0.15695996582508087 0.15695996582508087
0.18627582490444183 0.18627582490444183 0.18627582490444183
0.22097687423229218 0.22097687423229218 0.22097687423229218
0.2603379487991333 0.2603379487991333 0.2603379487991333
0.30077466368675232 0.30077466368675232 0.30077466368675232
0.33723071217536926 0.33723071217536926 0.33723071217536926
0.37296214699745178 0.37296214699745178 0.37296214699745178
0.41649290919303894 0.41649290919303894 0.41649290919303894
0.47413364052772522 0.47413364052772522 0.47413364052772522
0.54291129112243652 0.54291129112243652 0.54291129112243652
0.15993694961071014 0.15993694961071014 0.15993694961071014
0.16351859271526337 0.16351859271526337 0.16351859271526337
0.17546391487121582 0.17546391487121582 0.17546391487121582
0.19675134122371674 0.19675134122371674 0.19675134122371674
0.22591201961040497 0.22591201961040497 0.22591201961040497
0.26189097762107849 0.26189097762107849 0.26189097762107849
0.30423003435134888 0.30423003435134888 0.30423003435134888
0.35068124532699585 0.35068124532699585 0.35068124532699585
0.39402908086776733 0.39402908086776733 0.39402908086776733
0.43623071908950806 0.43623071908950806 0.43623071908950806
0.48562616109848022 0.48562616109848022 0.48562616109848022
0.54375272989273071 0.54375272989273071 0.54375272989273071
0.6084287166595459 0.6084287166595459 0.6084287166595459
0.21053397655487061 0.21053397655487061 0.21053397655487061
0.21607702970504761 0.21607702970504761 0.21607702970504761
0.22798515856266022 0.22798515856266022 0.22798515856266022
0.2463938444852829 0.2463938444852829 0.2463938444852829
0.27179339528083801 0.27179339528083801 0.27179339528083801
0.30489060282707214 0.30489060282707214 0.30489060282707214
0.34539812803268433 0.34539812803268433 0.34539812803268433
0.39205187559127808 0.39205187559127808 0.39205187559127808
0.44210949540138245 0.44210949540138245 0.44210949540138245
0.49563807249069214 0.49563807249069214 0.49563807249069214
0.55449515581130981 0.55449515581130981 0.55449515581130981
0.61796176433563232 0.61796176433563232 0.61796176433563232
0.6802254319190979 0.6802254319190979 0.6802254319190979
0.27286839485168457 0.27286839485168457 0.27286839485168457
0.27977898716926575 0.27977898716926575 0.27977898716926575
0.29069271683692932 0.29069271683692932 0.29069271683692932
0.30513253808021545 0.30513253808021545 0.30513253808021545
0.32530269026756287 0.32530269026756287 0.32530269026756287
0.35283297300338745 0.35283297300338745 0.35283297300338745
0.38811296224594116 0.38811296224594116 0.38811296224594116
0.43118834495544434 0.43118834495544434 0.43118834495544434
0.48459455370903015 0.48459455370903015 0.48459455370903015
0.54777234792709351 0.54777234792709351 0.54777234792709351
0.61613094806671143 0.61613094806671143 0.61613094806671143
0.6854482889175415 0.6854482889175415 0.6854482889175415
0.74579131603240967 0.74579131603240967 0.74579131603240967
0.34757426381111145 0.34757426381111145 0.34757426381111145
0.35547593235969543 0.35547593235969543 0.35547593235969543
0.3652152419090271 0.3652152419090271 0.3652152419090271
0.37538793683052063 0.37538793683052063 0.37538793683052063
0.39009532332420349 0.39009532332420349 0.39009532332420349
0.41211947798728943 0.41211947798728943 0.41211947798728943
0.44216734170913696 0.44216734170913696 0.44216734170913696
0.48024722933769226 0.48024722933769226 0.48024722933769226
0.53254681825637817 0.53254681825637817 0.53254681825637817
0.59778279066085815 0.59778279066085815 0.59778279066085815
0.66743183135986328 0.66743183135986328 0.66743183135986328
0.73536098003387451 0.73536098003387451 0.73536098003387451
0.79356002807617188 0.79356002807617188 0.79356002807617188
0.43952581286430359 0.43952581286430359 0.43952581286430359
0.44712105393409729 0.44712105393409729 0.44712105393409729
0.45486858487129211 0.45486858487129211 0.45486858487129211
0.46156573295593262 0.46156573295593262 0.46156573295593262
0.47136840224266052 0.47136840224266052 0.47136840224266052
0.48886492848396301 0.48886492848396301 0.48886492848396301
0.51473057270050049 0.51473057270050049 0.51473057270050049
0.54920440912246704 0.54920440912246704 0.54920440912246704
0.5955238938331604 0.5955238938331604 0.5955238938331604
0.65301191806793213 0.65301191806793213 0.65301191806793213
0.7140268087387085 0.7140268087387085 0.7140268087387085
0.77324205636978149 0.77324205636978149 0.77324205636978149
0.8274344801902771 0.8274344801902771 0.8274344801902771
0.54649889469146729 0.54649889469146729 0.54649889469146729
0.55298978090286255 0.55298978090286255 0.55298978090286255
0.55958855152130127 0.55958855152130127 0.55958855152130127
0.56451362371444702 0.56451362371444702 0.56451362371444702
0.57068061828613281 0.57068061828613281 0.57068061828613281
0.58325684070587158 0.58325684070587158 0.58325684070587158
0.60458052158355713 0.60458052158355713 0.60458052158355713
0.63379114866256714 0.63379114866256714 0.63379114866256714
0.67140418291091919 0.67140418291091919 0.67140418291091919
0.71552461385726929 0.71552461385726929 0.71552461385726929
0.76323467493057251 0.76323467493057251 0.76323467493057251
0.81158548593521118 0.81158548593521118 0.81158548593521118
0.85735404491424561 0.85735404491424561 0.85735404491424561
0.66000795364379883 0.66000795364379883 0.66000795364379883
0.66646307706832886 0.66646307706832886 0.66646307706832886
0.67288887500762939 0.67288887500762939 0.67288887500762939
0.67771446704864502 0.67771446704864502 0.67771446704864502
0.68055152893066406 0.68055152893066406 0.68055152893066406
0.68884295225143433 0.68884295225143433 0.68884295225143433
0.70480608940124512 0.70480608940124512 0.70480608940124512
0.72740817070007324 0.72740817070007324 0.72740817070007324
0.7548365592956543 0.7548365592956543 0.7548365592956543
0.78555518388748169 0.78555518388748169 0.78555518388748169
0.81901884078979492 0.81901884078979492 0.81901884078979492
0.85377633571624756 0.85377633571624756 0.85377633571624756
0.88943827152252197 0.88943827152252197 0.88943827152252197
0.77310717105865479 0.77310717105865479 0.77310717105865479
0.77884072065353394 0.77884072065353394 0.77884072065353394
0.78405636548995972 0.78405636548995972 0.78405636548995972
0.78747957944869995 0.78747957944869995 0.78747957944869995
0.78941124677658081 0.78941124677658081 0.78941124677658081
0.79501312971115112 0.79501312971115112 0.79501312971115112
0.80698376893997192 0.80698376893997192 0.80698376893997192
0.82337367534637451 0.82337367534637451 0.82337367534637451
0.84144818782806396 0.84144818782806396 0.84144818782806396
0.86027288436889648 0.86027288436889648 0.86027288436889648
0.87970179319381714 0.87970179319381714 0.87970179319381714
0.90081214904785156 0.90081214904785156 0.90081214904785156
0.92554706335067749 0.92554706335067749 0.92554706335067749
0.88007926940917969 0.88007926940917969 0.88007926940917969
0.88393884897232056 0.88393884897232056 0.88393884897232056
0.88662910461425781 0.88662910461425781 0.88662910461425781
0.88794028759002686 0.88794028759002686 0.88794028759002686
0.89066857099533081 0.89066857099533081 0.89066857099533081
0.89445716142654419 0.89445716142654419 0.89445716142654419
0.90337210893630981 0.90337210893630981 0.90337210893630981
0.91492724418640137 0.91492724418640137 0.91492724418640137
0.92459011077880859 0.92459011077880859 0.92459011077880859
0.93314200639724731 0.93314200639724731 0.93314200639724731
0.94180351495742798 0.94180351495742798 0.94180351495742798
0.95214271545410156 0.95214271545410156 0.95214271545410156
0.96693253517150879 0.96693253517150879 0.96693253517150879
0.083379589021205902 0.083379589021205902 0.083379589021205902
0.083029471337795258 0.083029471337795258 0.083029471337795258
0.087900720536708832 0.087900720536708832 0.087900720536708832
0.099010169506072998 0.099010169506072998 0.099010169506072998
0.11631691455841064 0.11631691455841064 0.11631691455841064
0.13825879991054535 0.13825879991054535 0.13825879991054535
0.16382162272930145 0.16382162272930145 0.16382162272930145
0.19186146557331085 0.19186146557331085 0.19186146557331085
0.22204233705997467 0.22204233705997467 0.22204233705997467
0.25693070888519287 0.25693070888519287 0.25693070888519287
0.30230557918548584 0.30230557918548584 0.30230557918548584
0.36246815323829651 0.36246815323829651 0.36246815323829651
0.43448138236999512 0.43448138236999512 0.43448138236999512
0.087717391550540924 0.087717391550540924 0.087717391550540924
0.089803136885166168 0.089803136885166168 0.089803136885166168
0.098016701638698578 0.098016701638698578 0.098016701638698578
0.1133381724357605 0.1133381724357605 0.1133381724357605
0.1347932368516922 0.1347932368516922 0.1347932368516922
0.16040913760662079 0.16040913760662079 0.16040913760662079
0.18834738433361053 0.18834738433361053 0.18834738433361053
0.21748656034469604 0.21748656034469604 0.21748656034469604
0.2472434937953949 0.2472434937953949 0.2472434937953949
0.28061789274215698 0.28061789274215698 0.28061789274215698
0.32506325840950012 0.32506325840950012 0.32506325840950012
0.38614720106124878 0.38614720106124878 0.38614720106124878
0.46095061302185059 0.46095061302185059 0.46095061302185059
0.10133980959653854 0.10133980959653854 0.10133980959653854
0.10501091182231903 0.10501091182231903 0.10501091182231903
0.11666686087846756 0.11666686087846756 0.11666686087846756
0.13612018525600433 0.13612018525600433 0.13612018525600433
0.16168010234832764 0.16168010234832764 0.16168010234832764
0.19158525764942169 0.19158525764942169 0.19158525764942169
0.22333833575248718 0.22333833575248718 0.22333833575248718
0.25549840927124023 0.25549840927124023 0.25549840927124023
0.28680863976478577 0.28680863976478577 0.28680863976478577
0.3200930655002594 0.3200930655002594 0.3200930655002594
0.36299115419387817 0.36299115419387817 0.36299115419387817
0.42222195863723755 0.42222195863723755 0.42222195863723755
0.49556839466094971 0.49556839466094971 0.49556839466094971
0.12751205265522003 0.12751205265522003 0.12751205265522003
0.1333000510931015 0.1333000510931015 0.1333000510931015
0.14678305387496948 0.14678305387496948 0.14678305387496948
0.16862465441226959 0.16862465441226959 0.16862465441226959
0.19684270024299622 0.19684270024299622 0.19684270024299622
0.22980864346027374 0.22980864346027374 0.22980864346027374
0.26597404479980469 0.26597404479980469 0.26597404479980469
0.3030548095703125 0.3030548095703125 0.3030548095703125
0.33869180083274841 0.33869180083274841 0.33869180083274841
0.37488636374473572 0.37488636374473572 0.37488636374473572
0.4177415668964386 0.4177415668964386 0.4177415668964386
0.47331061959266663 0.47331061959266663 0.47331061959266663
0.54297447204589844 0.54297447204589844 0.54297447204589844
0.1695781797170639 0.1695781797170639 0.1695781797170639
0.17713741958141327 0.17713741958141327 0.17713741958141327
0.19118060171604156 0.19118060171604156 0.19118060171604156
0.21169738471508026 0.21169738471508026 0.21169738471508026
0.23875026404857635 0.23875026404857635 0.23875026404857635
0.2720436155796051 0.2720436155796051 0.2720436155796051
0.31082135438919067 0.31082135438919067 0.31082135438919067
0.35291638970375061 0.35291638970375061 0.35291638970375061
0.3950047492980957 0.3950047492980957 0.3950047492980957
0.4376225471496582 0.4376225471496582 0.4376225471496582
0.48476585745811462 0.48476585745811462 0.48476585745811462
0.53996860980987549 0.53996860980987549 0.53996860980987549
0.60553145408630371 0.60553145408630371 0.60553145408630371
0.22570273280143738 0.22570273280143738 0.22570273280143738
0.23449110984802246 0.23449110984802246 0.23449110984802246
0.24674078822135925 0.24674078822135925 0.24674078822135925
0.26309007406234741 0.26309007406234741 0.26309007406234741
0.28581944108009338 0.28581944108009338 0.28581944108009338
0.31621620059013367 0.31621620059013367 0.31621620059013367
0.35448771715164185 0.35448771715164185 0.35448771715164185
0.39899101853370667 0.39899101853370667 0.39899101853370667
0.44758474826812744 0.44758474826812744 0.44758474826812744
0.4993622899055481 0.4993622899055481 0.4993622899055481
0.55525624752044678 0.55525624752044678 0.55525624752044678
0.61531400680541992 0.61531400680541992 0.61531400680541992
0.67839354276657104 0.67839354276657104 0.67839354276657104
0.29274159669876099 0.29274159669876099 0.29274159669876099
0.30157393217086792 0.30157393217086792 0.30157393217086792
0.31117644906044006 0.31117644906044006 0.31117644906044006
0.32173338532447815 0.32173338532447815 0.32173338532447815
0.33808034658432007 0.33808034658432007 0.33808034658432007
0.36391457915306091 0.36391457915306091 0.36391457915306091
0.39908415079116821 0.39908415079116821 0.39908415079116821
0.44288432598114014 0.44288432598114014 0.44288432598114014
0.49530616402626038 0.49530616402626038 0.49530616402626038
0.55503559112548828 0.55503559112548828 0.55503559112548828
0.61868512630462646 0.61868512630462646 0.61868512630462646
0.68373584747314453 0.68373584747314453 0.68373584747314453
0.74556154012680054 0.74556154012680054 0.74556154012680054
0.37038499116897583 0.37038499116897583 0.37038499116897583
0.37799620628356934 0.37799620628356934 0.37799620628356934
0.38414245843887329 0.38414245843887329 0.38414245843887329
0.38871467113494873 0.38871467113494873 0.38871467113494873
0.39870652556419373 0.39870652556419373 0.39870652556419373
0.42027953267097473 0.42027953267097473 0.42027953267097473
0.45235410332679749 0.45235410332679749 0.45235410332679749
0.49311873316764832 0.49311873316764832 0.49311873316764832
0.54472696781158447 0.54472696781158447 0.54472696781158447
0.60538780689239502 0.60538780689239502 0.60538780689239502
0.67011159658432007 0.67011159658432007 0.67011159658432007
0.73505216836929321 0.73505216836929321 0.73505216836929321
0.79452687501907349 0.79452687501907349 0.79452687501907349
0.46072757244110107 0.46072757244110107 0.46072757244110107
0.46672141551971436 0.46672141551971436 0.46672141551971436
0.46999278664588928 0.46999278664588928 0.46999278664588928
0.47038856148719788 0.47038856148719788 0.47038856148719788
0.47501999139785767 0.47501999139785767 0.47501999139785767
0.49269449710845947 0.49269449710845947 0.49269449710845947
0.52107292413711548 0.52107292413711548 0.52107292413711548
0.55773645639419556 0.55773645639419556 0.55773645639419556
0.6033746600151062 0.6033746600151062 0.6033746600151062
0.65673696994781494 0.65673696994781494 0.65673696994781494
0.71444332599639893 0.71444332599639893 0.71444332599639893
0.77275365591049194 0.77275365591049194 0.77275365591049194
0.82744824886322021 0.82744824886322021 0.82744824886322021
0.56294244527816772 0.56294244527816772 0.56294244527816772
0.56785827875137329 0.56785827875137329 0.56785827875137329
0.57033812999725342 0.57033812999725342 0.57033812999725342
0.57005101442337036 0.57005101442337036 0.57005101442337036
0.57251226902008057 0.57251226902008057 0.57251226902008057
0.58491617441177368 0.58491617441177368 0.58491617441177368
0.60725420713424683 0.60725420713424683 0.60725420713424683
0.63733279705047607 0.63733279705047607 0.63733279705047607
0.67413747310638428 0.67413747310638428 0.67413747310638428
0.71602863073348999 0.71602863073348999 0.71602863073348999
0.7614629864692688 0.7614629864692688 0.7614629864692688
0.80942851305007935 0.80942851305007935 0.80942851305007935
0.85623037815093994 0.85623037815093994 0.85623037815093994
0.67137986421585083 0.67137986421585083 0.67137986421585083
0.67629814147949219 0.67629814147949219 0.67629814147949219
0.67924970388412476 0.67924970388412476 0.67924970388412476
0.68006378412246704 0.68006378412246704 0.68006378412246704
0.68135762214660645 0.68135762214660645 0.68135762214660645
0.68917632102966309 0.68917632102966309 0.68917632102966309
0.70532065629959106 0.70532065629959106 0.70532065629959106
0.7281416654586792 0.7281416654586792 0.7281416654586792
0.75544625520706177 0.75544625520706177 0.75544625520706177
0.78517365455627441 0.78517365455627441 0.78517365455627441
0.81721216440200806 0.81721216440200806 0.81721216440200806
0.85198551416397095 0.85198551416397095 0.85198551416397095
0.8880997896194458 0.8880997896194458 0.8880997896194458
0.77942061424255371 0.77942061424255371 0.77942061424255371
0.78402835130691528 0.78402835130691528 0.78402835130691528
0.78706645965576172 0.78706645965576172 0.78706645965576172
0.78795146942138672 0.78795146942138672 0.78795146942138672
0.78916198015213013 0.78916198015213013 0.78916198015213013
0.79442882537841797 0.79442882537841797 0.79442882537841797
0.80597603321075439 0.80597603321075439 0.80597603321075439
0.8229755163192749 0.8229755163192749 0.8229755163192749
0.8414573073387146 0.8414573073387146 0.8414573073387146
0.86102837324142456 0.86102837324142456 0.86102837324142456
0.88039487600326538 0.88039487600326538 0.88039487600326538
0.90137112140655518 0.90137112140655518 0.90137112140655518
0.92604225873947144 0.92604225873947144 0.92604225873947144
0.88188749551773071 0.88188749551773071 0.88188749551773071
0.88626778125762939 0.88626778125762939 0.88626778125762939
0.88688689470291138 0.88688689470291138 0.88688689470291138
0.88715291023254395 0.88715291023254395 0.88715291023254395
0.88981229066848755 0.88981229066848755 0.88981229066848755
0.89333963394165039 0.89333963394165039 0.89333963394165039
0.90176832675933838 0.90176832675933838 0.90176832675933838
0.91321253776550293 0.91321253776550293 0.91321253776550293
0.9248688817024231 0.9248688817024231 0.9248688817024231
0.93499422073364258 0.93499422073364258 0.93499422073364258
0.94413596391677856 0.94413596391677856 0.94413596391677856
0.95419836044311523 0.95419836044311523 0.95419836044311523
0.96857815980911255 0.96857815980911255 0.96857815980911255
0.082223765552043915 0.082223765552043915 0.082223765552043915
0.084692887961864471 0.084692887961864471 0.084692887961864471
0.093079015612602234 0.093079015612602234 0.093079015612602234
0.10707258433103561 0.10707258433103561 0.10707258433103561
0.1257084459066391 0.1257084459066391 0.1257084459066391
0.14813295006752014 0.14813295006752014 0.14813295006752014
0.17424216866493225 0.17424216866493225 0.17424216866493225
0.20396111905574799 0.20396111905574799 0.20396111905574799
0.23563072085380554 0.23563072085380554 0.23563072085380554
0.27113083004951477 0.27113083004951477 0.27113083004951477
0.31589993834495544 0.31589993834495544 0.31589993834495544
0.37491017580032349 0.37491017580032349 0.37491017580032349
0.44712063670158386 0.44712063670158386 0.44712063670158386
0.088512599468231201 0.088512599468231201 0.088512599468231201
0.094034992158412933 0.094034992158412933 0.094034992158412933
0.10595900565385818 0.10595900565385818 0.10595900565385818
0.12417560815811157 0.12417560815811157 0.12417560815811157
0.14637072384357452 0.14637072384357452 0.14637072384357452
0.17147314548492432 0.17147314548492432 0.17147314548492432
0.19850265979766846 0.19850265979766846 0.19850265979766846
0.22769567370414734 0.22769567370414734 0.22769567370414734
0.2586703896522522 0.2586703896522522 0.2586703896522522
0.29389822483062744 0.29389822483062744 0.29389822483062744
0.3386530876159668 0.3386530876159668 0.3386530876159668
0.39896473288536072 0.39896473288536072 0.39896473288536072
0.47433733940124512 0.47433733940124512 0.47433733940124512
0.10522161424160004 0.10522161424160004 0.10522161424160004
0.11350483447313309 0.11350483447313309 0.11350483447313309
0.12904258072376251 0.12904258072376251 0.12904258072376251
0.1506422758102417 0.1506422758102417 0.1506422758102417
0.17670720815658569 0.17670720815658569 0.17670720815658569
0.20472879707813263 0.20472879707813263 0.20472879707813263
0.2337862104177475 0.2337862104177475 0.2337862104177475
0.26358452439308167 0.26358452439308167 0.26358452439308167
0.29516074061393738 0.29516074061393738 0.29516074061393738
0.33028244972229004 0.33028244972229004 0.33028244972229004
0.37389600276947021 0.37389600276947021 0.37389600276947021
0.43163001537322998 0.43163001537322998 0.43163001537322998
0.50497549772262573 0.50497549772262573 0.50497549772262573
0.13670019805431366 0.13670019805431366 0.13670019805431366
0.14724206924438477 0.14724206924438477 0.14724206924438477
0.16489911079406738 0.16489911079406738 0.16489911079406738
0.18772138655185699 0.18772138655185699 0.18772138655185699
0.21529814600944519 0.21529814600944519 0.21529814600944519
0.24532619118690491 0.24532619118690491 0.24532619118690491
0.27689754962921143 0.27689754962921143 0.27689754962921143
0.30986896157264709 0.30986896157264709 0.30986896157264709
0.34455648064613342 0.34455648064613342 0.34455648064613342
0.38172650337219238 0.38172650337219238 0.38172650337219238
0.42397484183311462 0.42397484183311462 0.42397484183311462
0.4765370786190033 0.4765370786190033 0.4765370786190033
0.54635524749755859 0.54635524749755859 0.54635524749755859
0.18491007387638092 0.18491007387638092 0.18491007387638092
0.19736072421073914 0.19736072421073914 0.19736072421073914
0.21391601860523224 0.21391601860523224 0.21391601860523224
0.23480580747127533 0.23480580747127533 0.23480580747127533
0.26020309329032898 0.26020309329032898 0.26020309329032898
0.29006406664848328 0.29006406664848328 0.29006406664848328
0.32392197847366333 0.32392197847366333 0.32392197847366333
0.36150619387626648 0.36150619387626648 0.36150619387626648
