luts/negative_old/fuji_superia_400_+.cube
# Created by: G'MIC (https://gmic.eu)
TITLE "fuji_superia_400_+"
# LUT size
LUT_3D_SIZE 7
# Data domain
DOMAIN_MIN 0.0 0.0 0.0
DOMAIN_MAX 1.0 1.0 1.0
# LUT data points
0.021427707746624947 0.070110946893692017 0.063998252153396606
0.11836265027523041 0.079067766666412354 0.067309573292732239
0.29292932152748108 0.074575550854206085 0.056673642247915268
0.53472095727920532 0.020781228318810463 0.040791455656290054
0.76633530855178833 0.0084572732448577881 0.0099520366638898849
0.93526846170425415 0.064123041927814484 0.0032335617579519749
0.99849843978881836 0.21845991909503937 0.0011901705292984843
0.016529262065887451 0.14562293887138367 0.081665828824043274
0.1069401279091835 0.16207599639892578 0.070625826716423035
0.31985029578208923 0.17801006138324738 0.041118323802947998
0.56108731031417847 0.16187819838523865 0.017377711832523346
0.77488213777542114 0.1696455329656601 0.0044821794144809246
0.93432247638702393 0.22313870489597321 0.0039215688593685627
0.99651563167572021 0.3004225492477417 0.0048707551322877407
0.0030039618723094463 0.29119428992271423 0.12123251706361771
0.054129984229803085 0.31300309300422668 0.11498513072729111
0.32484927773475647 0.40215268731117249 0.023976897820830345
0.61819916963577271 0.42716583609580994 0.0007313448004424572
0.77516388893127441 0.37143471837043762 0.0010427586967125535
0.92252588272094727 0.38440969586372375 0.0014960793778300285
0.99874430894851685 0.42508214712142944 0.0037917192094027996
0.0022343054879456758 0.49352884292602539 0.19046391546726227
0.030874842777848244 0.50225591659545898 0.19295749068260193
0.27295207977294922 0.54289346933364868 0.15803214907646179
0.5692029595375061 0.61617225408554077 0.038565363734960556
0.8161466121673584 0.63484656810760498 0.00037707161391153932
0.92855572700500488 0.56902515888214111 0.0010711968643590808
0.99647295475006104 0.54904145002365112 1.2925092050863896e-05
0.12964355945587158 0.65522754192352295 0.31517916917800903
0.22010265290737152 0.65657216310501099 0.32576248049736023
0.34660914540290833 0.66175329685211182 0.32040464878082275
0.52789157629013062 0.7063908576965332 0.29164162278175354
0.75332015752792358 0.75565081834793091 0.21697252988815308
0.94342976808547974 0.78429216146469116 0.098274841904640198
0.99962568283081055 0.74102550745010376 0.011819533072412014
0.42709767818450928 0.78399807214736938 0.510154128074646
0.45712777972221375 0.78700417280197144 0.5026659369468689
0.51852893829345703 0.78828448057174683 0.5110093355178833
0.60663294792175293 0.80654948949813843 0.5026288628578186
0.7377312183380127 0.83816230297088623 0.49252063035964966
0.87838101387023926 0.8714326024055481 0.46892717480659485
0.99250072240829468 0.89581286907196045 0.43125593662261963
0.68705940246582031 0.9055296778678894 0.71205484867095947
0.6983494758605957 0.90638810396194458 0.71321415901184082
0.7236592173576355 0.90673071146011353 0.71750885248184204
0.76543068885803223 0.91163772344589233 0.72055131196975708
0.81120747327804565 0.92546951770782471 0.71798926591873169
0.87589114904403687 0.94163680076599121 0.71300709247589111
0.94909197092056274 0.9570508599281311 0.69969338178634644
0.01982676237821579 0.07699507474899292 0.14086435735225677
0.11290102452039719 0.083128772675991058 0.1366957426071167
0.2898959219455719 0.073934592306613922 0.13768239319324493
0.54602289199829102 0.0096467863768339157 0.13704979419708252
0.77546423673629761 0.0076011954806745052 0.13417324423789978
0.93300002813339233 0.096510030329227448 0.11526201665401459
0.99932295083999634 0.22917711734771729 0.09248034656047821
0.016241934150457382 0.15767288208007812 0.15081377327442169
0.12840946018695831 0.17368783056735992 0.16009804606437683
0.32798069715499878 0.17292815446853638 0.14455515146255493
0.57951515913009644 0.1684979647397995 0.13946641981601715
0.78128784894943237 0.18756970763206482 0.1188996285200119
0.93606019020080566 0.23559750616550446 0.091452427208423615
0.99935925006866455 0.30732005834579468 0.065569169819355011
0.031453885138034821 0.33312627673149109 0.20375536382198334
0.13849788904190063 0.34247109293937683 0.20901781320571899
0.35089030861854553 0.40060260891914368 0.17233626544475555
0.61406093835830688 0.40326607227325439 0.096496701240539551
0.77870899438858032 0.37394118309020996 0.058003954589366913
0.92926675081253052 0.38474693894386292 0.034671351313591003
0.99999713897705078 0.42656674981117249 0.027630241587758064
0.028025055304169655 0.52340579032897949 0.27464520931243896
0.15525564551353455 0.52604347467422485 0.28865763545036316
0.31871309876441956 0.54541701078414917 0.27211591601371765
0.58447325229644775 0.61617016792297363 0.20750255882740021
0.81089979410171509 0.62281602621078491 0.087415196001529694
0.92694896459579468 0.56543081998825073 0.013399909250438213
0.9989132285118103 0.55478912591934204 0.0066980100236833096
0.22991684079170227 0.66500234603881836 0.38457873463630676
0.29833140969276428 0.66789346933364868 0.39324110746383667
0.39116913080215454 0.66671842336654663 0.38959327340126038
0.54704993963241577 0.70501810312271118 0.37487483024597168
0.76056259870529175 0.7560964822769165 0.33422216773033142
0.94014823436737061 0.78091776371002197 0.26515054702758789
0.99939203262329102 0.73714786767959595 0.10592486709356308
0.46478798985481262 0.79142695665359497 0.53814971446990967
0.49440935254096985 0.79253333806991577 0.5420348048210144
0.53996127843856812 0.79186880588531494 0.54371803998947144
0.61847120523452759 0.80449879169464111 0.54293549060821533
0.74023377895355225 0.83751869201660156 0.53730303049087524
0.87949323654174805 0.87151879072189331 0.52598947286605835
0.99020266532897949 0.89305704832077026 0.4980911910533905
0.69763070344924927 0.90719932317733765 0.72541111707687378
0.70945239067077637 0.90848338603973389 0.727447509765625
0.73337328433990479 0.90701991319656372 0.73035514354705811
0.76791298389434814 0.91013228893280029 0.73684883117675781
0.81827431917190552 0.92537856101989746 0.73709309101104736
0.88121187686920166 0.93977475166320801 0.73198121786117554
0.95209640264511108 0.95503389835357666 0.72079920768737793
0.0096515277400612831 0.084337495267391205 0.30605417490005493
0.13009849190711975 0.092767082154750824 0.31149411201477051
0.29861485958099365 0.097921423614025116 0.30691570043563843
0.53189480304718018 0.04957936704158783 0.32227113842964172
0.76857167482376099 0.010758763179183006 0.32235914468765259
0.94132208824157715 0.019609848037362099 0.30621111392974854
1 0.25913321971893311 0.33688482642173767
0.0038803250063210726 0.16667850315570831 0.33116954565048218
0.12545041739940643 0.18061418831348419 0.3375832736492157
0.3321472704410553 0.20083694159984589 0.33915013074874878
0.57658588886260986 0.19427058100700378 0.34819358587265015
0.78634244203567505 0.16638670861721039 0.33019846677780151
0.94050604104995728 0.24438416957855225 0.33366340398788452
0.99992620944976807 0.35706394910812378 0.34880685806274414
0.011297457851469517 0.36176386475563049 0.35874518752098083
0.12861023843288422 0.37786993384361267 0.37843388319015503
0.3862459659576416 0.40125969052314758 0.38765385746955872
0.60586857795715332 0.40016636252403259 0.3615206778049469
0.78332334756851196 0.40759941935539246 0.34714546799659729
0.92419826984405518 0.42572894692420959 0.33210891485214233
0.99954509735107422 0.46423113346099854 0.32525897026062012
0.21003307402133942 0.56089681386947632 0.43718436360359192
0.30517846345901489 0.56388139724731445 0.44650948047637939
0.41488385200500488 0.56537133455276489 0.44613206386566162
0.60299962759017944 0.60997253656387329 0.42624333500862122
0.788307785987854 0.59029412269592285 0.36137336492538452
0.91824960708618164 0.56062597036361694 0.2962709367275238
0.99735844135284424 0.5737297534942627 0.29022052884101868
0.3884393572807312 0.68874531984329224 0.51433247327804565
0.41838940978050232 0.69008660316467285 0.51466143131256104
0.47961121797561646 0.68616145849227905 0.51010751724243164
0.58166664838790894 0.70309197902679443 0.50513660907745361
0.76218020915985107 0.75331693887710571 0.499959796667099
0.92407077550888062 0.7644498348236084 0.45483759045600891
0.99433064460754395 0.7203713059425354 0.35501912236213684
0.52780371904373169 0.80068635940551758 0.60874778032302856
0.54887664318084717 0.80153822898864746 0.61227667331695557
0.59479528665542603 0.80029571056365967 0.61263322830200195
0.65403026342391968 0.80462610721588135 0.61631125211715698
0.75250768661499023 0.83429169654846191 0.61466795206069946
0.88267272710800171 0.8707318902015686 0.61558753252029419
0.98951262235641479 0.89130872488021851 0.6020129919052124
0.71934419870376587 0.90924149751663208 0.75556248426437378
0.72801810503005981 0.90945464372634888 0.75783270597457886
0.74992316961288452 0.90875554084777832 0.75771164894104004
0.77905619144439697 0.91201984882354736 0.76414346694946289
0.82904666662216187 0.92176133394241333 0.76280438899993896
0.88476449251174927 0.93960291147232056 0.76464009284973145
0.95030760765075684 0.95300412178039551 0.75748538970947266
0.0091061461716890335 0.091393999755382538 0.53129738569259644
0.12102267891168594 0.094459488987922668 0.53863644599914551
0.36745327711105347 0.10913556814193726 0.53774738311767578
0.566078782081604 0.11861032247543335 0.545440673828125
0.74272197484970093 0.12476266920566559 0.53687179088592529
0.91311848163604736 0.20001278817653656 0.53890538215637207
0.99750876426696777 0.27939122915267944 0.53400695323944092
0.0069478950463235378 0.18456798791885376 0.5557435154914856
0.14204873144626617 0.19557724893093109 0.56161057949066162
0.3891775906085968 0.222076416015625 0.56616175174713135
0.58202940225601196 0.24953003227710724 0.56365382671356201
0.7555275559425354 0.27650254964828491 0.55120134353637695
0.91385108232498169 0.31687080860137939 0.54432541131973267
0.99866348505020142 0.35980385541915894 0.54212576150894165
0.0044490438885986805 0.35566058754920959 0.56964361667633057
0.040329668670892715 0.36545547842979431 0.58548164367675781
0.3923535943031311 0.40239700675010681 0.58570295572280884
0.60236060619354248 0.43514901399612427 0.57853060960769653
0.76074123382568359 0.44734138250350952 0.57031786441802979
0.91443526744842529 0.45804399251937866 0.56030261516571045
0.99715107679367065 0.49046561121940613 0.56396186351776123
0.081010259687900543 0.574920654296875 0.57806724309921265
0.23633208870887756 0.57797455787658691 0.58910739421844482
0.44679546356201172 0.58260846138000488 0.59810072183609009
0.61411237716674805 0.60284960269927979 0.60174918174743652
0.76779043674468994 0.59733641147613525 0.57900488376617432
0.90346503257751465 0.59861147403717041 0.5646931529045105
0.99385362863540649 0.61544185876846313 0.55719232559204102
0.44457671046257019 0.70887607336044312 0.62634092569351196
0.48736825585365295 0.71045726537704468 0.630828857421875
0.55795323848724365 0.71038514375686646 0.63564115762710571
0.63503468036651611 0.71115928888320923 0.63351798057556152
0.78161084651947021 0.74857360124588013 0.63808643817901611
0.90842163562774658 0.73723685741424561 0.59683561325073242
0.99527227878570557 0.70950078964233398 0.52834779024124146
0.6065712571144104 0.81488966941833496 0.70287019014358521
0.62634706497192383 0.81828248500823975 0.70313948392868042
0.64916324615478516 0.81575649976730347 0.70139193534851074
0.69485712051391602 0.81196993589401245 0.69590878486633301
0.77197688817977905 0.82944512367248535 0.69936275482177734
0.88795769214630127 0.86850875616073608 0.70985555648803711
0.98297721147537231 0.87274432182312012 0.69056481122970581
0.74568194150924683 0.91448193788528442 0.79586827754974365
0.75516015291213989 0.91562390327453613 0.80024272203445435
0.76985031366348267 0.91420310735702515 0.79835689067840576
0.79455387592315674 0.91264766454696655 0.79736959934234619
0.84113168716430664 0.92057532072067261 0.80585545301437378
0.89085620641708374 0.93668454885482788 0.80418252944946289
0.95525127649307251 0.95307213068008423 0.80655336380004883
0.048060383647680283 0.092337049543857574 0.71829301118850708
0.22740758955478668 0.10323385894298553 0.72055882215499878
0.43215474486351013 0.11743279546499252 0.72165614366531372
0.61285001039505005 0.18441939353942871 0.71876174211502075
0.76519131660461426 0.24456410109996796 0.71324068307876587
0.89169663190841675 0.29916214942932129 0.70619648694992065
0.9843629002571106 0.41900521516799927 0.71875560283660889
0.084258869290351868 0.19920052587985992 0.73428058624267578
0.25376051664352417 0.21454434096813202 0.73102092742919922
0.44460514187812805 0.23963837325572968 0.72914189100265503
0.62089437246322632 0.29588481783866882 0.72503489255905151
0.77130758762359619 0.35027673840522766 0.72213184833526611
0.88812482357025146 0.38847795128822327 0.71052634716033936
0.98677575588226318 0.47458317875862122 0.72315001487731934
0.024633608758449554 0.35720789432525635 0.73601442575454712
0.20739220082759857 0.3768673837184906 0.73872721195220947
0.43703439831733704 0.41006055474281311 0.7308688759803772
0.62375336885452271 0.45793843269348145 0.72781515121459961
0.76993441581726074 0.4971250593662262 0.72565889358520508
0.88552558422088623 0.51258581876754761 0.72139328718185425
0.98755621910095215 0.56171250343322754 0.72861206531524658
0.0060967537574470043 0.55176454782485962 0.72685134410858154
0.11446021497249603 0.54888099431991577 0.73029375076293945
0.38940098881721497 0.55935579538345337 0.72960889339447021
0.6106371283531189 0.59567922353744507 0.73343634605407715
0.7742077112197876 0.62344586849212646 0.73248499631881714
0.89086216688156128 0.63962578773498535 0.73509407043457031
0.98753589391708374 0.65153437852859497 0.7328382134437561
0.36707675457000732 0.7140657901763916 0.73525339365005493
0.43566519021987915 0.71755260229110718 0.73612022399902344
0.53615099191665649 0.71741414070129395 0.73999345302581787
0.65521383285522461 0.72367292642593384 0.74763214588165283
0.77939426898956299 0.73942583799362183 0.75171118974685669
0.89243161678314209 0.74152719974517822 0.73557418584823608
0.98279833793640137 0.74696755409240723 0.72894114255905151
0.62021410465240479 0.82860517501831055 0.77930814027786255
0.64729756116867065 0.83064752817153931 0.77938836812973022
0.68815326690673828 0.82832396030426025 0.78192019462585449
0.74079924821853638 0.82997703552246094 0.78357058763504028
0.80016785860061646 0.83256131410598755 0.78717267513275146
0.89343762397766113 0.86526757478713989 0.79780185222625732
0.98197335004806519 0.85842275619506836 0.76753121614456177
0.76897937059402466 0.92068487405776978 0.84615021944046021
0.77691596746444702 0.92026048898696899 0.84695059061050415
0.80053424835205078 0.92117977142333984 0.85115444660186768
0.82675004005432129 0.92198401689529419 0.84926497936248779
0.85574346780776978 0.92187619209289551 0.85160422325134277
0.89955461025238037 0.93496382236480713 0.85747385025024414
0.95884007215499878 0.95116961002349854 0.85818809270858765
0.31012961268424988 0.14335373044013977 0.85699248313903809
0.39526286721229553 0.15862475335597992 0.85861873626708984
0.52398216724395752 0.18608629703521729 0.85519170761108398
0.66861677169799805 0.2615472674369812 0.850272536277771
0.80021005868911743 0.38089686632156372 0.84736913442611694
0.91113412380218506 0.43288540840148926 0.842792809009552
0.98768240213394165 0.47945758700370789 0.83826285600662231
0.32078537344932556 0.24955403804779053 0.85732710361480713
0.40187191963195801 0.26312616467475891 0.86086374521255493
0.53052407503128052 0.29383605718612671 0.8554268479347229
0.67576324939727783 0.3534734845161438 0.85209578275680542
0.80348652601242065 0.44317877292633057 0.8492131233215332
0.90351969003677368 0.4967600405216217 0.8451116681098938
0.98455524444580078 0.53236347436904907 0.84177142381668091
0.30439549684524536 0.40191030502319336 0.85988903045654297
0.38298889994621277 0.41339504718780518 0.85825330018997192
0.51988726854324341 0.44415363669395447 0.85032683610916138
0.67694050073623657 0.48910573124885559 0.84926468133926392
0.8011355996131897 0.5445898175239563 0.84623962640762329
0.89673423767089844 0.58651113510131836 0.84456151723861694
0.97683101892471313 0.61060959100723267 0.84272581338882446
0.056253440678119659 0.52407515048980713 0.85272896289825439
0.23957985639572144 0.53525042533874512 0.8523094654083252
0.47512945532798767 0.56456238031387329 0.85161417722702026
0.65566325187683105 0.60473895072937012 0.84791797399520874
0.78867596387863159 0.64922940731048584 0.84461820125579834
0.89679849147796631 0.68614417314529419 0.8476901650428772
0.97540879249572754 0.70385992527008057 0.8493996262550354
0.27628189325332642 0.69916105270385742 0.8446880578994751
0.35815933346748352 0.69310975074768066 0.84869933128356934
0.47149145603179932 0.69599336385726929 0.84783703088760376
0.61066901683807373 0.70326262712478638 0.84835880994796753
0.77613574266433716 0.73780184984207153 0.85030895471572876
0.89323550462722778 0.7715643048286438 0.85085040330886841
0.97390741109848022 0.78990262746810913 0.85600471496582031
0.56698620319366455 0.8339502215385437 0.85517150163650513
0.5958935022354126 0.82976555824279785 0.86005741357803345
0.65297567844390869 0.82997357845306396 0.85576432943344116
0.72998297214508057 0.83635568618774414 0.862434983253479
0.81300109624862671 0.844704270362854 0.86735802888870239
0.89195150136947632 0.8585437536239624 0.87047731876373291
0.97271716594696045 0.86640816926956177 0.8609275221824646
0.77559560537338257 0.92701107263565063 0.88951343297958374
0.78216016292572021 0.92545789480209351 0.88969093561172485
0.80703628063201904 0.9294242262840271 0.89245355129241943
0.83829247951507568 0.93162691593170166 0.89770376682281494
0.87381327152252197 0.93355453014373779 0.90392106771469116
0.91238784790039062 0.93864947557449341 0.90643227100372314
0.96493375301361084 0.9553801417350769 0.91149210929870605
0.52505642175674438 0.31718066334724426 0.96062064170837402
0.56583601236343384 0.33195728063583374 0.95992028713226318
0.64655798673629761 0.36503881216049194 0.9565855860710144
0.74840831756591797 0.43289542198181152 0.95218735933303833
0.84709411859512329 0.51396173238754272 0.94710582494735718
0.92612409591674805 0.60186845064163208 0.93913060426712036
0.98817676305770874 0.6388009786605835 0.9367104172706604
0.53110849857330322 0.38979318737983704 0.95979994535446167
0.57220423221588135 0.40449059009552002 0.96006441116333008
0.64845746755599976 0.43413704633712769 0.95383363962173462
0.74934136867523193 0.48796427249908447 0.95017462968826294
0.8455193042755127 0.55415576696395874 0.9449770450592041
0.92097675800323486 0.62901026010513306 0.93682599067687988
0.98675578832626343 0.66288912296295166 0.93715637922286987
0.52384489774703979 0.49560391902923584 0.9562075138092041
0.56883329153060913 0.51024746894836426 0.9556126594543457
0.64296060800552368 0.52363449335098267 0.95239526033401489
0.74403256177902222 0.56928020715713501 0.94857174158096313
0.84191954135894775 0.61937969923019409 0.944785475730896
0.91834813356399536 0.67804783582687378 0.93657290935516357
0.98385536670684814 0.70713561773300171 0.93684369325637817
0.45032212138175964 0.58672976493835449 0.95563018321990967
0.51330900192260742 0.59743106365203857 0.95472699403762817
0.61756956577301025 0.61875206232070923 0.95160758495330811
0.72749423980712891 0.65327084064483643 0.946189284324646
0.82414942979812622 0.69482219219207764 0.93992984294891357
0.91776597499847412 0.73670440912246704 0.93887996673583984
0.97697579860687256 0.76679426431655884 0.93694275617599487
0.34638133645057678 0.68489593267440796 0.95341598987579346
0.39934656023979187 0.68610996007919312 0.95261025428771973
0.51860612630844116 0.6930774450302124 0.95190030336380005
0.6764369010925293 0.72169297933578491 0.9465864896774292
0.80768948793411255 0.76164048910140991 0.94312113523483276
0.90611284971237183 0.79831665754318237 0.93901932239532471
0.9686083197593689 0.82798022031784058 0.93812936544418335
0.5739598274230957 0.83692848682403564 0.94814556837081909
0.59179210662841797 0.83268064260482788 0.94851541519165039
0.63013869524002075 0.83022171258926392 0.9463343620300293
0.70170646905899048 0.82892078161239624 0.94740289449691772
0.7832903265953064 0.83071726560592651 0.94611972570419312
0.89417946338653564 0.86594307422637939 0.9501572847366333
0.96608990430831909 0.89689087867736816 0.94888961315155029
0.75389128923416138 0.93749749660491943 0.94812899827957153
0.76424247026443481 0.93625283241271973 0.95042860507965088
0.78829622268676758 0.9376143217086792 0.95036101341247559
0.82497560977935791 0.94050520658493042 0.95323717594146729
0.86400210857391357 0.93993109464645386 0.95543920993804932
0.91624969244003296 0.94759774208068848 0.95582079887390137
0.96847116947174072 0.9570508599281311 0.95995455980300903
