luts/negative_old/fuji_superia_100_-.cube
# Created by: G'MIC (https://gmic.eu)
TITLE "fuji_superia_100_-"
# LUT size
LUT_3D_SIZE 7
# Data domain
DOMAIN_MIN 0.0 0.0 0.0
DOMAIN_MAX 1.0 1.0 1.0
# LUT data points
0.0082556037232279778 0.019597729668021202 0.019341398030519485
0.11560302227735519 0.023645123466849327 0.011045149527490139
0.32146510481834412 0.055350553244352341 0.0059197070077061653
0.51925796270370483 0.092479556798934937 0.0044339047744870186
0.68375003337860107 0.12741105258464813 0.0037295471411198378
0.8185308575630188 0.15429893136024475 0.0039215688593685627
0.95996195077896118 0.20602966845035553 0.0006792853819206357
0.0013158012880012393 0.16865167021751404 0.025879474356770515
0.094878688454627991 0.1757829487323761 0.014270199462771416
0.34392106533050537 0.21033982932567596 0.0083890426903963089
0.54657894372940063 0.22745071351528168 0.0043716132640838623
0.6962922215461731 0.23633666336536407 0.0068859322927892208
0.83200901746749878 0.24852895736694336 0.0048550027422606945
0.96782004833221436 0.28175193071365356 0.0025106093380600214
0.0006466884515248239 0.39848986268043518 0.1107952669262886
0.011569108814001083 0.40665560960769653 0.11084306240081787
0.3279731273651123 0.40254923701286316 0.062723450362682343
0.56309759616851807 0.41049131751060486 0.011487923562526703
0.72337138652801514 0.40171587467193604 0.0066988030448555946
0.84890830516815186 0.40193721652030945 0.0048680622130632401
0.97612547874450684 0.409147709608078 0.0039347182027995586
0 0.59824585914611816 0.25324994325637817
0.0026634067762643099 0.60217863321304321 0.260477215051651
0.25203180313110352 0.59456878900527954 0.2410435676574707
0.50603806972503662 0.57429653406143188 0.18738237023353577
0.70079690217971802 0.56937026977539062 0.11880137026309967
0.85539168119430542 0.56737816333770752 0.0558432936668396
0.98658931255340576 0.56680655479431152 0.030313814058899879
0.00035089231096208096 0.75972491502761841 0.38681256771087646
0.007565861102193594 0.76408237218856812 0.38924196362495422
0.22586950659751892 0.76404410600662231 0.38888174295425415
0.44812548160552979 0.74718713760375977 0.36083295941352844
0.64824724197387695 0.7307325005531311 0.30568861961364746
0.83333086967468262 0.73058557510375977 0.25064876675605774
0.9745255708694458 0.7307661771774292 0.22994990646839142
0.19751676917076111 0.89913469552993774 0.53215318918228149
0.25641420483589172 0.89673715829849243 0.53414475917816162
0.35299155116081238 0.8962777853012085 0.53622347116470337
0.48323675990104675 0.89419704675674438 0.52724450826644897
0.6286424994468689 0.88072359561920166 0.4918397068977356
0.78931397199630737 0.86909681558609009 0.44664481282234192
0.95654106140136719 0.87528258562088013 0.41258594393730164
0.54283708333969116 0.98633825778961182 0.70583349466323853
0.54932737350463867 0.98382294178009033 0.70484167337417603
0.58563274145126343 0.98232078552246094 0.70947974920272827
0.63505607843399048 0.98457413911819458 0.71214175224304199
0.70674240589141846 0.98393666744232178 0.69890934228897095
0.80171763896942139 0.98045361042022705 0.6785309910774231
0.91125106811523438 0.97415465116500854 0.65133762359619141
0.0067152585834264755 0.01218064222484827 0.16493202745914459
0.13304758071899414 0.011436941102147102 0.16075822710990906
0.33721080422401428 0.0043307137675583363 0.15023921430110931
0.52835363149642944 0.0083125848323106766 0.13205540180206299
0.68216085433959961 0.052697423845529556 0.1266702264547348
0.81340736150741577 0.12399493902921677 0.11175845563411713
0.95939695835113525 0.18076047301292419 0.10413997620344162
0.0030587587971240282 0.18030796945095062 0.18249286711215973
0.13781698048114777 0.1829180121421814 0.18329504132270813
0.35769748687744141 0.18532241880893707 0.16720344126224518
0.54929929971694946 0.19721746444702148 0.15270450711250305
0.69368594884872437 0.21043223142623901 0.1358782947063446
0.82591438293457031 0.23241609334945679 0.11969466507434845
0.9635729193687439 0.2692750096321106 0.1117653027176857
0.043661229312419891 0.40030419826507568 0.27211320400238037
0.12195980548858643 0.40630850195884705 0.25881132483482361
0.36051690578460693 0.40379247069358826 0.23260399699211121
0.56449156999588013 0.40267112851142883 0.1943126767873764
0.71500569581985474 0.39064750075340271 0.16511081159114838
0.84766501188278198 0.38836893439292908 0.15084062516689301
0.97255271673202515 0.40517520904541016 0.14289340376853943
0.049730516970157623 0.59699791669845581 0.35764527320861816
0.099756292998790741 0.60213935375213623 0.34963628649711609
0.31538307666778564 0.59240162372589111 0.34009149670600891
0.51794421672821045 0.57200759649276733 0.29604485630989075
0.69619655609130859 0.56336468458175659 0.2498093843460083
0.84841376543045044 0.56002640724182129 0.21576526761054993
0.98009663820266724 0.56688851118087769 0.20019379258155823
0.085069544613361359 0.75944656133651733 0.44847875833511353
0.16067227721214294 0.76206874847412109 0.44799888134002686
0.30907890200614929 0.76020258665084839 0.45197984576225281
0.48280024528503418 0.74479532241821289 0.42655551433563232
0.66102707386016846 0.72795194387435913 0.37414759397506714
0.83392184972763062 0.72895610332489014 0.32772228121757507
0.97485756874084473 0.73033761978149414 0.30895799398422241
0.30235251784324646 0.89435505867004395 0.568714439868927
0.3382682204246521 0.89230829477310181 0.57037138938903809
0.40947484970092773 0.89562392234802246 0.57460492849349976
0.51569670438766479 0.8929067850112915 0.565235435962677
0.64333510398864746 0.88173270225524902 0.53537780046463013
0.79089820384979248 0.87018024921417236 0.49000409245491028
0.95553845167160034 0.87391215562820435 0.45834642648696899
0.56924897432327271 0.98258030414581299 0.72548657655715942
0.57898509502410889 0.98221218585968018 0.7244640588760376
0.60975909233093262 0.98270201683044434 0.72778701782226562
0.65761101245880127 0.98362100124359131 0.7323760986328125
0.72315359115600586 0.97985875606536865 0.72007805109024048
0.80972588062286377 0.97573792934417725 0.70130914449691772
0.91535794734954834 0.97443670034408569 0.6740119457244873
0.00055060291197150946 0.0030471202917397022 0.39210033416748047
0.16344889998435974 0.0074608149006962776 0.39030265808105469
0.37763407826423645 0.0097086438909173012 0.38260796666145325
0.54999136924743652 0.015449134632945061 0.3555850088596344
0.69783645868301392 0.019561497494578362 0.32236716151237488
0.82142287492752075 0.012485533952713013 0.2894645631313324
0.95539146661758423 0.087407536804676056 0.28164741396903992
0.0024128335062414408 0.18220700323581696 0.39557287096977234
0.12691602110862732 0.18367470800876617 0.39620295166969299
0.38594421744346619 0.1948343813419342 0.39248514175415039
0.55813133716583252 0.20670993626117706 0.36255541443824768
0.69769084453582764 0.18868143856525421 0.32654142379760742
0.82086151838302612 0.19294658303260803 0.30580636858940125
0.95812195539474487 0.2302788645029068 0.29817944765090942
0.03930390253663063 0.40325188636779785 0.40728801488876343
0.21517489850521088 0.40551993250846863 0.41656315326690674
0.39827564358711243 0.40325844287872314 0.41190329194068909
0.56165599822998047 0.39346829056739807 0.38395187258720398
0.69997614622116089 0.37986326217651367 0.35969939827919006
0.8310922384262085 0.37531417608261108 0.33859974145889282
0.96394234895706177 0.38666704297065735 0.32246047258377075
0.29066118597984314 0.58705949783325195 0.48062834143638611
0.35182151198387146 0.58837538957595825 0.48390862345695496
0.41697725653648376 0.58731377124786377 0.46997439861297607
0.54754471778869629 0.57559382915496826 0.43770837783813477
0.70058822631835938 0.56235224008560181 0.4050481915473938
0.85020887851715088 0.55995148420333862 0.37967535853385925
0.97720563411712646 0.55811625719070435 0.35979756712913513
0.38420924544334412 0.74969089031219482 0.5657649040222168
0.395323246717453 0.75396150350570679 0.55828452110290527
0.42871841788291931 0.75355356931686401 0.54274553060531616
0.53189361095428467 0.74605172872543335 0.52758216857910156
0.6738581657409668 0.72977477312088013 0.48640844225883484
0.83468663692474365 0.72820878028869629 0.45103618502616882
0.97456943988800049 0.72630965709686279 0.4255751371383667
0.46668025851249695 0.88562631607055664 0.65303951501846313
0.47349098324775696 0.88937473297119141 0.64583396911621094
0.50437283515930176 0.89175540208816528 0.64269912242889404
0.57455426454544067 0.88904190063476562 0.64024823904037476
0.67510330677032471 0.88064652681350708 0.61152142286300659
0.8075176477432251 0.86653405427932739 0.56845134496688843
0.95744985342025757 0.87369590997695923 0.53662526607513428
0.63541138172149658 0.97798818349838257 0.76919519901275635
0.64086794853210449 0.97773700952529907 0.76796633005142212
0.65878850221633911 0.98157477378845215 0.76681548357009888
0.69885659217834473 0.9812433123588562 0.77104109525680542
0.75228548049926758 0.98033350706100464 0.7635570764541626
0.82649534940719604 0.9759792685508728 0.74233734607696533
0.92313253879547119 0.97500234842300415 0.71838819980621338
0.0031518226023763418 0.0042986250482499599 0.58743530511856079
0.17688789963722229 0.003515774616971612 0.58673524856567383
0.39169478416442871 0.0063362722285091877 0.58526051044464111
0.57679706811904907 0.017346011474728584 0.57211285829544067
0.71525543928146362 0.10500093549489975 0.52845203876495361
0.83952200412750244 0.16766214370727539 0.49674630165100098
0.97030425071716309 0.12245534360408783 0.46599084138870239
0.0038896896876394749 0.1844547837972641 0.5895761251449585
0.16208608448505402 0.19061581790447235 0.59185856580734253
0.39770188927650452 0.20554155111312866 0.58353728055953979
0.57977616786956787 0.21780169010162354 0.57204192876815796
0.71470022201538086 0.25024184584617615 0.53744947910308838
0.83729857206344604 0.26340612769126892 0.50130456686019897
0.97063291072845459 0.21893309056758881 0.46470499038696289
0.0016690123593434691 0.39887407422065735 0.59553265571594238
0.18394869565963745 0.39939117431640625 0.59133541584014893
0.40494078397750854 0.40420213341712952 0.57898378372192383
0.57109194993972778 0.40416204929351807 0.56620436906814575
0.70503151416778564 0.40370813012123108 0.53811061382293701
0.83341962099075317 0.38209420442581177 0.50068461894989014
0.96823304891586304 0.34344542026519775 0.4636819064617157
0.23965902626514435 0.57953768968582153 0.58690881729125977
0.33121627569198608 0.58075213432312012 0.59131145477294922
0.44651111960411072 0.57511270046234131 0.58663344383239746
0.57213026285171509 0.5673828125 0.57029205560684204
0.70102125406265259 0.55564886331558228 0.54589855670928955
0.83494704961776733 0.53683912754058838 0.5158504843711853
0.96968013048171997 0.52775979042053223 0.49624991416931152
0.44048261642456055 0.743519127368927 0.6482776403427124
0.4744383692741394 0.74325966835021973 0.65016251802444458
0.5358460545539856 0.74136626720428467 0.64843356609344482
0.5952945351600647 0.74093252420425415 0.6365472674369812
0.69556999206542969 0.72546064853668213 0.60014933347702026
0.84152233600616455 0.71973347663879395 0.56935006380081177
0.97523528337478638 0.71481770277023315 0.54306519031524658
0.57856577634811401 0.88148480653762817 0.73852348327636719
0.5954323410987854 0.87915408611297607 0.73811209201812744
0.61956453323364258 0.88202452659606934 0.7324712872505188
0.64820998907089233 0.88444042205810547 0.72244381904602051
0.71545028686523438 0.87973695993423462 0.70279216766357422
0.82420355081558228 0.86987882852554321 0.66212797164916992
0.96148985624313354 0.87009286880493164 0.63184672594070435
0.71919691562652588 0.97597676515579224 0.83121335506439209
0.72034710645675659 0.97348791360855103 0.82853186130523682
0.72814857959747314 0.97599750757217407 0.8240053653717041
0.75246721506118774 0.97529757022857666 0.82116997241973877
0.79162245988845825 0.9760364294052124 0.81852340698242188
0.84894376993179321 0.97755700349807739 0.8022649884223938
0.9319031834602356 0.97682851552963257 0.77734935283660889
0.0037035623099654913 0.0048332512378692627 0.75437605381011963
0.18588805198669434 0.0078412219882011414 0.75012075901031494
0.3893333375453949 0.0098099503666162491 0.74796140193939209
0.57173973321914673 0.04960671067237854 0.74220991134643555
0.73471105098724365 0.12632140517234802 0.72639459371566772
0.86690360307693481 0.20166623592376709 0.69282835721969604
0.97817206382751465 0.28887435793876648 0.6679193377494812
0.0045102289877831936 0.19384573400020599 0.75777113437652588
0.19825488328933716 0.20072770118713379 0.75332289934158325
0.39946258068084717 0.21268735826015472 0.7493324875831604
0.5723578929901123 0.23569603264331818 0.73583179712295532
0.7334132194519043 0.27084338665008545 0.72704321146011353
0.86365753412246704 0.29850775003433228 0.69434744119644165
0.9748234748840332 0.35197889804840088 0.66997140645980835
0.029733126983046532 0.39164626598358154 0.75153934955596924
0.23269903659820557 0.39373522996902466 0.7462427020072937
0.41159185767173767 0.39515230059623718 0.73625737428665161
0.57472312450408936 0.40867644548416138 0.73259586095809937
0.72600245475769043 0.4278927743434906 0.72312670946121216
0.85458850860595703 0.44199714064598083 0.69394606351852417
0.97146898508071899 0.44957485795021057 0.66440397500991821
0.1581558883190155 0.56428003311157227 0.73969060182571411
0.27461311221122742 0.56476753950119019 0.73875677585601807
0.41862314939498901 0.56498897075653076 0.72944343090057373
0.57308506965637207 0.5694040060043335 0.72571218013763428
0.72005546092987061 0.57733142375946045 0.72070342302322388
0.84556460380554199 0.56701117753982544 0.68658000230789185
0.97130489349365234 0.5374065637588501 0.64716702699661255
0.37143707275390625 0.73407357931137085 0.73941248655319214
0.42132675647735596 0.73708313703536987 0.7451397180557251
0.50522679090499878 0.73423862457275391 0.74035006761550903
0.61012512445449829 0.73043465614318848 0.73735833168029785
0.71012020111083984 0.72419464588165283 0.72595679759979248
0.8403056263923645 0.70340186357498169 0.69088512659072876
0.97139686346054077 0.68004477024078369 0.66103047132492065
0.58808809518814087 0.87938731908798218 0.79911303520202637
0.61029809713363647 0.87914162874221802 0.80120891332626343
0.65523415803909302 0.87848997116088867 0.80582940578460693
0.71576720476150513 0.87711793184280396 0.80713409185409546
0.76747536659240723 0.87801992893218994 0.80059957504272461
0.8524017333984375 0.86991071701049805 0.76896762847900391
0.96871542930603027 0.86148232221603394 0.7370942234992981
0.75116598606109619 0.97113758325576782 0.87702864408493042
0.76371639966964722 0.97214114665985107 0.87836909294128418
0.78705334663391113 0.97082817554473877 0.88327032327651978
0.81432884931564331 0.97168189287185669 0.88204663991928101
0.83729642629623413 0.97442090511322021 0.87755054235458374
0.88085955381393433 0.97584807872772217 0.86558020114898682
0.94919067621231079 0.97534269094467163 0.84256851673126221
0.026374831795692444 0.01040414534509182 0.89589154720306396
0.21584810316562653 0.014482595026493073 0.89479058980941772
0.39397454261779785 0.036888826638460159 0.89132237434387207
0.56343734264373779 0.10452330112457275 0.88292288780212402
0.72505837678909302 0.18787595629692078 0.88166266679763794
0.87679541110992432 0.24544146656990051 0.86445075273513794
0.99202752113342285 0.29718080163002014 0.84509438276290894
0.075807549059391022 0.20843875408172607 0.89463227987289429
0.24146565794944763 0.2149895578622818 0.88955521583557129
0.40734061598777771 0.22778946161270142 0.88375568389892578
0.57329350709915161 0.25817883014678955 0.87923669815063477
0.72856217622756958 0.29867139458656311 0.87835431098937988
0.87531888484954834 0.3335995078086853 0.86584782600402832
0.98964321613311768 0.36630553007125854 0.844806969165802
0.16773074865341187 0.39420807361602783 0.88840413093566895
0.28305193781852722 0.39498209953308105 0.8826795220375061
0.43120115995407104 0.40390539169311523 0.87679463624954224
0.58186990022659302 0.42227208614349365 0.8800005316734314
0.72849816083908081 0.44464501738548279 0.87274593114852905
0.87012606859207153 0.46334630250930786 0.86361515522003174
0.98684275150299072 0.47734794020652771 0.84433305263519287
0.16856412589550018 0.54941099882125854 0.87575805187225342
0.28036415576934814 0.55460458993911743 0.87548494338989258
0.42326614260673523 0.55933129787445068 0.87397563457489014
0.57786732912063599 0.57135385274887085 0.87096714973449707
0.72295606136322021 0.591502845287323 0.86472487449645996
0.86476278305053711 0.59876954555511475 0.85879838466644287
0.97871518135070801 0.59995019435882568 0.84097635746002197
0.30908635258674622 0.72204089164733887 0.87208622694015503
0.36479467153549194 0.72238719463348389 0.87387692928314209
0.45270818471908569 0.71902024745941162 0.87224489450454712
0.57457667589187622 0.71986287832260132 0.86819130182266235
0.71970081329345703 0.73089629411697388 0.86235016584396362
0.85773253440856934 0.73620855808258057 0.85564607381820679
0.96993815898895264 0.73386329412460327 0.83682578802108765
0.51477700471878052 0.87545579671859741 0.87799280881881714
0.54496699571609497 0.87507075071334839 0.87851393222808838
0.60554856061935425 0.87352436780929565 0.87949663400650024
0.68300312757492065 0.87540268898010254 0.87988889217376709
0.77724200487136841 0.87210935354232788 0.88227897882461548
0.86300832033157349 0.86851227283477783 0.87136507034301758
0.97097456455230713 0.85297495126724243 0.84181147813796997
0.75724655389785767 0.97477000951766968 0.9178847074508667
0.7727465033531189 0.97493469715118408 0.91953229904174805
0.79926615953445435 0.97435998916625977 0.92330449819564819
0.8346550464630127 0.97435975074768066 0.92680656909942627
0.87862324714660645 0.97403782606124878 0.93186265230178833
0.9137343168258667 0.97562474012374878 0.93221426010131836
0.96437442302703857 0.97514802217483521 0.91522777080535889
0.15553389489650726 0.091346561908721924 0.98906713724136353
0.25781607627868652 0.10658587515354156 0.99261820316314697
0.40442326664924622 0.14538305997848511 0.99103987216949463
0.55394715070724487 0.19370254874229431 0.98724788427352905
0.70968174934387207 0.2607024610042572 0.98460155725479126
0.85380667448043823 0.32849067449569702 0.9799647331237793
0.98202598094940186 0.38075414299964905 0.97682863473892212
0.19278687238693237 0.24177439510822296 0.99087464809417725
0.28353419899940491 0.24842840433120728 0.98919832706451416
0.41881540417671204 0.26633152365684509 0.98790603876113892
0.56709599494934082 0.2964741587638855 0.98800790309906006
0.71289509534835815 0.34311380982398987 0.98393052816390991
0.85507100820541382 0.39614620804786682 0.98357206583023071
0.98151040077209473 0.4363495409488678 0.9775470495223999
0.26146960258483887 0.40516519546508789 0.98695224523544312
0.3323337733745575 0.40919926762580872 0.98379194736480713
0.44996747374534607 0.42074546217918396 0.98450654745101929
0.58154606819152832 0.44011494517326355 0.98489534854888916
0.71751248836517334 0.4684852659702301 0.98023456335067749
0.8539460301399231 0.50541538000106812 0.97623670101165771
0.98146063089370728 0.53187775611877441 0.97613710165023804
0.28702762722969055 0.55447334051132202 0.98379796743392944
0.3501700758934021 0.56022793054580688 0.97943335771560669
0.46140453219413757 0.57113796472549438 0.98130911588668823
0.59014177322387695 0.58460789918899536 0.97816157341003418
0.72250199317932129 0.6052861213684082 0.97466951608657837
0.85429364442825317 0.62937873601913452 0.97801059484481812
0.97668510675430298 0.64884042739868164 0.97554856538772583
0.28489744663238525 0.69519662857055664 0.9819103479385376
0.34515494108200073 0.6953510046005249 0.98250877857208252
0.45137155055999756 0.70123356580734253 0.97724872827529907
0.59026652574539185 0.71764004230499268 0.97558093070983887
0.7322087287902832 0.73925518989562988 0.97488987445831299
0.85700470209121704 0.75812238454818726 0.97232049703598022
0.97465908527374268 0.77460575103759766 0.97102075815200806
0.50649106502532959 0.86294174194335938 0.97647839784622192
0.53278243541717529 0.8603440523147583 0.97633463144302368
0.5794263482093811 0.86008143424987793 0.97732281684875488
0.65472757816314697 0.85491275787353516 0.97238606214523315
0.7505720853805542 0.86092948913574219 0.97455793619155884
0.86592662334442139 0.87338519096374512 0.97124791145324707
0.97130227088928223 0.88720542192459106 0.96937650442123413
0.71171927452087402 0.96937775611877441 0.97357124090194702
0.73141020536422729 0.97200757265090942 0.975849449634552
0.75975948572158813 0.97391563653945923 0.97704869508743286
0.80947041511535645 0.97344732284545898 0.97903686761856079
0.86245816946029663 0.97171372175216675 0.9796067476272583
0.9231879711151123 0.97238063812255859 0.98101115226745605
0.9779849648475647 0.97595119476318359 0.97872483730316162
