luts/negative_old/fuji_superia_800.cube
# Created by: G'MIC (https://gmic.eu)
TITLE "fuji_superia_800"
# LUT size
LUT_3D_SIZE 13
# Data domain
DOMAIN_MIN 0.0 0.0 0.0
DOMAIN_MAX 1.0 1.0 1.0
# LUT data points
0.0079112034291028976 0.082383282482624054 0.082062005996704102
0.02911040373146534 0.080406799912452698 0.078277722001075745
0.078951485455036163 0.079852908849716187 0.077266216278076172
0.16219660639762878 0.083750799298286438 0.07742965966463089
0.24827615916728973 0.08900897204875946 0.072601199150085449
0.34331759810447693 0.095669716596603394 0.068519458174705505
0.45579808950424194 0.092013999819755554 0.065150603652000427
0.57142537832260132 0.078621745109558105 0.055709779262542725
0.67981076240539551 0.06677139550447464 0.041154120117425919
0.77183276414871216 0.082905605435371399 0.031194964423775673
0.85565543174743652 0.1126127690076828 0.020595984533429146
0.92797791957855225 0.15933977067470551 0.015554884448647499
0.98581218719482422 0.21090634167194366 0.0063958261162042618
0.0042261308990418911 0.10127519816160202 0.082220055162906647
0.023462481796741486 0.10213500261306763 0.077874965965747833
0.086108125746250153 0.10923659056425095 0.074364602565765381
0.17000225186347961 0.11528249830007553 0.072430990636348724
0.26017937064170837 0.12021776288747787 0.071335017681121826
0.36264067888259888 0.12393472343683243 0.068682007491588593
0.46969172358512878 0.11909174919128418 0.061153531074523926
0.58451670408248901 0.1161801666021347 0.052597463130950928
0.69003027677536011 0.12482859194278717 0.04176744818687439
0.77676165103912354 0.14259478449821472 0.031149366870522499
0.86009258031845093 0.15908065438270569 0.017027342692017555
0.93390309810638428 0.19520696997642517 0.00820185337215662
0.98630130290985107 0.23357576131820679 0.0045806583948433399
0.0027689167764037848 0.17058099806308746 0.089568570256233215
0.0078609837219119072 0.16471172869205475 0.080985933542251587
0.074432775378227234 0.17189584672451019 0.072069518268108368
0.18493863940238953 0.17881730198860168 0.062030088156461716
0.28518688678741455 0.17954680323600769 0.063760824501514435
0.39211437106132507 0.179788738489151 0.064711615443229675
0.5000380277633667 0.17753416299819946 0.058095205575227737
0.6091378927230835 0.17855587601661682 0.045989885926246643
0.70170795917510986 0.19157418608665466 0.03700319305062294
0.78664851188659668 0.2088979035615921 0.026037732139229774
0.8666800856590271 0.22069777548313141 0.013634924776852131
0.93891972303390503 0.24869999289512634 0.0062052407301962376
0.98660778999328613 0.28440803289413452 0.0054118139669299126
0.0002277149906149134 0.25781220197677612 0.096168115735054016
0.0025176254566758871 0.26016104221343994 0.091622404754161835
0.031375225633382797 0.26317733526229858 0.082757048308849335
0.17510774731636047 0.2778593897819519 0.056341703981161118
0.32477447390556335 0.28822630643844604 0.032004814594984055
0.43832817673683167 0.28317528963088989 0.036689415574073792
0.53594851493835449 0.26278585195541382 0.043080572038888931
0.6346890926361084 0.25990936160087585 0.03591817244887352
0.72079312801361084 0.26638734340667725 0.027028506621718407
0.7960209846496582 0.27830356359481812 0.019362056627869606
0.87259835004806519 0.29072940349578857 0.010854518972337246
0.94127964973449707 0.31437504291534424 0.0062999352812767029
0.99040263891220093 0.34602391719818115 0.0054032569751143456
0.0006545871146954596 0.3790222704410553 0.11263472586870193
0.0034578659106045961 0.39079082012176514 0.11237979680299759
0.0089429514482617378 0.3907436728477478 0.10023347288370132
0.12772826850414276 0.39568373560905457 0.070614233613014221
0.32219123840332031 0.40754705667495728 0.023783231154084206
0.48038119077682495 0.41628694534301758 0.0092900441959500313
0.58455318212509155 0.39612007141113281 0.011375277303159237
0.66698312759399414 0.36984080076217651 0.012645317241549492
0.74266207218170166 0.35902130603790283 0.012842141091823578
0.81110250949859619 0.36199024319648743 0.015264937654137611
0.88126784563064575 0.36661335825920105 0.0089874416589736938
0.94430720806121826 0.38443800806999207 0.0057076546363532543
0.9942590594291687 0.41057708859443665 0.0043870513327419758
1.077091019396903e-05 0.51472771167755127 0.14337506890296936
0.00032836315222084522 0.51635098457336426 0.14351142942905426
0.0026356116868555546 0.51771032810211182 0.133626788854599
0.084205105900764465 0.52319562435150146 0.10608601570129395
0.29415228962898254 0.52843362092971802 0.052225779742002487
0.46892473101615906 0.53624087572097778 0.012704034335911274
0.6144716739654541 0.53971070051193237 0.0043432046659290791
0.70155984163284302 0.51501661539077759 0.0010857526212930679
0.76790338754653931 0.48195824027061462 0.0038836011663079262
0.82959765195846558 0.46417751908302307 0.0095519274473190308
0.89102929830551147 0.45706397294998169 0.0090142646804451942
0.94838351011276245 0.46737319231033325 0.0077813691459596157
0.99407738447189331 0.48587530851364136 0.0061275558546185493
4.0929458918981254e-05 0.62795054912567139 0.18683315813541412
0.00091935700038447976 0.63246983289718628 0.18578632175922394
0.0036089729983359575 0.63461238145828247 0.18122513592243195
0.079211696982383728 0.63738811016082764 0.16379868984222412
0.28840577602386475 0.63780450820922852 0.12152770161628723
0.44675531983375549 0.64021319150924683 0.058858189731836319
0.58621758222579956 0.64324855804443359 0.015567226335406303
0.70845234394073486 0.64238667488098145 0.0034087535459548235
0.79160606861114502 0.61807531118392944 0.0027018229011446238
0.84823393821716309 0.58454173803329468 0.005197442602366209
0.90462976694107056 0.56403720378875732 0.0047018909826874733
0.95882046222686768 0.5587725043296814 0.0067735109478235245
0.99511748552322388 0.56441980600357056 0.016561277210712433
0.0020586948376148939 0.72402316331863403 0.24018296599388123
0.0032379000913351774 0.7273525595664978 0.24437101185321808
0.01670176163315773 0.72993844747543335 0.24125653505325317
0.15155091881752014 0.72898989915847778 0.23621702194213867
0.31674167513847351 0.72498816251754761 0.21422700583934784
0.45040479302406311 0.72562748193740845 0.17157499492168427
0.56685763597488403 0.72647905349731445 0.11228794604539871
0.68118637800216675 0.72760504484176636 0.045112535357475281
0.78908425569534302 0.72643917798995972 0.0094574270769953728
0.86499220132827759 0.71036171913146973 0.0025414859410375357
0.9155728816986084 0.68483710289001465 0.0041354908607900143
0.96410363912582397 0.66763228178024292 0.0077028912492096424
0.99428844451904297 0.66076803207397461 0.042332712560892105
0.058034155517816544 0.80409520864486694 0.31994855403900146
0.09111081063747406 0.80390036106109619 0.3214469850063324
0.17296195030212402 0.80240815877914429 0.32193735241889954
0.28213536739349365 0.80012726783752441 0.3239346444606781
0.38757479190826416 0.79645180702209473 0.31468558311462402
0.48724225163459778 0.79435938596725464 0.28826221823692322
0.57536786794662476 0.79518449306488037 0.25860479474067688
0.66841083765029907 0.79575973749160767 0.19834475219249725
0.76257038116455078 0.7976565957069397 0.12418100982904434
0.85598045587539673 0.79965710639953613 0.048032123595476151
0.92348533868789673 0.78841781616210938 0.014569735154509544
0.96935099363327026 0.77108234167098999 0.027874575927853584
0.99649858474731445 0.75661575794219971 0.08407796174287796
0.2980293333530426 0.86086267232894897 0.42235028743743896
0.31971034407615662 0.85803014039993286 0.42464733123779297
0.35588762164115906 0.85522836446762085 0.42415609955787659
0.41326981782913208 0.85624498128890991 0.42624387145042419
0.47004154324531555 0.85481995344161987 0.42223265767097473
0.53678673505783081 0.85333800315856934 0.40764805674552917
0.60653442144393921 0.85167461633682251 0.38884863257408142
0.67870032787322998 0.85117018222808838 0.35405164957046509
0.76003360748291016 0.85204470157623291 0.30564942955970764
0.83562463521957397 0.8535802960395813 0.24603638052940369
0.91019582748413086 0.85673797130584717 0.1696365624666214
0.96969228982925415 0.85185384750366211 0.14467820525169373
0.99702060222625732 0.83935993909835815 0.17387881875038147
0.4765838086605072 0.90417987108230591 0.52866029739379883
0.48797857761383057 0.90224897861480713 0.53086888790130615
0.50700992345809937 0.8996167778968811 0.52931743860244751
0.53090643882751465 0.90023398399353027 0.52944892644882202
0.56807881593704224 0.8997071385383606 0.53078240156173706
0.6129758358001709 0.8962552547454834 0.52162295579910278
0.66233277320861816 0.89379739761352539 0.51062661409378052
0.70993912220001221 0.89513695240020752 0.49159052968025208
0.76777386665344238 0.8973926305770874 0.45729321241378784
0.82766979932785034 0.89792853593826294 0.41564133763313293
0.88798767328262329 0.89850658178329468 0.36675840616226196
0.95190548896789551 0.90199482440948486 0.31539735198020935
0.99191433191299438 0.90183287858963013 0.28912201523780823
0.60062849521636963 0.93882644176483154 0.62589895725250244
0.60470610857009888 0.9368598461151123 0.6268622875213623
0.61415809392929077 0.93416935205459595 0.62595254182815552
0.63176059722900391 0.93491607904434204 0.62723332643508911
0.65428143739700317 0.93616354465484619 0.63080650568008423
0.68667149543762207 0.93354624509811401 0.62870150804519653
0.71914219856262207 0.93250060081481934 0.62629038095474243
0.75212424993515015 0.93306416273117065 0.60968267917633057
0.78647637367248535 0.93515413999557495 0.58777660131454468
0.8287123441696167 0.93618190288543701 0.55916482210159302
0.87645131349563599 0.93695604801177979 0.52966922521591187
0.9264453649520874 0.93643516302108765 0.48633614182472229
0.97635418176651001 0.93813604116439819 0.4512237012386322
0.69238269329071045 0.96422457695007324 0.70886468887329102
0.69467777013778687 0.96359723806381226 0.70891505479812622
0.70429545640945435 0.96319293975830078 0.71138292551040649
0.71063077449798584 0.96099889278411865 0.70651644468307495
0.72500908374786377 0.96096771955490112 0.70838356018066406
0.75110447406768799 0.96169662475585938 0.71275091171264648
0.76840668916702271 0.9604867696762085 0.70976531505584717
0.78762608766555786 0.96191674470901489 0.7058289647102356
0.81533509492874146 0.96339613199234009 0.69211125373840332
0.84488493204116821 0.96551573276519775 0.67525976896286011
0.8784639835357666 0.96666383743286133 0.65836375951766968
0.91556799411773682 0.96673274040222168 0.63540536165237427
0.95693105459213257 0.96728384494781494 0.61131542921066284
0.0065969130955636501 0.078265078365802765 0.10122916847467422
0.024840725585818291 0.078085489571094513 0.097772188484668732
0.076847761869430542 0.077984936535358429 0.09782707691192627
0.16054083406925201 0.074532650411128998 0.10039833188056946
0.25034669041633606 0.071416042745113373 0.097737178206443787
0.34739938378334045 0.084810532629489899 0.1002575010061264
0.45750805735588074 0.085397996008396149 0.10267803817987442
0.5719258189201355 0.075979225337505341 0.099909566342830658
0.67499876022338867 0.073417693376541138 0.093871384859085083
0.76808565855026245 0.084542669355869293 0.084074892103672028
0.85085481405258179 0.11861156672239304 0.073558956384658813
0.92464888095855713 0.16278210282325745 0.063400730490684509
0.97965997457504272 0.21566818654537201 0.05223432183265686
0.003252425929531455 0.099329732358455658 0.10498266667127609
0.017750624567270279 0.10405018925666809 0.10543125867843628
0.084087938070297241 0.10761703550815582 0.10358306020498276
0.17222580313682556 0.10988370329141617 0.10421773791313171
0.26704657077789307 0.11232902854681015 0.10517960786819458
0.36676520109176636 0.1182933896780014 0.10581627488136292
0.47302287817001343 0.12175308167934418 0.1050361767411232
0.5849454402923584 0.11855795234441757 0.10225879400968552
0.68520563840866089 0.12736470997333527 0.094242632389068604
0.77535867691040039 0.14286397397518158 0.083938524127006531
0.85732036828994751 0.16471025347709656 0.071899712085723877
0.93135249614715576 0.20250464975833893 0.059611465781927109
0.98717445135116577 0.23971721529960632 0.051506206393241882
0.0022169973235577345 0.16750872135162354 0.11942049115896225
0.0090104797855019569 0.16498687863349915 0.11674885451793671
0.078570045530796051 0.1697816401720047 0.11097560077905655
0.18760672211647034 0.17932961881160736 0.10934887826442719
0.28347322344779968 0.1745518296957016 0.10755470395088196
0.39195415377616882 0.17670658230781555 0.10812000930309296
0.50480800867080688 0.18316398561000824 0.10702124238014221
0.60963273048400879 0.18686400353908539 0.10004162043333054
0.70164066553115845 0.19405806064605713 0.090927645564079285
0.78530538082122803 0.20610284805297852 0.079407379031181335
0.86515539884567261 0.22354069352149963 0.067598126828670502
0.93657898902893066 0.25387880206108093 0.056107182055711746
0.9862358570098877 0.28943350911140442 0.04937807098031044
0.0018778333906084299 0.25583925843238831 0.13762915134429932
0.0061455219984054565 0.25890669226646423 0.13694466650485992
0.046105075627565384 0.26489695906639099 0.13227161765098572
0.18522641062736511 0.27812099456787109 0.11476650089025497
0.32209640741348267 0.27974104881286621 0.095095522701740265
0.43318638205528259 0.27299156785011292 0.09444040060043335
0.5352051854133606 0.26132795214653015 0.10113409906625748
0.63388121128082275 0.26333144307136536 0.095146387815475464
0.72131967544555664 0.2720429003238678 0.084807664155960083
0.79642164707183838 0.27744272351264954 0.072397731244564056
0.87110269069671631 0.29135856032371521 0.060012593865394592
0.93880897760391235 0.31670662760734558 0.055140804499387741
0.98701107501983643 0.34915873408317566 0.050364326685667038
0.0014653523685410619 0.37545230984687805 0.16107836365699768
0.0045807631686329842 0.38309907913208008 0.16223818063735962
0.016296461224555969 0.38629671931266785 0.1547524482011795
0.1501392275094986 0.39278200268745422 0.13404028117656708
0.32918775081634521 0.40479639172554016 0.093728877604007721
0.47815385460853577 0.40825608372688293 0.055730976164340973
0.57799744606018066 0.38694038987159729 0.05988762155175209
0.6621968150138855 0.36516627669334412 0.072125107049942017
0.73908448219299316 0.35684892535209656 0.075435757637023926
0.8107256293296814 0.35982275009155273 0.069344431161880493
0.88014400005340576 0.37017208337783813 0.060183774679899216
0.94366186857223511 0.39053848385810852 0.056672729551792145
0.99097883701324463 0.41634103655815125 0.052443470805883408
0.00021360808750614524 0.5098385214805603 0.19113044440746307
0.0018306806450709701 0.51152932643890381 0.19259227812290192
0.0057066376321017742 0.51431912183761597 0.18630918860435486
0.11771630495786667 0.51883965730667114 0.16650091111660004
0.30606120824813843 0.52457672357559204 0.12596134841442108
0.47038468718528748 0.52999961376190186 0.073919527232646942
0.61112368106842041 0.5330812931060791 0.024878783151507378
0.70016926527023315 0.50893628597259521 0.023933574557304382
0.76574140787124634 0.4789002537727356 0.037945587188005447
0.82887881994247437 0.45755591988563538 0.056393790990114212
0.8905327320098877 0.45960059762001038 0.057381290942430496
0.94863379001617432 0.47266331315040588 0.058542691171169281
0.99311351776123047 0.48901894688606262 0.058490272611379623
0.0012523127952590585 0.62453973293304443 0.22628100216388702
0.0035015929024666548 0.62663441896438599 0.23496156930923462
0.0069983238354325294 0.63125675916671753 0.22672419250011444
0.11695197969675064 0.6333308219909668 0.21315188705921173
0.29880532622337341 0.63263231515884399 0.18372659385204315
0.45076474547386169 0.63336455821990967 0.13767819106578827
0.58794653415679932 0.6363147497177124 0.069887675344944
0.71123981475830078 0.63912272453308105 0.016490591689944267
0.7910611629486084 0.61618155241012573 0.011800129897892475
0.85066908597946167 0.58605784177780151 0.024000115692615509
0.90551811456680298 0.5654911994934082 0.039936080574989319
0.95685160160064697 0.55983394384384155 0.062958285212516785
0.99260526895523071 0.56793409585952759 0.083693288266658783
0.0040805740281939507 0.72222942113876343 0.27963268756866455
0.0089119402691721916 0.72544014453887939 0.28364133834838867
0.051233477890491486 0.72761380672454834 0.27896222472190857
0.19798478484153748 0.72485995292663574 0.27668866515159607
0.33803394436836243 0.72189635038375854 0.258066326379776
0.45783922076225281 0.72104501724243164 0.22309422492980957
0.57087844610214233 0.72171330451965332 0.1779293566942215
0.68218976259231567 0.723064124584198 0.10760587453842163
0.78897982835769653 0.72388756275177002 0.035536821931600571
0.86566102504730225 0.70945429801940918 0.015549229457974434
0.91745674610137939 0.68586522340774536 0.032195489853620529
0.96243083477020264 0.66765308380126953 0.063404440879821777
0.9918559193611145 0.65938425064086914 0.11727826297283173
0.099278487265110016 0.80191147327423096 0.35115599632263184
0.14602276682853699 0.80211073160171509 0.35305920243263245
0.22211162745952606 0.80048131942749023 0.35483872890472412
0.31250089406967163 0.79710310697555542 0.35575351119041443
0.39798888564109802 0.79515606164932251 0.34899690747261047
0.4873124361038208 0.79244339466094971 0.32475730776786804
0.57825112342834473 0.79374176263809204 0.29360637068748474
0.67096906900405884 0.79238098859786987 0.24791400134563446
0.76504099369049072 0.79380404949188232 0.18459650874137878
0.85718655586242676 0.79846984148025513 0.10306234657764435
0.92496371269226074 0.78907489776611328 0.074318379163742065
0.96647417545318604 0.76923209428787231 0.1066402792930603
0.99548447132110596 0.75545454025268555 0.15287899971008301
0.33069571852684021 0.8601679801940918 0.44713279604911804
0.35144874453544617 0.85941380262374878 0.44907954335212708
0.38531768321990967 0.8576045036315918 0.44887560606002808
0.43143287301063538 0.85323965549468994 0.45184391736984253
0.48459580540657043 0.8494718074798584 0.45097619295120239
0.55088502168655396 0.85043251514434814 0.4348900318145752
0.61248040199279785 0.85134190320968628 0.40987762808799744
0.68000549077987671 0.85113131999969482 0.38232338428497314
0.75828683376312256 0.85261625051498413 0.3420097827911377
0.83470112085342407 0.85348117351531982 0.2898174524307251
0.90999925136566162 0.8552289605140686 0.23240433633327484
0.96714109182357788 0.85027080774307251 0.21125130355358124
0.99411767721176147 0.83565568923950195 0.23201319575309753
0.48966357111930847 0.90359115600585938 0.54713386297225952
0.50130641460418701 0.90352892875671387 0.54850190877914429
0.52011120319366455 0.90159612894058228 0.54970574378967285
0.5457611083984375 0.90002924203872681 0.55280572175979614
0.58291542530059814 0.8984866738319397 0.55209189653396606
0.62466049194335938 0.89577841758728027 0.53989917039871216
0.66480523347854614 0.89451038837432861 0.52528733015060425
0.71343022584915161 0.8977285623550415 0.51001268625259399
0.76778805255889893 0.89869928359985352 0.48102310299873352
0.8271370530128479 0.8978460431098938 0.44373676180839539
0.88712102174758911 0.89777153730392456 0.4000142514705658
0.94950705766677856 0.90075027942657471 0.35477188229560852
0.99319702386856079 0.90120226144790649 0.32679969072341919
0.60850745439529419 0.9382445216178894 0.63977581262588501
0.61408597230911255 0.93810379505157471 0.63921087980270386
0.62478315830230713 0.93667948246002197 0.64000523090362549
0.64115411043167114 0.93574607372283936 0.64117950201034546
0.66237199306488037 0.93620151281356812 0.64307641983032227
0.68907338380813599 0.93302720785140991 0.63756328821182251
0.71988743543624878 0.93331450223922729 0.63522219657897949
0.752269446849823 0.93376028537750244 0.62165796756744385
0.78902530670166016 0.93428200483322144 0.59944003820419312
0.83064252138137817 0.93378150463104248 0.57586824893951416
0.8770071268081665 0.93451929092407227 0.54873442649841309
0.92577970027923584 0.93628174066543579 0.51408112049102783
0.97614067792892456 0.93843221664428711 0.47554022073745728
0.69870281219482422 0.96416610479354858 0.71802610158920288
0.70201897621154785 0.9638630747795105 0.71835148334503174
0.70909196138381958 0.96330666542053223 0.7185782790184021
0.72051066160202026 0.96297532320022583 0.7196274995803833
0.73410302400588989 0.96303379535675049 0.72029644250869751
0.75439876317977905 0.96300703287124634 0.72136926651000977
0.77182745933532715 0.96259552240371704 0.71988314390182495
0.79066389799118042 0.96304726600646973 0.71388578414916992
0.81852835416793823 0.96337652206420898 0.70042753219604492
0.84767729043960571 0.96503692865371704 0.68763446807861328
0.88106709718704224 0.96537357568740845 0.66803187131881714
0.91622895002365112 0.96600425243377686 0.6486707329750061
0.95685911178588867 0.96713894605636597 0.62471228837966919
0.0076262829825282097 0.073995925486087799 0.14399713277816772
0.025226563215255737 0.079986274242401123 0.14781710505485535
0.076370209455490112 0.081194676458835602 0.14919520914554596
0.15452410280704498 0.078792646527290344 0.14918410778045654
0.25030025839805603 0.067167468369007111 0.146856889128685
0.35524308681488037 0.051491156220436096 0.14344845712184906
0.46610388159751892 0.045820318162441254 0.14460033178329468
0.57772815227508545 0.050065029412508011 0.14843384921550751
0.6759682297706604 0.069485500454902649 0.14947155117988586
0.76526892185211182 0.090116076171398163 0.1450439840555191
0.84780585765838623 0.12219791859388351 0.13797403872013092
0.92213040590286255 0.1692562997341156 0.13503815233707428
0.98181706666946411 0.22688893973827362 0.1323167085647583
0.0019560421351343393 0.10111619532108307 0.15347102284431458
0.01506652869284153 0.10787712782621384 0.1557869166135788
0.080497503280639648 0.11110734939575195 0.15754543244838715
0.16864240169525146 0.11328240483999252 0.15786321461200714
0.26795080304145813 0.1084606871008873 0.15611997246742249
0.37022778391838074 0.10169300436973572 0.15150494873523712
0.47992846369743347 0.10865822434425354 0.15456013381481171
0.58763295412063599 0.11522497981786728 0.15486086905002594
0.6841132640838623 0.12709064781665802 0.15234528481960297
0.77341127395629883 0.14052855968475342 0.14629486203193665
0.85432034730911255 0.16743996739387512 0.13914957642555237
0.92854964733123779 0.20763052999973297 0.1348486989736557
0.98850429058074951 0.24569500982761383 0.13023684918880463
0.00029202629229985178 0.16301198303699493 0.16824294626712799
0.0090571986511349678 0.1652492880821228 0.16950568556785583
0.082547999918460846 0.17185704410076141 0.17119145393371582
0.1820976734161377 0.17495284974575043 0.16949188709259033
0.28625333309173584 0.1716625839471817 0.16624313592910767
0.39619633555412292 0.17007927596569061 0.16328626871109009
0.50652354955673218 0.17813761532306671 0.16194845736026764
0.61000317335128784 0.18458488583564758 0.15852519869804382
0.70113736391067505 0.19333483278751373 0.15176962316036224
0.7836107611656189 0.20126977562904358 0.14504249393939972
0.86191511154174805 0.22738258540630341 0.13905216753482819
0.93305122852325439 0.2593902051448822 0.13588082790374756
0.98740565776824951 0.29583010077476501 0.13328064978122711
0.0025527356192469597 0.25329330563545227 0.19115458428859711
0.0077867396175861359 0.25631648302078247 0.19288986921310425
0.070611588656902313 0.26082894206047058 0.19255213439464569
0.19205054640769958 0.2661527693271637 0.18469569087028503
0.31803408265113831 0.26827284693717957 0.1744067370891571
0.42771589756011963 0.26098877191543579 0.17325408756732941
0.53347253799438477 0.25861468911170959 0.16977225244045258
0.63130885362625122 0.26558190584182739 0.16290900111198425
0.71780252456665039 0.2702326774597168 0.15452098846435547
0.79396927356719971 0.27622777223587036 0.14630977809429169
0.86751961708068848 0.29584786295890808 0.14060284197330475
0.9364548921585083 0.32255977392196655 0.13820447027683258
0.98748630285263062 0.3544420599937439 0.13587294518947601
0.004011206328868866 0.37474852800369263 0.22608581185340881
0.0072511709295213223 0.37664860486984253 0.22641128301620483
0.042196623980998993 0.38020622730255127 0.22015790641307831
0.18515235185623169 0.38641822338104248 0.21029862761497498
