luts/negative_old/fuji_superia_1600_-.cube
# Created by: G'MIC (https://gmic.eu)
TITLE "fuji_superia_1600_-"
# LUT size
LUT_3D_SIZE 5
# Data domain
DOMAIN_MIN 0.0 0.0 0.0
DOMAIN_MAX 1.0 1.0 1.0
# LUT data points
0.032697699964046478 0.054303336888551712 0.069040022790431976
0.17809450626373291 0.056032322347164154 0.053539499640464783
0.50884485244750977 0.031532034277915955 0.028172541409730911
0.77554744482040405 0.0523848757147789 0.008404959924519062
0.97834539413452148 0.22729334235191345 0.00037590475403703749
0.0030449212063103914 0.23741266131401062 0.066444292664527893
0.15140621364116669 0.28411823511123657 0.022093245759606361
0.57442361116409302 0.28102046251296997 0.0075299283489584923
0.80582702159881592 0.28951132297515869 0.0079483631998300552
0.98320305347442627 0.35165143013000488 0.0075608198530972004
0.0017875970806926489 0.53516829013824463 0.18821734189987183
0.061294406652450562 0.53628206253051758 0.17581693828105927
0.53193598985671997 0.58728808164596558 0.077548384666442871
0.83236271142959595 0.59910589456558228 0.020733209326863289
0.99188905954360962 0.58301925659179688 0.10117203742265701
0.20819652080535889 0.7650025486946106 0.38506591320037842
0.30936866998672485 0.75506430864334106 0.37935444712638855
0.51464509963989258 0.77090150117874146 0.36658516526222229
0.76632046699523926 0.81199735403060913 0.3346131443977356
0.98276078701019287 0.84124135971069336 0.33253449201583862
0.57298809289932251 0.94389820098876953 0.65253961086273193
0.59749704599380493 0.94302284717559814 0.64800024032592773
0.66239345073699951 0.94485247135162354 0.65073585510253906
0.77995538711547852 0.95461338758468628 0.64389455318450928
0.92161417007446289 0.97004371881484985 0.63796442747116089
0.011288302950561047 0.049016404896974564 0.20967911183834076
0.18685097992420197 0.047999721020460129 0.21258816123008728
0.54010605812072754 0.014421799220144749 0.21751333773136139
0.76857841014862061 0.084886901080608368 0.198664590716362
0.96393024921417236 0.24998749792575836 0.2097097784280777
0.0036183823831379414 0.26826554536819458 0.25689247250556946
0.22753950953483582 0.28417131304740906 0.2605997622013092
0.56675410270690918 0.29560413956642151 0.24817168712615967
0.78437685966491699 0.31781455874443054 0.23805050551891327
0.97446012496948242 0.38135805726051331 0.23526418209075928
0.21356120705604553 0.55956435203552246 0.37835729122161865
0.29781320691108704 0.54774916172027588 0.35836827754974365
0.55987060070037842 0.58048921823501587 0.3302619457244873
0.81824511289596558 0.58566159009933472 0.31320121884346008
0.9875062108039856 0.58516913652420044 0.31419730186462402
0.34470036625862122 0.774058997631073 0.48324409127235413
0.40751245617866516 0.76959896087646484 0.47901037335395813
0.54149466753005981 0.76896494626998901 0.46785229444503784
0.77018243074417114 0.81356257200241089 0.45412147045135498
0.97774487733840942 0.83590841293334961 0.45786821842193604
0.61176449060440063 0.94564729928970337 0.69488340616226196
0.62506228685379028 0.94244933128356934 0.6875683069229126
0.67911547422409058 0.94182687997817993 0.68469691276550293
0.78513032197952271 0.9531744122505188 0.68184727430343628
0.92315804958343506 0.96927469968795776 0.68233460187911987
0.0011809405405074358 0.0527191162109375 0.48988685011863708
0.22153189778327942 0.06725640594959259 0.49798762798309326
0.55461794137954712 0.13802440464496613 0.5128973126411438
0.80464071035385132 0.25411149859428406 0.52024906873703003
0.98776966333389282 0.28175842761993408 0.49454623460769653
0.00037262859405018389 0.2501259446144104 0.50849825143814087
0.26755338907241821 0.29092541337013245 0.52135032415390015
0.56579875946044922 0.34157967567443848 0.52440637350082397
0.80345100164413452 0.38980919122695923 0.53517359495162964
0.97864013910293579 0.37034440040588379 0.48221480846405029
0.23344741761684418 0.56903076171875 0.57130825519561768
0.3955722451210022 0.56630414724349976 0.57168501615524292
0.59110826253890991 0.56613326072692871 0.56021910905838013
0.791595458984375 0.56219035387039185 0.53371089696884155
0.97092622518539429 0.57357704639434814 0.52210503816604614
0.53129702806472778 0.79801219701766968 0.67411261796951294
0.57397770881652832 0.79328817129135132 0.66963851451873779
0.61900776624679565 0.7739453911781311 0.63173490762710571
0.78422826528549194 0.80976885557174683 0.62536311149597168
0.97121185064315796 0.8149712085723877 0.62396103143692017
0.69971048831939697 0.94872123003005981 0.79196947813034058
0.70556890964508057 0.94769197702407837 0.78294157981872559
0.73415541648864746 0.93996822834014893 0.77103316783905029
0.81037819385528564 0.95072579383850098 0.77105867862701416
0.9374198317527771 0.97216188907623291 0.77539855241775513
0.088650301098823547 0.099285155534744263 0.73316150903701782
0.33483874797821045 0.13531863689422607 0.73652291297912598
0.60283327102661133 0.21555720269680023 0.74171173572540283
0.81458139419555664 0.3189968466758728 0.74963998794555664
0.97053980827331543 0.44904515147209167 0.76363617181777954
0.17794112861156464 0.2863578200340271 0.73911374807357788
0.36186009645462036 0.31444844603538513 0.7379831075668335
0.60664039850234985 0.36469003558158875 0.74386239051818848
0.81473791599273682 0.42963144183158875 0.76018112897872925
0.97491085529327393 0.53906303644180298 0.7758476734161377
0.020850088447332382 0.48976069688796997 0.73049092292785645
0.27963784337043762 0.49398279190063477 0.73277324438095093
0.5793268084526062 0.53601539134979248 0.74807411432266235
0.80560392141342163 0.6127173900604248 0.76884382963180542
0.96757298707962036 0.68066400289535522 0.78804624080657959
0.4792034924030304 0.79240947961807251 0.80725085735321045
0.54389828443527222 0.78972166776657104 0.80710899829864502
0.66438329219818115 0.79195922613143921 0.80434387922286987
0.79950594902038574 0.79353541135787964 0.79288268089294434
0.959400475025177 0.79208570718765259 0.77708011865615845
0.76836466789245605 0.95868462324142456 0.89066678285598755
0.788471519947052 0.95912134647369385 0.8942837119102478
0.81384813785552979 0.95675384998321533 0.88926613330841064
0.85227096080780029 0.94954675436019897 0.87082433700561523
0.95153176784515381 0.97041648626327515 0.87499749660491943
0.48201137781143188 0.2798713743686676 0.94907534122467041
0.56581133604049683 0.30081206560134888 0.94796383380889893
0.71217036247253418 0.36517944931983948 0.94754034280776978
0.86276477575302124 0.47659263014793396 0.94218063354492188
0.98673069477081299 0.57836765050888062 0.94438070058822632
0.48055174946784973 0.38606688380241394 0.94931960105895996
0.55697381496429443 0.40096005797386169 0.94557303190231323
0.70493656396865845 0.44809827208518982 0.94789499044418335
0.85041826963424683 0.54403746128082275 0.93832433223724365
0.98258697986602783 0.63204962015151978 0.94342577457427979
0.33957734704017639 0.51755297183990479 0.94931197166442871
0.46476021409034729 0.53550958633422852 0.94654667377471924
0.6648634672164917 0.58033758401870728 0.94668811559677124
0.84310293197631836 0.65895789861679077 0.94355201721191406
0.97316110134124756 0.73256075382232666 0.94427037239074707
0.29666957259178162 0.7432790994644165 0.95069330930709839
0.36777469515800476 0.72991186380386353 0.95011240243911743
0.53200113773345947 0.72222894430160522 0.94668287038803101
0.80054908990859985 0.78186541795730591 0.94886046648025513
0.96418726444244385 0.85114043951034546 0.95168817043304443
0.7269933819770813 0.9579886794090271 0.9712674617767334
0.74534595012664795 0.95559275150299072 0.96992266178131104
0.80078613758087158 0.95987105369567871 0.97165149450302124
0.881003737449646 0.96163100004196167 0.97151702642440796
0.96396011114120483 0.96528643369674683 0.96955513954162598
