luts/negative_old/fuji_superia_800.cube
# Created by: G'MIC (https://gmic.eu)
TITLE "fuji_superia_800"
# LUT size
LUT_3D_SIZE 5
# Data domain
DOMAIN_MIN 0.0 0.0 0.0
DOMAIN_MAX 1.0 1.0 1.0
# LUT data points
0.0079112034291028976 0.082383282482624054 0.082062005996704102
0.16219660639762878 0.083750799298286438 0.07742965966463089
0.45579808950424194 0.092013999819755554 0.065150603652000427
0.77183276414871216 0.082905605435371399 0.031194964423775673
0.98581218719482422 0.21090634167194366 0.0063958261162042618
0.0002277149906149134 0.25781220197677612 0.096168115735054016
0.17510774731636047 0.2778593897819519 0.056341703981161118
0.53594851493835449 0.26278585195541382 0.043080572038888931
0.7960209846496582 0.27830356359481812 0.019362056627869606
0.99040263891220093 0.34602391719818115 0.0054032569751143456
4.0929458918981254e-05 0.62795054912567139 0.18683315813541412
0.079211696982383728 0.63738811016082764 0.16379868984222412
0.58621758222579956 0.64324855804443359 0.015567226335406303
0.84823393821716309 0.58454173803329468 0.005197442602366209
0.99511748552322388 0.56441980600357056 0.016561277210712433
0.2980293333530426 0.86086267232894897 0.42235028743743896
0.41326981782913208 0.85624498128890991 0.42624387145042419
0.60653442144393921 0.85167461633682251 0.38884863257408142
0.83562463521957397 0.8535802960395813 0.24603638052940369
0.99702060222625732 0.83935993909835815 0.17387881875038147
0.69238269329071045 0.96422457695007324 0.70886468887329102
0.71063077449798584 0.96099889278411865 0.70651644468307495
0.76840668916702271 0.9604867696762085 0.70976531505584717
0.84488493204116821 0.96551573276519775 0.67525976896286011
0.95693105459213257 0.96728384494781494 0.61131542921066284
0.0065934276208281517 0.07668042927980423 0.20728267729282379
0.15672005712985992 0.085783191025257111 0.21472619473934174
0.47926148772239685 0.025266669690608978 0.21652248501777649
0.77175724506378174 0.048849623650312424 0.20431087911128998
0.9821963906288147 0.23035654425621033 0.20669262111186981
0.003263750346377492 0.24629589915275574 0.25155815482139587
0.20033846795558929 0.25763753056526184 0.25787609815597534
0.53228217363357544 0.25946661829948425 0.2441784143447876
0.79079681634902954 0.28174480795860291 0.22747468948364258
0.98673021793365479 0.35410013794898987 0.2162691056728363
0.068293720483779907 0.61822855472564697 0.36940053105354309
0.27011197805404663 0.61982208490371704 0.36029273271560669
0.60317844152450562 0.61644059419631958 0.29060441255569458
0.83486831188201904 0.57354831695556641 0.24573564529418945
0.98919939994812012 0.57480925321578979 0.25683683156967163
0.42318686842918396 0.84734833240509033 0.5378948450088501
0.50812739133834839 0.84914976358413696 0.54474622011184692
0.63794440031051636 0.84883391857147217 0.51829904317855835
0.84002166986465454 0.84709197282791138 0.43268084526062012
0.99132561683654785 0.8281291127204895 0.37519818544387817
0.72221952676773071 0.96302551031112671 0.75096392631530762
0.73904609680175781 0.9601091742515564 0.74812352657318115
0.78541868925094604 0.96084904670715332 0.75055056810379028
0.85519850254058838 0.96330839395523071 0.7255326509475708
0.95666825771331787 0.96634584665298462 0.67259687185287476
0.0023352380376309156 0.085846513509750366 0.44873040914535522
0.19439741969108582 0.091004088521003723 0.45995241403579712
0.5014110803604126 0.053262103348970413 0.47984346747398376
0.79413288831710815 0.11463136970996857 0.48921146988868713
0.98953819274902344 0.12807346880435944 0.45012757182121277
0.0029977685771882534 0.23106567561626434 0.48209020495414734
0.24107323586940765 0.2584613561630249 0.4967627227306366
0.53512948751449585 0.28111466765403748 0.50343543291091919
0.80649161338806152 0.32052889466285706 0.50206416845321655
0.98952877521514893 0.31790024042129517 0.45145505666732788
0.1303931325674057 0.57254862785339355 0.56263822317123413
0.35753190517425537 0.57259964942932129 0.56486374139785767
0.57994621992111206 0.57128536701202393 0.5527646541595459
0.81035947799682617 0.55964773893356323 0.51904606819152832
0.97932350635528564 0.58621156215667725 0.49607884883880615
0.57464569807052612 0.83730369806289673 0.70475602149963379
0.61153852939605713 0.83127647638320923 0.69967353343963623
0.70207160711288452 0.83484810590744019 0.68868201971054077
0.83517098426818848 0.83928835391998291 0.64466792345046997
0.97802209854125977 0.81561601161956787 0.60361182689666748
0.77826231718063354 0.95960152149200439 0.81861579418182373
0.78849983215332031 0.9574776291847229 0.81675893068313599
0.81751388311386108 0.95652657747268677 0.81226766109466553
0.87092739343643188 0.96205288171768188 0.80567193031311035
0.95597946643829346 0.96215730905532837 0.77344274520874023
0.10882780700922012 0.10561466962099075 0.71666783094406128
0.31558892130851746 0.11282654106616974 0.71373236179351807
0.55762892961502075 0.096839740872383118 0.7215997576713562
0.80263805389404297 0.14868111908435822 0.73049312829971313
0.97685921192169189 0.3527643084526062 0.74216717481613159
0.16795532405376434 0.26285204291343689 0.72319060564041138
0.33943778276443481 0.26963847875595093 0.72824519872665405
0.5781482458114624 0.28706651926040649 0.72709733247756958
0.80798447132110596 0.34034183621406555 0.73951810598373413
0.9736018180847168 0.48256233334541321 0.75772547721862793
0.021933387964963913 0.47614255547523499 0.73235774040222168
0.28319743275642395 0.48321408033370972 0.73215264081954956
0.5786973237991333 0.52920162677764893 0.74170291423797607
0.80686557292938232 0.58344650268554688 0.75376236438751221
0.9641803503036499 0.66260534524917603 0.76782679557800293
0.51731079816818237 0.80501341819763184 0.80011391639709473
0.58632814884185791 0.80501383543014526 0.80402892827987671
0.69338136911392212 0.80394232273101807 0.80226320028305054
0.81808024644851685 0.80690175294876099 0.78864133358001709
0.95720350742340088 0.80486500263214111 0.77260684967041016
0.81041419506072998 0.95705646276473999 0.88419723510742188
0.82081836462020874 0.95478552579879761 0.88270020484924316
0.85713058710098267 0.95714318752288818 0.88660824298858643
0.89827346801757812 0.95472162961959839 0.88070327043533325
0.96233385801315308 0.961314857006073 0.86350166797637939
0.49940711259841919 0.26268979907035828 0.92596888542175293
0.57212352752685547 0.27924498915672302 0.92269605398178101
0.70922857522964478 0.30587628483772278 0.92237389087677002
0.87271577119827271 0.38609635829925537 0.91920185089111328
0.98592907190322876 0.48628422617912292 0.91820979118347168
0.50655168294906616 0.38460668921470642 0.92419791221618652
0.57495510578155518 0.39058244228363037 0.92300397157669067
0.71215260028839111 0.41617289185523987 0.91933995485305786
0.86472690105438232 0.47559085488319397 0.91478210687637329
0.98470240831375122 0.56599539518356323 0.91809326410293579
0.44657114148139954 0.54710066318511963 0.92166531085968018
0.53699570894241333 0.563831627368927 0.91822141408920288
0.69539493322372437 0.59369665384292603 0.91775918006896973
0.85164666175842285 0.63536238670349121 0.91745001077651978
0.97487956285476685 0.69231349229812622 0.91759234666824341
0.48642593622207642 0.76715987920761108 0.92103791236877441
0.5262143611907959 0.76524990797042847 0.9222562313079834
0.63149750232696533 0.75591260194778442 0.92013585567474365
0.80886805057525635 0.78708457946777344 0.91905224323272705
0.95735377073287964 0.83399796485900879 0.92841893434524536
0.77714067697525024 0.9521443247795105 0.9500352144241333
0.79189211130142212 0.94893807172775269 0.94896799325942993
0.83663976192474365 0.94735682010650635 0.9459528923034668
0.89424556493759155 0.94492417573928833 0.94766378402709961
0.96155935525894165 0.9567607045173645 0.95329111814498901
