luts/negative_old/fuji_superia_400.cube
# Created by: G'MIC (https://gmic.eu)
TITLE "fuji_superia_400"
# LUT size
LUT_3D_SIZE 5
# Data domain
DOMAIN_MIN 0.0 0.0 0.0
DOMAIN_MAX 1.0 1.0 1.0
# LUT data points
0.013801784254610538 0.057690266519784927 0.05266234278678894
0.19556556642055511 0.067206330597400665 0.04987049475312233
0.53552311658859253 0.011894255876541138 0.02927081473171711
0.85903358459472656 0.0097243217751383781 0.0036237828899174929
1 0.20278628170490265 0
0.0068407994695007801 0.20795884728431702 0.092302702367305756
0.19413702189922333 0.26270422339439392 0.046074002981185913
0.58045727014541626 0.26223582029342651 0.0049588372930884361
0.85320907831192017 0.28397455811500549 0.0036900090053677559
0.9941365122795105 0.36033234000205994 0.0019422045443207026
0.0035902734380215406 0.49115917086601257 0.18923200666904449
0.14564499258995056 0.51409876346588135 0.18761023879051208
0.56164532899856567 0.62039762735366821 0.036012925207614899
0.86517626047134399 0.61717391014099121 0.0023786956444382668
0.99095278978347778 0.56832605600357056 0
0.25717341899871826 0.72723567485809326 0.40802988409996033
0.36127355694770813 0.7287939190864563 0.40605607628822327
0.53935724496841431 0.76348698139190674 0.39105245471000671
0.8143731951713562 0.82935160398483276 0.34007316827774048
0.99823671579360962 0.84171682596206665 0.19758431613445282
0.67927128076553345 0.91532576084136963 0.7075117826461792
0.70187145471572876 0.91576898097991943 0.71212834119796753
0.74788373708724976 0.91664481163024902 0.71874576807022095
0.83597856760025024 0.9405587911605835 0.71297860145568848
0.9448058009147644 0.95918381214141846 0.69525277614593506
0.012735015712678432 0.069947339594364166 0.20697267353534698
0.19118162989616394 0.082788415253162384 0.20566833019256592
0.54565304517745972 0.019814779981970787 0.22018365561962128
0.86303508281707764 0.027645006775856018 0.21331104636192322
0.99942445755004883 0.24673463404178619 0.22047661244869232
0.0080594383180141449 0.24044314026832581 0.23637355864048004
0.24402110278606415 0.27002617716789246 0.25426760315895081
0.59751492738723755 0.28157448768615723 0.2394830584526062
0.85936087369918823 0.30689361691474915 0.21032308042049408
0.99659383296966553 0.37439990043640137 0.19842913746833801
0.16393499076366425 0.54275119304656982 0.35889250040054321
0.29863244295120239 0.54512542486190796 0.36151847243309021
0.5855448842048645 0.61493241786956787 0.31853920221328735
0.85518801212310791 0.57599020004272461 0.17933793365955353
0.99844682216644287 0.56506597995758057 0.10546845197677612
0.38418281078338623 0.74430209398269653 0.50455558300018311
0.43947026133537292 0.74168229103088379 0.49975976347923279
0.58085626363754272 0.76062524318695068 0.5027395486831665
0.82449781894683838 0.82731455564498901 0.47756317257881165
0.99336922168731689 0.8340073823928833 0.40114495158195496
0.69600796699523926 0.9157986044883728 0.73506021499633789
0.71593815088272095 0.91541886329650879 0.73786181211471558
0.76207584142684937 0.91518259048461914 0.74419534206390381
0.84250187873840332 0.93389379978179932 0.73733240365982056
0.94947570562362671 0.95798850059509277 0.73540318012237549
0.0078173764050006866 0.086446173489093781 0.53697496652603149
0.24870926141738892 0.091824658215045929 0.53554022312164307
0.56351780891418457 0.11738954484462738 0.54022508859634399
0.826252281665802 0.16725021600723267 0.5350947380065918
0.99672830104827881 0.2739378809928894 0.53083115816116333
0.0073553645052015781 0.2561945915222168 0.56156772375106812
0.27322939038276672 0.28885984420776367 0.5784599781036377
0.5912049412727356 0.33733242750167847 0.56640470027923584
0.83693861961364746 0.37972962856292725 0.5584414005279541
0.99713128805160522 0.41866761445999146 0.54680472612380981
0.076488658785820007 0.57489001750946045 0.57521796226501465
0.34097912907600403 0.5796821117401123 0.58772462606430054
0.60446256399154663 0.60193419456481934 0.5995524525642395
0.83134889602661133 0.59998911619186401 0.56163626909255981
0.98997527360916138 0.62367558479309082 0.55522525310516357
0.51004087924957275 0.77261096239089966 0.66049486398696899
0.56812500953674316 0.77461862564086914 0.66199964284896851
0.64667344093322754 0.77283179759979248 0.6593472957611084
0.83102536201477051 0.82559585571289062 0.66596508026123047
0.98394238948822021 0.80164182186126709 0.59371137619018555
0.73619359731674194 0.92284286022186279 0.79101884365081787
0.74870926141738892 0.91618794202804565 0.78949534893035889
0.78816378116607666 0.92310816049575806 0.79465562105178833
0.85770541429519653 0.93534070253372192 0.80622190237045288
0.95123982429504395 0.95739889144897461 0.80564397573471069
0.18305715918540955 0.10704929381608963 0.79330146312713623
0.38780644536018372 0.12771180272102356 0.78923189640045166
0.63745176792144775 0.21209502220153809 0.78490638732910156
0.8369329571723938 0.34159013628959656 0.77831131219863892
0.98087495565414429 0.4471263587474823 0.77692604064941406
0.2111208438873291 0.29848513007164001 0.7991597056388855
0.40055277943611145 0.32397240400314331 0.79553449153900146
0.64695906639099121 0.39337724447250366 0.78685969114303589
0.83716696500778198 0.47267630696296692 0.78486043214797974
0.98016542196273804 0.54832440614700317 0.78575760126113892
0.0063520693220198154 0.53532916307449341 0.79013752937316895
0.28127944469451904 0.54404598474502563 0.79094666242599487
0.61672514677047729 0.59671139717102051 0.79050374031066895
0.82995295524597168 0.65343153476715088 0.78702628612518311
0.97716575860977173 0.69178682565689087 0.79769712686538696
0.4552992582321167 0.78320276737213135 0.79521054029464722
0.53410643339157104 0.7811967134475708 0.80259555578231812
0.67407393455505371 0.79045039415359497 0.80763888359069824
0.83333432674407959 0.81841945648193359 0.81580382585525513
0.97544205188751221 0.82001113891601562 0.79716092348098755
0.76854926347732544 0.93114078044891357 0.86556655168533325
0.78094828128814697 0.92819404602050781 0.86626535654067993
0.82787662744522095 0.93206620216369629 0.86924952268600464
0.87200284004211426 0.93294054269790649 0.87232917547225952
0.95463871955871582 0.95676320791244507 0.88203650712966919
0.52691197395324707 0.31664487719535828 0.96010684967041016
0.60360562801361084 0.34412962198257446 0.95548176765441895
0.74541616439819336 0.42970079183578491 0.95197409391403198
0.88244777917861938 0.56417226791381836 0.93799388408660889
0.9863477349281311 0.64610117673873901 0.93626177310943604
0.52615344524383545 0.44045564532279968 0.95616954565048218
0.60215753316879272 0.46305406093597412 0.9539412260055542
0.74309158325195312 0.5231667160987854 0.94715207815170288
0.87882930040359497 0.61994695663452148 0.93874454498291016
0.98300337791442871 0.69293105602264404 0.93620479106903076
0.43976780772209167 0.59090089797973633 0.95486432313919067
0.55642998218536377 0.61132580041885376 0.95251786708831787
0.72023344039916992 0.65688765048980713 0.94505679607391357
0.86419320106506348 0.7232709527015686 0.93626326322555542
0.9729277491569519 0.7736169695854187 0.93769216537475586
0.42995813488960266 0.77108997106552124 0.94692343473434448
0.49940747022628784 0.77250093221664429 0.94795191287994385
0.63628858327865601 0.77359753847122192 0.94678473472595215
0.83522683382034302 0.82378286123275757 0.94007200002670288
0.96423560380935669 0.86441957950592041 0.94128316640853882
0.74639177322387695 0.94213533401489258 0.94641584157943726
0.76305633783340454 0.94403678178787231 0.94706153869628906
0.8103141188621521 0.93693792819976807 0.94935315847396851
0.88010644912719727 0.94435501098632812 0.95376932621002197
0.9615294337272644 0.96023279428482056 0.95997518301010132
