luts/negative_old/fuji_superia_100.cube
# Created by: G'MIC (https://gmic.eu)
TITLE "fuji_superia_100"
# LUT size
LUT_3D_SIZE 7
# Data domain
DOMAIN_MIN 0.0 0.0 0.0
DOMAIN_MAX 1.0 1.0 1.0
# LUT data points
0.01356181688606739 0.037495363503694534 0.032819412648677826
0.11727946996688843 0.040763944387435913 0.030346469953656197
0.30239593982696533 0.060320865362882614 0.017630722373723984
0.52062273025512695 0.096442125737667084 0.0035879246424883604
0.69850718975067139 0.13863648474216461 0.0030034382361918688
0.84050095081329346 0.16898913681507111 0.0015852984506636858
0.96817034482955933 0.19848601520061493 0.00028955796733498573
0.0031496982555836439 0.17235414683818817 0.051552865654230118
0.090156733989715576 0.16965422034263611 0.028746601194143295
0.33750772476196289 0.2033039927482605 0.0091677950695157051
0.55214869976043701 0.23045563697814941 0.009339560754597187
0.71778279542922974 0.24614997208118439 0.0042001311667263508
0.8536989688873291 0.25563728809356689 0.010098086670041084
0.98308467864990234 0.28223612904548645 0.0031766854226589203
0.00039165720227174461 0.3980708122253418 0.10470928251743317
0.012696105055510998 0.40259918570518494 0.099670872092247009
0.32310563325881958 0.40174949169158936 0.054048486053943634
0.57417243719100952 0.41386649012565613 0.0084585603326559067
0.7354738712310791 0.40793773531913757 0.005806642584502697
0.87214410305023193 0.40592110157012939 0.0078431377187371254
0.98265969753265381 0.41148450970649719 0.0044513177126646042
1.4002182979311328e-05 0.61380249261856079 0.23509965837001801
0.0018579820170998573 0.61760014295578003 0.24233405292034149
0.22710469365119934 0.61440962553024292 0.21554656326770782
0.51679056882858276 0.59170025587081909 0.15388154983520508
0.71934407949447632 0.58518749475479126 0.061631999909877777
0.87757956981658936 0.57914143800735474 0.015346631407737732
0.99377095699310303 0.57536202669143677 0.005607216153293848
0.0016731860814616084 0.77441865205764771 0.38564154505729675
0.0054937326349318027 0.78077656030654907 0.39348772168159485
0.21099936962127686 0.7790452241897583 0.38879728317260742
0.46093341708183289 0.76221412420272827 0.35528764128684998
0.6609797477722168 0.74344098567962646 0.29356679320335388
0.85113918781280518 0.74086099863052368 0.22984567284584045
0.98359137773513794 0.74070060253143311 0.20986068248748779
0.2484612911939621 0.90781682729721069 0.55123215913772583
0.29689642786979675 0.90483999252319336 0.55281764268875122
0.38770511746406555 0.90199345350265503 0.55780303478240967
0.50638478994369507 0.90242379903793335 0.54586333036422729
0.64461737871170044 0.88772648572921753 0.51087462902069092
0.80458289384841919 0.87478029727935791 0.45887207984924316
0.96166032552719116 0.87963902950286865 0.42405742406845093
0.57402080297470093 0.98710542917251587 0.72330349683761597
0.58462727069854736 0.98470640182495117 0.72379773855209351
0.61684548854827881 0.98538351058959961 0.72786575555801392
0.66074508428573608 0.98591440916061401 0.73078840970993042
0.72570598125457764 0.98075932264328003 0.71600466966629028
0.81005877256393433 0.98045581579208374 0.69602233171463013
0.91430652141571045 0.97644031047821045 0.67058670520782471
0.010218481533229351 0.026792129501700401 0.16061165928840637
0.13038259744644165 0.023695254698395729 0.15807037055492401
0.32171785831451416 0.0094624990597367287 0.1477782279253006
0.53063374757766724 0.0089054182171821594 0.1325162947177887
0.70004290342330933 0.03716442734003067 0.11855724453926086
0.83829247951507568 0.1047046110033989 0.096130162477493286
0.97068458795547485 0.16279977560043335 0.079566791653633118
0.0033630221150815487 0.16963000595569611 0.17599053680896759
0.12943655252456665 0.17577698826789856 0.17564000189304352
0.35041674971580505 0.17870232462882996 0.15987758338451385
0.55413210391998291 0.18548448383808136 0.13923296332359314
0.71520739793777466 0.1999751478433609 0.12207158654928207
0.84943842887878418 0.23175837099552155 0.10538578778505325
0.97723579406738281 0.25784754753112793 0.092945665121078491
0.016346292570233345 0.39999240636825562 0.26137858629226685
0.079919345676898956 0.40471452474594116 0.24486625194549561
0.35430905222892761 0.40712079405784607 0.22158154845237732
0.57905620336532593 0.4047931432723999 0.16959752142429352
0.73367327451705933 0.39695426821708679 0.13438878953456879
0.86781066656112671 0.39579814672470093 0.11590325087308884
0.98717445135116577 0.40311342477798462 0.099305681884288788
0.019493537023663521 0.61321562528610229 0.35169088840484619
0.039678387343883514 0.61873865127563477 0.34104025363922119
0.30064228177070618 0.61208063364028931 0.33079978823661804
0.53662139177322388 0.59289693832397461 0.28364551067352295
0.71878516674041748 0.58310180902481079 0.2253199964761734
0.87525361776351929 0.57350832223892212 0.18215689063072205
0.98957329988479614 0.57194119691848755 0.16579189896583557
0.083030357956886292 0.77669775485992432 0.45564678311347961
0.1597588062286377 0.77887070178985596 0.45627835392951965
0.31453454494476318 0.77588599920272827 0.45610588788986206
0.49429938197135925 0.76479923725128174 0.4283885657787323
0.68003207445144653 0.74860769510269165 0.37475928664207458
0.85005885362625122 0.73815238475799561 0.32084947824478149
0.98545604944229126 0.7396237850189209 0.30159032344818115
0.34177294373512268 0.90149599313735962 0.58979052305221558
0.3697202205657959 0.89951932430267334 0.5883057713508606
0.4433102011680603 0.90379142761230469 0.59403353929519653
0.53765958547592163 0.89719897508621216 0.58875250816345215
0.66100460290908813 0.88959842920303345 0.55620461702346802
0.80780237913131714 0.87822240591049194 0.50395655632019043
0.96412777900695801 0.88139969110488892 0.47282996773719788
0.59887003898620605 0.98253083229064941 0.74075764417648315
0.61049026250839233 0.98348051309585571 0.741222083568573
0.6389082670211792 0.98448455333709717 0.74545401334762573
0.67993259429931641 0.98382472991943359 0.74896955490112305
0.74129277467727661 0.98183691501617432 0.7377970814704895
0.82063382863998413 0.97675973176956177 0.71750277280807495
0.92004156112670898 0.97635132074356079 0.69560319185256958
0.0029692854732275009 0.011972419917583466 0.38817313313484192
0.16710177063941956 0.010964307934045792 0.3904481828212738
0.36545929312705994 0.0088940784335136414 0.37701809406280518
0.55509680509567261 0.0028889225795865059 0.35361680388450623
0.71789020299911499 0.0034627728164196014 0.31900840997695923
0.84975683689117432 0.0034891464747488499 0.27634480595588684
0.97407197952270508 0.044081654399633408 0.26835274696350098
0.0047826282680034637 0.17529964447021484 0.39381307363510132
0.12299712002277374 0.17643113434314728 0.3952423632144928
0.37726044654846191 0.18038831651210785 0.39018219709396362
0.56959402561187744 0.17513640224933624 0.36049896478652954
0.72153246402740479 0.14430534839630127 0.31900706887245178
0.84811246395111084 0.14742563664913177 0.29574242234230042
0.97685134410858154 0.20448726415634155 0.28745535016059875
0.018187070265412331 0.40058892965316772 0.40964886546134949
0.18131127953529358 0.40466529130935669 0.41484332084655762
0.40233239531517029 0.40555378794670105 0.40856671333312988
0.57831263542175293 0.39615607261657715 0.38256034255027771
0.7240021824836731 0.37568235397338867 0.35031121969223022
0.85611444711685181 0.3739987313747406 0.32599556446075439
0.98277425765991211 0.38391783833503723 0.30909669399261475
0.26945802569389343 0.60491788387298584 0.49031385779380798
0.3473435640335083 0.60506123304367065 0.4921775758266449
0.4233262836933136 0.6037670373916626 0.4793207049369812
0.56641244888305664 0.59320318698883057 0.44009751081466675
0.72355687618255615 0.57939815521240234 0.40250220894813538
0.86931067705154419 0.56242549419403076 0.36671584844589233
0.98375332355499268 0.55873095989227295 0.35295480489730835
0.39681744575500488 0.76184135675430298 0.57803535461425781
0.41278532147407532 0.76345181465148926 0.57272332906723022
0.44551092386245728 0.76744246482849121 0.5576896071434021
0.54809725284576416 0.76141875982284546 0.54474103450775146
0.69299083948135376 0.74362194538116455 0.50446915626525879
0.84882515668869019 0.73470145463943481 0.45308449864387512
0.97957658767700195 0.73362374305725098 0.43813824653625488
0.50396847724914551 0.89237773418426514 0.67434138059616089
0.50656872987747192 0.89276033639907837 0.66524344682693481
0.53214949369430542 0.89552748203277588 0.65939372777938843
0.59713494777679443 0.89398676156997681 0.65951830148696899
0.69126957654953003 0.89053595066070557 0.63623726367950439
0.8257213830947876 0.87849706411361694 0.59251326322555542
0.96368151903152466 0.87998420000076294 0.5554039478302002
0.66143256425857544 0.98032468557357788 0.78347218036651611
0.66339576244354248 0.97842550277709961 0.77954399585723877
0.68318063020706177 0.98235893249511719 0.78271996974945068
0.71648359298706055 0.98140686750411987 0.7858390212059021
0.76773494482040405 0.97897160053253174 0.77889746427536011
0.83468830585479736 0.97923898696899414 0.7599339485168457
0.92464977502822876 0.97653967142105103 0.73489010334014893
0.0022780473809689283 0.0057085673324763775 0.60477173328399658
0.18541891872882843 0.0041852463036775589 0.60235214233398438
0.39742535352706909 0.012077166698873043 0.6051943302154541
0.59272491931915283 0.0074958503246307373 0.58986353874206543
0.7369723916053772 0.028324037790298462 0.53984934091567993
0.86480039358139038 0.11285111308097839 0.50013577938079834
0.98520183563232422 0.065412513911724091 0.46609801054000854
0.0043022455647587776 0.17235775291919708 0.60548919439315796
0.1423444002866745 0.17515175044536591 0.60877448320388794
0.40227451920509338 0.17746366560459137 0.60144710540771484
0.59467053413391113 0.18863774836063385 0.58729606866836548
0.74153292179107666 0.21896813809871674 0.54409945011138916
0.8617514967918396 0.2444608062505722 0.50264698266983032
0.98066192865371704 0.19515486061573029 0.46664696931838989
0.0033745409455150366 0.39666604995727539 0.60516691207885742
0.12089115381240845 0.39679256081581116 0.608836829662323
0.40255433320999146 0.40230187773704529 0.59616637229919434
0.58876395225524902 0.40730127692222595 0.5828443169593811
0.7267308235168457 0.41055664420127869 0.54843831062316895
0.85658782720565796 0.38459610939025879 0.5061877965927124
0.98000937700271606 0.35052973031997681 0.46907246112823486
0.20243191719055176 0.59801489114761353 0.6100037693977356
0.32221156358718872 0.59682595729827881 0.60881084203720093
0.45854994654655457 0.58879399299621582 0.60686987638473511
0.58453363180160522 0.58544576168060303 0.59155893325805664
0.71856439113616943 0.56569433212280273 0.55888909101486206
0.85462033748626709 0.54355746507644653 0.52430087327957153
0.98014384508132935 0.53985661268234253 0.50476866960525513
0.45490661263465881 0.75830161571502686 0.66423231363296509
0.49377363920211792 0.76038873195648193 0.66744840145111084
0.55290371179580688 0.75459164381027222 0.66551399230957031
0.61099910736083984 0.75499832630157471 0.65267056226730347
0.71916639804840088 0.74202507734298706 0.62395411729812622
0.85693168640136719 0.73732131719589233 0.58707118034362793
0.98151808977127075 0.72792559862136841 0.56215208768844604
0.60338932275772095 0.88898420333862305 0.75699669122695923
0.62064796686172485 0.8883826732635498 0.75233918428421021
0.6416550874710083 0.89172577857971191 0.74993443489074707
0.67209988832473755 0.89247781038284302 0.74237298965454102
0.73716872930526733 0.8911813497543335 0.72812473773956299
0.84015798568725586 0.88093984127044678 0.68658256530761719
0.96865105628967285 0.87699055671691895 0.64990651607513428
0.73653203248977661 0.97558152675628662 0.84053629636764526
0.73949766159057617 0.97787201404571533 0.83987390995025635
0.7442670464515686 0.9740186333656311 0.83182746171951294
0.75980460643768311 0.97585815191268921 0.82840454578399658
0.80261504650115967 0.97928464412689209 0.83293825387954712
0.85862404108047485 0.97725725173950195 0.81618821620941162
0.93658411502838135 0.97637653350830078 0.79239070415496826
0.0030818115919828415 0.0023754045832902193 0.77354663610458374
0.18589860200881958 0.0062259151600301266 0.77234822511672974
0.39143005013465881 0.0086460188031196594 0.76800030469894409
0.58085042238235474 0.011671986430883408 0.76082348823547363
0.75200784206390381 0.04968574270606041 0.74467927217483521
0.88698065280914307 0.15715952217578888 0.70349448919296265
0.98402631282806396 0.28535082936286926 0.6754002571105957
0.006292006466537714 0.17720293998718262 0.77276062965393066
0.17110952734947205 0.17870205640792847 0.77092337608337402
0.39903295040130615 0.1869775652885437 0.76305443048477173
0.58687043190002441 0.21401664614677429 0.75967055559158325
0.75289493799209595 0.2477433979511261 0.74607366323471069
0.8845716118812561 0.28945708274841309 0.71061182022094727
0.98287004232406616 0.3553803563117981 0.67902243137359619
0.0091366637498140335 0.38860172033309937 0.7655828595161438
0.20836250483989716 0.39584454894065857 0.76544040441513062
0.41166040301322937 0.39957514405250549 0.75194430351257324
0.59249502420425415 0.41919070482254028 0.74581354856491089
0.74383664131164551 0.4348817765712738 0.73757332563400269
0.87230950593948364 0.44726407527923584 0.70893311500549316
0.97660970687866211 0.45440793037414551 0.67515337467193604
0.13395644724369049 0.57719546556472778 0.75654280185699463
0.27272164821624756 0.57695060968399048 0.75515508651733398
0.4300154447555542 0.57843118906021118 0.75026088953018188
0.58929538726806641 0.5883142352104187 0.74252498149871826
0.73622751235961914 0.59256762266159058 0.73105144500732422
0.8596305251121521 0.58724290132522583 0.70170152187347412
0.97772401571273804 0.55648976564407349 0.66283565759658813
0.39608171582221985 0.75210690498352051 0.75599431991577148
0.43855234980583191 0.75311028957366943 0.7551531195640564
0.52520531415939331 0.75168538093566895 0.75565248727798462
0.62453609704971313 0.74429970979690552 0.75682950019836426
0.73038452863693237 0.73816323280334473 0.74108225107192993
0.85172277688980103 0.71777665615081787 0.70688891410827637
0.97650009393692017 0.69772922992706299 0.68022871017456055
0.60953307151794434 0.88961553573608398 0.8119850754737854
0.63425785303115845 0.88970905542373657 0.81461185216903687
0.67422282695770264 0.88798373937606812 0.81514960527420044
0.73074841499328613 0.88536953926086426 0.81747984886169434
0.7835201621055603 0.88728713989257812 0.81114619970321655
0.86130475997924805 0.87759733200073242 0.78357619047164917
0.97093057632446289 0.8695605993270874 0.75160372257232666
0.76321196556091309 0.97154974937438965 0.88444137573242188
0.78122246265411377 0.97582417726516724 0.88689309358596802
0.8017457127571106 0.97472649812698364 0.88905829191207886
0.82866662740707397 0.97703588008880615 0.89091354608535767
0.84654790163040161 0.97315371036529541 0.88497465848922729
0.88631534576416016 0.9758116602897644 0.8744170069694519
0.95192509889602661 0.97928667068481445 0.85449987649917603
0.020610345527529716 0.0041618198156356812 0.90857630968093872
0.21071347594261169 0.0087171662598848343 0.90597045421600342
0.39176911115646362 0.011916561052203178 0.90387487411499023
0.56671130657196045 0.054558325558900833 0.89384013414382935
0.73177284002304077 0.1561114490032196 0.88613557815551758
0.88976478576660156 0.23172017931938171 0.88043320178985596
0.9948468804359436 0.30712828040122986 0.85469573736190796
0.029577666893601418 0.18987613916397095 0.90830737352371216
0.22116526961326599 0.19357267022132874 0.90344977378845215
0.40863415598869324 0.2088744193315506 0.8985522985458374
0.57499212026596069 0.24763181805610657 0.89307016134262085
0.73626840114593506 0.3004700243473053 0.88637238740921021
0.88700646162033081 0.33683741092681885 0.87388479709625244
0.9939340353012085 0.38312026858329773 0.85361015796661377
0.152724489569664 0.39612951874732971 0.90018683671951294
0.27328145503997803 0.40374025702476501 0.89688539505004883
0.43591678142547607 0.41160115599632263 0.89117640256881714
0.59168440103530884 0.42694661021232605 0.88650882244110107
0.74390029907226562 0.45635390281677246 0.88364911079406738
0.88516348600387573 0.47667595744132996 0.87258440256118774
0.98746985197067261 0.4989180862903595 0.84887325763702393
0.18574146926403046 0.561257004737854 0.88696050643920898
0.30351147055625916 0.57026177644729614 0.88735193014144897
0.44185641407966614 0.57653743028640747 0.88105243444442749
0.59117710590362549 0.58652025461196899 0.87890332937240601
0.73930263519287109 0.60162264108657837 0.87569105625152588
0.87619978189468384 0.61603474617004395 0.86753803491592407
0.98423463106155396 0.6249423623085022 0.84725677967071533
0.34071657061576843 0.73349249362945557 0.8812021017074585
0.39333784580230713 0.73861223459243774 0.88332855701446533
0.48622897267341614 0.73455417156219482 0.87801814079284668
0.60117053985595703 0.73496419191360474 0.87666773796081543
0.73785042762756348 0.74188435077667236 0.8697669506072998
0.86823618412017822 0.75224250555038452 0.86538201570510864
0.97437238693237305 0.75031042098999023 0.8439631462097168
0.54652327299118042 0.88487523794174194 0.88636881113052368
0.57435327768325806 0.88434004783630371 0.88601809740066528
0.63255405426025391 0.88361942768096924 0.89010989665985107
0.70506232976913452 0.88371372222900391 0.88647770881652832
0.795612633228302 0.88077801465988159 0.89149373769760132
0.87460076808929443 0.88238614797592163 0.88581472635269165
0.97236806154251099 0.86024314165115356 0.85307055711746216
0.76970821619033813 0.97551834583282471 0.92151427268981934
0.78742867708206177 0.97711402177810669 0.92423379421234131
0.81207782030105591 0.97736471891403198 0.92737823724746704
0.84260112047195435 0.97341042757034302 0.93005037307739258
0.88595467805862427 0.97498410940170288 0.93628925085067749
0.91711008548736572 0.97795742750167847 0.93465864658355713
0.96656280755996704 0.97881233692169189 0.91924488544464111
0.1373552531003952 0.057964697480201721 0.99497663974761963
0.24802990257740021 0.077296100556850433 0.99334979057312012
0.3967742919921875 0.11716429889202118 0.99066632986068726
0.55326902866363525 0.17193761467933655 0.99121546745300293
0.71039789915084839 0.25238046050071716 0.98852604627609253
0.85929352045059204 0.3379458487033844 0.98112469911575317
0.98632502555847168 0.39856448769569397 0.9808272123336792
0.16957150399684906 0.22598394751548767 0.99256002902984619
0.26925629377365112 0.231772780418396 0.99087142944335938
0.41554504632949829 0.25792321562767029 0.98840200901031494
0.56654506921768188 0.28593248128890991 0.98752379417419434
0.71862590312957764 0.34545251727104187 0.98553669452667236
0.85994535684585571 0.40270259976387024 0.97780603170394897
0.98335850238800049 0.45619195699691772 0.97974014282226562
0.26402008533477783 0.41059049963951111 0.99032175540924072
0.33340921998023987 0.41478368639945984 0.99007105827331543
0.45586243271827698 0.42671230435371399 0.98277091979980469
0.58954298496246338 0.44814133644104004 0.98476076126098633
0.73213356733322144 0.47692948579788208 0.97732430696487427
0.86374902725219727 0.52090632915496826 0.9779321551322937
0.98130756616592407 0.55465126037597656 0.9770047664642334
0.32025265693664551 0.56842082738876343 0.98691117763519287
0.38146227598190308 0.57602870464324951 0.98368513584136963
0.48248693346977234 0.58212745189666748 0.97729706764221191
0.60326933860778809 0.592751145362854 0.97569096088409424
0.73819345235824585 0.61368340253829956 0.97402346134185791
0.86093276739120483 0.64465749263763428 0.97616076469421387
0.97902202606201172 0.66971051692962646 0.97491413354873657
0.33373796939849854 0.70672428607940674 0.98399263620376587
0.38354426622390747 0.70992791652679443 0.98461788892745972
0.48459047079086304 0.71677124500274658 0.98012959957122803
0.61349493265151978 0.73031044006347656 0.97613710165023804
0.74466985464096069 0.74549835920333862 0.97538328170776367
0.86416840553283691 0.76917535066604614 0.97551339864730835
0.97542208433151245 0.78610110282897949 0.97315096855163574
0.54119968414306641 0.86436259746551514 0.97592335939407349
0.56424832344055176 0.86737412214279175 0.97724312543869019
0.61334705352783203 0.86947840452194214 0.97551637887954712
0.67996269464492798 0.86317932605743408 0.97602611780166626
0.76843523979187012 0.87077534198760986 0.97822368144989014
0.87417280673980713 0.88140767812728882 0.97164642810821533
0.97133535146713257 0.89446043968200684 0.97280043363571167
0.74388968944549561 0.97077679634094238 0.96514928340911865
0.74957412481307983 0.97466731071472168 0.97624701261520386
0.77818781137466431 0.97418993711471558 0.97962892055511475
0.81890809535980225 0.97387266159057617 0.982147216796875
0.87174743413925171 0.97328245639801025 0.9832451343536377
0.92346233129501343 0.97616750001907349 0.98490828275680542
0.97964596748352051 0.97812151908874512 0.98120021820068359
