luts/negative_old/fuji_neopan_1600.cube
# Created by: G'MIC (https://gmic.eu)
TITLE "fuji_neopan_1600"
# LUT size
LUT_3D_SIZE 7
# Data domain
DOMAIN_MIN 0.0 0.0 0.0
DOMAIN_MAX 1.0 1.0 1.0
# LUT data points
0.033827207982540131 0.033827207982540131 0.033827207982540131
0.02962767705321312 0.02962767705321312 0.02962767705321312
0.044582486152648926 0.044582486152648926 0.044582486152648926
0.085489757359027863 0.085489757359027863 0.085489757359027863
0.1614096611738205 0.1614096611738205 0.1614096611738205
0.26382747292518616 0.26382747292518616 0.26382747292518616
0.41378232836723328 0.41378232836723328 0.41378232836723328
0.045538224279880524 0.045538224279880524 0.045538224279880524
0.063069470226764679 0.063069470226764679 0.063069470226764679
0.099660597741603851 0.099660597741603851 0.099660597741603851
0.16009345650672913 0.16009345650672913 0.16009345650672913
0.23971237242221832 0.23971237242221832 0.23971237242221832
0.32420527935028076 0.32420527935028076 0.32420527935028076
0.46553876996040344 0.46553876996040344 0.46553876996040344
0.11198598891496658 0.11198598891496658 0.11198598891496658
0.13920323550701141 0.13920323550701141 0.13920323550701141
0.18769459426403046 0.18769459426403046 0.18769459426403046
0.26698705554008484 0.26698705554008484 0.26698705554008484
0.36366209387779236 0.36366209387779236 0.36366209387779236
0.45239400863647461 0.45239400863647461 0.45239400863647461
0.58167481422424316 0.58167481422424316 0.58167481422424316
0.23611670732498169 0.23611670732498169 0.23611670732498169
0.25992587208747864 0.25992587208747864 0.25992587208747864
0.2970583438873291 0.2970583438873291 0.2970583438873291
0.36262980103492737 0.36262980103492737 0.36262980103492737
0.46486812829971313 0.46486812829971313 0.46486812829971313
0.58524936437606812 0.58524936437606812 0.58524936437606812
0.72067224979400635 0.72067224979400635 0.72067224979400635
0.41486081480979919 0.41486081480979919 0.41486081480979919
0.43338495492935181 0.43338495492935181 0.43338495492935181
0.45351237058639526 0.45351237058639526 0.45351237058639526
0.50225293636322021 0.50225293636322021 0.50225293636322021
0.58805465698242188 0.58805465698242188 0.58805465698242188
0.69820421934127808 0.69820421934127808 0.69820421934127808
0.8174901008605957 0.8174901008605957 0.8174901008605957
0.66251611709594727 0.66251611709594727 0.66251611709594727
0.66114938259124756 0.66114938259124756 0.66114938259124756
0.66549801826477051 0.66549801826477051 0.66549801826477051
0.7009274959564209 0.7009274959564209 0.7009274959564209
0.75510203838348389 0.75510203838348389 0.75510203838348389
0.81630432605743408 0.81630432605743408 0.81630432605743408
0.88830316066741943 0.88830316066741943 0.88830316066741943
0.87634378671646118 0.87634378671646118 0.87634378671646118
0.87560874223709106 0.87560874223709106 0.87560874223709106
0.87591105699539185 0.87591105699539185 0.87591105699539185
0.89708173274993896 0.89708173274993896 0.89708173274993896
0.92475318908691406 0.92475318908691406 0.92475318908691406
0.94422447681427002 0.94422447681427002 0.94422447681427002
0.96839296817779541 0.96839296817779541 0.96839296817779541
0.024815997108817101 0.024815997108817101 0.024815997108817101
0.036106392741203308 0.036106392741203308 0.036106392741203308
0.06146201491355896 0.06146201491355896 0.06146201491355896
0.10858010500669479 0.10858010500669479 0.10858010500669479
0.1838156133890152 0.1838156133890152 0.1838156133890152
0.27349022030830383 0.27349022030830383 0.27349022030830383
0.40640038251876831 0.40640038251876831 0.40640038251876831
0.054239489138126373 0.054239489138126373 0.054239489138126373
0.082075648009777069 0.082075648009777069 0.082075648009777069
0.12549674510955811 0.12549674510955811 0.12549674510955811
0.17922326922416687 0.17922326922416687 0.17922326922416687
0.25090858340263367 0.25090858340263367 0.25090858340263367
0.33578953146934509 0.33578953146934509 0.33578953146934509
0.47560611367225647 0.47560611367225647 0.47560611367225647
0.14753840863704681 0.14753840863704681 0.14753840863704681
0.17548744380474091 0.17548744380474091 0.17548744380474091
0.22058595716953278 0.22058595716953278 0.22058595716953278
0.287119060754776 0.287119060754776 0.287119060754776
0.37283176183700562 0.37283176183700562 0.37283176183700562
0.46255925297737122 0.46255925297737122 0.46255925297737122
0.58798044919967651 0.58798044919967651 0.58798044919967651
0.2931416928768158 0.2931416928768158 0.2931416928768158
0.30837604403495789 0.30837604403495789 0.30837604403495789
0.33076697587966919 0.33076697587966919 0.33076697587966919
0.39300605654716492 0.39300605654716492 0.39300605654716492
0.49566644430160522 0.49566644430160522 0.49566644430160522
0.60998225212097168 0.60998225212097168 0.60998225212097168
0.73369795083999634 0.73369795083999634 0.73369795083999634
0.44991156458854675 0.44991156458854675 0.44991156458854675
0.47014397382736206 0.47014397382736206 0.47014397382736206
0.47309896349906921 0.47309896349906921 0.47309896349906921
0.52804934978485107 0.52804934978485107 0.52804934978485107
0.61329394578933716 0.61329394578933716 0.61329394578933716
0.70880722999572754 0.70880722999572754 0.70880722999572754
0.82736504077911377 0.82736504077911377 0.82736504077911377
0.67221957445144653 0.67221957445144653 0.67221957445144653
0.67752522230148315 0.67752522230148315 0.67752522230148315
0.68128746747970581 0.68128746747970581 0.68128746747970581
0.71960842609405518 0.71960842609405518 0.71960842609405518
0.76542085409164429 0.76542085409164429 0.76542085409164429
0.81562423706054688 0.81562423706054688 0.81562423706054688
0.89342302083969116 0.89342302083969116 0.89342302083969116
0.87859869003295898 0.87859869003295898 0.87859869003295898
0.88042169809341431 0.88042169809341431 0.88042169809341431
0.88377243280410767 0.88377243280410767 0.88377243280410767
0.90295672416687012 0.90295672416687012 0.90295672416687012
0.92842668294906616 0.92842668294906616 0.92842668294906616
0.95289486646652222 0.95289486646652222 0.95289486646652222
0.97628974914550781 0.97628974914550781 0.97628974914550781
0.048697616904973984 0.048697616904973984 0.048697616904973984
0.074756085872650146 0.074756085872650146 0.074756085872650146
0.1166241243481636 0.1166241243481636 0.1166241243481636
0.159319207072258 0.159319207072258 0.159319207072258
0.23405304551124573 0.23405304551124573 0.23405304551124573
0.31773176789283752 0.31773176789283752 0.31773176789283752
0.43059954047203064 0.43059954047203064 0.43059954047203064
0.085401915013790131 0.085401915013790131 0.085401915013790131
0.1299009770154953 0.1299009770154953 0.1299009770154953
0.19565178453922272 0.19565178453922272 0.19565178453922272
0.23015511035919189 0.23015511035919189 0.23015511035919189
0.28631153702735901 0.28631153702735901 0.28631153702735901
0.37562116980552673 0.37562116980552673 0.37562116980552673
0.49564307928085327 0.49564307928085327 0.49564307928085327
0.1838107705116272 0.1838107705116272 0.1838107705116272
0.22240203619003296 0.22240203619003296 0.22240203619003296
0.28375256061553955 0.28375256061553955 0.28375256061553955
0.33752286434173584 0.33752286434173584 0.33752286434173584
0.40506082773208618 0.40506082773208618 0.40506082773208618
0.49657437205314636 0.49657437205314636 0.49657437205314636
0.61027342081069946 0.61027342081069946 0.61027342081069946
0.35279804468154907 0.35279804468154907 0.35279804468154907
0.37146490812301636 0.37146490812301636 0.37146490812301636
0.40290862321853638 0.40290862321853638 0.40290862321853638
0.44969379901885986 0.44969379901885986 0.44969379901885986
0.54369807243347168 0.54369807243347168 0.54369807243347168
0.65033453702926636 0.65033453702926636 0.65033453702926636
0.73790407180786133 0.73790407180786133 0.73790407180786133
0.53847932815551758 0.53847932815551758 0.53847932815551758
0.54695999622344971 0.54695999622344971 0.54695999622344971
0.55380803346633911 0.55380803346633911 0.55380803346633911
0.57285970449447632 0.57285970449447632 0.57285970449447632
0.65047919750213623 0.65047919750213623 0.65047919750213623
0.73816722631454468 0.73816722631454468 0.73816722631454468
0.83676183223724365 0.83676183223724365 0.83676183223724365
0.71836698055267334 0.71836698055267334 0.71836698055267334
0.72193723917007446 0.72193723917007446 0.72193723917007446
0.72700220346450806 0.72700220346450806 0.72700220346450806
0.74450892210006714 0.74450892210006714 0.74450892210006714
0.77606934309005737 0.77606934309005737 0.77606934309005737
0.8255196213722229 0.8255196213722229 0.8255196213722229
0.90428155660629272 0.90428155660629272 0.90428155660629272
0.89046961069107056 0.89046961069107056 0.89046961069107056
0.89279627799987793 0.89279627799987793 0.89279627799987793
0.89976584911346436 0.89976584911346436 0.89976584911346436
0.9096447229385376 0.9096447229385376 0.9096447229385376
0.92200404405593872 0.92200404405593872 0.92200404405593872
0.94318586587905884 0.94318586587905884 0.94318586587905884
0.97590619325637817 0.97590619325637817 0.97590619325637817
0.12108074873685837 0.12108074873685837 0.12108074873685837
0.14833511412143707 0.14833511412143707 0.14833511412143707
0.22615158557891846 0.22615158557891846 0.22615158557891846
0.28704896569252014 0.28704896569252014 0.28704896569252014
0.29423555731773376 0.29423555731773376 0.29423555731773376
0.39180177450180054 0.39180177450180054 0.39180177450180054
0.52457970380783081 0.52457970380783081 0.52457970380783081
0.182255819439888 0.182255819439888 0.182255819439888
0.21086549758911133 0.21086549758911133 0.21086549758911133
0.28536778688430786 0.28536778688430786 0.28536778688430786
0.33579739928245544 0.33579739928245544 0.33579739928245544
0.34305799007415771 0.34305799007415771 0.34305799007415771
0.44637316465377808 0.44637316465377808 0.44637316465377808
0.56441754102706909 0.56441754102706909 0.56441754102706909
0.23852632939815521 0.23852632939815521 0.23852632939815521
0.2771952748298645 0.2771952748298645 0.2771952748298645
0.35847294330596924 0.35847294330596924 0.35847294330596924
0.41903731226921082 0.41903731226921082 0.41903731226921082
0.45021092891693115 0.45021092891693115 0.45021092891693115
0.53558588027954102 0.53558588027954102 0.53558588027954102
0.63731580972671509 0.63731580972671509 0.63731580972671509
0.35263550281524658 0.35263550281524658 0.35263550281524658
0.39346697926521301 0.39346697926521301 0.39346697926521301
0.46141216158866882 0.46141216158866882 0.46141216158866882
0.52091169357299805 0.52091169357299805 0.52091169357299805
0.58029454946517944 0.58029454946517944 0.58029454946517944
0.65587961673736572 0.65587961673736572 0.65587961673736572
0.73272252082824707 0.73272252082824707 0.73272252082824707
0.55370223522186279 0.55370223522186279 0.55370223522186279
0.57815402746200562 0.57815402746200562 0.57815402746200562
0.62720882892608643 0.62720882892608643 0.62720882892608643
0.65505838394165039 0.65505838394165039 0.65505838394165039
0.69579398632049561 0.69579398632049561 0.69579398632049561
0.76651501655578613 0.76651501655578613 0.76651501655578613
0.8511238694190979 0.8511238694190979 0.8511238694190979
0.74089211225509644 0.74089211225509644 0.74089211225509644
0.75490796566009521 0.75490796566009521 0.75490796566009521
0.77920353412628174 0.77920353412628174 0.77920353412628174
0.79091447591781616 0.79091447591781616 0.79091447591781616
0.8007093071937561 0.8007093071937561 0.8007093071937561
0.85528552532196045 0.85528552532196045 0.85528552532196045
0.92528724670410156 0.92528724670410156 0.92528724670410156
0.90583795309066772 0.90583795309066772 0.90583795309066772
0.91446602344512939 0.91446602344512939 0.91446602344512939
0.92543655633926392 0.92543655633926392 0.92543655633926392
0.92876756191253662 0.92876756191253662 0.92876756191253662
0.92857974767684937 0.92857974767684937 0.92857974767684937
0.94790160655975342 0.94790160655975342 0.94790160655975342
0.97870939970016479 0.97870939970016479 0.97870939970016479
0.24001780152320862 0.24001780152320862 0.24001780152320862
0.27581757307052612 0.27581757307052612 0.27581757307052612
0.34670189023017883 0.34670189023017883 0.34670189023017883
0.4223150908946991 0.4223150908946991 0.4223150908946991
0.46087419986724854 0.46087419986724854 0.46087419986724854
0.47579219937324524 0.47579219937324524 0.47579219937324524
0.62363529205322266 0.62363529205322266 0.62363529205322266
0.31000089645385742 0.31000089645385742 0.31000089645385742
0.3369617760181427 0.3369617760181427 0.3369617760181427
0.38825330138206482 0.38825330138206482 0.38825330138206482
0.48264023661613464 0.48264023661613464 0.48264023661613464
0.51071453094482422 0.51071453094482422 0.51071453094482422
0.51881951093673706 0.51881951093673706 0.51881951093673706
0.65802681446075439 0.65802681446075439 0.65802681446075439
0.35495269298553467 0.35495269298553467 0.35495269298553467
0.40261101722717285 0.40261101722717285 0.40261101722717285
0.46466827392578125 0.46466827392578125 0.46466827392578125
0.5422859787940979 0.5422859787940979 0.5422859787940979
0.58325076103210449 0.58325076103210449 0.58325076103210449
0.61100590229034424 0.61100590229034424 0.61100590229034424
0.71127033233642578 0.71127033233642578 0.71127033233642578
0.39208272099494934 0.39208272099494934 0.39208272099494934
0.43170389533042908 0.43170389533042908 0.43170389533042908
0.50931084156036377 0.50931084156036377 0.50931084156036377
0.60474711656570435 0.60474711656570435 0.60474711656570435
0.67374914884567261 0.67374914884567261 0.67374914884567261
0.70536744594573975 0.70536744594573975 0.70536744594573975
0.76127749681472778 0.76127749681472778 0.76127749681472778
0.55534106492996216 0.55534106492996216 0.55534106492996216
0.57342022657394409 0.57342022657394409 0.57342022657394409
0.6264680027961731 0.6264680027961731 0.6264680027961731
0.69896888732910156 0.69896888732910156 0.69896888732910156
0.75247830152511597 0.75247830152511597 0.75247830152511597
0.80136609077453613 0.80136609077453613 0.80136609077453613
0.85831171274185181 0.85831171274185181 0.85831171274185181
0.73967403173446655 0.73967403173446655 0.73967403173446655
0.75444179773330688 0.75444179773330688 0.75444179773330688
0.79253041744232178 0.79253041744232178 0.79253041744232178
0.83217102289199829 0.83217102289199829 0.83217102289199829
0.85036629438400269 0.85036629438400269 0.85036629438400269
0.89143049716949463 0.89143049716949463 0.89143049716949463
0.94400644302368164 0.94400644302368164 0.94400644302368164
0.91562682390213013 0.91562682390213013 0.91562682390213013
0.92760246992111206 0.92760246992111206 0.92760246992111206
0.9430573582649231 0.9430573582649231 0.9430573582649231
0.95455712080001831 0.95455712080001831 0.95455712080001831
0.95780044794082642 0.95780044794082642 0.95780044794082642
0.97173064947128296 0.97173064947128296 0.97173064947128296
0.99370843172073364 0.99370843172073364 0.99370843172073364
0.43943053483963013 0.43943053483963013 0.43943053483963013
0.47667279839515686 0.47667279839515686 0.47667279839515686
0.52402448654174805 0.52402448654174805 0.52402448654174805
0.5956229567527771 0.5956229567527771 0.5956229567527771
0.69757050275802612 0.69757050275802612 0.69757050275802612
0.69194203615188599 0.69194203615188599 0.69194203615188599
0.70532256364822388 0.70532256364822388 0.70532256364822388
0.47657689452171326 0.47657689452171326 0.47657689452171326
0.52028149366378784 0.52028149366378784 0.52028149366378784
0.55183976888656616 0.55183976888656616 0.55183976888656616
0.61932492256164551 0.61932492256164551 0.61932492256164551
0.71768593788146973 0.71768593788146973 0.71768593788146973
0.71860039234161377 0.71860039234161377 0.71860039234161377
0.72913092374801636 0.72913092374801636 0.72913092374801636
0.54460328817367554 0.54460328817367554 0.54460328817367554
0.58725082874298096 0.58725082874298096 0.58725082874298096
0.61720442771911621 0.61720442771911621 0.61720442771911621
0.67241621017456055 0.67241621017456055 0.67241621017456055
0.74968695640563965 0.74968695640563965 0.74968695640563965
0.75626730918884277 0.75626730918884277 0.75626730918884277
0.78433942794799805 0.78433942794799805 0.78433942794799805
0.53905034065246582 0.53905034065246582 0.53905034065246582
0.59003657102584839 0.59003657102584839 0.59003657102584839
0.64615315198898315 0.64615315198898315 0.64615315198898315
0.72132116556167603 0.72132116556167603 0.72132116556167603
0.78515088558197021 0.78515088558197021 0.78515088558197021
0.80278497934341431 0.80278497934341431 0.80278497934341431
0.81972521543502808 0.81972521543502808 0.81972521543502808
0.62535673379898071 0.62535673379898071 0.62535673379898071
0.63433670997619629 0.63433670997619629 0.63433670997619629
0.67513680458068848 0.67513680458068848 0.67513680458068848
0.75273376703262329 0.75273376703262329 0.75273376703262329
0.81048125028610229 0.81048125028610229 0.81048125028610229
0.85868233442306519 0.85868233442306519 0.85868233442306519
0.89141064882278442 0.89141064882278442 0.89141064882278442
0.75699329376220703 0.75699329376220703 0.75699329376220703
0.76289850473403931 0.76289850473403931 0.76289850473403931
0.79507529735565186 0.79507529735565186 0.79507529735565186
0.83806437253952026 0.83806437253952026 0.83806437253952026
0.8775864839553833 0.8775864839553833 0.8775864839553833
0.92465639114379883 0.92465639114379883 0.92465639114379883
0.95616710186004639 0.95616710186004639 0.95616710186004639
0.92343270778656006 0.92343270778656006 0.92343270778656006
0.93264251947402954 0.93264251947402954 0.93264251947402954
0.94331294298171997 0.94331294298171997 0.94331294298171997
0.95628136396408081 0.95628136396408081 0.95628136396408081
0.97402894496917725 0.97402894496917725 0.97402894496917725
0.98948031663894653 0.98948031663894653 0.98948031663894653
0.99433761835098267 0.99433761835098267 0.99433761835098267
0.70779561996459961 0.70779561996459961 0.70779561996459961
0.72681820392608643 0.72681820392608643 0.72681820392608643
0.75395458936691284 0.75395458936691284 0.75395458936691284
0.79285311698913574 0.79285311698913574 0.79285311698913574
0.84482109546661377 0.84482109546661377 0.84482109546661377
0.88035875558853149 0.88035875558853149 0.88035875558853149
0.88687056303024292 0.88687056303024292 0.88687056303024292
0.72309809923171997 0.72309809923171997 0.72309809923171997
0.75334829092025757 0.75334829092025757 0.75334829092025757
0.77257072925567627 0.77257072925567627 0.77257072925567627
0.79722177982330322 0.79722177982330322 0.79722177982330322
0.84487301111221313 0.84487301111221313 0.84487301111221313
0.89574277400970459 0.89574277400970459 0.89574277400970459
0.89804881811141968 0.89804881811141968 0.89804881811141968
0.76031738519668579 0.76031738519668579 0.76031738519668579
0.79253745079040527 0.79253745079040527 0.79253745079040527
0.8088715672492981 0.8088715672492981 0.8088715672492981
0.8336833119392395 0.8336833119392395 0.8336833119392395
0.87323570251464844 0.87323570251464844 0.87323570251464844
0.89635968208312988 0.89635968208312988 0.89635968208312988
0.90197741985321045 0.90197741985321045 0.90197741985321045
0.76427435874938965 0.76427435874938965 0.76427435874938965
0.78955715894699097 0.78955715894699097 0.78955715894699097
0.82130932807922363 0.82130932807922363 0.82130932807922363
0.8596232533454895 0.8596232533454895 0.8596232533454895
0.89138311147689819 0.89138311147689819 0.89138311147689819
0.9095604419708252 0.9095604419708252 0.9095604419708252
0.91496872901916504 0.91496872901916504 0.91496872901916504
0.73497039079666138 0.73497039079666138 0.73497039079666138
0.76236891746520996 0.76236891746520996 0.76236891746520996
0.78776723146438599 0.78776723146438599 0.78776723146438599
0.85061424970626831 0.85061424970626831 0.85061424970626831
0.89103776216506958 0.89103776216506958 0.89103776216506958
0.93932878971099854 0.93932878971099854 0.93932878971099854
0.9582514762878418 0.9582514762878418 0.9582514762878418
0.83472055196762085 0.83472055196762085 0.83472055196762085
0.82982921600341797 0.82982921600341797 0.82982921600341797
0.843758225440979 0.843758225440979 0.843758225440979
0.87845122814178467 0.87845122814178467 0.87845122814178467
0.9164588451385498 0.9164588451385498 0.9164588451385498
0.96200281381607056 0.96200281381607056 0.96200281381607056
0.98051828145980835 0.98051828145980835 0.98051828145980835
0.9385296106338501 0.9385296106338501 0.9385296106338501
0.94647186994552612 0.94647186994552612 0.94647186994552612
0.95513397455215454 0.95513397455215454 0.95513397455215454
0.96785145998001099 0.96785145998001099 0.96785145998001099
0.98486810922622681 0.98486810922622681 0.98486810922622681
0.99415826797485352 0.99415826797485352 0.99415826797485352
0.99044996500015259 0.99044996500015259 0.99044996500015259
