luts/negative_old/fuji_neopan_1600_++.cube
# Created by: G'MIC (https://gmic.eu)
TITLE "fuji_neopan_1600_++"
# LUT size
LUT_3D_SIZE 5
# Data domain
DOMAIN_MIN 0.0 0.0 0.0
DOMAIN_MAX 1.0 1.0 1.0
# LUT data points
0.14551128447055817 0.14551128447055817 0.14551128447055817
0.15270768105983734 0.15270768105983734 0.15270768105983734
0.1867794394493103 0.1867794394493103 0.1867794394493103
0.26322108507156372 0.26322108507156372 0.26322108507156372
0.44408252835273743 0.44408252835273743 0.44408252835273743
0.17570914328098297 0.17570914328098297 0.17570914328098297
0.19784937798976898 0.19784937798976898 0.19784937798976898
0.27170097827911377 0.27170097827911377 0.27170097827911377
0.36831185221672058 0.36831185221672058 0.36831185221672058
0.5462958812713623 0.5462958812713623 0.5462958812713623
0.27979478240013123 0.27979478240013123 0.27979478240013123
0.30100026726722717 0.30100026726722717 0.30100026726722717
0.38343626260757446 0.38343626260757446 0.38343626260757446
0.56286454200744629 0.56286454200744629 0.56286454200744629
0.75285965204238892 0.75285965204238892 0.75285965204238892
0.55482512712478638 0.55482512712478638 0.55482512712478638
0.55995732545852661 0.55995732545852661 0.55995732545852661
0.60314548015594482 0.60314548015594482 0.60314548015594482
0.71403032541275024 0.71403032541275024 0.71403032541275024
0.85395556688308716 0.85395556688308716 0.85395556688308716
0.89281117916107178 0.89281117916107178 0.89281117916107178
0.89571946859359741 0.89571946859359741 0.89571946859359741
0.90321272611618042 0.90321272611618042 0.90321272611618042
0.92762523889541626 0.92762523889541626 0.92762523889541626
0.96662622690200806 0.96662622690200806 0.96662622690200806
0.15521658957004547 0.15521658957004547 0.15521658957004547
0.17823901772499084 0.17823901772499084 0.17823901772499084
0.20223721861839294 0.20223721861839294 0.20223721861839294
0.26962766051292419 0.26962766051292419 0.26962766051292419
0.44534400105476379 0.44534400105476379 0.44534400105476379
0.20449215173721313 0.20449215173721313 0.20449215173721313
0.231201171875 0.231201171875 0.231201171875
0.29320383071899414 0.29320383071899414 0.29320383071899414
0.38937059044837952 0.38937059044837952 0.38937059044837952
0.57492101192474365 0.57492101192474365 0.57492101192474365
0.35081949830055237 0.35081949830055237 0.35081949830055237
0.37796366214752197 0.37796366214752197 0.37796366214752197
0.44448953866958618 0.44448953866958618 0.44448953866958618
0.60358661413192749 0.60358661413192749 0.60358661413192749
0.77069187164306641 0.77069187164306641 0.77069187164306641
0.60446697473526001 0.60446697473526001 0.60446697473526001
0.62723439931869507 0.62723439931869507 0.62723439931869507
0.64702695608139038 0.64702695608139038 0.64702695608139038
0.73855340480804443 0.73855340480804443 0.73855340480804443
0.8717803955078125 0.8717803955078125 0.8717803955078125
0.89606630802154541 0.89606630802154541 0.89606630802154541
0.90192115306854248 0.90192115306854248 0.90192115306854248
0.91236579418182373 0.91236579418182373 0.91236579418182373
0.94373291730880737 0.94373291730880737 0.94373291730880737
0.97751551866531372 0.97751551866531372 0.97751551866531372
0.20533525943756104 0.20533525943756104 0.20533525943756104
0.23970119655132294 0.23970119655132294 0.23970119655132294
0.31167015433311462 0.31167015433311462 0.31167015433311462
0.35586178302764893 0.35586178302764893 0.35586178302764893
0.53811067342758179 0.53811067342758179 0.53811067342758179
0.27014824748039246 0.27014824748039246 0.27014824748039246
0.3150336742401123 0.3150336742401123 0.3150336742401123
0.39488205313682556 0.39488205313682556 0.39488205313682556
0.44962406158447266 0.44962406158447266 0.44962406158447266
0.61566287279129028 0.61566287279129028 0.61566287279129028
0.38067626953125 0.38067626953125 0.38067626953125
0.43651860952377319 0.43651860952377319 0.43651860952377319
0.54681134223937988 0.54681134223937988 0.54681134223937988
0.64645648002624512 0.64645648002624512 0.64645648002624512
0.75019532442092896 0.75019532442092896 0.75019532442092896
0.68260937929153442 0.68260937929153442 0.68260937929153442
0.71828144788742065 0.71828144788742065 0.71828144788742065
0.73302477598190308 0.73302477598190308 0.73302477598190308
0.79206359386444092 0.79206359386444092 0.79206359386444092
0.88825678825378418 0.88825678825378418 0.88825678825378418
0.93068945407867432 0.93068945407867432 0.93068945407867432
0.93427252769470215 0.93427252769470215 0.93427252769470215
0.94264382123947144 0.94264382123947144 0.94264382123947144
0.95026004314422607 0.95026004314422607 0.95026004314422607
0.97996944189071655 0.97996944189071655 0.97996944189071655
0.35384336113929749 0.35384336113929749 0.35384336113929749
0.40913829207420349 0.40913829207420349 0.40913829207420349
0.53593039512634277 0.53593039512634277 0.53593039512634277
0.59955829381942749 0.59955829381942749 0.59955829381942749
0.67680305242538452 0.67680305242538452 0.67680305242538452
0.43829098343849182 0.43829098343849182 0.43829098343849182
0.50649970769882202 0.50649970769882202 0.50649970769882202
0.59184449911117554 0.59184449911117554 0.59184449911117554
0.66594713926315308 0.66594713926315308 0.66594713926315308
0.73052889108657837 0.73052889108657837 0.73052889108657837
0.47997227311134338 0.47997227311134338 0.47997227311134338
0.55564397573471069 0.55564397573471069 0.55564397573471069
0.68453824520111084 0.68453824520111084 0.68453824520111084
0.75301969051361084 0.75301969051361084 0.75301969051361084
0.80499225854873657 0.80499225854873657 0.80499225854873657
0.6818617582321167 0.6818617582321167 0.6818617582321167
0.71091657876968384 0.71091657876968384 0.71091657876968384
0.78103381395339966 0.78103381395339966 0.78103381395339966
0.85116100311279297 0.85116100311279297 0.85116100311279297
0.92358553409576416 0.92358553409576416 0.92358553409576416
0.93644380569458008 0.93644380569458008 0.93644380569458008
0.93650937080383301 0.93650937080383301 0.93650937080383301
0.95082294940948486 0.95082294940948486 0.95082294940948486
0.96943503618240356 0.96943503618240356 0.96943503618240356
0.99681973457336426 0.99681973457336426 0.99681973457336426
0.7247580885887146 0.7247580885887146 0.7247580885887146
0.74587243795394897 0.74587243795394897 0.74587243795394897
0.79552656412124634 0.79552656412124634 0.79552656412124634
0.8770676851272583 0.8770676851272583 0.8770676851272583
0.8888663649559021 0.8888663649559021 0.8888663649559021
0.75336277484893799 0.75336277484893799 0.75336277484893799
0.77361118793487549 0.77361118793487549 0.77361118793487549
0.81990355253219604 0.81990355253219604 0.81990355253219604
0.90672159194946289 0.90672159194946289 0.90672159194946289
0.90423601865768433 0.90423601865768433 0.90423601865768433
0.78210508823394775 0.78210508823394775 0.78210508823394775
0.8054739236831665 0.8054739236831665 0.8054739236831665
0.86893165111541748 0.86893165111541748 0.86893165111541748
0.92418575286865234 0.92418575286865234 0.92418575286865234
0.94460779428482056 0.94460779428482056 0.94460779428482056
0.78331047296524048 0.78331047296524048 0.78331047296524048
0.80742812156677246 0.80742812156677246 0.80742812156677246
0.85506254434585571 0.85506254434585571 0.85506254434585571
0.92939972877502441 0.92939972877502441 0.92939972877502441
0.98017019033432007 0.98017019033432007 0.98017019033432007
0.9435388445854187 0.9435388445854187 0.9435388445854187
0.95812684297561646 0.95812684297561646 0.95812684297561646
0.95816344022750854 0.95816344022750854 0.95816344022750854
0.98346072435379028 0.98346072435379028 0.98346072435379028
0.99470561742782593 0.99470561742782593 0.99470561742782593
