luts/negative_old/fuji_superia_100.cube
# Created by: G'MIC (https://gmic.eu)
TITLE "fuji_superia_100"
# LUT size
LUT_3D_SIZE 13
# Data domain
DOMAIN_MIN 0.0 0.0 0.0
DOMAIN_MAX 1.0 1.0 1.0
# LUT data points
0.01356181688606739 0.037495363503694534 0.032819412648677826
0.044755958020687103 0.034279301762580872 0.029351538047194481
0.11727946996688843 0.040763944387435913 0.030346469953656197
0.20146520435810089 0.051244355738162994 0.02252248115837574
0.30239593982696533 0.060320865362882614 0.017630722373723984
0.41364753246307373 0.080036133527755737 0.0093734739348292351
0.52062273025512695 0.096442125737667084 0.0035879246424883604
0.61627572774887085 0.11604727804660797 0.0029443178791552782
0.69850718975067139 0.13863648474216461 0.0030034382361918688
0.7693324089050293 0.15301884710788727 0.002202396746724844
0.84050095081329346 0.16898913681507111 0.0015852984506636858
0.90671294927597046 0.18307925760746002 5.1520852139219642e-05
0.96817034482955933 0.19848601520061493 0.00028955796733498573
0.006702034268528223 0.076610863208770752 0.037151575088500977
0.033999096602201462 0.080505967140197754 0.030506493523716927
0.11485365033149719 0.092503279447555542 0.025924069806933403
0.21338464319705963 0.1090121865272522 0.02118612639605999
0.31840941309928894 0.12353017181158066 0.013266769237816334
0.42892998456954956 0.13806378841400146 0.012620708905160427
0.53454679250717163 0.15201826393604279 0.010438492521643639
0.62570494413375854 0.17226828634738922 0.005290311761200428
0.70512336492538452 0.18848936259746552 0.005000649020075798
0.77646803855895996 0.19605521857738495 0.0067167393863201141
0.84559708833694458 0.20554852485656738 0.0057435575872659683
0.91523373126983643 0.21975880861282349 0.0027325500268489122
0.97671473026275635 0.23504751920700073 0.0015779532259330153
0.0031496982555836439 0.17235414683818817 0.051552865654230118
0.010436577722430229 0.16639333963394165 0.040060725063085556
0.090156733989715576 0.16965422034263611 0.028746601194143295
0.21889051795005798 0.18523207306861877 0.018743777647614479
0.33750772476196289 0.2033039927482605 0.0091677950695157051
0.4490966796875 0.21984124183654785 0.010619757696986198
0.55214869976043701 0.23045563697814941 0.009339560754597187
0.64000099897384644 0.23673577606678009 0.0042749145068228245
0.71778279542922974 0.24614997208118439 0.0042001311667263508
0.78608983755111694 0.24963468313217163 0.0082683786749839783
0.8536989688873291 0.25563728809356689 0.010098086670041084
0.92417377233505249 0.26916849613189697 0.0078877471387386322
0.98308467864990234 0.28223612904548645 0.0031766854226589203
0.0016979442443698645 0.2775636613368988 0.065322965383529663
0.004149971529841423 0.27848947048187256 0.062474735081195831
0.043517634272575378 0.2752777636051178 0.05033627524971962
0.20008185505867004 0.27926146984100342 0.033289112150669098
0.33923232555389404 0.29422637820243835 0.014510435052216053
0.46358475089073181 0.31401032209396362 0.0075844260863959789
0.57174408435821533 0.32251790165901184 0.0073039038106799126
0.6563572883605957 0.32130590081214905 0.0061883064918220043
0.72900807857513428 0.31921195983886719 0.0041630016639828682
0.79686439037322998 0.32055962085723877 0.0072257993742823601
0.86376768350601196 0.32459181547164917 0.010175907053053379
0.92995405197143555 0.33404058218002319 0.008754475973546505
0.98113429546356201 0.34359291195869446 0.004005043301731348
0.00039165720227174461 0.3980708122253418 0.10470928251743317
0.0028206470888108015 0.40211755037307739 0.10807435214519501
0.012696105055510998 0.40259918570518494 0.099670872092247009
0.15307235717773438 0.40212121605873108 0.084038771688938141
0.32310563325881958 0.40174949169158936 0.054048486053943634
0.45984575152397156 0.40748974680900574 0.023787405341863632
0.57417243719100952 0.41386649012565613 0.0084585603326559067
0.66193366050720215 0.41204306483268738 0.0092164585366845131
0.7354738712310791 0.40793773531913757 0.005806642584502697
0.80557507276535034 0.40770304203033447 0.0053483699448406696
0.87214410305023193 0.40592110157012939 0.0078431377187371254
0.93746644258499146 0.40682870149612427 0.0077322716824710369
0.98265969753265381 0.41148450970649719 0.0044513177126646042
0.0014446333516389132 0.51588732004165649 0.16561257839202881
0.0041706012561917305 0.51713734865188599 0.17297442257404327
0.0054674786515533924 0.51850354671478271 0.16792050004005432
0.080707773566246033 0.52149468660354614 0.15421691536903381
0.28174576163291931 0.51422667503356934 0.13048049807548523
0.42962232232093811 0.50633251667022705 0.086385302245616913
0.55716723203659058 0.50424027442932129 0.043314345180988312
0.65289521217346191 0.50304239988327026 0.018081456422805786
0.73338264226913452 0.50063991546630859 0.0098894005641341209
0.80899131298065186 0.49765750765800476 0.008124273270368576
0.87784087657928467 0.4924776554107666 0.0070636975578963757
0.94361549615859985 0.48864448070526123 0.0042982213199138641
0.98748487234115601 0.4923434853553772 0.0040728701278567314
1.4002182979311328e-05 0.61380249261856079 0.23509965837001801
0.00097469257889315486 0.61524587869644165 0.24575725197792053
0.0018579820170998573 0.61760014295578003 0.24233405292034149
0.026171471923589706 0.62130314111709595 0.2340826690196991
0.22710469365119934 0.61440962553024292 0.21554656326770782
0.38718542456626892 0.60099643468856812 0.18594701588153839
0.51679056882858276 0.59170025587081909 0.15388154983520508
0.62489861249923706 0.58755391836166382 0.10431813448667526
0.71934407949447632 0.58518749475479126 0.061631999909877777
0.802390456199646 0.58245396614074707 0.034771040081977844
0.87757956981658936 0.57914143800735474 0.015346631407737732
0.94596564769744873 0.57563483715057373 0.0090669970959424973
0.99377095699310303 0.57536202669143677 0.005607216153293848
0.0003018996212631464 0.69827544689178467 0.3075413703918457
0.0021476596593856812 0.69954556226730347 0.316587895154953
0.0029791588895022869 0.70226430892944336 0.31938070058822632
0.015283233486115932 0.70561569929122925 0.31556808948516846
0.1850452721118927 0.70088291168212891 0.30308112502098083
0.35832825303077698 0.68937963247299194 0.28257295489311218
0.48373514413833618 0.67626947164535522 0.2567080557346344
0.59028512239456177 0.66924691200256348 0.22251178324222565
0.69035214185714722 0.66352957487106323 0.17718103528022766
0.78724545240402222 0.66297584772109985 0.13704201579093933
0.86613172292709351 0.66021180152893066 0.10875384509563446
0.9400520920753479 0.66049730777740479 0.095524773001670837
0.99148565530776978 0.65917938947677612 0.074628479778766632
0.0016731860814616084 0.77441865205764771 0.38564154505729675
0.0037107430398464203 0.77703022956848145 0.39164090156555176
0.0054937326349318027 0.78077656030654907 0.39348772168159485
0.05562388151884079 0.78232359886169434 0.39203190803527832
0.21099936962127686 0.7790452241897583 0.38879728317260742
0.34386315941810608 0.76983743906021118 0.37466946244239807
0.46093341708183289 0.76221412420272827 0.35528764128684998
0.56506097316741943 0.754200279712677 0.32756581902503967
0.6609797477722168 0.74344098567962646 0.29356679320335388
0.76155537366867065 0.74109190702438354 0.25806620717048645
0.85113918781280518 0.74086099863052368 0.22984567284584045
0.92582046985626221 0.73994618654251099 0.21583092212677002
0.98359137773513794 0.74070060253143311 0.20986068248748779
0.035162519663572311 0.84884166717529297 0.46568095684051514
0.058205325156450272 0.84963154792785645 0.46807533502578735
0.11356549710035324 0.85023349523544312 0.47028940916061401
0.20108488202095032 0.84823930263519287 0.47177651524543762
0.28645646572113037 0.84447944164276123 0.47190204262733459
0.37021425366401672 0.84215241670608521 0.46644806861877441
0.46862888336181641 0.83839339017868042 0.45134085416793823
0.55423945188522339 0.83172786235809326 0.43158450722694397
0.64201158285140991 0.82367867231369019 0.4060036838054657
0.73104947805404663 0.81751364469528198 0.37638545036315918
0.82197707891464233 0.81286519765853882 0.34276953339576721
0.90949887037277222 0.81530237197875977 0.32333242893218994
0.97378188371658325 0.81325745582580566 0.3188231885433197
0.2484612911939621 0.90781682729721069 0.55123215913772583
0.26639571785926819 0.90701901912689209 0.54964828491210938
0.29689642786979675 0.90483999252319336 0.55281764268875122
0.33817833662033081 0.90195274353027344 0.55625432729721069
0.38770511746406555 0.90199345350265503 0.55780303478240967
0.44552206993103027 0.90361297130584717 0.55592286586761475
0.50638478994369507 0.90242379903793335 0.54586333036422729
0.57301628589630127 0.89609313011169434 0.52897882461547852
0.64461737871170044 0.88772648572921753 0.51087462902069092
0.71927285194396973 0.880706787109375 0.4897608757019043
0.80458289384841919 0.87478029727935791 0.45887207984924316
0.88917875289916992 0.87786239385604858 0.43526583909988403
0.96166032552719116 0.87963902950286865 0.42405742406845093
0.42881608009338379 0.95354467630386353 0.63799917697906494
0.43435189127922058 0.952556312084198 0.63728749752044678
0.45088136196136475 0.95054376125335693 0.63943290710449219
0.47530320286750793 0.94942402839660645 0.64334094524383545
0.5065721869468689 0.951987624168396 0.64789855480194092
0.53800612688064575 0.95293152332305908 0.64570188522338867
0.57296562194824219 0.95222896337509155 0.63773816823959351
0.62292033433914185 0.94482332468032837 0.62619942426681519
0.67453467845916748 0.93936485052108765 0.61539179086685181
0.73138004541397095 0.93678516149520874 0.60061836242675781
0.79731202125549316 0.93424379825592041 0.5782160758972168
0.86531597375869751 0.93241298198699951 0.55623531341552734
0.93304157257080078 0.93555903434753418 0.54242956638336182
0.57402080297470093 0.98710542917251587 0.72330349683761597
0.57772183418273926 0.98716890811920166 0.7240290641784668
0.58462727069854736 0.98470640182495117 0.72379773855209351
0.59919029474258423 0.98403549194335938 0.72470343112945557
0.61684548854827881 0.98538351058959961 0.72786575555801392
0.6362159252166748 0.98656558990478516 0.73080265522003174
0.66074508428573608 0.98591440916061401 0.73078840970993042
0.69140166044235229 0.98221349716186523 0.72146612405776978
0.72570598125457764 0.98075932264328003 0.71600466966629028
0.76745468378067017 0.9810328483581543 0.7073933482170105
0.81005877256393433 0.98045581579208374 0.69602233171463013
0.86233019828796387 0.97753286361694336 0.68379199504852295
0.91430652141571045 0.97644031047821045 0.67058670520782471
0.012824039906263351 0.032150387763977051 0.074327565729618073
0.046516943722963333 0.030020918697118759 0.07323889434337616
0.11832938343286514 0.028426436707377434 0.070545315742492676
0.21020744740962982 0.021702216938138008 0.067258171737194061
0.31135797500610352 0.024007221683859825 0.060800500214099884
0.41959720849990845 0.039027988910675049 0.053542282432317734
0.52306723594665527 0.055724065750837326 0.045042987912893295
0.61815851926803589 0.079416967928409576 0.035841759294271469
0.69651174545288086 0.10365421324968338 0.028773080557584763
0.76923459768295288 0.12589758634567261 0.018004098907113075
0.83932757377624512 0.1485743373632431 0.012566241435706615
0.90836107730865479 0.16796277463436127 0.0071774502284824848
0.97160303592681885 0.18988879024982452 0.0068284277804195881
0.0044382880441844463 0.082042902708053589 0.083031311631202698
0.038626126945018768 0.081521235406398773 0.080604419112205505
0.12380999326705933 0.085994541645050049 0.076558701694011688
0.22285851836204529 0.088719435036182404 0.069826804101467133
0.32743152976036072 0.092774756252765656 0.06435006856918335
0.43163409829139709 0.10962066799402237 0.057515133172273636
0.53375083208084106 0.12829792499542236 0.04230792447924614
0.62715381383895874 0.1477094292640686 0.03548005223274231
0.70305460691452026 0.16431964933872223 0.032505590468645096
0.77556008100509644 0.1769140213727951 0.022243648767471313
0.84477680921554565 0.1897348016500473 0.013134810142219067
0.91355693340301514 0.20534111559391022 0.0090428674593567848
0.9771416187286377 0.22176191210746765 0.007760410662740469
0.0036198485177010298 0.17395073175430298 0.10589743405580521
0.014865456148982048 0.17131626605987549 0.099765777587890625
0.10322391241788864 0.17452242970466614 0.09225928783416748
0.22851485013961792 0.18290817737579346 0.078874401748180389
0.34491631388664246 0.19375137984752655 0.065342739224433899
0.45229712128639221 0.20680271089076996 0.052380625158548355
0.55194425582885742 0.2187025398015976 0.03692873939871788
0.64189130067825317 0.22531114518642426 0.028752958402037621
0.7167433500289917 0.23329566419124603 0.025163732469081879
0.78501021862030029 0.24042433500289917 0.019286556169390678
0.85181224346160889 0.24993588030338287 0.016759835183620453
0.91977429389953613 0.25954625010490417 0.01499545481055975
0.9767380952835083 0.2736961841583252 0.013153525069355965
0.0048337448388338089 0.279044508934021 0.13563013076782227
0.0074416366405785084 0.28121358156204224 0.1323104053735733
0.060064755380153656 0.28100115060806274 0.12128046154975891
0.21053116023540497 0.2829183042049408 0.10726339370012283
0.34869387745857239 0.29414224624633789 0.089354284107685089
0.47081521153450012 0.3089107871055603 0.059764757752418518
0.57396012544631958 0.31524845957756042 0.034644316881895065
0.65882307291030884 0.31585675477981567 0.027858525514602661
0.72917342185974121 0.31457486748695374 0.021510643884539604
0.79557889699935913 0.31815046072006226 0.021548790857195854
0.86160373687744141 0.32102665305137634 0.016157187521457672
0.9289664626121521 0.32751873135566711 0.014422038570046425
0.98164772987365723 0.33732485771179199 0.011246714740991592
0.0045273574069142342 0.40030881762504578 0.17970208823680878
0.0044106724672019482 0.40256759524345398 0.17624175548553467
0.018657101318240166 0.40431106090545654 0.16565337777137756
0.17474982142448425 0.40427497029304504 0.15442028641700745
0.33548417687416077 0.40750822424888611 0.1335885226726532
0.4683927595615387 0.41054999828338623 0.098717451095581055
0.57712572813034058 0.41260716319084167 0.058350581675767899
0.66635656356811523 0.40950417518615723 0.033545788377523422
0.73887592554092407 0.40551164746284485 0.023802453652024269
0.80527412891387939 0.40523496270179749 0.022391898557543755
0.87112736701965332 0.4026704728603363 0.01807822473347187
0.9381558895111084 0.40415078401565552 0.014103594236075878
0.98670083284378052 0.40792155265808105 0.012092725373804569
0.0012783723650500178 0.5159030556678772 0.22278611361980438
0.002180690411478281 0.51984107494354248 0.22276701033115387
0.0056605469435453415 0.52070873975753784 0.2205079048871994
0.10452423244714737 0.52148491144180298 0.21277360618114471
0.30028057098388672 0.51685017347335815 0.19395890831947327
0.44083324074745178 0.51044577360153198 0.16060955822467804
0.55873298645019531 0.50302404165267944 0.12234228104352951
0.65345710515975952 0.50097560882568359 0.084249280393123627
0.7350037693977356 0.49790346622467041 0.055093444883823395
0.81033825874328613 0.49373283982276917 0.034741945564746857
0.88034248352050781 0.48947188258171082 0.025236675515770912
0.94505566358566284 0.4867454469203949 0.020501215010881424
0.98939812183380127 0.48839473724365234 0.020042642951011658
0.0010178509401157498 0.61361265182495117 0.27913105487823486
0.0012843263102695346 0.61602050065994263 0.28618469834327698
0.0038507350254803896 0.61749088764190674 0.28537788987159729
0.05298265814781189 0.62125194072723389 0.27830192446708679
0.25333306193351746 0.614787757396698 0.26289120316505432
0.40224388241767883 0.60254848003387451 0.24119797348976135
0.52438926696777344 0.5911218523979187 0.21296720206737518
0.63013404607772827 0.58743590116500854 0.17082619667053223
0.72099655866622925 0.58509248495101929 0.13479447364807129
0.80155473947525024 0.58038640022277832 0.10446412116289139
0.87835538387298584 0.57707870006561279 0.080175809562206268
0.94769835472106934 0.57423657178878784 0.056849848479032516
0.99291235208511353 0.57316559553146362 0.056316465139389038
0.00089409021893516183 0.69916063547134399 0.34419998526573181
0.0032017277553677559 0.70069682598114014 0.35050895810127258
0.0036178589798510075 0.7025877833366394 0.34955763816833496
0.056839857250452042 0.7055734395980835 0.34745192527770996
0.23145082592964172 0.69934839010238647 0.33737149834632874
0.37427440285682678 0.68915611505508423 0.3201097846031189
0.49443981051445007 0.67956387996673584 0.29465588927268982
0.59967219829559326 0.67287719249725342 0.26366859674453735
0.69716149568557739 0.66529560089111328 0.22493420541286469
0.78739917278289795 0.66188216209411621 0.19221502542495728
0.8663451075553894 0.65944045782089233 0.17285767197608948
0.93949258327484131 0.66011369228363037 0.15719704329967499
0.98836416006088257 0.65833824872970581 0.14588552713394165
0.0038244209717959166 0.77756178379058838 0.41102120280265808
0.0081548355519771576 0.77948665618896484 0.41451001167297363
0.032485079020261765 0.78128832578659058 0.41561669111251831
0.12908415496349335 0.78222060203552246 0.41742011904716492
0.25079622864723206 0.7783743143081665 0.41478252410888672
0.36778071522712708 0.77101582288742065 0.40342143177986145
0.47789832949638367 0.76366239786148071 0.38447484374046326
0.57537704706192017 0.7556954026222229 0.35886946320533752
0.66906571388244629 0.74447804689407349 0.32528221607208252
0.7647203803062439 0.73972588777542114 0.29381206631660461
0.85069632530212402 0.73872953653335571 0.26806813478469849
0.92500537633895874 0.73874104022979736 0.25336518883705139
0.98186534643173218 0.74074447154998779 0.24992468953132629
0.090671852231025696 0.84900569915771484 0.48499104380607605
0.1191856861114502 0.84979867935180664 0.48794704675674438
0.17677830159664154 0.84855526685714722 0.48826780915260315
0.24835875630378723 0.84826838970184326 0.49140912294387817
0.3171268105506897 0.84649580717086792 0.49213138222694397
0.3940030038356781 0.8445473313331604 0.48682314157485962
0.48307943344116211 0.83923715353012085 0.47437390685081482
0.56411170959472656 0.83242499828338623 0.45908328890800476
0.64991408586502075 0.82409155368804932 0.43463197350502014
0.73942476511001587 0.81644529104232788 0.40194988250732422
0.82850748300552368 0.81426995992660522 0.36861103773117065
0.9093748927116394 0.81454455852508545 0.34601110219955444
0.96997588872909546 0.81377494335174561 0.34669104218482971
0.28846102952957153 0.90708571672439575 0.56454074382781982
0.30202648043632507 0.90457206964492798 0.56451666355133057
0.32850280404090881 0.90386033058166504 0.56671363115310669
0.36322110891342163 0.90246081352233887 0.56825637817382812
0.41011404991149902 0.90378284454345703 0.57171851396560669
0.4618283212184906 0.90463542938232422 0.57006281614303589
0.51591891050338745 0.90176653861999512 0.56171578168869019
0.58383166790008545 0.89449560642242432 0.54969686269760132
0.65153801441192627 0.88892370462417603 0.52971464395523071
0.72388249635696411 0.88371092081069946 0.50572943687438965
0.80729925632476807 0.87817150354385376 0.47669336199760437
0.88855969905853271 0.87636095285415649 0.45302900671958923
0.96141171455383301 0.87997621297836304 0.44461449980735779
0.44568571448326111 0.95228093862533569 0.64670604467391968
0.45082241296768188 0.95009917020797729 0.64665156602859497
0.46608111262321472 0.94971203804016113 0.64833658933639526
0.48728543519973755 0.94950360059738159 0.65055066347122192
0.51421517133712769 0.95294666290283203 0.65360575914382935
0.5457082986831665 0.95331317186355591 0.6560484766960144
0.5820966362953186 0.95081079006195068 0.65082883834838867
0.62982678413391113 0.9443778395652771 0.64027100801467896
0.68311667442321777 0.93949556350708008 0.62790924310684204
0.73812830448150635 0.93599390983581543 0.61216604709625244
0.79851323366165161 0.9320065975189209 0.59111505746841431
0.86454266309738159 0.93180441856384277 0.57131808996200562
0.93535721302032471 0.93535083532333374 0.55739277601242065
0.57919895648956299 0.9844430685043335 0.72826755046844482
0.58392500877380371 0.98435276746749878 0.72960454225540161
0.59339243173599243 0.9842371940612793 0.73023587465286255
0.60584127902984619 0.98455524444580078 0.73034429550170898
0.62281662225723267 0.98649972677230835 0.73346787691116333
0.64340716600418091 0.98658043146133423 0.73823422193527222
0.66754209995269775 0.98471415042877197 0.73568403720855713
0.69628804922103882 0.9820171594619751 0.72837764024734497
0.7310064435005188 0.98013317584991455 0.72353070974349976
0.77184665203094482 0.98008155822753906 0.71543854475021362
0.8164488673210144 0.97766488790512085 0.7032884955406189
0.86389398574829102 0.97786957025527954 0.69233256578445435
0.9139564037322998 0.97739577293395996 0.6823418140411377
0.010218481533229351 0.026792129501700401 0.16061165928840637
0.05427226796746254 0.024993328377604485 0.16145724058151245
0.13038259744644165 0.023695254698395729 0.15807037055492401
0.22021149098873138 0.01924152672290802 0.15416258573532104
0.32171785831451416 0.0094624990597367287 0.1477782279253006
0.42791655659675598 0.005682717077434063 0.13856154680252075
0.53063374757766724 0.0089054182171821594 0.1325162947177887
0.62356412410736084 0.017353162169456482 0.12498469650745392
0.70004290342330933 0.03716442734003067 0.11855724453926086
0.76928037405014038 0.071171961724758148 0.10872466117143631
0.83829247951507568 0.1047046110033989 0.096130162477493286
0.9073604941368103 0.13525064289569855 0.087126776576042175
0.97068458795547485 0.16279977560043335 0.079566791653633118
0.004893837496638298 0.082686148583889008 0.16673813760280609
0.036073885858058929 0.081566780805587769 0.16780631244182587
0.13448242843151093 0.084696874022483826 0.16695797443389893
0.2317529022693634 0.085746929049491882 0.16140212118625641
0.33389616012573242 0.075821548700332642 0.1530812531709671
0.43663591146469116 0.061586268246173859 0.14324180781841278
0.53885316848754883 0.069025851786136627 0.13636790215969086
0.62906676530838013 0.087221004068851471 0.13052451610565186
0.70481389760971069 0.11237756907939911 0.12350692600011826
0.77414923906326294 0.13735711574554443 0.10982461273670197
0.84289669990539551 0.15930379927158356 0.099420912563800812
0.91159844398498535 0.18186730146408081 0.091712400317192078
0.97524738311767578 0.20071233808994293 0.081743203103542328
0.0033630221150815487 0.16963000595569611 0.17599053680896759
0.029699511826038361 0.1725798100233078 0.17701384425163269
0.12943655252456665 0.17577698826789856 0.17564000189304352
0.23790311813354492 0.17880737781524658 0.16808170080184937
0.35041674971580505 0.17870232462882996 0.15987758338451385
0.45516949892044067 0.18352518975734711 0.15163800120353699
0.55413210391998291 0.18548448383808136 0.13923296332359314
0.6410984992980957 0.19319154322147369 0.13203819096088409
0.71520739793777466 0.1999751478433609 0.12207158654928207
0.7820703387260437 0.21471084654331207 0.11147528141736984
0.84943842887878418 0.23175837099552155 0.10538578778505325
0.91937696933746338 0.24456633627414703 0.097851336002349854
0.97723579406738281 0.25784754753112793 0.092945665121078491
0.0037999621126800776 0.27635577321052551 0.20653888583183289
0.035384204238653183 0.27784764766693115 0.20604443550109863
0.11390436440706253 0.28298518061637878 0.20285847783088684
0.23579023778438568 0.28727519512176514 0.19419144093990326
0.36351293325424194 0.29343175888061523 0.18339031934738159
0.47611171007156372 0.29927584528923035 0.16440920531749725
0.57206016778945923 0.2987666130065918 0.14515292644500732
0.6561087965965271 0.29671359062194824 0.13364070653915405
0.72655963897705078 0.30028462409973145 0.12792187929153442
0.79369336366653442 0.30512544512748718 0.12192032486200333
0.85953694581985474 0.31108483672142029 0.11051438003778458
0.92697620391845703 0.3179452121257782 0.09981614351272583
0.98408472537994385 0.3252960741519928 0.097372852265834808
0.016346292570233345 0.39999240636825562 0.26137858629226685
0.038500409573316574 0.40119847655296326 0.25611177086830139
0.079919345676898956 0.40471452474594116 0.24486625194549561
