luts/negative_old/fuji_superia_100_+.cube
# Created by: G'MIC (https://gmic.eu)
TITLE "fuji_superia_100_+"
# LUT size
LUT_3D_SIZE 13
# Data domain
DOMAIN_MIN 0.0 0.0 0.0
DOMAIN_MAX 1.0 1.0 1.0
# LUT data points
0.0037831026129424572 0.049710039049386978 0.056652188301086426
0.021747080609202385 0.053159017115831375 0.056089766323566437
0.073683902621269226 0.056905440986156464 0.05139324814081192
0.16155765950679779 0.063400492072105408 0.04653555154800415
0.27241036295890808 0.065916039049625397 0.040276054292917252
0.39253857731819153 0.064940296113491058 0.030642027035355568
0.51288241147994995 0.066470995545387268 0.015836348757147789
0.62626540660858154 0.069822363555431366 0.0072724586352705956
0.72261703014373779 0.074555277824401855 0.0037959828041493893
0.79993695020675659 0.092759288847446442 0.003352191299200058
0.87193137407302856 0.11583495885133743 0.0033106785267591476
0.94431120157241821 0.14217698574066162 0.0026878206990659237
0.98997491598129272 0.16965295374393463 0.0020705577917397022
0.0011046315776184201 0.081253454089164734 0.05710914358496666
0.011526010930538177 0.084158547222614288 0.058700338006019592
0.063897736370563507 0.096664011478424072 0.053747784346342087
0.17071230709552765 0.10987561941146851 0.044966153800487518
0.29007324576377869 0.12011793255805969 0.032019566744565964
0.40803122520446777 0.12306367605924606 0.022349113598465919
0.52480864524841309 0.12975132465362549 0.014448876492679119
0.63550633192062378 0.13085043430328369 0.010178105905652046
0.72624397277832031 0.13494446873664856 0.0077493404969573021
0.80439668893814087 0.15219050645828247 0.0043952343985438347
0.87565934658050537 0.17120392620563507 0.0032235537655651569
0.94664633274078369 0.18807154893875122 0.0028900743927806616
0.99105620384216309 0.20816166698932648 0.0016635222127661109
0.0002520392881706357 0.1570819765329361 0.065523333847522736
0.0041394853033125401 0.15979255735874176 0.063966073095798492
0.037735030055046082 0.15780018270015717 0.05504193902015686
0.1658279150724411 0.16866666078567505 0.041580785065889359
0.30261296033859253 0.18399934470653534 0.02350190095603466
0.43127617239952087 0.1991567462682724 0.012492909096181393
0.5469328761100769 0.21073018014431 0.011028588749468327
0.64816296100616455 0.21113021671772003 0.009011915884912014
0.73196899890899658 0.21693985164165497 0.0076601365581154823
0.81133508682250977 0.22778032720088959 0.0042199376039206982
0.88196361064910889 0.23650234937667847 0.0024323705583810806
0.95184266567230225 0.24717503786087036 0.0021113974507898092
0.99375355243682861 0.25681325793266296 0.00054256961448118091
0 0.25913941860198975 0.080216303467750549
0.0017376020550727844 0.26166799664497375 0.077969573438167572
0.014092599041759968 0.2578577995300293 0.068743474781513214
0.14067853987216949 0.26123523712158203 0.050728444010019302
0.31085380911827087 0.27667984366416931 0.023643208667635918
0.45604744553565979 0.29518762230873108 0.0081994449719786644
0.57371914386749268 0.30769005417823792 0.0077345455065369606
0.66235178709030151 0.30625495314598083 0.0078431377187371254
0.74564260244369507 0.30497446656227112 0.007328706793487072
0.82162570953369141 0.31442877650260925 0.0038363737985491753
0.89005237817764282 0.31697726249694824 0.003685865318402648
0.95539486408233643 0.32159608602523804 0.0031251944601535797
0.99063152074813843 0.32195776700973511 0.001840494223870337
0 0.39279881119728088 0.1027623638510704
3.3569336665095761e-05 0.39426472783088684 0.10175253450870514
0.0037760715931653976 0.39587932825088501 0.092778913676738739
0.094009354710578918 0.3912956714630127 0.071633011102676392
0.29445001482963562 0.39264053106307983 0.041765265166759491
0.45518213510513306 0.39669528603553772 0.010862582363188267
0.57666909694671631 0.40429598093032837 0.0095351869240403175
0.67294645309448242 0.40696170926094055 0.0082159452140331268
0.75760239362716675 0.4046420156955719 0.0060134590603411198
0.83289581537246704 0.4033566415309906 0.0028461231850087643
0.89763325452804565 0.40006917715072632 0.003804883686825633
0.95702904462814331 0.39824596047401428 0.0039215688593685627
0.98847991228103638 0.39587640762329102 0.0039215688593685627
0 0.51875835657119751 0.13594594597816467
0 0.5246117115020752 0.13901303708553314
0.003150745527818799 0.52454257011413574 0.13428798317909241
0.031324528157711029 0.52118223905563354 0.11537867784500122
0.2469584047794342 0.51267421245574951 0.084797710180282593
0.4244123101234436 0.50304126739501953 0.044389672577381134
0.55823111534118652 0.50131046772003174 0.014055633917450905
0.6643146276473999 0.50130397081375122 0.0084907831624150276
0.75428080558776855 0.49775469303131104 0.0056507335975766182
0.83634048700332642 0.48991352319717407 0.0040720021352171898
0.90425002574920654 0.48287305235862732 0.0041068284772336483
0.96484369039535522 0.47785267233848572 0.0037949655670672655
0.99058419466018677 0.47552579641342163 0.00379029824398458
0 0.61843335628509521 0.19495224952697754
0.00017016541096381843 0.62206745147705078 0.20155869424343109
0.0012045766925439239 0.62191677093505859 0.20026040077209473
0.0061727934516966343 0.62069576978683472 0.1900615394115448
0.16797958314418793 0.61542856693267822 0.16848769783973694
0.37977957725524902 0.60053831338882446 0.13185644149780273
0.52616709470748901 0.5869787335395813 0.072807177901268005
0.64535629749298096 0.58014440536499023 0.029431885108351707
0.74192607402801514 0.57691365480422974 0.011751256883144379
0.82752126455307007 0.5710068941116333 0.007075335830450058
0.90416693687438965 0.56382304430007935 0.0043691298924386501
0.9732702374458313 0.5592644214630127 0.0029281915631145239
0.99538731575012207 0.55569654703140259 0.001773400348611176
0.00031979131745174527 0.69867026805877686 0.2734324038028717
0.0034473345149308443 0.69828695058822632 0.28407347202301025
0.0038493138272315264 0.69838416576385498 0.28668615221977234
0.0051239463500678539 0.70059454441070557 0.2790132462978363
0.12555430829524994 0.69740062952041626 0.26016384363174438
0.34109193086624146 0.68388622999191284 0.23119884729385376
0.49130403995513916 0.67088896036148071 0.1914316713809967
0.61218613386154175 0.65735405683517456 0.14324262738227844
0.72036564350128174 0.65132278203964233 0.077404960989952087
0.81449627876281738 0.64888197183609009 0.033548962324857712
0.89487689733505249 0.64418530464172363 0.012906512245535851
0.96622037887573242 0.63997131586074829 0.0068315691314637661
0.99560761451721191 0.63501441478729248 0.0073555591516196728
0.0017805959796532989 0.7710614800453186 0.35263863205909729
0.004765199963003397 0.77066636085510254 0.36192387342453003
0.0061035756953060627 0.77045959234237671 0.3638770580291748
0.02087453193962574 0.77291309833526611 0.3603827953338623
0.16433541476726532 0.76988649368286133 0.3519294261932373
0.34543478488922119 0.75964152812957764 0.32845279574394226
0.47914573550224304 0.75039136409759521 0.30061310529708862
0.58657205104827881 0.73682135343551636 0.26555445790290833
0.69109964370727539 0.72735559940338135 0.21588180959224701
0.78715544939041138 0.72386085987091064 0.15626975893974304
0.87630587816238403 0.72274965047836304 0.11329487711191177
0.9559134840965271 0.72110974788665771 0.082868628203868866
0.99630498886108398 0.71513587236404419 0.058048456907272339
0.021297110244631767 0.83851957321166992 0.43680039048194885
0.034780748188495636 0.83895540237426758 0.43810334801673889
0.074509352445602417 0.83869820833206177 0.43914246559143066
0.16475984454154968 0.83850336074829102 0.44132828712463379
0.28020587563514709 0.83653360605239868 0.44163542985916138
0.37954089045524597 0.82851701974868774 0.42591565847396851
0.48738116025924683 0.82004064321517944 0.40280696749687195
0.58002901077270508 0.81187444925308228 0.37916547060012817
0.66884756088256836 0.80683082342147827 0.35060915350914001
0.75729644298553467 0.80122107267379761 0.30775803327560425
0.84958779811859131 0.7982327938079834 0.26915287971496582
0.93499743938446045 0.79394358396530151 0.23480324447154999
0.98960334062576294 0.78963369131088257 0.20555438101291656
0.21896620094776154 0.89842361211776733 0.52044856548309326
0.23894689977169037 0.89606869220733643 0.52100014686584473
0.27720209956169128 0.89521604776382446 0.52163249254226685
0.32526680827140808 0.89332795143127441 0.52363717555999756
0.3788907527923584 0.89065492153167725 0.52673459053039551
0.43714356422424316 0.88908535242080688 0.52008861303329468
0.50920414924621582 0.88660478591918945 0.50408440828323364
0.58469152450561523 0.88246798515319824 0.48706114292144775
0.66368216276168823 0.87503534555435181 0.46490824222564697
0.73792737722396851 0.8703039288520813 0.43643820285797119
0.8221929669380188 0.86677521467208862 0.40355435013771057
0.90711039304733276 0.86172699928283691 0.36589342355728149
0.97787010669708252 0.86163240671157837 0.3381049633026123
0.39553910493850708 0.94412273168563843 0.60520809888839722
0.40977543592453003 0.94177412986755371 0.60510051250457764
0.42588207125663757 0.94204539060592651 0.60563606023788452
0.44865703582763672 0.94104158878326416 0.60753291845321655
0.48230111598968506 0.93715888261795044 0.60952925682067871
0.51796859502792358 0.9411083459854126 0.60950732231140137
0.56350558996200562 0.94187086820602417 0.60299134254455566
0.62063360214233398 0.93628036975860596 0.58967441320419312
0.6787983775138855 0.93312996625900269 0.57026886940002441
0.73788571357727051 0.93199902772903442 0.55071508884429932
0.80623000860214233 0.92719435691833496 0.52692455053329468
0.88310480117797852 0.92344462871551514 0.49822500348091125
0.95366430282592773 0.92539054155349731 0.47462618350982666
0.53402316570281982 0.98241537809371948 0.68822777271270752
0.54109567403793335 0.98086166381835938 0.68797087669372559
0.55120342969894409 0.9809151291847229 0.68900525569915771
0.56573808193206787 0.98065221309661865 0.69050699472427368
0.58692312240600586 0.9801592230796814 0.6924319863319397
0.6103745698928833 0.98152279853820801 0.69491451978683472
0.63915997743606567 0.98239439725875854 0.69446271657943726
0.67485767602920532 0.98026067018508911 0.68678194284439087
0.71714484691619873 0.97852450609207153 0.67100167274475098
0.75720083713531494 0.98005557060241699 0.66008657217025757
0.80642062425613403 0.97606164216995239 0.64517509937286377
0.8668895959854126 0.9731438159942627 0.62679815292358398
0.92095398902893066 0.97340887784957886 0.61069154739379883
0.005269667599350214 0.054923683404922485 0.09909135103225708
0.017134588211774826 0.051812503486871719 0.092659354209899902
0.078525766730308533 0.045765325427055359 0.089495547115802765
0.16617479920387268 0.036736521869897842 0.084108121693134308
0.27825963497161865 0.026224218308925629 0.078460484743118286
0.4008764922618866 0.023219075053930283 0.073617435991764069
0.51898729801177979 0.021827802062034607 0.062920756638050079
0.62836641073226929 0.023910477757453918 0.047634050250053406
0.72310382127761841 0.026895441114902496 0.033209379762411118
0.79867839813232422 0.041510116308927536 0.022577965632081032
0.86949944496154785 0.06699700653553009 0.012832357548177242
0.94011056423187256 0.10166633129119873 0.008857053704559803
0.98628604412078857 0.13596941530704498 0.0056622824631631374
0.0017111385241150856 0.085255324840545654 0.098224252462387085
0.0090687470510601997 0.092324182391166687 0.099816478788852692
0.067181512713432312 0.091701611876487732 0.095941044390201569
0.17319153249263763 0.093748278915882111 0.089862868189811707
0.2937503457069397 0.088080368936061859 0.082172170281410217
0.41417902708053589 0.088488996028900146 0.074932768940925598
0.53130114078521729 0.092352911829948425 0.058493129909038544
0.63983196020126343 0.097605369985103607 0.039846427738666534
0.72817426919937134 0.10425830632448196 0.027491865679621696
0.80323076248168945 0.11599244922399521 0.022943638265132904
0.8731502890586853 0.13578794896602631 0.013409902341663837
0.94320130348205566 0.1573740690946579 0.0074307159520685673
0.98775595426559448 0.18188607692718506 0.0040283650159835815
0.00024879304692149162 0.16590438783168793 0.11515551060438156
0.0041610868647694588 0.1661965548992157 0.11229008436203003
0.039983920753002167 0.1620660275220871 0.10721401125192642
0.16770662367343903 0.16852529346942902 0.10066712647676468
0.31059351563453674 0.17685903608798981 0.082827866077423096
0.43788853287696838 0.18615645170211792 0.061105363070964813
0.55348855257034302 0.19324387609958649 0.04416738823056221
0.65278172492980957 0.19682715833187103 0.031401287764310837
0.73740774393081665 0.20115730166435242 0.022072840481996536
0.81043285131454468 0.20734788477420807 0.019889667630195618
0.88003993034362793 0.21608871221542358 0.0096523957327008247
0.94927674531936646 0.22853930294513702 0.0048261457122862339
0.99042391777038574 0.2422766387462616 0.0026036130730062723
0 0.26426339149475098 0.13739819824695587
0.0024202084168791771 0.26494821906089783 0.13258492946624756
0.017671801149845123 0.2610221803188324 0.1266540139913559
0.15462800860404968 0.26217997074127197 0.1138269454240799
0.32112425565719604 0.27953264117240906 0.086036786437034607
0.46590101718902588 0.29332974553108215 0.055430155247449875
0.57967072725296021 0.29803356528282166 0.03150571882724762
0.66585135459899902 0.29777172207832336 0.025742894038558006
0.75083708763122559 0.29793837666511536 0.014250901527702808
0.821524977684021 0.2983451783657074 0.010272875428199768
0.88917696475982666 0.30172890424728394 0.007576916366815567
0.95282554626464844 0.3074474036693573 0.0050012175925076008
0.99124294519424438 0.31170180439949036 0.0032895256299525499
0 0.38640373945236206 0.16528499126434326
0.00095138547476381063 0.39156308770179749 0.16209030151367188
0.0071885203942656517 0.39627853035926819 0.15613999962806702
0.10452227294445038 0.39403155446052551 0.13959348201751709
0.30534863471984863 0.39781668782234192 0.11103322356939316
0.46285250782966614 0.39804700016975403 0.071012787520885468
0.58378028869628906 0.40328824520111084 0.034393955022096634
0.67947399616241455 0.40211457014083862 0.018731240183115005
0.76228582859039307 0.39820113778114319 0.011417778208851814
0.83311837911605835 0.3931368887424469 0.0067597632296383381
0.89725428819656372 0.38861680030822754 0.005288995336741209
0.95689976215362549 0.39029881358146667 0.0048610162921249866
0.99086606502532959 0.39002573490142822 0.0052745295688509941
0.00013478596520144492 0.51519930362701416 0.19593869149684906
9.7910560725722462e-05 0.52205526828765869 0.19916810095310211
0.0042200274765491486 0.52220535278320312 0.19354194402694702
0.038937527686357498 0.52161562442779541 0.17968712747097015
0.26077911257743835 0.51363098621368408 0.15683557093143463
0.43186467885971069 0.50426590442657471 0.12071505934000015
0.56830120086669922 0.50132143497467041 0.06563878059387207
0.67295509576797485 0.49972715973854065 0.028778510168194771
0.7595365047454834 0.49277499318122864 0.014830286614596844
0.83731114864349365 0.48437434434890747 0.0092281121760606766
0.90408921241760254 0.47745844721794128 0.0072482391260564327
0.96478939056396484 0.47494861483573914 0.0050338595174252987
0.99289405345916748 0.47247445583343506 0.0082653714343905449
0.0011246176436543465 0.61538708209991455 0.24644148349761963
0.0010476355673745275 0.61998558044433594 0.25042575597763062
0.002827752847224474 0.62039768695831299 0.2485271692276001
0.010625950992107391 0.62085086107254028 0.24223396182060242
0.19899328052997589 0.61422884464263916 0.2236296534538269
0.39750796556472778 0.59965336322784424 0.1927119642496109
0.53490036725997925 0.5883602499961853 0.14592349529266357
0.64980220794677734 0.58079034090042114 0.089980483055114746
0.74434179067611694 0.57361745834350586 0.04735870286822319
0.82909977436065674 0.56804585456848145 0.023865373805165291
0.90528160333633423 0.5613710880279541 0.010415724478662014
0.96974730491638184 0.55700212717056274 0.0075193517841398716
0.99561280012130737 0.55398637056350708 0.0064154979772865772
0.0019716299138963223 0.69682490825653076 0.31290391087532043
0.0033486010506749153 0.69831657409667969 0.31898677349090576
0.0034066145308315754 0.69906431436538696 0.31849616765975952
0.012802138924598694 0.70050501823425293 0.31524848937988281
0.1774880439043045 0.69663602113723755 0.30316340923309326
0.36432778835296631 0.68289756774902344 0.27696570754051208
0.50364828109741211 0.6702389121055603 0.24257589876651764
0.61702686548233032 0.65670382976531982 0.19885766506195068
0.71928989887237549 0.64822244644165039 0.14832112193107605
0.8125985860824585 0.64496093988418579 0.097240164875984192
0.89600330591201782 0.64245462417602539 0.061420351266860962
0.96753400564193726 0.63894730806350708 0.032326657325029373
0.99740338325500488 0.63408935070037842 0.016623253002762794
0.0031853022519499063 0.77042174339294434 0.38680306077003479
0.0069009070284664631 0.77103430032730103 0.38907164335250854
0.012571941129863262 0.77131575345993042 0.38867607712745667
0.078041836619377136 0.77175891399383545 0.38717809319496155
0.22743968665599823 0.76906901597976685 0.38330984115600586
0.37466508150100708 0.76102989912033081 0.36584675312042236
0.49814045429229736 0.74712246656417847 0.33557075262069702
0.59830188751220703 0.7332993745803833 0.30054435133934021
0.69400334358215332 0.72450023889541626 0.26220560073852539
0.78637361526489258 0.71983033418655396 0.2188001275062561
0.87659597396850586 0.71950501203536987 0.17863450944423676
0.95584511756896973 0.71867245435714722 0.1471317857503891
0.99558967351913452 0.71506351232528687 0.12015382200479507
0.064564511179924011 0.83756697177886963 0.45928424596786499
0.092686057090759277 0.8389924168586731 0.46058222651481628
0.1473260223865509 0.83790165185928345 0.46124899387359619
0.23068569600582123 0.83674979209899902 0.46329626441001892
0.31533658504486084 0.83507728576660156 0.46397867798805237
0.40696558356285095 0.83210849761962891 0.45396286249160767
0.49958178400993347 0.82192295789718628 0.43259823322296143
0.58983331918716431 0.8110387921333313 0.40873780846595764
0.67510068416595459 0.80310183763504028 0.3793213963508606
0.76057237386703491 0.79641264677047729 0.339620441198349
0.85241550207138062 0.79647368192672729 0.30476963520050049
0.93675714731216431 0.79440855979919434 0.27442458271980286
0.98998171091079712 0.79116994142532349 0.24883286654949188
0.2689574658870697 0.89619928598403931 0.53770661354064941
0.28622502088546753 0.89404153823852539 0.5384175181388855
0.31135573983192444 0.89141929149627686 0.53837573528289795
0.35417070984840393 0.89111447334289551 0.53993719816207886
0.40371692180633545 0.89086079597473145 0.54081261157989502
0.45554324984550476 0.89189994335174561 0.53809183835983276
0.52504318952560425 0.88572472333908081 0.52443480491638184
0.59801757335662842 0.87924849987030029 0.51016008853912354
0.67131960391998291 0.87292313575744629 0.48831278085708618
0.74241054058074951 0.86819136142730713 0.4575076699256897
0.8248908519744873 0.86516416072845459 0.42614468932151794
0.91130810976028442 0.86322438716888428 0.39244532585144043
0.9799504280090332 0.86434686183929443 0.36357331275939941
0.41918545961380005 0.94266802072525024 0.61725449562072754
0.43072003126144409 0.94072562456130981 0.61803579330444336
0.44258314371109009 0.93871253728866577 0.61754918098449707
0.46899643540382385 0.93869590759277344 0.620097815990448
0.50519520044326782 0.93843680620193481 0.6211087703704834
0.53447836637496948 0.93986457586288452 0.6211736798286438
0.57882726192474365 0.93822211027145386 0.61733436584472656
0.63242393732070923 0.93440568447113037 0.6079590916633606
0.68812459707260132 0.93134188652038574 0.58962827920913696
0.74730879068374634 0.92773813009262085 0.56712114810943604
0.81283378601074219 0.92284303903579712 0.54139071702957153
0.88873159885406494 0.92138028144836426 0.51359808444976807
0.95140993595123291 0.92247921228408813 0.4918607771396637
0.54468578100204468 0.97985744476318359 0.69454765319824219
0.5539202094078064 0.980663001537323 0.69660085439682007
0.56338709592819214 0.9803311824798584 0.69687998294830322
0.58011358976364136 0.98014026880264282 0.69885724782943726
0.59941089153289795 0.97984069585800171 0.69976508617401123
0.6193050742149353 0.97997540235519409 0.70161581039428711
0.6505088210105896 0.97953683137893677 0.70073080062866211
0.68302375078201294 0.97650861740112305 0.69439202547073364
0.72321313619613647 0.97557610273361206 0.68036872148513794
0.76301854848861694 0.97503769397735596 0.66893959045410156
0.81332510709762573 0.97387933731079102 0.65529245138168335
0.86889690160751343 0.97224938869476318 0.63599580526351929
0.91658014059066772 0.97329378128051758 0.62235176563262939
0.0030194451101124287 0.047783061861991882 0.18840782344341278
0.012024374678730965 0.047991059720516205 0.18312464654445648
0.073294229805469513 0.045433629304170609 0.17202885448932648
0.16953761875629425 0.035671576857566833 0.1627005934715271
0.28892451524734497 0.014529853127896786 0.15625663101673126
0.41680407524108887 0.0075461892411112785 0.15244457125663757
0.53201788663864136 0.0054593402892351151 0.144783616065979
0.6361200213432312 0.004498844500631094 0.12659792602062225
0.72606462240219116 0.0052363378927111626 0.11294285207986832
0.80033570528030396 0.0080119865015149117 0.10020210593938828
0.86983752250671387 0.017129935324192047 0.085128635168075562
0.93830782175064087 0.042777221649885178 0.066902250051498413
0.98833942413330078 0.081693284213542938 0.047869782894849777
0.0017352384747937322 0.091998189687728882 0.18653637170791626
0.0068415324203670025 0.093800529837608337 0.18234539031982422
0.064110942184925079 0.094210244715213776 0.17547251284122467
0.17520824074745178 0.091698288917541504 0.16828031837940216
0.29922753572463989 0.068427354097366333 0.15967836976051331
0.42207860946655273 0.037362236529588699 0.14811529219150543
0.5398668646812439 0.030235873535275459 0.14128905534744263
0.64278769493103027 0.033369369804859161 0.12995514273643494
0.72855466604232788 0.041509531438350677 0.11695709079504013
0.8020622730255127 0.05338682234287262 0.10596758127212524
0.87211525440216064 0.076473191380500793 0.087664693593978882
0.94078034162521362 0.11062387377023697 0.062800630927085876
0.98662096261978149 0.14583590626716614 0.045017361640930176
0.00139680749271065 0.16481688618659973 0.18300428986549377
0.0060697370208799839 0.16631527245044708 0.18383154273033142
0.054133053869009018 0.16475425660610199 0.18040840327739716
0.19071479141712189 0.16969636082649231 0.17670311033725739
0.32245898246765137 0.15954375267028809 0.16428688168525696
0.44628387689590454 0.15205655992031097 0.14989897608757019
0.55881959199905396 0.1449485570192337 0.13881354033946991
0.65466052293777466 0.14825418591499329 0.12736214697360992
0.73750478029251099 0.15694823861122131 0.11207792907953262
0.80994212627410889 0.16917219758033752 0.10293580591678619
0.87916213274002075 0.18310214579105377 0.081224687397480011
0.94763863086700439 0.20084255933761597 0.059448931366205215
0.98869585990905762 0.2210620641708374 0.04141482338309288
0.00030333574977703393 0.26082450151443481 0.20275036990642548
0.0031834172550588846 0.26347914338111877 0.20438160002231598
0.03882019966840744 0.26294448971748352 0.20056113600730896
0.18562163412570953 0.2690681517124176 0.19365210831165314
0.3406156599521637 0.27524456381797791 0.17531551420688629
0.47522050142288208 0.28121474385261536 0.15632273256778717
0.58054667711257935 0.27257129549980164 0.13789147138595581
0.66981464624404907 0.26757356524467468 0.12036971747875214
0.75024747848510742 0.27087396383285522 0.10274995118379593
0.81943118572235107 0.27384546399116516 0.088333502411842346
0.88731276988983154 0.28084805607795715 0.070525377988815308
0.95068180561065674 0.28933554887771606 0.05453159287571907
0.99395030736923218 0.29971641302108765 0.037393487989902496
0.0032509299926459789 0.38726505637168884 0.2484709620475769
0.0048978915438055992 0.39129999279975891 0.24597245454788208
0.01640026643872261 0.39581921696662903 0.2358677089214325
0.13947254419326782 0.39740616083145142 0.22344836592674255
