luts/negative_old/fuji_superia_800_++.cube
# Created by: G'MIC (https://gmic.eu)
TITLE "fuji_superia_800_++"
# LUT size
LUT_3D_SIZE 7
# Data domain
DOMAIN_MIN 0.0 0.0 0.0
DOMAIN_MAX 1.0 1.0 1.0
# LUT data points
0.084698081016540527 0.19376245141029358 0.19343337416648865
0.13800546526908875 0.18606337904930115 0.19127762317657471
0.26213946938514709 0.19100321829319 0.18890978395938873
0.46467900276184082 0.19251225888729095 0.18233278393745422
0.6980292797088623 0.19167916476726532 0.16984197497367859
0.86263227462768555 0.21365180611610413 0.15406046807765961
0.97655683755874634 0.26090851426124573 0.12939052283763885
0.056162260472774506 0.23274511098861694 0.197040855884552
0.13016423583030701 0.24518595635890961 0.19419603049755096
0.28625506162643433 0.24305516481399536 0.18726953864097595
0.50779539346694946 0.26581251621246338 0.18512454628944397
0.71581363677978516 0.26744616031646729 0.1694098562002182
0.86999529600143433 0.28543964028358459 0.15156960487365723
0.9790956974029541 0.32085531949996948 0.12413345277309418
0.001982714980840683 0.41257220506668091 0.20972347259521484
0.050376445055007935 0.42536044120788574 0.203752800822258
0.36128067970275879 0.45086559653282166 0.17508590221405029
0.58914452791213989 0.44099658727645874 0.15503832697868347
0.73686319589614868 0.40156868100166321 0.16521428525447845
0.8676421046257019 0.41008162498474121 0.15989260375499725
0.9825860857963562 0.42133447527885437 0.13484238088130951
0.00053897930774837732 0.63876926898956299 0.26521551609039307
0.033655561506748199 0.64687997102737427 0.26384398341178894
0.35247209668159485 0.64370381832122803 0.23666025698184967
0.61882138252258301 0.63861089944839478 0.16492635011672974
0.78821837902069092 0.61550724506378174 0.12243448942899704
0.88794028759002686 0.56844902038574219 0.16162973642349243
0.98462837934494019 0.56291496753692627 0.18716393411159515
0.20109686255455017 0.7717050313949585 0.38437440991401672
0.3004601001739502 0.77141344547271729 0.39314672350883484
0.43673735857009888 0.76864296197891235 0.38591623306274414
0.5918891429901123 0.76508665084838867 0.33888253569602966
0.76788884401321411 0.76253139972686768 0.27103444933891296
0.91691279411315918 0.75795471668243408 0.2263980358839035
0.98430651426315308 0.72939950227737427 0.26724880933761597
0.54105275869369507 0.86441177129745483 0.56004661321640015
0.56274306774139404 0.86186313629150391 0.56335943937301636
0.61479610204696655 0.85906410217285156 0.56011980772018433
0.69249659776687622 0.85944628715515137 0.54504024982452393
0.7783743143081665 0.86054444313049316 0.51049482822418213
0.88732451200485229 0.86124229431152344 0.46430683135986328
0.98192977905273438 0.86148947477340698 0.43499359488487244
0.7410731315612793 0.93078643083572388 0.71125853061676025
0.74888181686401367 0.9298861026763916 0.71090066432952881
0.76652830839157104 0.92997866868972778 0.71258479356765747
0.79486745595932007 0.92958760261535645 0.71065658330917358
0.83444422483444214 0.92964786291122437 0.69697129726409912
0.88976186513900757 0.93315428495407104 0.68179267644882202
0.95078915357589722 0.93551051616668701 0.65600919723510742
0.079481311142444611 0.18944315612316132 0.2259085476398468
0.13932646811008453 0.18924866616725922 0.22568421065807343
0.26400360465049744 0.18671602010726929 0.2271621972322464
0.47836768627166748 0.15757432579994202 0.21656380593776703
0.68835532665252686 0.14745384454727173 0.21142461895942688
0.85134005546569824 0.16754239797592163 0.20477554202079773
0.97584623098373413 0.22756956517696381 0.18072551488876343
0.068723209202289581 0.22986523807048798 0.2374173104763031
0.14449873566627502 0.23868860304355621 0.24080957472324371
0.30568030476570129 0.23973487317562103 0.23987297713756561
0.52081912755966187 0.2334132045507431 0.23028495907783508
0.70610332489013672 0.23709927499294281 0.22182488441467285
0.86525613069534302 0.25654304027557373 0.19781655073165894
0.98494112491607666 0.29145932197570801 0.17961917817592621
0.0067560235038399696 0.40287238359451294 0.28247776627540588
0.10794978588819504 0.42005178332328796 0.28055080771446228
0.36473101377487183 0.43344298005104065 0.25918787717819214
0.57743799686431885 0.41810262203216553 0.23967987298965454
0.73019146919250488 0.38978153467178345 0.22880752384662628
0.86909657716751099 0.39505696296691895 0.21215768158435822
0.98454850912094116 0.41071626543998718 0.19719415903091431
0.010847607627511024 0.63143837451934814 0.34338140487670898
0.14696207642555237 0.63793325424194336 0.34714537858963013
0.38200053572654724 0.63335669040679932 0.33546072244644165
0.60703855752944946 0.62940269708633423 0.27327427268028259
0.77512925863265991 0.59993398189544678 0.23900340497493744
0.88241338729858398 0.56426429748535156 0.25112688541412354
0.98512125015258789 0.56226903200149536 0.25346603989601135
0.30471569299697876 0.76472586393356323 0.45096319913864136
0.37427061796188354 0.76593255996704102 0.46251985430717468
0.47760623693466187 0.76385152339935303 0.45166820287704468
0.60822933912277222 0.76087838411331177 0.41674959659576416
0.78087955713272095 0.75875484943389893 0.36017471551895142
0.91026926040649414 0.75159406661987305 0.32130321860313416
0.98473161458969116 0.72460591793060303 0.34912103414535522
0.57403206825256348 0.86045318841934204 0.59415489435195923
0.59527897834777832 0.86023497581481934 0.59736424684524536
0.6335066556930542 0.85566115379333496 0.59407085180282593
0.7099120020866394 0.8598136305809021 0.58666568994522095
0.78581655025482178 0.85789334774017334 0.55351513624191284
0.88746887445449829 0.85890334844589233 0.51662695407867432
0.97879999876022339 0.8614622950553894 0.48776790499687195
0.75631344318389893 0.93184196949005127 0.72832280397415161
0.75660866498947144 0.92796134948730469 0.72458076477050781
0.77662187814712524 0.9286644458770752 0.72960108518600464
0.80679947137832642 0.92942094802856445 0.72808575630187988
0.84078359603881836 0.92766880989074707 0.71592491865158081
0.89253652095794678 0.93294250965118408 0.70169055461883545
0.94802874326705933 0.93474787473678589 0.68433719873428345
0.078031636774539948 0.1860027015209198 0.32143768668174744
0.15285427868366241 0.1860056072473526 0.32265803217887878
0.26863881945610046 0.18995139002799988 0.32654640078544617
0.47533535957336426 0.17726312577724457 0.33997941017150879
0.70345687866210938 0.062243860214948654 0.32390502095222473
0.8689652681350708 0.013961507938802242 0.2820429801940918
0.98612922430038452 0.1119530200958252 0.26850786805152893
0.021579772233963013 0.22206991910934448 0.34040006995201111
0.13685385882854462 0.23175927996635437 0.34539040923118591
0.30764058232307434 0.24299073219299316 0.35387620329856873
0.52361470460891724 0.24212735891342163 0.35910183191299438
0.72553926706314087 0.16941139101982117 0.32181510329246521
0.87283676862716675 0.1584676206111908 0.2938239574432373
0.98223835229873657 0.24278262257575989 0.28237789869308472
0.0091889919713139534 0.39703679084777832 0.39608663320541382
0.14508929848670959 0.40300565958023071 0.41007530689239502
0.36443248391151428 0.40603405237197876 0.40500056743621826
0.56515175104141235 0.38752150535583496 0.37732142210006714
0.73284190893173218 0.36707103252410889 0.35710358619689941
0.86878293752670288 0.37404167652130127 0.33170956373214722
0.98068916797637939 0.39729470014572144 0.30767965316772461
0.23343241214752197 0.62000924348831177 0.47970712184906006
0.32849454879760742 0.61990553140640259 0.48356658220291138
0.43709260225296021 0.61090481281280518 0.46738779544830322
0.59877049922943115 0.60458332300186157 0.42856061458587646
0.75324344635009766 0.57389324903488159 0.39329683780670166
0.87235778570175171 0.55002325773239136 0.38119781017303467
0.97428148984909058 0.55853760242462158 0.37011033296585083
0.4548155665397644 0.75324922800064087 0.55709290504455566
0.48310625553131104 0.75191575288772583 0.55525118112564087
0.54165750741958618 0.75165796279907227 0.54785019159317017
0.64304560422897339 0.7504081130027771 0.52971857786178589
0.77693641185760498 0.75056827068328857 0.48657682538032532
0.89118218421936035 0.73706519603729248 0.46215778589248657
0.9704553484916687 0.72218507528305054 0.46892982721328735
0.62800592184066772 0.85350829362869263 0.65612173080444336
0.65190547704696655 0.85218489170074463 0.65847498178482056
0.68250983953475952 0.84986031055450439 0.65749776363372803
0.7321736216545105 0.85399413108825684 0.65332835912704468
0.80479830503463745 0.85059559345245361 0.62242990732192993
0.90023255348205566 0.85718452930450439 0.58864939212799072
0.97410953044891357 0.85617357492446899 0.57621473073959351
0.77043449878692627 0.92648828029632568 0.75464636087417603
0.77950394153594971 0.92769312858581543 0.75594609975814819
0.79181921482086182 0.92485052347183228 0.75517058372497559
0.81432604789733887 0.9267534613609314 0.75456780195236206
0.85219931602478027 0.92671793699264526 0.7470669150352478
0.89881694316864014 0.92952746152877808 0.73311537504196167
0.94952690601348877 0.93308049440383911 0.72144407033920288
0.070991814136505127 0.18184894323348999 0.47185969352722168
0.1776726096868515 0.18183428049087524 0.47560781240463257
0.31785193085670471 0.18226015567779541 0.478433758020401
0.49216112494468689 0.17511789500713348 0.48546710610389709
0.67954307794570923 0.17477923631668091 0.4957270622253418
0.8555222749710083 0.17491985857486725 0.49382686614990234
0.98804688453674316 0.084423676133155823 0.4546068012714386
0.016243983060121536 0.22450259327888489 0.49931076169013977
0.15769992768764496 0.23519262671470642 0.50400161743164062
0.34545457363128662 0.23648783564567566 0.50449955463409424
0.53030097484588623 0.24527163803577423 0.50963455438613892
0.69964969158172607 0.26620015501976013 0.51095855236053467
0.86561602354049683 0.2537057101726532 0.49371543526649475
0.99065077304840088 0.17500294744968414 0.44698941707611084
0.0031631169840693474 0.35802879929542542 0.53500556945800781
0.059800811111927032 0.35635879635810852 0.541462242603302
0.35548913478851318 0.37728077173233032 0.5407034158706665
0.55341958999633789 0.39865586161613464 0.5315813422203064
0.7201085090637207 0.41250976920127869 0.52773928642272949
0.87237024307250977 0.37268176674842834 0.48237374424934387
0.98809897899627686 0.35091379284858704 0.44696715474128723
0.13242018222808838 0.58430123329162598 0.57862359285354614
0.28953143954277039 0.58282148838043213 0.58472132682800293
0.4443962574005127 0.57877975702285767 0.57638263702392578
0.58327996730804443 0.56880444288253784 0.56447237730026245
0.73639476299285889 0.55666238069534302 0.5412173867225647
0.87158834934234619 0.53971725702285767 0.51465094089508057
0.97801417112350464 0.54306536912918091 0.50050550699234009
0.51529312133789062 0.74505984783172607 0.64680618047714233
0.54961597919464111 0.74269938468933105 0.64908099174499512
0.59838771820068359 0.73817586898803711 0.64046525955200195
0.66456443071365356 0.73187780380249023 0.63082945346832275
0.76794898509979248 0.73127084970474243 0.61171054840087891
0.88460105657577515 0.72329616546630859 0.58450889587402344
0.97420060634613037 0.71522802114486694 0.57141363620758057
0.69304388761520386 0.85034382343292236 0.72478479146957397
0.70161432027816772 0.84851861000061035 0.72109442949295044
0.72931480407714844 0.84902799129486084 0.71990770101547241
0.76013761758804321 0.84975093603134155 0.70991390943527222
0.81159687042236328 0.85159051418304443 0.70339089632034302
0.89251029491424561 0.85389620065689087 0.67677265405654907
0.96996748447418213 0.85385632514953613 0.65619051456451416
0.80155110359191895 0.92443704605102539 0.79541134834289551
0.80402243137359619 0.92302978038787842 0.79241597652435303
0.8154100775718689 0.92442977428436279 0.79013323783874512
0.83591353893280029 0.92258697748184204 0.78941506147384644
0.86269491910934448 0.92674082517623901 0.78838098049163818
0.90501028299331665 0.92762315273284912 0.77514398097991943
0.95355647802352905 0.93385809659957886 0.76111656427383423
0.13460755348205566 0.17405039072036743 0.62774395942687988
0.23269888758659363 0.17523160576820374 0.62878304719924927
0.37280994653701782 0.17751094698905945 0.62755250930786133
0.53269416093826294 0.16984589397907257 0.63000303506851196
0.69377082586288452 0.16768370568752289 0.63322526216506958
0.8373488187789917 0.22697541117668152 0.63396590948104858
0.96860027313232422 0.36578607559204102 0.65408152341842651
0.11837174743413925 0.22243334352970123 0.65410065650939941
0.23077079653739929 0.22671613097190857 0.65653520822525024
0.38860931992530823 0.23040042817592621 0.64671474695205688
0.55364608764648438 0.23843559622764587 0.63810950517654419
0.7058870792388916 0.26249316334724426 0.63977086544036865
0.84539699554443359 0.31579411029815674 0.64643365144729614
0.96898812055587769 0.423296719789505 0.66111505031585693
0.021575178951025009 0.32706525921821594 0.66028338670730591
0.17487408220767975 0.34147822856903076 0.66496175527572632
0.37989681959152222 0.36269232630729675 0.655120849609375
0.56369632482528687 0.38189044594764709 0.65132987499237061
0.71944153308868408 0.4096466600894928 0.64994329214096069
0.8471907377243042 0.45673605799674988 0.65466761589050293
0.96500438451766968 0.50866836309432983 0.66396045684814453
0.015178470872342587 0.50675678253173828 0.66735333204269409
0.1120176762342453 0.50569212436676025 0.66859477758407593
0.34985807538032532 0.50679153203964233 0.66364938020706177
0.55507135391235352 0.53206562995910645 0.66268247365951538
0.72901064157485962 0.56413346529006958 0.66804587841033936
0.8564373254776001 0.59602367877960205 0.67075043916702271
0.97026759386062622 0.58060753345489502 0.64733231067657471
0.42564636468887329 0.7105979323387146 0.71193599700927734
0.4679463803768158 0.70806300640106201 0.71340525150299072
0.55856937170028687 0.71027147769927979 0.71156483888626099
0.65760707855224609 0.707244873046875 0.70559322834014893
0.76552492380142212 0.71180087327957153 0.70110297203063965
0.86699122190475464 0.7050970196723938 0.68252331018447876
0.97085863351821899 0.6925346851348877 0.66816610097885132
0.70835983753204346 0.84949856996536255 0.77732348442077637
0.72003346681594849 0.84810459613800049 0.77725470066070557
0.74979096651077271 0.84755790233612061 0.77701348066329956
0.78256750106811523 0.84528166055679321 0.77276051044464111
0.8220597505569458 0.83939558267593384 0.76585370302200317
0.88946312665939331 0.83615279197692871 0.74781948328018188
0.96327799558639526 0.83850544691085815 0.73346537351608276
0.81923574209213257 0.92294847965240479 0.83397591114044189
0.82685834169387817 0.92289906740188599 0.83455508947372437
0.84114938974380493 0.9238852858543396 0.83625692129135132
0.85500389337539673 0.91975432634353638 0.83050245046615601
0.87344354391098022 0.91884112358093262 0.82775849103927612
0.90725064277648926 0.92525237798690796 0.82456529140472412
0.95499831438064575 0.93042629957199097 0.81122124195098877
0.2703913152217865 0.16881081461906433 0.76427781581878662
0.33529815077781677 0.17000307142734528 0.76650184392929077
0.44936823844909668 0.1716231107711792 0.76460635662078857
0.58293133974075317 0.16617602109909058 0.76124578714370728
0.73186945915222168 0.20216688513755798 0.75879698991775513
0.8660348653793335 0.26808685064315796 0.76323974132537842
0.96406632661819458 0.37037196755409241 0.76478952169418335
0.26159673929214478 0.22576378285884857 0.77106744050979614
0.33351317048072815 0.22183398902416229 0.77470940351486206
0.45492249727249146 0.24020303785800934 0.77029824256896973
0.59174686670303345 0.24329712986946106 0.76303845643997192
0.73484903573989868 0.28236091136932373 0.76114606857299805
0.8640257716178894 0.34072250127792358 0.76688545942306519
0.96072304248809814 0.4252530038356781 0.76759445667266846
0.21430104970932007 0.32889842987060547 0.77422362565994263
0.29936712980270386 0.33864504098892212 0.77238219976425171
0.43231558799743652 0.35611304640769958 0.77081602811813354
0.58697134256362915 0.37045615911483765 0.76684129238128662
0.74054491519927979 0.4120800793170929 0.76318323612213135
0.85800886154174805 0.46594232320785522 0.76764917373657227
0.95499926805496216 0.53182721138000488 0.77304065227508545
0.0054382174275815487 0.44955441355705261 0.77056056261062622
0.097996175289154053 0.45358088612556458 0.76998579502105713
0.37730506062507629 0.47837254405021667 0.77080821990966797
0.57324087619781494 0.51579880714416504 0.76948118209838867
0.7409132719039917 0.5512581467628479 0.77243822813034058
0.85829758644104004 0.59471887350082397 0.77864676713943481
0.94988459348678589 0.63773989677429199 0.78493833541870117
0.27809146046638489 0.66088443994522095 0.78451907634735107
0.32463774085044861 0.65321105718612671 0.78410965204238892
0.43433108925819397 0.64116090536117554 0.7826162576675415
0.56512784957885742 0.64625662565231323 0.77871787548065186
0.73443722724914551 0.68112790584564209 0.78684413433074951
0.86264562606811523 0.71959787607192993 0.79214686155319214
0.94894635677337646 0.74491900205612183 0.79667556285858154
0.63158243894577026 0.82649391889572144 0.82529354095458984
0.65398341417312622 0.82777136564254761 0.82184678316116333
0.68626022338867188 0.82440841197967529 0.82078355550765991
0.74341708421707153 0.82164198160171509 0.82538318634033203
0.80992448329925537 0.82359373569488525 0.82602816820144653
0.8831062912940979 0.82917523384094238 0.81564253568649292
0.95775878429412842 0.82649260759353638 0.80417031049728394
0.83032798767089844 0.92535132169723511 0.86829757690429688
0.83505558967590332 0.92506450414657593 0.8706585168838501
0.84734636545181274 0.92218953371047974 0.87056100368499756
0.86925947666168213 0.92366933822631836 0.87492090463638306
0.89308685064315796 0.92455661296844482 0.87351417541503906
0.91939854621887207 0.92111307382583618 0.8678964376449585
0.95539546012878418 0.92666161060333252 0.86176025867462158
0.44449111819267273 0.20669324696063995 0.88791131973266602
0.48805338144302368 0.21451458334922791 0.88772767782211304
0.57159960269927979 0.2281118631362915 0.88463097810745239
0.68029475212097168 0.25627920031547546 0.88195937871932983
0.79879879951477051 0.31933355331420898 0.88046437501907349
0.90278571844100952 0.40923550724983215 0.87905788421630859
0.97667950391769409 0.48192718625068665 0.87706619501113892
0.44576379656791687 0.26964882016181946 0.88995832204818726
0.48548111319541931 0.2744690477848053 0.88825982809066772
0.57133924961090088 0.28525996208190918 0.88683217763900757
0.68224883079528809 0.31704103946685791 0.8844490647315979
0.79656672477722168 0.37507149577140808 0.87988615036010742
0.89574015140533447 0.45078650116920471 0.87673783302307129
0.98118644952774048 0.52325481176376343 0.87871932983398438
0.42236554622650146 0.3699544370174408 0.88706457614898682
0.4710175096988678 0.37809386849403381 0.8870425820350647
0.56319260597229004 0.39688673615455627 0.88431936502456665
0.6798931360244751 0.42503499984741211 0.88243764638900757
0.79321616888046265 0.4699835479259491 0.87739580869674683
0.88965320587158203 0.5343163013458252 0.87502729892730713
0.97487270832061768 0.58994138240814209 0.87708717584609985
0.32188773155212402 0.48196116089820862 0.8898855447769165
0.40599092841148376 0.49450623989105225 0.88914245367050171
0.52982169389724731 0.51594442129135132 0.886199951171875
0.66044473648071289 0.54186433553695679 0.88130712509155273
0.79105174541473389 0.57974064350128174 0.8834916353225708
0.88393169641494751 0.62266868352890015 0.87718558311462402
0.96104252338409424 0.66170483827590942 0.87079936265945435
0.21313978731632233 0.61761558055877686 0.89038717746734619
0.29128167033195496 0.61568248271942139 0.88919961452484131
0.42570039629936218 0.61788374185562134 0.88584250211715698
0.60374349355697632 0.64245057106018066 0.88440370559692383
0.7583543062210083 0.68142604827880859 0.88478749990463257
0.87352406978607178 0.7227475643157959 0.88372290134429932
0.95817512273788452 0.75676977634429932 0.88512355089187622
0.5692865252494812 0.80509978532791138 0.89697813987731934
0.58739274740219116 0.80431622266769409 0.89673012495040894
0.62249040603637695 0.79587250947952271 0.89507699012756348
0.67325866222381592 0.78910082578659058 0.89394134283065796
0.74738419055938721 0.7847893238067627 0.89172536134719849
0.85513138771057129 0.81208652257919312 0.88989049196243286
0.94984310865402222 0.83794540166854858 0.89143705368041992
0.78505337238311768 0.9206128716468811 0.91283696889877319
0.7916872501373291 0.92000788450241089 0.91292566061019897
0.80834180116653442 0.91870790719985962 0.91240894794464111
0.83333837985992432 0.91662341356277466 0.91245943307876587
0.88004833459854126 0.91763901710510254 0.90757191181182861
0.91104912757873535 0.9213835597038269 0.91392076015472412
0.94817304611206055 0.92350262403488159 0.91444104909896851
