luts/negative_old/fuji_superia_400_-.cube
# Created by: G'MIC (https://gmic.eu)
TITLE "fuji_superia_400_-"
# LUT size
LUT_3D_SIZE 13
# Data domain
DOMAIN_MIN 0.0 0.0 0.0
DOMAIN_MAX 1.0 1.0 1.0
# LUT data points
0.0084349093958735466 0.038491971790790558 0.037106741219758987
0.040256395936012268 0.042120255529880524 0.035474546253681183
0.11755341291427612 0.047394771128892899 0.037725426256656647
0.21642380952835083 0.046953793615102768 0.033729195594787598
0.32566612958908081 0.039797957986593246 0.026719694957137108
0.44257837533950806 0.021035498008131981 0.025337442755699158
0.5647997260093689 0.0086322110146284103 0.023868560791015625
0.67921876907348633 0.0078551052138209343 0.017231002449989319
0.77810043096542358 0.003768053138628602 0.010529267601668835
0.85964113473892212 0.0056435228325426579 0.0035292082466185093
0.93524235486984253 0.031477294862270355 0.00010735006799222901
0.98615163564682007 0.12525229156017303 9.3497483248938806e-06
0.99836021661758423 0.21397204697132111 0.0011975605739280581
0.0046465704217553139 0.083841703832149506 0.048341430723667145
0.036462672054767609 0.088127836585044861 0.043610919266939163
0.12080239504575729 0.09833991527557373 0.034336298704147339
0.22561003267765045 0.099681541323661804 0.025198409333825111
0.33832845091819763 0.094555675983428955 0.020922178402543068
0.45562055706977844 0.073383331298828125 0.018929246813058853
0.57534694671630859 0.045079894363880157 0.0141665143892169
0.68612849712371826 0.031231256201863289 0.006961403414607048
0.78141659498214722 0.030165204778313637 0.0038552677724510431
0.86185657978057861 0.056430008262395859 0.0016908533871173859
0.93517094850540161 0.11621837317943573 0.0023931765463203192
0.98927086591720581 0.18272794783115387 0.00080060772597789764
0.99834871292114258 0.24652068316936493 0.00037220973172225058
0.0031123890075832605 0.14731961488723755 0.065290562808513641
0.019195901229977608 0.15240602195262909 0.059809934347867966
0.10597656667232513 0.17070840299129486 0.041852943599224091
0.2352297455072403 0.19264040887355804 0.020234934985637665
0.35325011610984802 0.18195849657058716 0.0099923228845000267
0.46898084878921509 0.16324347257614136 0.0066065322607755661
0.58572405576705933 0.15079016983509064 0.0051954532973468304
0.68827331066131592 0.13895151019096375 0.0048866122961044312
0.7786935567855835 0.14250688254833221 0.0047254376113414764
0.85938233137130737 0.17209315299987793 0.0043675140477716923
0.93201464414596558 0.213724285364151 0.0034462723415344954
0.98594802618026733 0.2555701732635498 0.0017848743591457605
0.99848133325576782 0.30319046974182129 0.00085372925968840718
0.00078021781519055367 0.22192065417766571 0.084069721400737762
0.0072799981571733952 0.22766901552677155 0.083055280148983002
0.06895071268081665 0.24605818092823029 0.066888324916362762
0.21154186129570007 0.28824710845947266 0.030420819297432899
0.37779948115348816 0.31849461793899536 0.0050718570128083229
0.49678561091423035 0.30301278829574585 0.0023324855137616396
0.59883064031600952 0.27372968196868896 0.0023249308578670025
0.69120949506759644 0.25689619779586792 0.0035702274180948734
0.77526897192001343 0.2619749903678894 0.0049187755212187767
0.8543388843536377 0.27731013298034668 0.0061045330949127674
0.92704868316650391 0.29873442649841309 0.0036432752385735512
0.98721188306808472 0.32773289084434509 0.0022846744395792484
0.9994584321975708 0.36494606733322144 0.0019388984655961394
0.0026047800201922655 0.31806376576423645 0.12303079664707184
0.0069983238354325294 0.32588320970535278 0.12598979473114014
0.055028427392244339 0.34197986125946045 0.11439599096775055
0.18594232201576233 0.37629669904708862 0.075098715722560883
0.34839227795600891 0.42325425148010254 0.022675232961773872
0.5183754563331604 0.45427629351615906 0.0026336819864809513
0.62481290102005005 0.42992150783538818 0.0014880461385473609
0.70299166440963745 0.39297902584075928 0.0031812929082661867
0.77567732334136963 0.3728729784488678 0.0033265806268900633
0.84822589159011841 0.36733278632164001 0.0034197939094156027
0.91948848962783813 0.38047167658805847 0.0018418853869661689
0.98252213001251221 0.3997122049331665 0.0016830893000587821
0.99828845262527466 0.42649668455123901 0.00091914756922051311
0.0040814266540110111 0.42014035582542419 0.17853343486785889
0.009298885241150856 0.4264129102230072 0.17814254760742188
0.067005902528762817 0.43375152349472046 0.17122229933738708
0.17775073647499084 0.4548652172088623 0.15186534821987152
0.31011390686035156 0.48999509215354919 0.10689499974250793
0.4676201343536377 0.53385621309280396 0.042771343141794205
0.62731450796127319 0.56493496894836426 0.0055203903466463089
0.72666454315185547 0.54708462953567505 0.0026875215116888285
0.79096740484237671 0.51154989004135132 0.0017825406976044178
0.8514024019241333 0.47721377015113831 0.00057332654250785708
0.91555565595626831 0.46632093191146851 0.00010070800635730848
0.9785616397857666 0.47725871205329895 0.00057365564862266183
0.99609476327896118 0.48750942945480347 1.1668485967675224e-05
0.011333554983139038 0.51178824901580811 0.22980290651321411
0.038445655256509781 0.5153430700302124 0.22927781939506531
0.11320473253726959 0.51581031084060669 0.22959226369857788
0.20864871144294739 0.52631491422653198 0.22119484841823578
0.30556318163871765 0.54980051517486572 0.20093175768852234
0.42940095067024231 0.58575040102005005 0.16067987680435181
0.57064372301101685 0.62264728546142578 0.090674504637718201
0.71878999471664429 0.6563955545425415 0.024699416011571884
0.81151360273361206 0.64599227905273438 0.0029046002309769392
0.86767035722732544 0.60725271701812744 0.0028504165820777416
0.92570310831069946 0.58557581901550293 0.0016966875409707427
0.97765088081359863 0.57117158174514771 0.00041665468597784638
0.99812310934066772 0.56216400861740112 0.00023579316621180624
0.089296348392963409 0.5870516300201416 0.28361010551452637
0.13707610964775085 0.58945947885513306 0.29074618220329285
0.19254603981971741 0.58793312311172485 0.29088389873504639
0.25715860724449158 0.59077924489974976 0.28957802057266235
0.32911673188209534 0.60703164339065552 0.27823647856712341
0.42524349689483643 0.63504809141159058 0.26004979014396667
0.54198861122131348 0.66782623529434204 0.22249948978424072
0.66535496711730957 0.7003018856048584 0.16662564873695374
0.79393154382705688 0.73183518648147583 0.091043643653392792
0.88224172592163086 0.72968846559524536 0.036105047911405563
0.93757492303848267 0.70626974105834961 0.0075687631033360958
0.98131400346755981 0.68178671598434448 0.0033440385013818741
0.99949949979782104 0.66407251358032227 0.0042650112882256508
0.20972625911235809 0.65737396478652954 0.34946313500404358
0.23674304783344269 0.65877705812454224 0.35267877578735352
0.27648749947547913 0.65754187107086182 0.35438293218612671
0.32017824053764343 0.65659207105636597 0.35633274912834167
0.37128570675849915 0.66541987657546997 0.35272747278213501
0.44077551364898682 0.6884537935256958 0.34290698170661926
0.53239291906356812 0.71455889940261841 0.32553064823150635
0.63117563724517822 0.74162012338638306 0.30222642421722412
0.74389195442199707 0.76892542839050293 0.26915186643600464
0.85697132349014282 0.79634380340576172 0.22126069664955139
0.94028913974761963 0.80250626802444458 0.15266440808773041
0.98692035675048828 0.78510171175003052 0.086272329092025757
0.99995404481887817 0.76621365547180176 0.036227356642484665
0.31892937421798706 0.72849202156066895 0.42510950565338135
0.33372893929481506 0.72870242595672607 0.42249983549118042
0.36230373382568359 0.72841638326644897 0.42678886651992798
0.39881670475006104 0.72849613428115845 0.43171656131744385
0.4305013120174408 0.73010808229446411 0.42949697375297546
0.48195919394493103 0.7435297966003418 0.42394134402275085
0.54979199171066284 0.76427453756332397 0.41525459289550781
0.62907755374908447 0.7869642972946167 0.40574976801872253
0.72056883573532104 0.81068789958953857 0.3902246356010437
0.82317674160003662 0.83236980438232422 0.36519578099250793
0.91809380054473877 0.85732698440551758 0.33607202768325806
0.97936815023422241 0.86337929964065552 0.30381542444229126
0.99798750877380371 0.84995996952056885 0.25155878067016602
0.42258545756340027 0.79769939184188843 0.50204342603683472
0.43664118647575378 0.79804211854934692 0.50485742092132568
0.45978429913520813 0.79817056655883789 0.50907820463180542
0.48399531841278076 0.79671680927276611 0.51097768545150757
0.50653600692749023 0.79648667573928833 0.51058268547058105
0.54404735565185547 0.80374622344970703 0.50709265470504761
0.59458029270172119 0.81875163316726685 0.5048331618309021
0.66073691844940186 0.83585238456726074 0.5026710033416748
0.73145419359207153 0.85404527187347412 0.49797442555427551
0.80809611082077026 0.86981660127639771 0.48290693759918213
0.88656347990036011 0.88822507858276367 0.46525716781616211
0.95173019170761108 0.90494740009307861 0.45474660396575928
0.99152600765228271 0.91366750001907349 0.44496095180511475
0.54437065124511719 0.86037397384643555 0.59974914789199829
0.55649262666702271 0.86229169368743896 0.60472428798675537
0.57348161935806274 0.86274337768554688 0.60914015769958496
0.58976095914840698 0.8605608344078064 0.60934144258499146
0.60499650239944458 0.85786056518554688 0.60717886686325073
0.63214528560638428 0.86271744966506958 0.60594683885574341
0.66608798503875732 0.87226593494415283 0.60598087310791016
0.70936542749404907 0.88590139150619507 0.60762220621109009
0.76218622922897339 0.89882338047027588 0.60770589113235474
0.81864535808563232 0.90918588638305664 0.6004604697227478
0.8768545389175415 0.92185425758361816 0.5900384783744812
0.92533940076828003 0.93302112817764282 0.58175933361053467
0.97273683547973633 0.94364017248153687 0.5746467113494873
0.67594367265701294 0.92099857330322266 0.70674377679824829
0.6810225248336792 0.92107617855072021 0.7085077166557312
0.69086414575576782 0.92180716991424561 0.71194231510162354
0.70174014568328857 0.92132198810577393 0.71361052989959717
0.71365869045257568 0.92016977071762085 0.71387368440628052
0.73255020380020142 0.92199116945266724 0.71522170305252075
0.75203526020050049 0.92495816946029663 0.71428048610687256
0.77981334924697876 0.93400830030441284 0.71863514184951782
0.81050986051559448 0.94077974557876587 0.715423583984375
0.8424607515335083 0.94785058498382568 0.7130628228187561
0.88297873735427856 0.95698213577270508 0.70994734764099121
0.91899418830871582 0.96455252170562744 0.70254915952682495
0.95653057098388672 0.97155028581619263 0.69654875993728638
0.0099045252427458763 0.043569095432758331 0.076570756733417511
0.039304725825786591 0.04451465979218483 0.073053129017353058
0.11003796756267548 0.048102285712957382 0.071312129497528076
0.21391527354717255 0.042994927614927292 0.071077249944210052
0.32795211672782898 0.026663416996598244 0.07327723503112793
0.44717496633529663 0.0142198596149683 0.072322964668273926
0.56863683462142944 0.0095576122403144836 0.069449573755264282
0.67975354194641113 0.0087146088480949402 0.064869917929172516
0.77664762735366821 0.0069677764549851418 0.052839063107967377
0.85838031768798828 0.014620627276599407 0.041900947690010071
0.93151724338531494 0.066096194088459015 0.027631811797618866
0.98994594812393188 0.15019485354423523 0.01721954345703125
0.99996250867843628 0.22511452436447144 0.013710186816751957
0.005591029766947031 0.090985514223575592 0.087986230850219727
0.036641035228967667 0.093708395957946777 0.084226109087467194
0.12183041870594025 0.10178709030151367 0.078839488327503204
0.23054379224777222 0.10376691818237305 0.072555959224700928
0.34442880749702454 0.09062233567237854 0.071621902287006378
0.46044734120368958 0.075198322534561157 0.067988313734531403
0.57883012294769287 0.060789745301008224 0.062827527523040771
0.68905657529830933 0.043561823666095734 0.054219398647546768
0.78032505512237549 0.051524024456739426 0.044881287962198257
0.86024624109268188 0.08674997091293335 0.033817335963249207
0.93308943510055542 0.14198438823223114 0.021772107109427452
0.98558562994003296 0.19979099929332733 0.016545852646231651
0.99887931346893311 0.25700628757476807 0.011406109668314457
0.0050980360247194767 0.15714357793331146 0.10477332025766373
0.038753196597099304 0.15946440398693085 0.10082618892192841
0.12292909622192383 0.17219020426273346 0.091979116201400757
0.24133986234664917 0.18323025107383728 0.072709493339061737
0.35904550552368164 0.17761263251304626 0.062753759324550629
0.47536614537239075 0.17282167077064514 0.054221000522375107
0.59025758504867554 0.1670253723859787 0.044545717537403107
0.69113260507583618 0.1576727032661438 0.039632610976696014
0.77904987335205078 0.16348913311958313 0.031984530389308929
0.85942035913467407 0.19125171005725861 0.022394981235265732
0.93160206079483032 0.22313998639583588 0.015812607482075691
0.9831465482711792 0.26496300101280212 0.011261435225605965
0.99909919500350952 0.31086322665214539 0.0077245375141501427
0.0042063095606863499 0.23718973994255066 0.1244378462433815
0.03544037789106369 0.24290068447589874 0.12555135786533356
0.1064501628279686 0.25514394044876099 0.11981318145990372
0.23368971049785614 0.28891506791114807 0.091594308614730835
0.38470560312271118 0.31407845020294189 0.051536872982978821
0.50185364484786987 0.29995176196098328 0.033377718180418015
0.60362470149993896 0.27519023418426514 0.021664263680577278
0.69364696741104126 0.26759812235832214 0.020952919498085976
0.77882951498031616 0.27015197277069092 0.015991270542144775
0.85756790637969971 0.28347784280776978 0.01079234667122364
0.92922002077102661 0.30483070015907288 0.0073313694447278976
0.98282653093338013 0.33364370465278625 0.0078162550926208496
0.99802303314208984 0.37110260128974915 0.0071151433512568474
0.0041197235696017742 0.33722281455993652 0.16237792372703552
0.027139537036418915 0.34312000870704651 0.16508963704109192
0.10641945898532867 0.35294032096862793 0.16539928317070007
0.21609245240688324 0.37964347004890442 0.14486254751682281
0.3631538450717926 0.42314627766609192 0.093095488846302032
0.52322489023208618 0.45087826251983643 0.034407403320074081
0.62477058172225952 0.42452123761177063 0.01644967682659626
0.70429491996765137 0.3931528627872467 0.011279805563390255
0.77916765213012695 0.37432178854942322 0.0078991912305355072
0.85224741697311401 0.37279868125915527 0.006145477294921875
0.92158329486846924 0.38598895072937012 0.0063830208964645863
0.97965961694717407 0.40647158026695251 0.0079956203699111938
0.99810940027236938 0.43125835061073303 0.0054990430362522602
0.0097951702773571014 0.4366687536239624 0.21017587184906006
0.042195338755846024 0.43999543786048889 0.21201516687870026
0.12266561388969421 0.4452911913394928 0.21153485774993896
0.21064895391464233 0.45769646763801575 0.20080983638763428
0.32772102952003479 0.49031779170036316 0.17114341259002686
0.47692182660102844 0.5336383581161499 0.11530902236700058
0.63046705722808838 0.56335723400115967 0.042431686073541641
0.72573578357696533 0.54259973764419556 0.014390997588634491
0.79029446840286255 0.50773483514785767 0.0080828350037336349
0.85194003582000732 0.47611016035079956 0.0039899935945868492
0.91568982601165771 0.46837678551673889 0.0028094423469156027
0.9748350977897644 0.48146876692771912 0.0034233392216265202
0.99674373865127563 0.49722275137901306 0.002635701559484005
0.043570201843976974 0.51922023296356201 0.25753095746040344
0.10121102631092072 0.52282965183258057 0.26478716731071472
0.16571873426437378 0.5234830379486084 0.26601710915565491
0.23528392612934113 0.52704101800918579 0.26109972596168518
0.32520967721939087 0.55045729875564575 0.24283872544765472
0.4382857084274292 0.58534878492355347 0.21237955987453461
0.57810831069946289 0.62180280685424805 0.15807446837425232
0.71989518404006958 0.65394729375839233 0.085408680140972137
0.80977970361709595 0.64376497268676758 0.031487111002206802
0.86738002300262451 0.6082761287689209 0.0092949066311120987
0.92245495319366455 0.580890953540802 0.0037900737952440977
0.97369116544723511 0.56508761644363403 0.0018341513350605965
0.99824589490890503 0.56894528865814209 0.0030397004447877407
0.14137420058250427 0.59211748838424683 0.31139862537384033
0.17793957889080048 0.59436362981796265 0.31699919700622559
0.22772412002086639 0.59326851367950439 0.3199169933795929
0.28354257345199585 0.59421181678771973 0.31952250003814697
0.34864458441734314 0.60803002119064331 0.30943983793258667
0.43416744470596313 0.63538080453872681 0.29258424043655396
0.5421149730682373 0.66714954376220703 0.26450043916702271
0.66938287019729614 0.69975203275680542 0.2199883759021759
0.79622024297714233 0.73235964775085449 0.16180796921253204
0.87946426868438721 0.72762352228164673 0.097914643585681915
0.93577671051025391 0.70358145236968994 0.038529250770807266
0.98184585571289062 0.67903655767440796 0.012434955686330795
0.99954521656036377 0.66129136085510254 0.0072274748235940933
0.23617090284824371 0.66125893592834473 0.37066662311553955
0.25883251428604126 0.66284126043319702 0.3745245635509491
0.29392668604850769 0.66170191764831543 0.37665519118309021
0.33732062578201294 0.66263395547866821 0.37704253196716309
0.38860079646110535 0.66960936784744263 0.37635499238967896
0.45130425691604614 0.6863744854927063 0.36988195776939392
0.53640371561050415 0.71343415975570679 0.35433480143547058
0.63307350873947144 0.74153763055801392 0.33334198594093323
0.74799221754074097 0.76959019899368286 0.30140200257301331
0.85798364877700806 0.79601258039474487 0.26863056421279907
0.93895852565765381 0.80161362886428833 0.21749749779701233
0.9833335280418396 0.78249269723892212 0.14333291351795197
0.99954646825790405 0.76312947273254395 0.079649545252323151
0.33486604690551758 0.73113441467285156 0.4402192234992981
0.34742659330368042 0.73290550708770752 0.43802940845489502
0.37433245778083801 0.7321779727935791 0.44242450594902039
0.40876930952072144 0.73053926229476929 0.44794908165931702
0.44425821304321289 0.73334002494812012 0.44930073618888855
0.49084994196891785 0.74331110715866089 0.44415426254272461
0.55504459142684937 0.76339727640151978 0.43534186482429504
0.63403087854385376 0.78675556182861328 0.4284241795539856
0.72384977340698242 0.810127854347229 0.41757604479789734
0.82473522424697876 0.83362233638763428 0.39409336447715759
0.91921305656433105 0.85632973909378052 0.37031853199005127
0.97273021936416626 0.85855305194854736 0.33766669034957886
0.99564063549041748 0.84639525413513184 0.28992632031440735
0.43375006318092346 0.7985723614692688 0.51364576816558838
0.44471836090087891 0.80102074146270752 0.5138060450553894
0.46611252427101135 0.80035924911499023 0.51933950185775757
0.49304348230361938 0.79841375350952148 0.52498972415924072
0.51734703779220581 0.79793667793273926 0.52482253313064575
0.55309784412384033 0.80427378416061401 0.52246862649917603
0.60567301511764526 0.8183714747428894 0.52241909503936768
0.66533154249191284 0.83575636148452759 0.52084410190582275
0.73994606733322144 0.85545510053634644 0.51625549793243408
0.8148224949836731 0.87110543251037598 0.50568485260009766
0.89088702201843262 0.88840585947036743 0.48852324485778809
0.94913744926452637 0.90308558940887451 0.47627514600753784
0.99192416667938232 0.91302311420440674 0.4635351300239563
0.55229920148849487 0.86070054769515991 0.60809898376464844
0.56091731786727905 0.86316746473312378 0.60942202806472778
0.57414770126342773 0.86347424983978271 0.61366581916809082
0.5952180027961731 0.86184048652648926 0.61863356828689575
0.61445802450180054 0.86014300584793091 0.61838775873184204
0.63777720928192139 0.8628004789352417 0.61850166320800781
0.67272293567657471 0.87252354621887207 0.61910438537597656
0.71319639682769775 0.88673859834671021 0.61694282293319702
0.76868492364883423 0.90026205778121948 0.61534774303436279
0.82882928848266602 0.91145145893096924 0.61327439546585083
0.87938219308853149 0.92179721593856812 0.60626929998397827
0.92762988805770874 0.93303143978118896 0.59705042839050293
0.97633033990859985 0.94423317909240723 0.58562374114990234
0.68070799112319946 0.9217182993888855 0.71285927295684814
0.68465149402618408 0.92159008979797363 0.71265053749084473
0.69016832113265991 0.92064142227172852 0.71295070648193359
0.70453107357025146 0.92152917385101318 0.71845883131027222
0.71937966346740723 0.92153066396713257 0.72017288208007812
0.7360798716545105 0.92217022180557251 0.72187131643295288
0.75579285621643066 0.92617297172546387 0.72484719753265381
0.7809026837348938 0.93434566259384155 0.72409266233444214
0.81395149230957031 0.94233286380767822 0.72359746694564819
0.851554274559021 0.94890004396438599 0.71737146377563477
0.88370817899703979 0.95596957206726074 0.71395337581634521
0.91934144496917725 0.96415019035339355 0.71122497320175171
0.95702463388442993 0.97045403718948364 0.7038959264755249
0.00863622035831213 0.04689750075340271 0.13926520943641663
0.046871978789567947 0.050139602273702621 0.13921196758747101
0.11422730982303619 0.057539068162441254 0.13733756542205811
0.2082802802324295 0.057453636080026627 0.13742248713970184
0.32532700896263123 0.034669481217861176 0.14171448349952698
0.44844573736190796 0.0098290387541055679 0.14039143919944763
0.57510125637054443 0.006934700533747673 0.14607667922973633
0.68473809957504272 0.017278529703617096 0.15032079815864563
0.77737945318222046 0.035351186990737915 0.15057232975959778
0.85687083005905151 0.076154880225658417 0.14705102145671844
0.92671686410903931 0.13339860737323761 0.14052307605743408
0.98540782928466797 0.19612576067447662 0.12799632549285889
0.99876183271408081 0.25584542751312256 0.12212153524160385
0.0057538202963769436 0.09426937997341156 0.15173166990280151
0.03895975649356842 0.098036415874958038 0.15026234090328217
0.13088904321193695 0.10863979905843735 0.14897313714027405
0.22840426862239838 0.11500046402215958 0.14478036761283875
0.34449228644371033 0.096788905560970306 0.14440537989139557
0.46588355302810669 0.075129248201847076 0.14513742923736572
0.58613419532775879 0.080070093274116516 0.15056623518466949
0.69192779064178467 0.092867784202098846 0.15257285535335541
0.78035438060760498 0.11377117782831192 0.14939415454864502
0.85855001211166382 0.14949269592761993 0.13974212110042572
0.9292222261428833 0.19123464822769165 0.13050197064876556
0.98405510187149048 0.23467250168323517 0.12247498333454132
0.99795347452163696 0.28672969341278076 0.12314411252737045
0.006564839743077755 0.1641426682472229 0.16211923956871033
0.046142220497131348 0.16668634116649628 0.16055378317832947
0.14192882180213928 0.17935775220394135 0.16138589382171631
0.24629545211791992 0.1879400759935379 0.153146892786026
0.36466312408447266 0.18520979583263397 0.14994677901268005
0.48528912663459778 0.18257592618465424 0.14849041402339935
0.5967133641242981 0.19156268239021301 0.14706002175807953
0.69493657350540161 0.19875445961952209 0.1439967006444931
0.78070175647735596 0.20789253711700439 0.13557833433151245
0.8589470386505127 0.22924725711345673 0.1245955228805542
0.93030506372451782 0.25531333684921265 0.11479455977678299
0.98321199417114258 0.29097422957420349 0.10833520442247391
0.99891465902328491 0.33225959539413452 0.11208634078502655
0.020567066967487335 0.25244319438934326 0.18283383548259735
0.073249250650405884 0.25890281796455383 0.18541055917739868
0.14814113080501556 0.26982194185256958 0.1906110942363739
0.2521740198135376 0.28814581036567688 0.18004056811332703
0.38923954963684082 0.30486637353897095 0.16011433303356171
0.50322288274765015 0.29507866501808167 0.14478826522827148
0.6053275465965271 0.28772199153900146 0.13367530703544617
0.69667047262191772 0.29230770468711853 0.12455043196678162
0.77994722127914429 0.29403799772262573 0.11705202609300613
0.85663199424743652 0.30602499842643738 0.10552746802568436
0.92860066890716553 0.32552143931388855 0.0934005007147789
0.98640221357345581 0.35005730390548706 0.094762690365314484
0.99939990043640137 0.38461396098136902 0.096926972270011902
0.057793531566858292 0.35931649804115295 0.22655604779720306
0.10545797646045685 0.36364051699638367 0.23337516188621521
0.17095412313938141 0.36952847242355347 0.23680464923381805
