luts/negative_old/fuji_superia_100_++.cube
# Created by: G'MIC (https://gmic.eu)
TITLE "fuji_superia_100_++"
# LUT size
LUT_3D_SIZE 7
# Data domain
DOMAIN_MIN 0.0 0.0 0.0
DOMAIN_MAX 1.0 1.0 1.0
# LUT data points
0.052175797522068024 0.09988943487405777 0.1054241731762886
0.12438829988241196 0.10002244263887405 0.10014379024505615
0.2825104296207428 0.10189250856637955 0.090395517647266388
0.50268912315368652 0.11133014410734177 0.062898300588130951
0.71321958303451538 0.13148464262485504 0.020390737801790237
0.87082576751708984 0.16253432631492615 0.0039963964372873306
0.99109292030334473 0.20554056763648987 0.0021567102521657944
0.0083729010075330734 0.1729433536529541 0.10334435105323792
0.098495721817016602 0.1752132922410965 0.099614225327968597
0.29673776030540466 0.19903092086315155 0.07788703590631485
0.54178982973098755 0.23504093289375305 0.026816215366125107
0.7305564284324646 0.25043460726737976 0.012128433212637901
0.88103592395782471 0.26294955611228943 0.0083600059151649475
0.9970405101776123 0.28882086277008057 0.0021005070302635431
0.0010624754941090941 0.39086633920669556 0.10965320467948914
0.0093384534120559692 0.38689440488815308 0.10477873682975769
0.29096895456314087 0.3920709490776062 0.062766820192337036
0.56911790370941162 0.41266044974327087 0.0049144220538437366
0.76045471429824829 0.42005789279937744 0.0027578915469348431
0.90391308069229126 0.42157661914825439 0.0036210902035236359
0.98944234848022461 0.41991502046585083 0.0023284314665943384
0 0.62179148197174072 0.177569180727005
0.0019571492448449135 0.62456256151199341 0.18065355718135834
0.16048148274421692 0.62026017904281616 0.14487442374229431
0.51975971460342407 0.59549409151077271 0.054551802575588226
0.74415189027786255 0.58441579341888428 0.0047782897017896175
0.90874868631362915 0.58043968677520752 0.0056322133168578148
0.99805676937103271 0.56793296337127686 0.00064077938441187143
0.00021242628281470388 0.78423392772674561 0.35268092155456543
0.003499199403449893 0.78681373596191406 0.35208597779273987
0.11202161014080048 0.78283649682998657 0.34552830457687378
0.45492342114448547 0.75976824760437012 0.28833732008934021
0.68554013967514038 0.73892593383789062 0.19553670287132263
0.88486909866333008 0.73620176315307617 0.07043100893497467
0.99689656496047974 0.72431027889251709 0.026589248329401016
0.16657362878322601 0.91057884693145752 0.53287750482559204
0.23159286379814148 0.90716934204101562 0.53387701511383057
0.34684479236602783 0.90530723333358765 0.53656536340713501
0.48973551392555237 0.89940714836120605 0.51678860187530518
0.64953041076660156 0.88989496231079102 0.47099816799163818
0.82007753849029541 0.87537658214569092 0.39797219634056091
0.97906094789505005 0.87343829870223999 0.34407871961593628
0.54518884420394897 0.98720049858093262 0.70788615942001343
0.55456972122192383 0.983132004737854 0.70785129070281982
0.58938956260681152 0.98413121700286865 0.71059530973434448
0.63882452249526978 0.98639172315597534 0.71255064010620117
0.70981299877166748 0.98383080959320068 0.69234687089920044
0.80166196823120117 0.98056197166442871 0.66298651695251465
0.91618466377258301 0.97647780179977417 0.63160532712936401
0.035582598298788071 0.094186641275882721 0.18155716359615326
0.13702662289142609 0.092691116034984589 0.1809065043926239
0.29086530208587646 0.065722309052944183 0.16607506573200226
0.51236450672149658 0.017215294763445854 0.15005899965763092
0.71826362609863281 0.02140858955681324 0.13029524683952332
0.86975210905075073 0.056351799517869949 0.10035587102174759
0.9935263991355896 0.13578081130981445 0.049164433032274246
0.014503045007586479 0.17954918742179871 0.18415297567844391
0.12356986105442047 0.18061116337776184 0.18449826538562775
0.32163411378860474 0.18224087357521057 0.17678602039813995
0.54854303598403931 0.17238594591617584 0.14492760598659515
0.73289066553115845 0.17734713852405548 0.11712922900915146
0.88120919466018677 0.21361900866031647 0.083427295088768005
0.99159997701644897 0.24714374542236328 0.039809297770261765
0.0061405557207763195 0.38987672328948975 0.23494410514831543
0.026400741189718246 0.39459794759750366 0.225441575050354
0.31185582280158997 0.39725619554519653 0.19793197512626648
0.58447837829589844 0.40128350257873535 0.13552719354629517
0.75986886024475098 0.39299708604812622 0.090123437345027924
0.9008408784866333 0.39241090416908264 0.055408313870429993
0.99383640289306641 0.39555975794792175 0.024161543697118759
0.0034465116914361715 0.62176203727722168 0.32531240582466125
0.0034268398303538561 0.62558221817016602 0.31149184703826904
0.23423348367214203 0.61824148893356323 0.28871184587478638
0.54108309745788574 0.59759390354156494 0.22719372808933258
0.74941182136535645 0.58050984144210815 0.13236130774021149
0.91038978099822998 0.57032841444015503 0.060493513941764832
0.99819707870483398 0.55607229471206665 0.0277125034481287
0.022622471675276756 0.78121078014373779 0.43977707624435425
0.056958038359880447 0.78329885005950928 0.43580949306488037
0.27945506572723389 0.77859222888946533 0.43154066801071167
0.4930533766746521 0.76310265064239502 0.3953588604927063
0.69818723201751709 0.74672961235046387 0.32373982667922974
0.88316696882247925 0.73592036962509155 0.23160485923290253
0.99276232719421387 0.72024631500244141 0.18543563783168793
0.31448057293891907 0.9033389687538147 0.58198851346969604
0.3491005003452301 0.90303254127502441 0.58166611194610596
0.42735013365745544 0.90068811178207397 0.58189946413040161
0.52931791543960571 0.89789962768554688 0.571136474609375
0.66495877504348755 0.88736498355865479 0.53189337253570557
0.83113789558410645 0.8764302134513855 0.46782258152961731
0.97890639305114746 0.87299060821533203 0.41345256567001343
0.58280259370803833 0.9835362434387207 0.7314450740814209
0.59113365411758423 0.98310065269470215 0.73131281137466431
0.6204146146774292 0.98262286186218262 0.73429590463638306
0.66461837291717529 0.98233824968338013 0.73632669448852539
0.73086142539978027 0.97982126474380493 0.71418625116348267
0.81172096729278564 0.98029440641403198 0.69063830375671387
0.92257720232009888 0.97620129585266113 0.66128480434417725
0.011048589833080769 0.075201772153377533 0.39496999979019165
0.15090060234069824 0.06442299485206604 0.39243587851524353
0.34713685512542725 0.028985267505049706 0.37612837553024292
0.56146085262298584 0.0077530955895781517 0.35627064108848572
0.74389165639877319 0.0033694547601044178 0.3127020001411438
0.88611000776290894 0.0025814429391175508 0.25435864925384521
0.99182188510894775 0.0032617906108498573 0.23065365850925446
0.0060071758925914764 0.18189626932144165 0.3885156512260437
0.096787773072719574 0.17527951300144196 0.39147651195526123
0.35893189907073975 0.16186153888702393 0.38169658184051514
0.57969719171524048 0.14041073620319366 0.35887902975082397
0.74959331750869751 0.046911530196666718 0.30422776937484741
0.88613194227218628 0.060996934771537781 0.26823857426643372
0.99333494901657104 0.12312187999486923 0.24803963303565979
0.0043199728243052959 0.39294037222862244 0.4030146598815918
0.081033863127231598 0.39718726277351379 0.40542331337928772
0.37638190388679504 0.39563927054405212 0.40222647786140442
0.59320712089538574 0.37808617949485779 0.36886733770370483
0.75038617849349976 0.35353153944015503 0.3290785551071167
0.89134091138839722 0.34421136975288391 0.28670397400856018
0.98949980735778809 0.34910416603088379 0.26393815875053406
0.18437866866588593 0.61063963174819946 0.4870418906211853
0.30367150902748108 0.61079126596450806 0.49175363779067993
0.41008910536766052 0.60465455055236816 0.47437253594398499
0.58034950494766235 0.59205317497253418 0.42924997210502625
0.75395309925079346 0.56992900371551514 0.3770698606967926
0.90678286552429199 0.55648458003997803 0.33363035321235657
0.99699628353118896 0.53889399766921997 0.30566459894180298
0.39384812116622925 0.76621651649475098 0.5856742262840271
0.40359082818031311 0.76828134059906006 0.57665896415710449
0.44869795441627502 0.76870286464691162 0.55988061428070068
0.5628587007522583 0.75941455364227295 0.54323011636734009
0.71694374084472656 0.74370408058166504 0.48781532049179077
0.87969684600830078 0.73375928401947021 0.42830425500869751
0.99231582880020142 0.71596968173980713 0.39558893442153931
0.49850532412528992 0.8927159309387207 0.67471849918365479
0.51113146543502808 0.89085495471954346 0.66846078634262085
0.53990066051483154 0.89580512046813965 0.66281360387802124
0.6103249192237854 0.89245802164077759 0.65996354818344116
0.70777970552444458 0.88144367933273315 0.63274884223937988
0.8408392071723938 0.87640756368637085 0.58223462104797363
0.98186308145523071 0.87492644786834717 0.52254772186279297
0.65184122323989868 0.97936463356018066 0.77744066715240479
0.66243994235992432 0.97830146551132202 0.77937430143356323
0.67514002323150635 0.97854197025299072 0.77575409412384033
0.71309971809387207 0.97797191143035889 0.77896928787231445
0.76436549425125122 0.97482454776763916 0.76402974128723145
0.83122247457504272 0.97713708877563477 0.7404901385307312
0.93145442008972168 0.97647827863693237 0.71410125494003296
0.0052045038901269436 0.02832692489027977 0.63774293661117554
0.15472736954689026 0.01565399207174778 0.63055574893951416
0.40327844023704529 0.0045400881208479404 0.62381988763809204
0.61127030849456787 0.0038928312715142965 0.60867077112197876
0.77028906345367432 0.0064778346568346024 0.55735963582992554
0.90370601415634155 0.0076390434987843037 0.50641709566116333
0.99483340978622437 0.0055720610544085503 0.45714589953422546
0.0049601388163864613 0.16977328062057495 0.63654476404190063
0.079031713306903839 0.16593983769416809 0.63668251037597656
0.39934864640235901 0.15011449158191681 0.62743610143661499
0.61338818073272705 0.12823818624019623 0.61181342601776123
0.76917779445648193 0.14153815805912018 0.55845749378204346
0.90413075685501099 0.14859741926193237 0.51085549592971802
0.9976317286491394 0.062661744654178619 0.46046337485313416
0.007571785245090723 0.39239764213562012 0.62939280271530151
0.018155341967940331 0.38979899883270264 0.63171553611755371
0.37506425380706787 0.38738101720809937 0.62220460176467896
0.60546159744262695 0.39372694492340088 0.60568022727966309
0.75577402114868164 0.38636726140975952 0.55983328819274902
0.89411681890487671 0.34642022848129272 0.50301426649093628
0.99274623394012451 0.30069881677627563 0.45728471875190735
0.090216964483261108 0.60565054416656494 0.62297457456588745
0.25517576932907104 0.60074430704116821 0.62673354148864746
0.45497161149978638 0.59275645017623901 0.62116461992263794
0.59800797700881958 0.58528101444244385 0.60827326774597168
0.75377088785171509 0.56270945072174072 0.57726573944091797
0.88814699649810791 0.53511178493499756 0.52949815988540649
0.9934077262878418 0.50808870792388916 0.49919819831848145
0.45431238412857056 0.75588798522949219 0.68025463819503784
0.50331121683120728 0.75749891996383667 0.68068391084671021
0.57159793376922607 0.75542068481445312 0.68239182233810425
0.63593763113021851 0.75544482469558716 0.67220157384872437
0.75040715932846069 0.73660886287689209 0.63718992471694946
0.88783329725265503 0.72191101312637329 0.58900278806686401
0.99086374044418335 0.70538413524627686 0.55925858020782471
0.62336677312850952 0.8858380913734436 0.76934850215911865
0.64261400699615479 0.88702714443206787 0.7680545449256897
0.6654437780380249 0.88861584663391113 0.76274889707565308
0.68968695402145386 0.88938242197036743 0.75090909004211426
0.75213247537612915 0.88676506280899048 0.73219031095504761
0.86516052484512329 0.87295627593994141 0.6845129132270813
0.98068368434906006 0.86715006828308105 0.64549583196640015
0.74246793985366821 0.97298091650009155 0.84361433982849121
0.74487900733947754 0.97168105840682983 0.84132486581802368
0.75378715991973877 0.97400766611099243 0.83785527944564819
0.77112883329391479 0.97621065378189087 0.835318922996521
0.80687928199768066 0.97455883026123047 0.82364743947982788
0.85782521963119507 0.97642284631729126 0.80753082036972046
0.94421577453613281 0.97596949338912964 0.77667081356048584
0.0027991798706352711 0.0053122127428650856 0.80353212356567383
0.16844020783901215 0.0038164923898875713 0.80430960655212402
0.41184669733047485 0.008352227509021759 0.80190384387969971
0.60614335536956787 0.0090841110795736313 0.79056674242019653
0.78672605752944946 0.0036288541741669178 0.77096444368362427
0.92452263832092285 0.018234118819236755 0.72852766513824463
0.99795389175415039 0.21757987141609192 0.69008690118789673
0.0070777144283056259 0.16066345572471619 0.80594688653945923
0.11378045380115509 0.15717911720275879 0.80631959438323975
0.39914083480834961 0.14110518991947174 0.8015599250793457
0.60961043834686279 0.14558285474777222 0.7938004732131958
0.78751653432846069 0.1686510294675827 0.77478307485580444
0.92162233591079712 0.2241763174533844 0.7331613302230835
0.99430465698242188 0.31855717301368713 0.69628912210464478
0.010363949462771416 0.37966498732566833 0.79389071464538574
0.096787817776203156 0.38440805673599243 0.79844796657562256
0.40787976980209351 0.38783615827560425 0.78974300622940063
0.61089134216308594 0.39970338344573975 0.77964103221893311
0.77594184875488281 0.41221868991851807 0.76334041357040405
0.90667253732681274 0.42446187138557434 0.73356455564498901
0.99235427379608154 0.44532662630081177 0.69710654020309448
0.034867815673351288 0.58446228504180908 0.78303688764572144
0.19253735244274139 0.58093935251235962 0.78331565856933594
0.4218522310256958 0.58124649524688721 0.77370411157608032
0.60843008756637573 0.58387678861618042 0.76649951934814453
0.76564317941665649 0.58615869283676147 0.75505155324935913
0.89396530389785767 0.56890749931335449 0.72144842147827148
0.9912559986114502 0.54361528158187866 0.67963182926177979
0.39498677849769592 0.7511894702911377 0.78461742401123047
0.44639867544174194 0.74514102935791016 0.78363937139511108
0.54313403367996216 0.74748146533966064 0.78010594844818115
0.6513105034828186 0.73839044570922852 0.77933531999588013
0.7676771879196167 0.72993302345275879 0.76104217767715454
0.88588845729827881 0.70947760343551636 0.73051494359970093
0.98859047889709473 0.67881613969802856 0.69087690114974976
0.63289541006088257 0.88459926843643188 0.82530885934829712
0.65891987085342407 0.88681471347808838 0.82768809795379639
0.69421976804733276 0.88027262687683105 0.82824736833572388
0.75019145011901855 0.87685239315032959 0.83616876602172852
0.8067283034324646 0.87838304042816162 0.82597768306732178
0.88181453943252563 0.87289512157440186 0.79653537273406982
0.98269534111022949 0.86239749193191528 0.76480644941329956
0.77982193231582642 0.96990668773651123 0.89215540885925293
0.7887309193611145 0.97006523609161377 0.89263755083084106
0.81267714500427246 0.97131609916687012 0.8939628005027771
0.82982450723648071 0.97123992443084717 0.89018553495407104
0.85716462135314941 0.9726906418800354 0.88537311553955078
0.89250361919403076 0.97444742918014526 0.87595784664154053
0.95768612623214722 0.97257357835769653 0.8528672456741333
0.01005630474537611 0.0029227014165371656 0.93084532022476196
0.19983203709125519 0.0071401111781597137 0.93044388294219971
0.40191358327865601 0.0087542962282896042 0.9227185845375061
0.58671194314956665 0.0059364470653235912 0.92040717601776123
0.75811052322387695 0.031377185136079788 0.91827952861785889
0.9165644645690918 0.1339038759469986 0.90182608366012573
0.99871456623077393 0.24730351567268372 0.87437552213668823
0.013219152577221394 0.16183865070343018 0.93049401044845581
0.18970881402492523 0.15404462814331055 0.92685186862945557
0.40831038355827332 0.15064164996147156 0.9224236011505127
0.59223127365112305 0.18369826674461365 0.92017644643783569
0.76174765825271606 0.24099786579608917 0.91013389825820923
0.91201496124267578 0.29323402047157288 0.89703631401062012
0.99726223945617676 0.35267078876495361 0.87124693393707275
0.0569596067070961 0.38386827707290649 0.92360395193099976
0.23520925641059875 0.38701990246772766 0.91947150230407715
0.42703893780708313 0.39514848589897156 0.91712599992752075
0.60429292917251587 0.40592861175537109 0.91044068336486816
0.76519417762756348 0.43665727972984314 0.90371352434158325
0.909770667552948 0.45946723222732544 0.89358162879943848
0.99514001607894897 0.48486977815628052 0.86794096231460571
0.10805581510066986 0.55804216861724854 0.91303879022598267
0.28198015689849854 0.56817567348480225 0.9075242280960083
0.45605704188346863 0.57075905799865723 0.90457034111022949
0.61000186204910278 0.57406771183013916 0.89848309755325317
0.76533424854278564 0.59901911020278931 0.89357930421829224
0.90319359302520752 0.60419511795043945 0.88600414991378784
0.99394112825393677 0.61332923173904419 0.87255352735519409
0.34556120634078979 0.72299051284790039 0.89759176969528198
0.41727331280708313 0.72799551486968994 0.90124249458312988
0.51252681016921997 0.72171705961227417 0.89911586046218872
0.62851059436798096 0.72687679529190063 0.89291262626647949
0.76717168092727661 0.73524421453475952 0.88313192129135132
0.89832001924514771 0.74025821685791016 0.88316178321838379
0.9874340295791626 0.73853623867034912 0.86207753419876099
0.5747188925743103 0.87778639793395996 0.89899545907974243
0.60763895511627197 0.87854063510894775 0.90154600143432617
0.66424787044525146 0.87716388702392578 0.90021371841430664
0.73747354745864868 0.87587124109268188 0.90308177471160889
0.81714731454849243 0.87107622623443604 0.90638929605484009
0.89832282066345215 0.87489336729049683 0.8963007926940918
0.98184347152709961 0.84539550542831421 0.86179101467132568
0.77964705228805542 0.97198623418807983 0.92763215303421021
0.79509973526000977 0.97318702936172485 0.93038618564605713
0.81964409351348877 0.97068482637405396 0.93015015125274658
0.8542284369468689 0.97049307823181152 0.93491041660308838
0.89632642269134521 0.97313398122787476 0.94075483083724976
0.92857599258422852 0.97585791349411011 0.93810367584228516
0.97527015209197998 0.97116422653198242 0.91704469919204712
0.1282307505607605 0.016327248886227608 0.99648630619049072
0.25058355927467346 0.017850166186690331 0.99738174676895142
0.40607669949531555 0.02930869348347187 0.99736350774765015
0.56711369752883911 0.082280449569225311 0.99311459064483643
0.72159892320632935 0.19140355288982391 0.98668092489242554
0.87047863006591797 0.29569512605667114 0.98259758949279785
0.98858267068862915 0.374583899974823 0.98782908916473389
0.14362452924251556 0.19330042600631714 0.99524837732315063
0.2712922990322113 0.19725291430950165 0.99024432897567749
0.42203682661056519 0.2079656571149826 0.99014866352081299
0.57652324438095093 0.25149765610694885 0.98877465724945068
0.72794979810714722 0.30975267291069031 0.98731726408004761
0.87362277507781982 0.38427391648292542 0.98844790458679199
0.98896819353103638 0.4343906044960022 0.98561102151870728
0.25235870480537415 0.39884251356124878 0.9955940842628479
0.33376288414001465 0.40488517284393311 0.99291867017745972
0.45785576105117798 0.41298100352287292 0.98805469274520874
0.59478366374969482 0.42459201812744141 0.98732173442840576
0.7416539192199707 0.46220171451568604 0.98967534303665161
0.87700939178466797 0.50939309597015381 0.98542743921279907
0.98789674043655396 0.54005205631256104 0.98491752147674561
0.34122997522354126 0.56780672073364258 0.99033516645431519
0.40935567021369934 0.5751488208770752 0.98669618368148804
0.50981545448303223 0.57520359754562378 0.98442578315734863
0.62653195858001709 0.58101511001586914 0.98288851976394653
0.76158547401428223 0.60695886611938477 0.98193198442459106
0.88683950901031494 0.63682496547698975 0.97815030813217163
0.98407411575317383 0.6619257926940918 0.97536295652389526
0.36489814519882202 0.69562232494354248 0.98584014177322388
0.41851609945297241 0.69642144441604614 0.98708707094192505
0.52202308177947998 0.70567494630813599 0.98073828220367432
0.65260130167007446 0.72474539279937744 0.98179996013641357
0.77552610635757446 0.74594992399215698 0.97474122047424316
0.89061355590820312 0.76356565952301025 0.97854107618331909
0.98493373394012451 0.77987074851989746 0.9778214693069458
0.57497972249984741 0.85646039247512817 0.98079580068588257
0.59431642293930054 0.85311496257781982 0.98060137033462524
0.64387506246566772 0.8524019718170166 0.97861951589584351
0.71295654773712158 0.85631775856018066 0.98047757148742676
0.80098611116409302 0.86510711908340454 0.97790431976318359
0.90001547336578369 0.88096421957015991 0.97996622323989868
0.98266714811325073 0.88834619522094727 0.97530752420425415
0.74968284368515015 0.97039449214935303 0.98234373331069946
0.76069384813308716 0.97130489349365234 0.98320227861404419
0.79243111610412598 0.96777814626693726 0.98294401168823242
0.83311760425567627 0.96757966279983521 0.98328971862792969
0.88334393501281738 0.97111231088638306 0.9830353856086731
0.93294942378997803 0.97458761930465698 0.98312634229660034
0.98342525959014893 0.97364729642868042 0.9794309139251709
