luts/negative_old/fuji_superia_800_+.cube
# Created by: G'MIC (https://gmic.eu)
TITLE "fuji_superia_800_+"
# LUT size
LUT_3D_SIZE 5
# Data domain
DOMAIN_MIN 0.0 0.0 0.0
DOMAIN_MAX 1.0 1.0 1.0
# LUT data points
0.012932511977851391 0.10374778509140015 0.10141137987375259
0.1692388653755188 0.10395073890686035 0.10144523531198502
0.45445621013641357 0.10369099676609039 0.086483538150787354
0.78287959098815918 0.051423046737909317 0.030766056850552559
0.99544912576675415 0.15140661597251892 2.5850184101727791e-05
1.3463637515087612e-05 0.26067304611206055 0.12029067426919937
0.15790031850337982 0.28358113765716553 0.092674121260643005
0.51348972320556641 0.26998129487037659 0.072427771985530853
0.80118072032928467 0.26774027943611145 0.023708777502179146
0.99371170997619629 0.31634801626205444 0.0017986372113227844
0.0016497144242748618 0.60917103290557861 0.18252098560333252
0.069722287356853485 0.61973923444747925 0.16659906506538391
0.58145308494567871 0.6227155327796936 0.021282659843564034
0.85064798593521118 0.57802677154541016 0.0032877454068511724
0.99871891736984253 0.54874026775360107 0.011446290649473667
0.30718868970870972 0.84193545579910278 0.40850591659545898
0.42079815268516541 0.83607316017150879 0.41159746050834656
0.61137467622756958 0.83273476362228394 0.3695065975189209
0.84997498989105225 0.83379501104354858 0.2343250960111618
0.99685770273208618 0.81738674640655518 0.16140589118003845
0.70551341772079468 0.95763528347015381 0.70145177841186523
0.72915303707122803 0.95420455932617188 0.70274925231933594
0.78094083070755005 0.95590478181838989 0.70500236749649048
0.86011433601379395 0.95747876167297363 0.66850036382675171
0.96501314640045166 0.96132540702819824 0.6008681058883667
0.0087260827422142029 0.10100660473108292 0.2173454612493515
0.15614674985408783 0.11305679380893707 0.2202715277671814
0.46787366271018982 0.050864052027463913 0.21744737029075623
0.79171204566955566 0.0064731673337519169 0.18102842569351196
0.9868355393409729 0.080093130469322205 0.14830341935157776
0.0013048509135842323 0.25137981772422791 0.25172922015190125
0.19892400503158569 0.2690768837928772 0.25865572690963745
0.52408939599990845 0.24833330512046814 0.23540797829627991
0.80087012052536011 0.2413056492805481 0.20494219660758972
0.99549490213394165 0.28842851519584656 0.1558912992477417
0.046256121248006821 0.60492467880249023 0.35902285575866699
0.24960353970527649 0.60309100151062012 0.34939879179000854
0.59668815135955811 0.59961974620819092 0.28186100721359253
0.84136307239532471 0.56700688600540161 0.23788480460643768
0.99066281318664551 0.54258924722671509 0.22624154388904572
0.44152754545211792 0.83099299669265747 0.52883076667785645
0.51275080442428589 0.82750469446182251 0.53042340278625488
0.65201359987258911 0.82738178968429565 0.50782531499862671
0.8594895601272583 0.82936441898345947 0.41470769047737122
0.99363416433334351 0.81292325258255005 0.36174333095550537
0.73669624328613281 0.95297831296920776 0.7424314022064209
0.75295877456665039 0.95160835981369019 0.74192088842391968
0.796700119972229 0.95209133625030518 0.74404430389404297
0.86698460578918457 0.95491451025009155 0.71865308284759521
0.9610862135887146 0.95992636680603027 0.66901314258575439
0.011428563855588436 0.10724568367004395 0.44505494832992554
0.19745337963104248 0.10972321778535843 0.45722088217735291
0.48403057456016541 0.10175894945859909 0.46239233016967773
0.78571987152099609 0.11960404366254807 0.47841215133666992
0.99718499183654785 0.01857045479118824 0.4271787703037262
0.003102665301412344 0.23111855983734131 0.47488027811050415
0.20576837658882141 0.25655949115753174 0.49168398976325989
0.52892780303955078 0.28595936298370361 0.49017393589019775
0.80679726600646973 0.29734957218170166 0.48905441164970398
0.99747568368911743 0.1712786853313446 0.40741589665412903
0.059344392269849777 0.56524121761322021 0.55331134796142578
0.31075146794319153 0.56131494045257568 0.55512481927871704
0.57316142320632935 0.55489373207092285 0.53288167715072632
0.82829755544662476 0.5381474494934082 0.50545907020568848
0.99167674779891968 0.52891993522644043 0.45738989114761353
0.58731114864349365 0.81918430328369141 0.69820904731750488
0.63020622730255127 0.81585919857025146 0.69369959831237793
0.71585702896118164 0.81047558784484863 0.68092066049575806
0.864734947681427 0.8167840838432312 0.63394904136657715
0.98230063915252686 0.79884308576583862 0.58552831411361694
0.79156392812728882 0.94945234060287476 0.814048171043396
0.79857861995697021 0.94662439823150635 0.81153583526611328
0.83055269718170166 0.94838488101959229 0.80803704261779785
0.88333714008331299 0.9511106014251709 0.79794645309448242
0.96418601274490356 0.95800685882568359 0.7644425630569458
0.048049431294202805 0.097021870315074921 0.71615302562713623
0.29497358202934265 0.09575093537569046 0.71587210893630981
0.54976838827133179 0.086826875805854797 0.71784019470214844
0.80417418479919434 0.14213995635509491 0.71944522857666016
0.98056942224502563 0.33082413673400879 0.73585617542266846
0.042862597852945328 0.23331843316555023 0.72718352079391479
0.29149696230888367 0.24803490936756134 0.72710657119750977
0.56278401613235474 0.27115353941917419 0.71944946050643921
0.80011296272277832 0.32773706316947937 0.72220027446746826
0.98076057434082031 0.45335578918457031 0.74678975343704224
0.0031426672358065844 0.45977321267127991 0.73436272144317627
0.11545709520578384 0.45700156688690186 0.734363853931427
0.55129492282867432 0.50915199518203735 0.73659813404083252
0.81305074691772461 0.56709951162338257 0.74475622177124023
0.97644507884979248 0.63071352243423462 0.75964051485061646
0.5013623833656311 0.78957933187484741 0.8026578426361084
0.56856459379196167 0.78590875864028931 0.80091869831085205
0.69562780857086182 0.77673333883285522 0.80094772577285767
0.84099560976028442 0.7913057804107666 0.79132992029190063
0.97828823328018188 0.76841557025909424 0.75351357460021973
0.82305371761322021 0.94849300384521484 0.88101881742477417
0.83494120836257935 0.94713819026947021 0.88182210922241211
0.86230361461639404 0.94700485467910767 0.88234591484069824
0.90494084358215332 0.94626790285110474 0.88077366352081299
0.96887624263763428 0.95497119426727295 0.86221522092819214
0.44332295656204224 0.17829462885856628 0.92868530750274658
0.53289759159088135 0.18716742098331451 0.92801940441131592
0.70055568218231201 0.22788242995738983 0.92338418960571289
0.87720781564712524 0.33821055293083191 0.91781401634216309
0.99511426687240601 0.46863725781440735 0.91806697845458984
0.43769225478172302 0.30879363417625427 0.92711377143859863
0.53136783838272095 0.31447088718414307 0.92879807949066162
0.69976389408111572 0.3535347580909729 0.92405080795288086
0.87437641620635986 0.43709921836853027 0.91818773746490479
0.99162560701370239 0.54142075777053833 0.91849756240844727
0.29212221503257751 0.47417190670967102 0.93129515647888184
0.45846325159072876 0.49956297874450684 0.92852842807769775
0.66953909397125244 0.53389120101928711 0.92366993427276611
0.86014664173126221 0.59336376190185547 0.91901993751525879
0.98578119277954102 0.67184078693389893 0.92108684778213501
0.3366607129573822 0.73333412408828735 0.93195271492004395
0.4064374566078186 0.71871799230575562 0.92810612916946411
0.56956005096435547 0.70792537927627563 0.92647415399551392
0.82269924879074097 0.75511258840560913 0.92626917362213135
0.97260564565658569 0.81261551380157471 0.92873555421829224
0.76961821317672729 0.94234281778335571 0.95113551616668701
0.78510338068008423 0.941661536693573 0.95078247785568237
0.8309173583984375 0.93881344795227051 0.95306932926177979
0.89619028568267822 0.93921428918838501 0.95251345634460449
0.96558636426925659 0.95005720853805542 0.951152503490448
