luts/negative_old/fuji_superia_800.cube
# Created by: G'MIC (https://gmic.eu)
TITLE "fuji_superia_800"
# LUT size
LUT_3D_SIZE 7
# Data domain
DOMAIN_MIN 0.0 0.0 0.0
DOMAIN_MAX 1.0 1.0 1.0
# LUT data points
0.0079112034291028976 0.082383282482624054 0.082062005996704102
0.078951485455036163 0.079852908849716187 0.077266216278076172
0.24827615916728973 0.08900897204875946 0.072601199150085449
0.45579808950424194 0.092013999819755554 0.065150603652000427
0.67981076240539551 0.06677139550447464 0.041154120117425919
0.85565543174743652 0.1126127690076828 0.020595984533429146
0.98581218719482422 0.21090634167194366 0.0063958261162042618
0.0027689167764037848 0.17058099806308746 0.089568570256233215
0.074432775378227234 0.17189584672451019 0.072069518268108368
0.28518688678741455 0.17954680323600769 0.063760824501514435
0.5000380277633667 0.17753416299819946 0.058095205575227737
0.70170795917510986 0.19157418608665466 0.03700319305062294
0.8666800856590271 0.22069777548313141 0.013634924776852131
0.98660778999328613 0.28440803289413452 0.0054118139669299126
0.0006545871146954596 0.3790222704410553 0.11263472586870193
0.0089429514482617378 0.3907436728477478 0.10023347288370132
0.32219123840332031 0.40754705667495728 0.023783231154084206
0.58455318212509155 0.39612007141113281 0.011375277303159237
0.74266207218170166 0.35902130603790283 0.012842141091823578
0.88126784563064575 0.36661335825920105 0.0089874416589736938
0.9942590594291687 0.41057708859443665 0.0043870513327419758
4.0929458918981254e-05 0.62795054912567139 0.18683315813541412
0.0036089729983359575 0.63461238145828247 0.18122513592243195
0.28840577602386475 0.63780450820922852 0.12152770161628723
0.58621758222579956 0.64324855804443359 0.015567226335406303
0.79160606861114502 0.61807531118392944 0.0027018229011446238
0.90462976694107056 0.56403720378875732 0.0047018909826874733
0.99511748552322388 0.56441980600357056 0.016561277210712433
0.058034155517816544 0.80409520864486694 0.31994855403900146
0.17296195030212402 0.80240815877914429 0.32193735241889954
0.38757479190826416 0.79645180702209473 0.31468558311462402
0.57536786794662476 0.79518449306488037 0.25860479474067688
0.76257038116455078 0.7976565957069397 0.12418100982904434
0.92348533868789673 0.78841781616210938 0.014569735154509544
0.99649858474731445 0.75661575794219971 0.08407796174287796
0.4765838086605072 0.90417987108230591 0.52866029739379883
0.50700992345809937 0.8996167778968811 0.52931743860244751
0.56807881593704224 0.8997071385383606 0.53078240156173706
0.66233277320861816 0.89379739761352539 0.51062661409378052
0.76777386665344238 0.8973926305770874 0.45729321241378784
0.88798767328262329 0.89850658178329468 0.36675840616226196
0.99191433191299438 0.90183287858963013 0.28912201523780823
0.69238269329071045 0.96422457695007324 0.70886468887329102
0.70429545640945435 0.96319293975830078 0.71138292551040649
0.72500908374786377 0.96096771955490112 0.70838356018066406
0.76840668916702271 0.9604867696762085 0.70976531505584717
0.81533509492874146 0.96339613199234009 0.69211125373840332
0.8784639835357666 0.96666383743286133 0.65836375951766968
0.95693105459213257 0.96728384494781494 0.61131542921066284
0.0076262829825282097 0.073995925486087799 0.14399713277816772
0.076370209455490112 0.081194676458835602 0.14919520914554596
0.25030025839805603 0.067167468369007111 0.146856889128685
0.46610388159751892 0.045820318162441254 0.14460033178329468
0.6759682297706604 0.069485500454902649 0.14947155117988586
0.84780585765838623 0.12219791859388351 0.13797403872013092
0.98181706666946411 0.22688893973827362 0.1323167085647583
0.00029202629229985178 0.16301198303699493 0.16824294626712799
0.082547999918460846 0.17185704410076141 0.17119145393371582
0.28625333309173584 0.1716625839471817 0.16624313592910767
0.50652354955673218 0.17813761532306671 0.16194845736026764
0.70113736391067505 0.19333483278751373 0.15176962316036224
0.86191511154174805 0.22738258540630341 0.13905216753482819
0.98740565776824951 0.29583010077476501 0.13328064978122711
0.004011206328868866 0.37474852800369263 0.22608581185340881
0.042196623980998993 0.38020622730255127 0.22015790641307831
0.3387773334980011 0.39556542038917542 0.18531662225723267
0.56960344314575195 0.37722951173782349 0.15873225033283234
0.73370307683944702 0.3592623770236969 0.15650592744350433
0.87788641452789307 0.38022705912590027 0.14731475710868835
0.98961097002029419 0.42157173156738281 0.14140038192272186
0.0058416780084371567 0.62038683891296387 0.29320061206817627
0.044334936887025833 0.62829816341400146 0.28693908452987671
0.33502143621444702 0.62830877304077148 0.2587854266166687
0.59674829244613647 0.62742382287979126 0.18049953877925873
0.78428196907043457 0.61168587207794189 0.11892058700323105
0.89858287572860718 0.5631902813911438 0.15462937951087952
0.99336940050125122 0.57039099931716919 0.17056161165237427
0.18854376673698425 0.79707831144332886 0.40168672800064087
0.28750878572463989 0.79365473985671997 0.40750283002853394
0.42658340930938721 0.79196655750274658 0.40043789148330688
0.58690756559371948 0.79118984937667847 0.35279729962348938
0.77272492647171021 0.7904772162437439 0.26481658220291138
0.91911238431930542 0.78423464298248291 0.19935025274753571
0.99513125419616699 0.75277304649353027 0.23012210428714752
0.51285165548324585 0.89954453706741333 0.5789981484413147
0.54470264911651611 0.8999563455581665 0.58124148845672607
0.60068875551223755 0.89719271659851074 0.58280700445175171
0.67336738109588623 0.89553564786911011 0.56419891119003296
0.77193468809127808 0.8960452675819397 0.51610839366912842
0.88754260540008545 0.89820140600204468 0.45276054739952087
0.99275797605514526 0.90071547031402588 0.38096675276756287
0.70694130659103394 0.96357220411300659 0.73123490810394287
0.71679353713989258 0.96205788850784302 0.73008018732070923
0.74394428730010986 0.96138668060302734 0.73508405685424805
0.77757936716079712 0.96304130554199219 0.73504459857940674
0.8243599534034729 0.96305817365646362 0.71527493000030518
0.88204163312911987 0.96516364812850952 0.68988674879074097
0.95570510625839233 0.96654278039932251 0.64490914344787598
0.0062372246757149696 0.080276548862457275 0.28235623240470886
0.087175019085407257 0.084808602929115295 0.28644600510597229
0.26150453090667725 0.08719366043806076 0.2949339747428894
0.48263514041900635 0.054518993943929672 0.30731415748596191
0.70082461833953857 0.0084333531558513641 0.2931121289730072
0.86590766906738281 0.018663190305233002 0.26365944743156433
0.98703426122665405 0.19842469692230225 0.27347633242607117
0.0008720248588360846 0.15934839844703674 0.30365613102912903
0.087978899478912354 0.17141242325305939 0.31048020720481873
0.29110202193260193 0.18321523070335388 0.31521981954574585
0.51560765504837036 0.18488709628582001 0.32475143671035767
0.71256864070892334 0.14495779573917389 0.29670697450637817
0.86575448513031006 0.19816143810749054 0.28509443998336792
0.9802437424659729 0.29574716091156006 0.28696677088737488
0.0023512598127126694 0.35723793506622314 0.35425275564193726
0.1309063583612442 0.36477050185203552 0.36225688457489014
0.34417203068733215 0.37222948670387268 0.36198300123214722
0.557323157787323 0.36874637007713318 0.34735256433486938
0.72505539655685425 0.36673128604888916 0.32186910510063171
0.87018442153930664 0.39197668433189392 0.31139335036277771
0.98028719425201416 0.4262143075466156 0.30805829167366028
0.17873014509677887 0.61047095060348511 0.44585219025611877
0.28887438774108887 0.60783356428146362 0.44536927342414856
0.41265144944190979 0.60607081651687622 0.42813512682914734
0.60256391763687134 0.60539573431015015 0.38856008648872375
0.76105576753616333 0.5834038257598877 0.35017687082290649
0.88436692953109741 0.56009054183959961 0.33816882967948914
0.98530608415603638 0.57846963405609131 0.33546873927116394
0.40552470088005066 0.78348618745803833 0.54399508237838745
0.43288058042526245 0.78497403860092163 0.53674525022506714
0.51179474592208862 0.78120416402816772 0.53224009275436401
0.62079328298568726 0.78158056735992432 0.51155471801757812
0.77622091770172119 0.78419071435928345 0.44842109084129333
0.90627038478851318 0.7680509090423584 0.40888538956642151
0.99158233404159546 0.7434917688369751 0.39773276448249817
0.58199352025985718 0.89158880710601807 0.65604984760284424
0.60906356573104858 0.89488929510116577 0.66129231452941895
0.65560787916183472 0.89053219556808472 0.66049832105636597
0.7095787525177002 0.89436531066894531 0.65371018648147583
0.78678572177886963 0.89288967847824097 0.61894923448562622
0.89370638132095337 0.89256340265274048 0.57041943073272705
0.98903423547744751 0.89621919393539429 0.52306646108627319
0.73781043291091919 0.96059107780456543 0.77086728811264038
0.74762254953384399 0.96228247880935669 0.76996725797653198
0.76678025722503662 0.96027874946594238 0.76942825317382812
0.79602062702178955 0.95887249708175659 0.77161288261413574
0.83669060468673706 0.95981425046920776 0.75804388523101807
0.89024096727371216 0.96197801828384399 0.73564082384109497
0.95774626731872559 0.96545112133026123 0.70497781038284302
0.0023352380376309156 0.085846513509750366 0.44873040914535522
0.088407374918460846 0.091386161744594574 0.4553716778755188
0.29693382978439331 0.084129437804222107 0.4668755829334259
0.5014110803604126 0.053262103348970413 0.47984346747398376
0.69490510225296021 0.07700677216053009 0.48002219200134277
0.87854176759719849 0.13482677936553955 0.48651227355003357
0.98953819274902344 0.12807346880435944 0.45012757182121277
0.0052886214107275009 0.17123869061470032 0.46905696392059326
0.11964572221040726 0.18787135183811188 0.48200517892837524
0.32281380891799927 0.18681500852108002 0.48471087217330933
0.51812463998794556 0.19649861752986908 0.48892378807067871
0.71582698822021484 0.21861465275287628 0.5004536509513855
0.88263076543807983 0.24919228255748749 0.48957613110542297
0.99007827043533325 0.23847810924053192 0.44896593689918518
0.0019019183237105608 0.32016631960868835 0.49778848886489868
0.093248762190341949 0.32848235964775085 0.50522804260253906
0.35226514935493469 0.34917014837265015 0.51151686906814575
0.55185002088546753 0.37185925245285034 0.51586896181106567
0.72990810871124268 0.39658531546592712 0.51709330081939697
0.87894719839096069 0.38760748505592346 0.48405805230140686
0.99015182256698608 0.40654104948043823 0.46050015091896057
0.1303931325674057 0.57254862785339355 0.56263822317123413
0.27155917882919312 0.57039338350296021 0.56446570158004761
0.43926379084587097 0.57102704048156738 0.5640137791633606
0.57994621992111206 0.57128536701202393 0.5527646541595459
0.73818022012710571 0.56915247440338135 0.53494393825531006
0.87738949060440063 0.55915015935897827 0.50668925046920776
0.97932350635528564 0.58621156215667725 0.49607884883880615
0.47751522064208984 0.77509468793869019 0.66022992134094238
0.51447302103042603 0.77252435684204102 0.65875637531280518
0.57664400339126587 0.764739990234375 0.65401196479797363
0.65448969602584839 0.76583349704742432 0.64170348644256592
0.76822400093078613 0.76930838823318481 0.60998129844665527
0.88817405700683594 0.74566686153411865 0.57249599695205688
0.97593200206756592 0.73570770025253296 0.55653363466262817
0.66030550003051758 0.88896149396896362 0.75062423944473267
0.67621117830276489 0.88776916265487671 0.74747759103775024
0.69902938604354858 0.88425475358963013 0.74090433120727539
0.74658769369125366 0.88894140720367432 0.7382580041885376
0.8034055233001709 0.8877568244934082 0.71851503849029541
0.89093238115310669 0.88858151435852051 0.68521368503570557
0.97838997840881348 0.88528841733932495 0.65594720840454102
0.77826231718063354 0.95960152149200439 0.81861579418182373
0.78325599431991577 0.95822995901107788 0.8172684907913208
0.7943953275680542 0.95690667629241943 0.81476831436157227
0.81751388311386108 0.95652657747268677 0.81226766109466553
0.85077458620071411 0.96027946472167969 0.81229126453399658
0.89873474836349487 0.96149694919586182 0.79384434223175049
0.95597946643829346 0.96215730905532837 0.77344274520874023
0.010225438512861729 0.095590479671955109 0.62749636173248291
0.15937180817127228 0.10394299030303955 0.62454879283905029
0.35244452953338623 0.098506346344947815 0.63418751955032349
0.53267991542816162 0.076430149376392365 0.64416277408599854
0.71087861061096191 0.073860391974449158 0.65008074045181274
0.86284810304641724 0.17766128480434418 0.6554521918296814
0.98111075162887573 0.35726606845855713 0.67873674631118774
0.053835026919841766 0.18445970118045807 0.64218264818191528
0.20301623642444611 0.19077877700328827 0.64784830808639526
0.36913558840751648 0.1943269670009613 0.64794152975082397
0.54844123125076294 0.20464995503425598 0.65115153789520264
0.71745067834854126 0.22665072977542877 0.6600576639175415
0.86815184354782104 0.29084798693656921 0.67165505886077881
0.97896897792816162 0.42503443360328674 0.68371409177780151
0.035667702555656433 0.31421741843223572 0.65379184484481812
0.19851060211658478 0.32932800054550171 0.65863078832626343
0.38722154498100281 0.34858050942420959 0.65947002172470093
0.57074654102325439 0.36869770288467407 0.66086554527282715
0.72748571634292603 0.39518246054649353 0.66833311319351196
0.8706018328666687 0.44946858286857605 0.6816440224647522
0.97656327486038208 0.52387988567352295 0.68819224834442139
0.049657303839921951 0.50196307897567749 0.67238801717758179
0.19410663843154907 0.50319850444793701 0.67262303829193115
0.37800723314285278 0.5076175332069397 0.67249441146850586
0.57024222612380981 0.54077786207199097 0.67943102121353149
0.73699343204498291 0.57440721988677979 0.68875962495803833
0.86486351490020752 0.60947304964065552 0.69680333137512207
0.97242110967636108 0.61147958040237427 0.67267930507659912
0.40995925664901733 0.73943030834197998 0.73268163204193115
0.46385613083839417 0.73589348793029785 0.73238855600357056
0.54610598087310791 0.73838996887207031 0.73442071676254272
0.65072256326675415 0.73401206731796265 0.73398017883300781
0.75276416540145874 0.73620408773422241 0.72051447629928589
0.86099869012832642 0.73793619871139526 0.70832014083862305
0.96600055694580078 0.73179572820663452 0.69288098812103271
0.68121039867401123 0.88798153400421143 0.81142234802246094
0.69793796539306641 0.88739502429962158 0.80942380428314209
0.72837787866592407 0.88353884220123291 0.80756551027297974
0.77171492576599121 0.8837810754776001 0.80810517072677612
0.81593978404998779 0.87774074077606201 0.79713881015777588
0.88649564981460571 0.88165384531021118 0.77728939056396484
0.96659600734710693 0.87507957220077515 0.75600266456604004
0.80442774295806885 0.95652729272842407 0.86635082960128784
0.80909723043441772 0.95539236068725586 0.86481863260269165
0.82414543628692627 0.95548611879348755 0.86240905523300171
0.84452557563781738 0.95560610294342041 0.86191266775131226
0.8713269829750061 0.95433759689331055 0.85685163736343384
0.90775406360626221 0.95871806144714355 0.85265654325485229
0.95959627628326416 0.96280986070632935 0.83437955379486084
0.23565861582756042 0.13271872699260712 0.79053658246994019
0.31655296683311462 0.12859012186527252 0.79351824522018433
0.44491368532180786 0.13106602430343628 0.78840148448944092
0.5929800271987915 0.13372385501861572 0.79551488161087036
0.74683082103729248 0.1763714998960495 0.79713505506515503
0.88331121206283569 0.2374112457036972 0.80399584770202637
0.97959774732589722 0.34655019640922546 0.80179357528686523
0.25870728492736816 0.21404430270195007 0.79274553060531616
0.34343984723091125 0.22295956313610077 0.79617297649383545
0.46167108416557312 0.2266128808259964 0.7947690486907959
0.60196292400360107 0.2337384819984436 0.79463779926300049
0.74939930438995361 0.27402001619338989 0.79644978046417236
0.88280689716339111 0.32289150357246399 0.8040165901184082
0.97845053672790527 0.42080044746398926 0.80943363904953003
0.26076531410217285 0.3458593487739563 0.79669302701950073
0.3416905403137207 0.35535541176795959 0.79876136779785156
0.46509566903114319 0.36551406979560852 0.79612749814987183
0.61078864336013794 0.37492614984512329 0.79772806167602539
0.755482017993927 0.41131860017776489 0.80175995826721191
0.88287734985351562 0.45826265215873718 0.80805546045303345
0.96905708312988281 0.53666222095489502 0.81556230783462524
0.078364640474319458 0.46418243646621704 0.79453450441360474
0.23868241906166077 0.47368678450584412 0.79620099067687988
0.42723742127418518 0.49972724914550781 0.7997901439666748
0.59716486930847168 0.52863752841949463 0.80234688520431519
0.74846345186233521 0.55954158306121826 0.80734694004058838
0.87221473455429077 0.61092716455459595 0.8124014139175415
0.96252834796905518 0.66619980335235596 0.82223057746887207
0.3309306800365448 0.67959690093994141 0.81997144222259521
0.38048276305198669 0.67998087406158447 0.81473147869110107
0.47021389007568359 0.6753048300743103 0.81346005201339722
0.58036273717880249 0.675648033618927 0.81020659208297729
0.73389488458633423 0.70483124256134033 0.81472611427307129
0.85831838846206665 0.74610763788223267 0.82468158006668091
0.95182722806930542 0.77955156564712524 0.8325996994972229
0.62021440267562866 0.86473101377487183 0.85606718063354492
0.64582842588424683 0.86346197128295898 0.85908967256546021
0.67648810148239136 0.85898381471633911 0.85814672708511353
0.73919093608856201 0.8630555272102356 0.85727274417877197
0.80524051189422607 0.85928583145141602 0.8547484278678894
0.87163239717483521 0.86364376544952393 0.84641867876052856
0.95423609018325806 0.86872422695159912 0.8422924280166626
0.81563383340835571 0.95814281702041626 0.90295261144638062
0.81759703159332275 0.95406520366668701 0.90228092670440674
0.84007364511489868 0.95846223831176758 0.90582168102264404
0.86130338907241821 0.95613652467727661 0.9070935845375061
0.89351868629455566 0.95737659931182861 0.90973711013793945
0.921897292137146 0.95663011074066162 0.90709215402603149
0.96062994003295898 0.95909219980239868 0.89506858587265015
0.49940711259841919 0.26268979907035828 0.92596888542175293
0.53731584548950195 0.27162075042724609 0.92351740598678589
0.61444747447967529 0.28793281316757202 0.92362767457962036
0.70922857522964478 0.30587628483772278 0.92237389087677002
0.81903815269470215 0.35364574193954468 0.91943532228469849
0.92010259628295898 0.41710460186004639 0.91729879379272461
0.98592907190322876 0.48628422617912292 0.91820979118347168
0.50478744506835938 0.33357030153274536 0.92468810081481934
0.54189503192901611 0.33410218358039856 0.92472195625305176
0.61573511362075806 0.34481325745582581 0.92314964532852173
0.71159660816192627 0.36637076735496521 0.92050230503082275
0.81728458404541016 0.40392407774925232 0.91675996780395508
0.91435724496841431 0.46663698554039001 0.91514092683792114
0.98570603132247925 0.53214162588119507 0.91797387599945068
0.50285118818283081 0.43596071004867554 0.92387109994888306
0.54123425483703613 0.44787847995758057 0.92155396938323975
0.61585396528244019 0.45620554685592651 0.92024356126785278
0.70841962099075317 0.47311258316040039 0.91669952869415283
0.8152090311050415 0.50471150875091553 0.91869020462036133
0.91033732891082764 0.55356162786483765 0.91664129495620728
0.98014867305755615 0.60401415824890137 0.91575998067855835
0.44657114148139954 0.54710066318511963 0.92166531085968018
0.4950096607208252 0.55632257461547852 0.91919732093811035
0.58533263206481934 0.57074993848800659 0.91861480474472046
0.69539493322372437 0.59369665384292603 0.91775918006896973
0.80126690864562988 0.61548745632171631 0.9160693883895874
0.8974074125289917 0.65404927730560303 0.91697126626968384
0.97487956285476685 0.69231349229812622 0.91759234666824341
0.39535301923751831 0.67435926198959351 0.92083847522735596
0.43019157648086548 0.67124992609024048 0.9191964864730835
0.51475173234939575 0.67673474550247192 0.9203115701675415
0.64327096939086914 0.69552004337310791 0.91949772834777832
0.77052360773086548 0.72363173961639404 0.91683697700500488
0.88153266906738281 0.75610357522964478 0.92077666521072388
0.96249103546142578 0.79143989086151123 0.92482584714889526
0.5982435941696167 0.8515629768371582 0.92990332841873169
0.61143028736114502 0.84569138288497925 0.92761170864105225
0.64555954933166504 0.84247058629989624 0.92812252044677734
0.69230812788009644 0.83918678760528564 0.92619359493255615
0.75560319423675537 0.83095341920852661 0.92830741405487061
0.86297190189361572 0.85129982233047485 0.92500489950180054
0.95563846826553345 0.87553960084915161 0.93352419137954712
0.77714067697525024 0.9521443247795105 0.9500352144241333
0.78170353174209595 0.94906997680664062 0.94797629117965698
0.80657279491424561 0.94504207372665405 0.94488328695297241
0.83663976192474365 0.94735682010650635 0.9459528923034668
0.87375879287719727 0.94743239879608154 0.94777578115463257
0.91629016399383545 0.94913268089294434 0.95192921161651611
0.96155935525894165 0.9567607045173645 0.95329111814498901
