luts/negative_old/fuji_superia_400.cube
# Created by: G'MIC (https://gmic.eu)
TITLE "fuji_superia_400"
# LUT size
LUT_3D_SIZE 7
# Data domain
DOMAIN_MIN 0.0 0.0 0.0
DOMAIN_MAX 1.0 1.0 1.0
# LUT data points
0.013801784254610538 0.057690266519784927 0.05266234278678894
0.11087683588266373 0.065111167728900909 0.050426557660102844
0.28905564546585083 0.063951827585697174 0.045510176569223404
0.53552311658859253 0.011894255876541138 0.02927081473171711
0.77497893571853638 0.0084087895229458809 0.0073781781829893589
0.93229198455810547 0.034816369414329529 0.0013796339044347405
1 0.20278628170490265 0
0.010683516040444374 0.14098836481571198 0.073977530002593994
0.098724156618118286 0.16198457777500153 0.057858679443597794
0.3181033730506897 0.16973064839839935 0.029023623093962669
0.56751531362533569 0.15796105563640594 0.011126140132546425
0.77424019575119019 0.15821970999240875 0.0037634158506989479
0.93243128061294556 0.2107728123664856 0.0030871373601257801
0.99799185991287231 0.29342538118362427 0.0017467573052272201
0.0031709559261798859 0.29591399431228638 0.11932848393917084
0.051777560263872147 0.31424900889396667 0.10965722799301147
0.32660979032516479 0.40042987465858459 0.02412923239171505
0.61193650960922241 0.42195245623588562 0.0024699789937585592
0.77239501476287842 0.3640497624874115 0.0012467477936297655
0.91976809501647949 0.39188823103904724 0.0032442130614072084
0.99053466320037842 0.43038666248321533 0.0020872827153652906
0.0035902734380215406 0.49115917086601257 0.18923200666904449
0.032004877924919128 0.50002521276473999 0.19410166144371033
0.27076196670532227 0.54152822494506836 0.16178563237190247
0.56164532899856567 0.62039762735366821 0.036012925207614899
0.80797111988067627 0.64315962791442871 0.001141970744356513
0.9223254919052124 0.59104907512664795 0.0038584391586482525
0.99095278978347778 0.56832605600357056 0
0.106963150203228 0.65968841314315796 0.31696167588233948
0.20785069465637207 0.65718811750411987 0.32737869024276733
0.33515352010726929 0.66501295566558838 0.32020598649978638
0.5169677734375 0.71362113952636719 0.28641694784164429
0.74201864004135132 0.76655912399291992 0.21018390357494354
0.93765354156494141 0.79989463090896606 0.086352363228797913
0.99953764677047729 0.75662398338317871 0.010366133414208889
0.40982013940811157 0.79510414600372314 0.50370246171951294
0.43798044323921204 0.79724991321563721 0.49630820751190186
0.49781936407089233 0.79582655429840088 0.50127971172332764
0.58797299861907959 0.81427407264709473 0.49805089831352234
0.72619068622589111 0.84790897369384766 0.48552119731903076
0.8697848916053772 0.88224142789840698 0.46183082461357117
0.98913252353668213 0.90188467502593994 0.42209902405738831
0.67927128076553345 0.91532576084136963 0.7075117826461792
0.68855088949203491 0.91530370712280273 0.70950186252593994
0.71652352809906006 0.91581690311431885 0.71551012992858887
0.74788373708724976 0.91664481163024902 0.71874576807022095
0.80278861522674561 0.93225938081741333 0.71318399906158447
0.86855155229568481 0.9459761381149292 0.70838576555252075
0.9448058009147644 0.95918381214141846 0.69525277614593506
0.015300017781555653 0.067135423421859741 0.13634763658046722
0.10809315741062164 0.072634272277355194 0.12879477441310883
0.29036051034927368 0.063824012875556946 0.13729749619960785
0.54655033349990845 0.012494419701397419 0.13424332439899445
0.77661621570587158 0.01025809533894062 0.12654967606067657
0.93075132369995117 0.076401606202125549 0.11334913969039917
0.99875044822692871 0.22340862452983856 0.090726234018802643
0.010359819978475571 0.15794464945793152 0.14965242147445679
0.12145761400461197 0.17816516757011414 0.1573006808757782
0.32939806580543518 0.17345473170280457 0.14274966716766357
0.579426109790802 0.16715799272060394 0.13797794282436371
0.78064626455307007 0.17601755261421204 0.11472868174314499
0.92723435163497925 0.22880479693412781 0.094961129128932953
0.99769717454910278 0.3011622428894043 0.068397060036659241
0.025216106325387955 0.33070552349090576 0.20001959800720215
0.13751368224620819 0.33866026997566223 0.20715788006782532
0.35220324993133545 0.39881932735443115 0.17095412313938141
0.61059665679931641 0.40064790844917297 0.092042736709117889
0.77593940496444702 0.36823320388793945 0.051749046891927719
0.92615634202957153 0.3868652880191803 0.035251017659902573
0.99645203351974487 0.42764303088188171 0.027791250497102737
0.030568799003958702 0.52260828018188477 0.27824193239212036
0.16064006090164185 0.52729624509811401 0.28707367181777954
0.31694379448890686 0.54287123680114746 0.27471044659614563
0.58091479539871216 0.61824345588684082 0.20247375965118408
0.80236136913299561 0.62629187107086182 0.079495735466480255
0.92193937301635742 0.56924903392791748 0.011775671504437923
0.99567937850952148 0.56298619508743286 0.0049511929973959923
0.21530099213123322 0.66804045438766479 0.38217738270759583
0.28232213854789734 0.66687512397766113 0.38950157165527344
0.38093477487564087 0.66974389553070068 0.38753047585487366
0.53837341070175171 0.71017742156982422 0.37102052569389343
0.7487369179725647 0.76845824718475342 0.33222490549087524
0.93204432725906372 0.79113411903381348 0.25684255361557007
0.99917757511138916 0.75074881315231323 0.097052797675132751
0.44439825415611267 0.80237674713134766 0.53178167343139648
0.47311374545097351 0.79968643188476562 0.53696876764297485
0.52386367321014404 0.80000191926956177 0.53493577241897583
0.60792124271392822 0.81381690502166748 0.53845596313476562
0.72636902332305908 0.84836483001708984 0.53306311368942261
0.87644952535629272 0.88182967901229858 0.51951730251312256
0.98413902521133423 0.89812225103378296 0.4869917631149292
0.68786239624023438 0.91661661863327026 0.72250008583068848
0.69621598720550537 0.91421234607696533 0.72081643342971802
0.72163182497024536 0.91460937261581421 0.72679120302200317
0.75848913192749023 0.91770875453948975 0.7332836389541626
0.81054532527923584 0.93086051940917969 0.73244905471801758
0.87000948190689087 0.94397538900375366 0.72304654121398926
0.94573140144348145 0.95914119482040405 0.71808922290802002
0.0055334800854325294 0.075713798403739929 0.31208035349845886
0.12575484812259674 0.084593832492828369 0.30762401223182678
0.29883542656898499 0.088269524276256561 0.30792403221130371
0.53358691930770874 0.045699145644903183 0.32246458530426025
0.76545697450637817 0.0055811265483498573 0.31926408410072327
0.93894213438034058 0.019820448011159897 0.30486604571342468
1 0.25803929567337036 0.33667343854904175
0.0044917836785316467 0.16323082149028778 0.33518561720848083
0.12608589231967926 0.17837059497833252 0.33702793717384338
0.33458510041236877 0.20101045072078705 0.33973845839500427
0.57256025075912476 0.19459293782711029 0.34597072005271912
0.78283727169036865 0.16833840310573578 0.33001726865768433
0.93461745977401733 0.24788603186607361 0.33564117550849915
0.99921989440917969 0.35550516843795776 0.34918633103370667
0.011456089094281197 0.36113125085830688 0.35986772179603577
0.13623040914535522 0.37644210457801819 0.37776908278465271
0.38501560688018799 0.39789357781410217 0.38691303133964539
0.60138958692550659 0.39934343099594116 0.35999834537506104
0.77704101800918579 0.40543732047080994 0.34967419505119324
0.92161351442337036 0.42974421381950378 0.33348798751831055
0.9974135160446167 0.46397775411605835 0.32124808430671692
0.21130506694316864 0.55967491865158081 0.43535783886909485
0.30331242084503174 0.56566256284713745 0.44383880496025085
0.41709461808204651 0.56871968507766724 0.44104373455047607
0.59663444757461548 0.61036896705627441 0.42758074402809143
0.78104275465011597 0.59493845701217651 0.36673495173454285
0.91065645217895508 0.564952552318573 0.29709276556968689
0.99584615230560303 0.57440555095672607 0.28164976835250854
0.37346705794334412 0.69297206401824951 0.51048719882965088
0.40578854084014893 0.69387882947921753 0.51237064599990845
0.4659474790096283 0.68834412097930908 0.50485795736312866
0.567524254322052 0.70888888835906982 0.50272619724273682
0.75864684581756592 0.76650500297546387 0.4989074170589447
0.91949093341827393 0.77418965101242065 0.45544391870498657
0.99621188640594482 0.73576730489730835 0.35060831904411316
0.50882822275161743 0.81162697076797485 0.60477340221405029
0.52996146678924561 0.8108820915222168 0.6017763614654541
0.57632946968078613 0.80696594715118408 0.60800266265869141
0.63273179531097412 0.81091678142547607 0.60749787092208862
0.7454293966293335 0.84400612115859985 0.61200630664825439
0.874916672706604 0.87903088331222534 0.6082572340965271
0.98226964473724365 0.89528840780258179 0.59306752681732178
0.7063639760017395 0.91758561134338379 0.74989765882492065
0.71693700551986694 0.91615754365921021 0.74997508525848389
0.73762530088424683 0.9153594970703125 0.75403952598571777
0.76701152324676514 0.91446965932846069 0.75432729721069336
0.81939220428466797 0.92670410871505737 0.75679004192352295
0.87956869602203369 0.94023460149765015 0.75114905834197998
0.95004522800445557 0.95614296197891235 0.75216913223266602
0.0078173764050006866 0.086446173489093781 0.53697496652603149
0.11372384428977966 0.088136695325374603 0.53460246324539185
0.36559644341468811 0.10154028236865997 0.53824788331985474
0.56351780891418457 0.11738954484462738 0.54022508859634399
0.73802787065505981 0.12913043797016144 0.5375789999961853
0.90821892023086548 0.19606010615825653 0.53017371892929077
0.99672830104827881 0.2739378809928894 0.53083115816116333
0.0084181986749172211 0.18451574444770813 0.55688667297363281
0.1424725204706192 0.19184422492980957 0.56221240758895874
0.38528597354888916 0.22461076080799103 0.56444317102432251
0.58189499378204346 0.24416615068912506 0.55850070714950562
0.75720548629760742 0.27651935815811157 0.54900431632995605
0.90759396553039551 0.31560918688774109 0.54513531923294067
0.99394381046295166 0.35554230213165283 0.53607803583145142
0.0075049754232168198 0.35612353682518005 0.5649186372756958
0.043585624545812607 0.36474570631980896 0.58313548564910889
0.3867490291595459 0.40042716264724731 0.58460098505020142
0.59614020586013794 0.4329315721988678 0.57640033960342407
0.76320403814315796 0.45111650228500366 0.56919187307357788
0.90950858592987061 0.45973461866378784 0.55937343835830688
0.99762606620788574 0.49937373399734497 0.56339764595031738
0.076488658785820007 0.57489001750946045 0.57521796226501465
0.23651853203773499 0.57879304885864258 0.58435964584350586
0.44219014048576355 0.5837024450302124 0.59349554777145386
0.60446256399154663 0.60193419456481934 0.5995524525642395
0.76208674907684326 0.60175436735153198 0.57517415285110474
0.89534324407577515 0.60644227266311646 0.55676358938217163
0.98997527360916138 0.62367558479309082 0.55522525310516357
0.42550194263458252 0.71627938747406006 0.62394094467163086
0.46725493669509888 0.71592336893081665 0.62649178504943848
0.54998373985290527 0.71846884489059448 0.63280969858169556
0.62383937835693359 0.72028690576553345 0.63253325223922729
0.76715552806854248 0.76106029748916626 0.63804417848587036
0.90232867002487183 0.74894541501998901 0.5895686149597168
0.99012893438339233 0.72145926952362061 0.52419227361679077
0.58922779560089111 0.82604420185089111 0.6985442042350769
0.60914701223373413 0.8255000114440918 0.6959453821182251
0.63737887144088745 0.82733118534088135 0.69209194183349609
0.68278783559799194 0.82387697696685791 0.69410520792007446
0.76339626312255859 0.84032917022705078 0.69630950689315796
0.87937861680984497 0.87781929969787598 0.70337438583374023
0.98022311925888062 0.88366043567657471 0.68478953838348389
0.73619359731674194 0.92284286022186279 0.79101884365081787
0.74476444721221924 0.91835391521453857 0.79159724712371826
0.75870239734649658 0.91648060083389282 0.78962415456771851
0.78816378116607666 0.92310816049575806 0.79465562105178833
0.83023136854171753 0.92733561992645264 0.80300062894821167
0.8882448673248291 0.9430469274520874 0.8056216835975647
0.95123982429504395 0.95739889144897461 0.80564397573471069
0.035176191478967667 0.087474033236503601 0.71758836507797241
0.22541935741901398 0.093799859285354614 0.71957850456237793
0.43100199103355408 0.11611883342266083 0.71948844194412231
0.61306107044219971 0.18342390656471252 0.714954674243927
0.75753533840179443 0.25704026222229004 0.70994609594345093
0.88411158323287964 0.29696822166442871 0.70298129320144653
0.98210364580154419 0.41516926884651184 0.71474570035934448
0.08466397225856781 0.19836468994617462 0.73074901103973389
0.25725990533828735 0.21217593550682068 0.73198503255844116
0.44504907727241516 0.24290981888771057 0.72693616151809692
0.6241457462310791 0.29760366678237915 0.71473968029022217
0.76457971334457397 0.35172033309936523 0.71615958213806152
0.88725578784942627 0.3891739547252655 0.71429973840713501
0.98440176248550415 0.47896811366081238 0.72151005268096924
0.026089297607541084 0.35300508141517639 0.73353809118270874
0.21134482324123383 0.37644514441490173 0.73524278402328491
0.43840590119361877 0.4150107204914093 0.73024541139602661
0.62204301357269287 0.46068447828292847 0.72463244199752808
0.7599455714225769 0.49282348155975342 0.71873307228088379
0.88555115461349487 0.51521652936935425 0.71918809413909912
0.98579126596450806 0.5662497878074646 0.72871196269989014
0.0078582018613815308 0.55056512355804443 0.72498214244842529
0.11426829546689987 0.54998326301574707 0.72746676206588745
0.38840827345848083 0.55981522798538208 0.72819489240646362
0.60025268793106079 0.59666675329208374 0.73282653093338013
0.7607882022857666 0.62770992517471313 0.73202389478683472
0.88265174627304077 0.64620667695999146 0.72945272922515869
0.98509985208511353 0.66004407405853271 0.72814232110977173
0.34948572516441345 0.72036933898925781 0.73086977005004883
0.41653242707252502 0.71939486265182495 0.73361915349960327
0.51337558031082153 0.72295624017715454 0.73780882358551025
0.64091241359710693 0.73257046937942505 0.74744153022766113
0.77292686700820923 0.75562900304794312 0.75106477737426758
0.88299262523651123 0.75533121824264526 0.73713517189025879
0.97916805744171143 0.75673800706863403 0.71930849552154541
0.61646360158920288 0.8437073826789856 0.77451521158218384
0.63538718223571777 0.84056645631790161 0.77813535928726196
0.67472070455551147 0.84220832586288452 0.78002190589904785
0.72379636764526367 0.8399651050567627 0.7779613733291626
0.78716731071472168 0.84182709455490112 0.77896463871002197
0.89066952466964722 0.87718331813812256 0.79635512828826904
0.97545945644378662 0.86075037717819214 0.75872015953063965
0.76093214750289917 0.9262736439704895 0.84333080053329468
0.77229452133178711 0.92672717571258545 0.84644931554794312
0.79185265302658081 0.92847973108291626 0.84673291444778442
0.81291669607162476 0.92591291666030884 0.8405272364616394
0.84873580932617188 0.92888200283050537 0.84810358285903931
0.89247101545333862 0.9407503604888916 0.85345041751861572
0.95613193511962891 0.95867753028869629 0.85770970582962036
0.30955150723457336 0.13986353576183319 0.85592472553253174
0.38684898614883423 0.15590827167034149 0.85344117879867554
0.52271163463592529 0.18854719400405884 0.85357445478439331
0.66615122556686401 0.26141145825386047 0.84554600715637207
0.79401743412017822 0.37718158960342407 0.83813011646270752
0.90389049053192139 0.43903464078903198 0.83839088678359985
0.9859919548034668 0.48175910115242004 0.83609300851821899
0.3205353319644928 0.25301620364189148 0.85597974061965942
0.40744051337242126 0.27082502841949463 0.85377949476242065
0.52992969751358032 0.29291403293609619 0.85328042507171631
0.66943907737731934 0.35613015294075012 0.84635728597640991
0.79692000150680542 0.44392025470733643 0.84187144041061401
0.90293276309967041 0.4899480938911438 0.83844280242919922
0.97664695978164673 0.52554881572723389 0.8353952169418335
0.30480587482452393 0.39923042058944702 0.85968935489654541
0.38714930415153503 0.41500461101531982 0.85512828826904297
0.51951926946640015 0.44078716635704041 0.84959667921066284
0.67097395658493042 0.49054601788520813 0.8412787914276123
0.79718893766403198 0.54558634757995605 0.84160733222961426
0.89475530385971069 0.57687443494796753 0.8400232195854187
0.9761584997177124 0.62087571620941162 0.84025055170059204
0.053506635129451752 0.52466309070587158 0.85131579637527466
0.22722348570823669 0.54013526439666748 0.8499603271484375
0.46464172005653381 0.56851524114608765 0.8472856879234314
0.63741046190261841 0.60636281967163086 0.84519338607788086
0.78565365076065063 0.65542328357696533 0.84203922748565674
0.88747185468673706 0.6903080940246582 0.84448659420013428
0.97361505031585693 0.71211725473403931 0.84746682643890381
0.24648332595825195 0.70286017656326294 0.84509396553039551
0.32788324356079102 0.69808048009872437 0.8464972972869873
0.45559224486351013 0.70255917310714722 0.84620654582977295
0.60193037986755371 0.71445214748382568 0.84862297773361206
0.76727139949798584 0.75191736221313477 0.85059410333633423
0.88325786590576172 0.7894473671913147 0.854103684425354
0.97310549020767212 0.7958073616027832 0.84938347339630127
0.55149757862091064 0.84304589033126831 0.85158705711364746
0.58187496662139893 0.842002272605896 0.85817998647689819
0.63717329502105713 0.84205174446105957 0.85972791910171509
0.71631121635437012 0.84472870826721191 0.86137890815734863
0.80197584629058838 0.85376608371734619 0.8655427098274231
0.88085281848907471 0.87039309740066528 0.87382656335830688
0.97050333023071289 0.8730655312538147 0.85648298263549805
0.77099144458770752 0.93624967336654663 0.88793790340423584
0.77725756168365479 0.93349540233612061 0.88755041360855103
0.79371732473373413 0.93406468629837036 0.89054441452026367
0.83214485645294189 0.93660265207290649 0.89628869295120239
0.86517083644866943 0.93260842561721802 0.8944094181060791
0.89982885122299194 0.93997156620025635 0.90219748020172119
0.9584883451461792 0.95753896236419678 0.9098544716835022
0.52691197395324707 0.31664487719535828 0.96010684967041016
0.56739562749862671 0.3328704833984375 0.95851010084152222
0.64633846282958984 0.36711490154266357 0.95615339279174805
0.74541616439819336 0.42970079183578491 0.95197409391403198
0.84167909622192383 0.51903891563415527 0.94290125370025635
0.91659724712371826 0.60314816236495972 0.93461340665817261
0.9863477349281311 0.64610117673873901 0.93626177310943604
0.52959859371185303 0.39024850726127625 0.95915001630783081
0.57201343774795532 0.40490776300430298 0.95823734998703003
0.64781677722930908 0.43137213587760925 0.95466220378875732
0.74532032012939453 0.48552218079566956 0.94861942529678345
0.83840036392211914 0.55647104978561401 0.94157940149307251
0.91588348150253296 0.63054972887039185 0.93364846706390381
0.98584979772567749 0.66902655363082886 0.93644732236862183
0.52395147085189819 0.49974161386489868 0.95601552724838257
0.56003737449645996 0.51217198371887207 0.9538307785987854
0.64013046026229858 0.5323798656463623 0.951305091381073
0.74204158782958984 0.56829327344894409 0.94771492481231689
0.83773612976074219 0.6257556676864624 0.94383490085601807
0.90715885162353516 0.68012553453445435 0.93372803926467896
0.97737842798233032 0.72004044055938721 0.93572205305099487
0.43976780772209167 0.59090089797973633 0.95486432313919067
0.50827759504318237 0.60117685794830322 0.95493811368942261
0.60709947347640991 0.62512975931167603 0.94962811470031738
0.72023344039916992 0.65688765048980713 0.94505679607391357
0.827656090259552 0.70052671432495117 0.94133323431015015
0.89900738000869751 0.74802958965301514 0.93481993675231934
0.9729277491569519 0.7736169695854187 0.93769216537475586
0.31643486022949219 0.69105279445648193 0.95080661773681641
0.38201478123664856 0.69455540180206299 0.95134490728378296
0.50838661193847656 0.70422196388244629 0.94967204332351685
0.66540986299514771 0.73159652948379517 0.94656699895858765
0.79361844062805176 0.77224636077880859 0.94114381074905396
0.89702260494232178 0.80812919139862061 0.93783104419708252
0.96564292907714844 0.83011770248413086 0.93713521957397461
0.55561786890029907 0.84698224067687988 0.94618523120880127
0.57063299417495728 0.83921521902084351 0.94350022077560425
0.62216967344284058 0.84325796365737915 0.94406557083129883
0.6863362193107605 0.84188491106033325 0.94635218381881714
0.77654469013214111 0.84649652242660522 0.94686019420623779
0.88575339317321777 0.8730844259262085 0.94773977994918823
0.96182107925415039 0.90090668201446533 0.94771850109100342
0.74639177322387695 0.94213533401489258 0.94641584157943726
0.75454318523406982 0.94341558218002319 0.94731104373931885
0.7778436541557312 0.94242870807647705 0.94840830564498901
0.8103141188621521 0.93693792819976807 0.94935315847396851
0.86149585247039795 0.94436252117156982 0.95254307985305786
0.90323710441589355 0.94609498977661133 0.9557453989982605
0.9615294337272644 0.96023279428482056 0.95997518301010132
