luts/negative_old/fuji_superia_100_-.cube
# Created by: G'MIC (https://gmic.eu)
TITLE "fuji_superia_100_-"
# LUT size
LUT_3D_SIZE 5
# Data domain
DOMAIN_MIN 0.0 0.0 0.0
DOMAIN_MAX 1.0 1.0 1.0
# LUT data points
0.0082556037232279778 0.019597729668021202 0.019341398030519485
0.21241647005081177 0.039749398827552795 0.0091021815314888954
0.51925796270370483 0.092479556798934937 0.0044339047744870186
0.75081592798233032 0.13618777692317963 0.003709202166646719
0.95996195077896118 0.20602966845035553 0.0006792853819206357
0.0018544964259490371 0.2838892936706543 0.051736194640398026
0.20964539051055908 0.2895197868347168 0.025681305676698685
0.56557083129882812 0.31971600651741028 0.0042913099750876427
0.77528977394104004 0.3163677453994751 0.0047139786183834076
0.96921026706695557 0.33929485082626343 0.002383123617619276
0 0.59824585914611816 0.25324994325637817
0.057758629322052002 0.60343098640441895 0.25743401050567627
0.50603806972503662 0.57429653406143188 0.18738237023353577
0.77736908197402954 0.56716328859329224 0.08466649055480957
0.98658931255340576 0.56680655479431152 0.030313814058899879
0.016680354252457619 0.83486604690551758 0.45521581172943115
0.17909665405750275 0.83498638868331909 0.45914760231971741
0.45279067754745483 0.82745617628097534 0.44253072142601013
0.71952468156814575 0.80229765176773071 0.37318521738052368
0.96795481443405151 0.80682456493377686 0.32139253616333008
0.54283708333969116 0.98633825778961182 0.70583349466323853
0.56507295370101929 0.98366564512252808 0.70691508054733276
0.63505607843399048 0.98457413911819458 0.71214175224304199
0.75018256902694702 0.98263925313949585 0.68746489286422729
0.91125106811523438 0.97415465116500854 0.65133762359619141
0.0024428423494100571 0.0074013504199683666 0.27918437123298645
0.25741186738014221 0.006002508569508791 0.27690106630325317
0.5386204719543457 0.0064110700041055679 0.24003243446350098
0.74875152111053467 0.035578079521656036 0.21059048175811768
0.95399034023284912 0.15663427114486694 0.20433300733566284
0.0094329984858632088 0.29098895192146301 0.29655912518501282
0.28610679507255554 0.29967203736305237 0.30458003282546997
0.56075525283813477 0.29059687256813049 0.26816615462303162
0.76115071773529053 0.2946738600730896 0.24241527915000916
0.96600222587585449 0.32306045293807983 0.22490280866622925
0.23787482082843781 0.5915604829788208 0.42808133363723755
0.30107241868972778 0.59679096937179565 0.41270974278450012
0.53289914131164551 0.57493716478347778 0.36676371097564697
0.77727556228637695 0.56175976991653442 0.31259641051292419
0.9802471399307251 0.56542277336120605 0.28127843141555786
0.31614965200424194 0.82763218879699707 0.55411726236343384
0.35494661331176758 0.83202898502349854 0.54713606834411621
0.51398390531539917 0.82744139432907104 0.53448516130447388
0.73175948858261108 0.80613523721694946 0.47128257155418396
0.96907544136047363 0.80621629953384399 0.4255639910697937
0.59644293785095215 0.98031520843505859 0.74339002370834351
0.61778974533081055 0.9816858172416687 0.74360799789428711
0.67599105834960938 0.9827876091003418 0.74966716766357422
0.77295207977294922 0.97841119766235352 0.73069226741790771
0.91808682680130005 0.97280639410018921 0.69069367647171021
0.0031518226023763418 0.0042986250482499599 0.58743530511856079
0.28756731748580933 0.0053086224943399429 0.5856863260269165
0.57679706811904907 0.017346011474728584 0.57211285829544067
0.77697885036468506 0.15539540350437164 0.51261800527572632
0.97030425071716309 0.12245534360408783 0.46599084138870239
0.0022818173747509718 0.2941456139087677 0.59603309631347656
0.29394564032554626 0.30373209714889526 0.58759486675262451
0.57614457607269287 0.3141099214553833 0.57057785987854004
0.7740669846534729 0.33638069033622742 0.52024930715560913
0.96911656856536865 0.27996364235877991 0.46258053183555603
0.23965902626514435 0.57953768968582153 0.58690881729125977
0.38676506280899048 0.57962721586227417 0.58872956037521362
0.57213026285171509 0.5673828125 0.57029205560684204
0.76825565099716187 0.54448312520980835 0.52900040149688721
0.96968013048171997 0.52775979042053223 0.49624991416931152
0.50679141283035278 0.81866466999053955 0.69336289167404175
0.55329471826553345 0.81430613994598389 0.69061559438705444
0.61224079132080078 0.82014721632003784 0.67564219236373901
0.75761234760284424 0.80157381296157837 0.62725567817687988
0.97145313024520874 0.79661345481872559 0.5814368724822998
0.71919691562652588 0.97597676515579224 0.83121335506439209
0.72284764051437378 0.97597312927246094 0.82629990577697754
0.75246721506118774 0.97529757022857666 0.82116997241973877
0.81920236349105835 0.97591912746429443 0.80985158681869507
0.9319031834602356 0.97682851552963257 0.77734935283660889
0.0050039403140544891 0.0063685695640742779 0.82908141613006592
0.29727688431739807 0.0093138003721833229 0.82480478286743164
0.56730979681015015 0.067098282277584076 0.81695210933685303
0.80782204866409302 0.18949343264102936 0.79538446664810181
0.98338335752487183 0.29349622130393982 0.75783812999725342
0.061258353292942047 0.29968458414077759 0.82778018712997437
0.3274187445640564 0.30420628190040588 0.8173518180847168
0.57563555240631104 0.32898193597793579 0.80976963043212891
0.80289489030838013 0.37172085046768188 0.79463464021682739
0.97898191213607788 0.41642045974731445 0.75938254594802856
0.1413910984992981 0.55494189262390137 0.81135052442550659
0.33459591865539551 0.55887621641159058 0.80776959657669067
0.57335758209228516 0.57029032707214355 0.80241256952285767
0.79265671968460083 0.5846858024597168 0.79123044013977051
0.97361469268798828 0.58576452732086182 0.75251740217208862
0.43296962976455688 0.81074661016464233 0.81185108423233032
0.50295156240463257 0.8107914924621582 0.81322699785232544
0.63842731714248657 0.80914783477783203 0.81072264909744263
0.79136472940444946 0.79945278167724609 0.80038976669311523
0.96978020668029785 0.76579135656356812 0.75027388334274292
0.75567466020584106 0.97146511077880859 0.896129310131073
0.77832722663879395 0.97114109992980957 0.89943408966064453
0.83053672313690186 0.97178411483764648 0.90633594989776611
0.87914621829986572 0.97534900903701782 0.90654796361923218
0.95650672912597656 0.97512942552566528 0.87820088863372803
0.15553389489650726 0.091346561908721924 0.98906713724136353
0.32960990071296692 0.12548170983791351 0.99228769540786743
0.55394715070724487 0.19370254874229431 0.98724788427352905
0.78347694873809814 0.29564273357391357 0.98396289348602295
0.98202598094940186 0.38075414299964905 0.97682863473892212
0.22375142574310303 0.32172563672065735 0.98902446031570435
0.36760205030441284 0.33219155669212341 0.98569011688232422
0.57358580827713013 0.36508089303970337 0.98518985509872437
0.78470206260681152 0.4276244044303894 0.97970324754714966
0.98101580142974854 0.48198533058166504 0.97701334953308105
0.28702762722969055 0.55447334051132202 0.98379796743392944
0.40473875403404236 0.56577837467193604 0.98082649707794189
0.59014177322387695 0.58460789918899536 0.97816157341003418
0.78859889507293701 0.61603647470474243 0.97541570663452148
0.97668510675430298 0.64884042739868164 0.97554856538772583
0.3859526515007019 0.78180813789367676 0.97857987880706787
0.45324927568435669 0.78031063079833984 0.97965484857559204
0.59782087802886963 0.78290468454360962 0.9770856499671936
0.79864484071731567 0.81081795692443848 0.9718748927116394
0.97178751230239868 0.83607238531112671 0.97042405605316162
0.71171927452087402 0.96937775611877441 0.97357124090194702
0.7453804612159729 0.973125159740448 0.97777748107910156
0.80947041511535645 0.97344732284545898 0.97903686761856079
0.89324283599853516 0.97346353530883789 0.981864333152771
0.9779849648475647 0.97595119476318359 0.97872483730316162
