luts/negative_old/fuji_neopan_1600_++.cube
# Created by: G'MIC (https://gmic.eu)
TITLE "fuji_neopan_1600_++"
# LUT size
LUT_3D_SIZE 13
# Data domain
DOMAIN_MIN 0.0 0.0 0.0
DOMAIN_MAX 1.0 1.0 1.0
# LUT data points
0.14551128447055817 0.14551128447055817 0.14551128447055817
0.14585180580615997 0.14585180580615997 0.14585180580615997
0.14760708808898926 0.14760708808898926 0.14760708808898926
0.15270768105983734 0.15270768105983734 0.15270768105983734
0.16100910305976868 0.16100910305976868 0.16100910305976868
0.17189240455627441 0.17189240455627441 0.17189240455627441
0.1867794394493103 0.1867794394493103 0.1867794394493103
0.20554706454277039 0.20554706454277039 0.20554706454277039
0.23001225292682648 0.23001225292682648 0.23001225292682648
0.26322108507156372 0.26322108507156372 0.26322108507156372
0.3087233304977417 0.3087233304977417 0.3087233304977417
0.36978861689567566 0.36978861689567566 0.36978861689567566
0.44408252835273743 0.44408252835273743 0.44408252835273743
0.15049135684967041 0.15049135684967041 0.15049135684967041
0.15165737271308899 0.15165737271308899 0.15165737271308899
0.15539799630641937 0.15539799630641937 0.15539799630641937
0.16256493330001831 0.16256493330001831 0.16256493330001831
0.17349492013454437 0.17349492013454437 0.17349492013454437
0.18830616772174835 0.18830616772174835 0.18830616772174835
0.20637957751750946 0.20637957751750946 0.20637957751750946
0.22731927037239075 0.22731927037239075 0.22731927037239075
0.25176212191581726 0.25176212191581726 0.25176212191581726
0.28258326649665833 0.28258326649665833 0.28258326649665833
0.3253028392791748 0.3253028392791748 0.3253028392791748
0.38602718710899353 0.38602718710899353 0.38602718710899353
0.46372285485267639 0.46372285485267639 0.46372285485267639
0.15974314510822296 0.15974314510822296 0.15974314510822296
0.16191285848617554 0.16191285848617554 0.16191285848617554
0.16769997775554657 0.16769997775554657 0.16769997775554657
0.17752945423126221 0.17752945423126221 0.17752945423126221
0.19232985377311707 0.19232985377311707 0.19232985377311707
0.2120225727558136 0.2120225727558136 0.2120225727558136
0.23560795187950134 0.23560795187950134 0.23560795187950134
0.2610962986946106 0.2610962986946106 0.2610962986946106
0.28734555840492249 0.28734555840492249 0.28734555840492249
0.31672453880310059 0.31672453880310059 0.31672453880310059
0.35550549626350403 0.35550549626350403 0.35550549626350403
0.41427755355834961 0.41427755355834961 0.41427755355834961
0.49561777710914612 0.49561777710914612 0.49561777710914612
0.17570914328098297 0.17570914328098297 0.17570914328098297
0.17827132344245911 0.17827132344245911 0.17827132344245911
0.18565741181373596 0.18565741181373596 0.18565741181373596
0.19784937798976898 0.19784937798976898 0.19784937798976898
0.21645344793796539 0.21645344793796539 0.21645344793796539
0.24149687588214874 0.24149687588214874 0.24149687588214874
0.27170097827911377 0.27170097827911377 0.27170097827911377
0.30432930588722229 0.30432930588722229 0.30432930588722229
0.33608093857765198 0.33608093857765198 0.33608093857765198
0.36831185221672058 0.36831185221672058 0.36831185221672058
0.40775242447853088 0.40775242447853088 0.40775242447853088
0.46603524684906006 0.46603524684906006 0.46603524684906006
0.5462958812713623 0.5462958812713623 0.5462958812713623
0.19918206334114075 0.19918206334114075 0.19918206334114075
0.20246204733848572 0.20246204733848572 0.20246204733848572
0.21059350669384003 0.21059350669384003 0.21059350669384003
0.22398780286312103 0.22398780286312103 0.22398780286312103
0.24468392133712769 0.24468392133712769 0.24468392133712769
0.27367290854454041 0.27367290854454041 0.27367290854454041
0.30937135219573975 0.30937135219573975 0.30937135219573975
0.35039496421813965 0.35039496421813965 0.35039496421813965
0.39099317789077759 0.39099317789077759 0.39099317789077759
0.43260601162910461 0.43260601162910461 0.43260601162910461
0.48037678003311157 0.48037678003311157 0.48037678003311157
0.54093307256698608 0.54093307256698608 0.54093307256698608
0.61408644914627075 0.61408644914627075 0.61408644914627075
0.23298272490501404 0.23298272490501404 0.23298272490501404
0.23650483787059784 0.23650483787059784 0.23650483787059784
0.24423059821128845 0.24423059821128845 0.24423059821128845
0.25698819756507874 0.25698819756507874 0.25698819756507874
0.27766621112823486 0.27766621112823486 0.27766621112823486
0.30720683932304382 0.30720683932304382 0.30720683932304382
0.34512639045715332 0.34512639045715332 0.34512639045715332
0.39092043042182922 0.39092043042182922 0.39092043042182922
0.44325527548789978 0.44325527548789978 0.44325527548789978
0.4991970956325531 0.4991970956325531 0.4991970956325531
0.55697989463806152 0.55697989463806152 0.55697989463806152
0.61958837509155273 0.61958837509155273 0.61958837509155273
0.68726933002471924 0.68726933002471924 0.68726933002471924
0.27979478240013123 0.27979478240013123 0.27979478240013123
0.28349578380584717 0.28349578380584717 0.28349578380584717
0.29036518931388855 0.29036518931388855 0.29036518931388855
0.30100026726722717 0.30100026726722717 0.30100026726722717
0.31989458203315735 0.31989458203315735 0.31989458203315735
0.34768366813659668 0.34768366813659668 0.34768366813659668
0.38343626260757446 0.38343626260757446 0.38343626260757446
0.42982906103134155 0.42982906103134155 0.42982906103134155
0.49234318733215332 0.49234318733215332 0.49234318733215332
0.56286454200744629 0.56286454200744629 0.56286454200744629
0.62658596038818359 0.62658596038818359 0.62658596038818359
0.68888086080551147 0.68888086080551147 0.68888086080551147
0.75285965204238892 0.75285965204238892 0.75285965204238892
0.34499859809875488 0.34499859809875488 0.34499859809875488
0.34977567195892334 0.34977567195892334 0.34977567195892334
0.35558465123176575 0.35558465123176575 0.35558465123176575
0.36305361986160278 0.36305361986160278 0.36305361986160278
0.37929478287696838 0.37929478287696838 0.37929478287696838
0.40418809652328491 0.40418809652328491 0.40418809652328491
0.43599426746368408 0.43599426746368408 0.43599426746368408
0.47894370555877686 0.47894370555877686 0.47894370555877686
0.54534423351287842 0.54534423351287842 0.54534423351287842
0.62168306112289429 0.62168306112289429 0.62168306112289429
0.68225318193435669 0.68225318193435669 0.68225318193435669
0.73990529775619507 0.73990529775619507 0.73990529775619507
0.79936128854751587 0.79936128854751587 0.79936128854751587
0.43754750490188599 0.43754750490188599 0.43754750490188599
0.44157099723815918 0.44157099723815918 0.44157099723815918
0.44580677151679993 0.44580677151679993 0.44580677151679993
0.45120850205421448 0.45120850205421448 0.45120850205421448
0.46327963471412659 0.46327963471412659 0.46327963471412659
0.48327434062957764 0.48327434062957764 0.48327434062957764
0.51090449094772339 0.51090449094772339 0.51090449094772339
0.54996603727340698 0.54996603727340698 0.54996603727340698
0.60624188184738159 0.60624188184738159 0.60624188184738159
0.66785860061645508 0.66785860061645508 0.66785860061645508
0.7200501561164856 0.7200501561164856 0.7200501561164856
0.77346122264862061 0.77346122264862061 0.77346122264862061
0.82869267463684082 0.82869267463684082 0.82869267463684082
0.55482512712478638 0.55482512712478638 0.55482512712478638
0.55597847700119019 0.55597847700119019 0.55597847700119019
0.55713522434234619 0.55713522434234619 0.55713522434234619
0.55995732545852661 0.55995732545852661 0.55995732545852661
0.56782996654510498 0.56782996654510498 0.56782996654510498
0.58202964067459106 0.58202964067459106 0.58202964067459106
0.60314548015594482 0.60314548015594482 0.60314548015594482
0.63360816240310669 0.63360816240310669 0.63360816240310669
0.67285442352294922 0.67285442352294922 0.67285442352294922
0.71403032541275024 0.71403032541275024 0.71403032541275024
0.75479626655578613 0.75479626655578613 0.75479626655578613
0.80296039581298828 0.80296039581298828 0.80296039581298828
0.85395556688308716 0.85395556688308716 0.85395556688308716
0.68042004108428955 0.68042004108428955 0.68042004108428955
0.67919689416885376 0.67919689416885376 0.67919689416885376
0.67679828405380249 0.67679828405380249 0.67679828405380249
0.67751622200012207 0.67751622200012207 0.67751622200012207
0.68256771564483643 0.68256771564483643 0.68256771564483643
0.69134092330932617 0.69134092330932617 0.69134092330932617
0.7049674391746521 0.7049674391746521 0.7049674391746521
0.72479850053787231 0.72479850053787231 0.72479850053787231
0.75028520822525024 0.75028520822525024 0.75028520822525024
0.77736407518386841 0.77736407518386841 0.77736407518386841
0.80684560537338257 0.80684560537338257 0.80684560537338257
0.84327733516693115 0.84327733516693115 0.84327733516693115
0.88431441783905029 0.88431441783905029 0.88431441783905029
0.79524874687194824 0.79524874687194824 0.79524874687194824
0.79446280002593994 0.79446280002593994 0.79446280002593994
0.79197293519973755 0.79197293519973755 0.79197293519973755
0.79244661331176758 0.79244661331176758 0.79244661331176758
0.7963833212852478 0.7963833212852478 0.7963833212852478
0.80146151781082153 0.80146151781082153 0.80146151781082153
0.80764669179916382 0.80764669179916382 0.80764669179916382
0.81872308254241943 0.81872308254241943 0.81872308254241943
0.83453267812728882 0.83453267812728882 0.83453267812728882
0.85261940956115723 0.85261940956115723 0.85261940956115723
0.87176221609115601 0.87176221609115601 0.87176221609115601
0.89436918497085571 0.89436918497085571 0.89436918497085571
0.92268556356430054 0.92268556356430054 0.92268556356430054
0.89281117916107178 0.89281117916107178 0.89281117916107178
0.89468508958816528 0.89468508958816528 0.89468508958816528
0.89473038911819458 0.89473038911819458 0.89473038911819458
0.89571946859359741 0.89571946859359741 0.89571946859359741
0.89933973550796509 0.89933973550796509 0.89933973550796509
0.90175265073776245 0.90175265073776245 0.90175265073776245
0.90321272611618042 0.90321272611618042 0.90321272611618042
0.90828192234039307 0.90828192234039307 0.90828192234039307
0.91721248626708984 0.91721248626708984 0.91721248626708984
0.92762523889541626 0.92762523889541626 0.92762523889541626
0.93792253732681274 0.93792253732681274 0.93792253732681274
0.94968974590301514 0.94968974590301514 0.94968974590301514
0.96662622690200806 0.96662622690200806 0.96662622690200806
0.14581914246082306 0.14581914246082306 0.14581914246082306
0.14735640585422516 0.14735640585422516 0.14735640585422516
0.1509559154510498 0.1509559154510498 0.1509559154510498
0.15654231607913971 0.15654231607913971 0.15654231607913971
0.16415449976921082 0.16415449976921082 0.16415449976921082
0.17400184273719788 0.17400184273719788 0.17400184273719788
0.18680179119110107 0.18680179119110107 0.18680179119110107
0.20342767238616943 0.20342767238616943 0.20342767238616943
0.22709183394908905 0.22709183394908905 0.22709183394908905
0.25939694046974182 0.25939694046974182 0.25939694046974182
0.30570608377456665 0.30570608377456665 0.30570608377456665
0.36729004979133606 0.36729004979133606 0.36729004979133606
0.44310057163238525 0.44310057163238525 0.44310057163238525
0.15200354158878326 0.15200354158878326 0.15200354158878326
0.15451213717460632 0.15451213717460632 0.15451213717460632
0.15931732952594757 0.15931732952594757 0.15931732952594757
0.16677485406398773 0.16677485406398773 0.16677485406398773
0.17682978510856628 0.17682978510856628 0.17682978510856628
0.19009469449520111 0.19009469449520111 0.19009469449520111
0.20643813908100128 0.20643813908100128 0.20643813908100128
0.22601746022701263 0.22601746022701263 0.22601746022701263
0.24969638884067535 0.24969638884067535 0.24969638884067535
0.2808775007724762 0.2808775007724762 0.2808775007724762
0.3255361020565033 0.3255361020565033 0.3255361020565033
0.38833487033843994 0.38833487033843994 0.38833487033843994
0.46788337826728821 0.46788337826728821 0.46788337826728821
0.16326709091663361 0.16326709091663361 0.16326709091663361
0.16675528883934021 0.16675528883934021 0.16675528883934021
0.17308007180690765 0.17308007180690765 0.17308007180690765
0.18293344974517822 0.18293344974517822 0.18293344974517822
0.19690237939357758 0.19690237939357758 0.19690237939357758
0.21536974608898163 0.21536974608898163 0.21536974608898163
0.23766210675239563 0.23766210675239563 0.23766210675239563
0.26149061322212219 0.26149061322212219 0.26149061322212219
0.28723341226577759 0.28723341226577759 0.28723341226577759
0.31819692254066467 0.31819692254066467 0.31819692254066467
0.36084800958633423 0.36084800958633423 0.36084800958633423
0.42343142628669739 0.42343142628669739 0.42343142628669739
0.50549101829528809 0.50549101829528809 0.50549101829528809
0.18178533017635345 0.18178533017635345 0.18178533017635345
0.18616190552711487 0.18616190552711487 0.18616190552711487
0.19379565119743347 0.19379565119743347 0.19379565119743347
0.20566417276859283 0.20566417276859283 0.20566417276859283
0.22376610338687897 0.22376610338687897 0.22376610338687897
0.24809448421001434 0.24809448421001434 0.24809448421001434
0.2776540219783783 0.2776540219783783 0.2776540219783783
0.30811113119125366 0.30811113119125366 0.30811113119125366
0.33863267302513123 0.33863267302513123 0.33863267302513123
0.37267252802848816 0.37267252802848816 0.37267252802848816
0.41663709282875061 0.41663709282875061 0.41663709282875061
0.4786841869354248 0.4786841869354248 0.4786841869354248
0.55843192338943481 0.55843192338943481 0.55843192338943481
0.20911170542240143 0.20911170542240143 0.20911170542240143
0.21456839144229889 0.21456839144229889 0.21456839144229889
0.22284193336963654 0.22284193336963654 0.22284193336963654
0.23555298149585724 0.23555298149585724 0.23555298149585724
0.25531795620918274 0.25531795620918274 0.25531795620918274
0.28386002779006958 0.28386002779006958 0.28386002779006958
0.31921052932739258 0.31921052932739258 0.31921052932739258
0.35719987750053406 0.35719987750053406 0.35719987750053406
0.39621132612228394 0.39621132612228394 0.39621132612228394
0.43906903266906738 0.43906903266906738 0.43906903266906738
0.48923477530479431 0.48923477530479431 0.48923477530479431
0.55202502012252808 0.55202502012252808 0.55202502012252808
0.62569022178649902 0.62569022178649902 0.62569022178649902
0.24690917134284973 0.24690917134284973 0.24690917134284973
0.25311183929443359 0.25311183929443359 0.25311183929443359
0.26113724708557129 0.26113724708557129 0.26113724708557129
0.27228951454162598 0.27228951454162598 0.27228951454162598
0.29078435897827148 0.29078435897827148 0.29078435897827148
0.31953334808349609 0.31953334808349609 0.31953334808349609
0.3568480908870697 0.3568480908870697 0.3568480908870697
0.40034276247024536 0.40034276247024536 0.40034276247024536
0.4507230818271637 0.4507230818271637 0.4507230818271637
0.50619906187057495 0.50619906187057495 0.50619906187057495
0.56508433818817139 0.56508433818817139 0.56508433818817139
0.62884140014648438 0.62884140014648438 0.62884140014648438
0.69696241617202759 0.69696241617202759 0.69696241617202759
0.29646888375282288 0.29646888375282288 0.29646888375282288
0.30329799652099609 0.30329799652099609 0.30329799652099609
0.31082916259765625 0.31082916259765625 0.31082916259765625
0.31940916180610657 0.31940916180610657 0.31940916180610657
0.33489498496055603 0.33489498496055603 0.33489498496055603
0.35992425680160522 0.35992425680160522 0.35992425680160522
0.39499053359031677 0.39499053359031677 0.39499053359031677
0.44051489233970642 0.44051489233970642 0.44051489233970642
0.50004285573959351 0.50004285573959351 0.50004285573959351
0.56748241186141968 0.56748241186141968 0.56748241186141968
0.63253593444824219 0.63253593444824219 0.63253593444824219
0.69627362489700317 0.69627362489700317 0.69627362489700317
0.75985729694366455 0.75985729694366455 0.75985729694366455
0.36202162504196167 0.36202162504196167 0.36202162504196167
0.36967673897743225 0.36967673897743225 0.36967673897743225
0.3765166699886322 0.3765166699886322 0.3765166699886322
0.38291004300117493 0.38291004300117493 0.38291004300117493
0.39493229985237122 0.39493229985237122 0.39493229985237122
0.41574263572692871 0.41574263572692871 0.41574263572692871
0.44621661305427551 0.44621661305427551 0.44621661305427551
0.48921358585357666 0.48921358585357666 0.48921358585357666
0.55049359798431396 0.55049359798431396 0.55049359798431396
0.6209869384765625 0.6209869384765625 0.6209869384765625
0.68505251407623291 0.68505251407623291 0.68505251407623291
0.74582040309906006 0.74582040309906006 0.74582040309906006
0.80526119470596313 0.80526119470596313 0.80526119470596313
0.45104303956031799 0.45104303956031799 0.45104303956031799
0.45797312259674072 0.45797312259674072 0.45797312259674072
0.46391996741294861 0.46391996741294861 0.46391996741294861
0.46831461787223816 0.46831461787223816 0.46831461787223816
0.47675582766532898 0.47675582766532898 0.47675582766532898
0.49288925528526306 0.49288925528526306 0.49288925528526306
0.51866936683654785 0.51866936683654785 0.51866936683654785
0.55670261383056641 0.55670261383056641 0.55670261383056641
0.60964584350585938 0.60964584350585938 0.60964584350585938
0.66891080141067505 0.66891080141067505 0.66891080141067505
0.72442394495010376 0.72442394495010376 0.72442394495010376
0.77982860803604126 0.77982860803604126 0.77982860803604126
0.83521187305450439 0.83521187305450439 0.83521187305450439
0.56209707260131836 0.56209707260131836 0.56209707260131836
0.566791832447052 0.566791832447052 0.566791832447052
0.57016408443450928 0.57016408443450928 0.57016408443450928
0.57269233465194702 0.57269233465194702 0.57269233465194702
0.57784163951873779 0.57784163951873779 0.57784163951873779
0.58920454978942871 0.58920454978942871 0.58920454978942871
0.60895979404449463 0.60895979404449463 0.60895979404449463
0.63909739255905151 0.63909739255905151 0.63909739255905151
0.67795771360397339 0.67795771360397339 0.67795771360397339
0.72053951025009155 0.72053951025009155 0.72053951025009155
0.76379930973052979 0.76379930973052979 0.76379930973052979
0.81106948852539062 0.81106948852539062 0.81106948852539062
0.8606603741645813 0.8606603741645813 0.8606603741645813
0.68173295259475708 0.68173295259475708 0.68173295259475708
0.68406957387924194 0.68406957387924194 0.68406957387924194
0.68441343307495117 0.68441343307495117 0.68441343307495117
0.68542355298995972 0.68542355298995972 0.68542355298995972
0.68863022327423096 0.68863022327423096 0.68863022327423096
0.69565355777740479 0.69565355777740479 0.69565355777740479
0.7092125415802002 0.7092125415802002 0.7092125415802002
0.73017668724060059 0.73017668724060059 0.73017668724060059
0.75734049081802368 0.75734049081802368 0.75734049081802368
0.78681778907775879 0.78681778907775879 0.78681778907775879
0.81757360696792603 0.81757360696792603 0.81757360696792603
0.85238873958587646 0.85238873958587646 0.85238873958587646
0.89109921455383301 0.89109921455383301 0.89109921455383301
0.79381310939788818 0.79381310939788818 0.79381310939788818
0.79562282562255859 0.79562282562255859 0.79562282562255859
0.79518157243728638 0.79518157243728638 0.79518157243728638
0.79578536748886108 0.79578536748886108 0.79578536748886108
0.79835039377212524 0.79835039377212524 0.79835039377212524
0.80290037393569946 0.80290037393569946 0.80290037393569946
0.81072121858596802 0.81072121858596802 0.81072121858596802
0.82415211200714111 0.82415211200714111 0.82415211200714111
0.84318810701370239 0.84318810701370239 0.84318810701370239
0.86441093683242798 0.86441093683242798 0.86441093683242798
0.88363051414489746 0.88363051414489746 0.88363051414489746
0.9034845232963562 0.9034845232963562 0.9034845232963562
0.92904072999954224 0.92904072999954224 0.92904072999954224
0.89191538095474243 0.89191538095474243 0.89191538095474243
0.89424979686737061 0.89424979686737061 0.89424979686737061
0.89471805095672607 0.89471805095672607 0.89471805095672607
0.89618450403213501 0.89618450403213501 0.89618450403213501
0.8985283374786377 0.8985283374786377 0.8985283374786377
0.90143609046936035 0.90143609046936035 0.90143609046936035
0.90539360046386719 0.90539360046386719 0.90539360046386719
0.91309225559234619 0.91309225559234619 0.91309225559234619
0.9252057671546936 0.9252057671546936 0.9252057671546936
0.93904536962509155 0.93904536962509155 0.93904536962509155
0.9491540789604187 0.9491540789604187 0.9491540789604187
0.95793730020523071 0.95793730020523071 0.95793730020523071
0.97244209051132202 0.97244209051132202 0.97244209051132202
0.14850415289402008 0.14850415289402008 0.14850415289402008
0.15222306549549103 0.15222306549549103 0.15222306549549103
0.15796087682247162 0.15796087682247162 0.15796087682247162
0.16497072577476501 0.16497072577476501 0.16497072577476501
0.17256622016429901 0.17256622016429901 0.17256622016429901
0.18062175810337067 0.18062175810337067 0.18062175810337067
0.19136565923690796 0.19136565923690796 0.19136565923690796
0.20675773918628693 0.20675773918628693 0.20675773918628693
0.22904683649539948 0.22904683649539948 0.22904683649539948
0.26124382019042969 0.26124382019042969 0.26124382019042969
0.30678534507751465 0.30678534507751465 0.30678534507751465
0.3680991530418396 0.3680991530418396 0.3680991530418396
0.44394403696060181 0.44394403696060181 0.44394403696060181
0.15660883486270905 0.15660883486270905 0.15660883486270905
0.16066588461399078 0.16066588461399078 0.16066588461399078
0.16671197116374969 0.16671197116374969 0.16671197116374969
0.17459815740585327 0.17459815740585327 0.17459815740585327
0.183971107006073 0.183971107006073 0.183971107006073
0.19528490304946899 0.19528490304946899 0.19528490304946899
0.20970523357391357 0.20970523357391357 0.20970523357391357
0.22798635065555573 0.22798635065555573 0.22798635065555573
0.25166076421737671 0.25166076421737671 0.25166076421737671
0.28407970070838928 0.28407970070838928 0.28407970070838928
0.32965937256813049 0.32965937256813049 0.32965937256813049
0.39323845505714417 0.39323845505714417 0.39323845505714417
0.47376561164855957 0.47376561164855957 0.47376561164855957
0.17041575908660889 0.17041575908660889 0.17041575908660889
0.17507028579711914 0.17507028579711914 0.17507028579711914
0.18208363652229309 0.18208363652229309 0.18208363652229309
0.1917245090007782 0.1917245090007782 0.1917245090007782
0.20410498976707458 0.20410498976707458 0.20410498976707458
0.22085322439670563 0.22085322439670563 0.22085322439670563
0.24145248532295227 0.24145248532295227 0.24145248532295227
0.26451274752616882 0.26451274752616882 0.26451274752616882
0.29054823517799377 0.29054823517799377 0.29054823517799377
0.32382631301879883 0.32382631301879883 0.32382631301879883
0.36947658658027649 0.36947658658027649 0.36947658658027649
0.43427556753158569 0.43427556753158569 0.43427556753158569
0.51707947254180908 0.51707947254180908 0.51707947254180908
0.19213880598545074 0.19213880598545074 0.19213880598545074
0.19803540408611298 0.19803540408611298 0.19803540408611298
0.20605616271495819 0.20605616271495819 0.20605616271495819
0.2173897922039032 0.2173897922039032 0.2173897922039032
0.23399411141872406 0.23399411141872406 0.23399411141872406
0.25760769844055176 0.25760769844055176 0.25760769844055176
0.28631830215454102 0.28631830215454102 0.28631830215454102
0.31482234597206116 0.31482234597206116 0.31482234597206116
0.34480112791061401 0.34480112791061401 0.34480112791061401
0.38095003366470337 0.38095003366470337 0.38095003366470337
0.42832249402999878 0.42832249402999878 0.42832249402999878
0.49225872755050659 0.49225872755050659 0.49225872755050659
0.5715143084526062 0.5715143084526062 0.5715143084526062
0.22440841794013977 0.22440841794013977 0.22440841794013977
0.23203988373279572 0.23203988373279572 0.23203988373279572
0.24075017869472504 0.24075017869472504 0.24075017869472504
0.25212416052818298 0.25212416052818298 0.25212416052818298
0.27062135934829712 0.27062135934829712 0.27062135934829712
0.29927012324333191 0.29927012324333191 0.29927012324333191
0.33529508113861084 0.33529508113861084 0.33529508113861084
0.37002408504486084 0.37002408504486084 0.37002408504486084
