luts/negative_old/ilford_delta_3200_-.cube
# Created by: G'MIC (https://gmic.eu)
TITLE "ilford_delta_3200_-"
# LUT size
LUT_3D_SIZE 7
# Data domain
DOMAIN_MIN 0.0 0.0 0.0
DOMAIN_MAX 1.0 1.0 1.0
# LUT data points
0.050490718334913254 0.050490718334913254 0.050490718334913254
0.058587677776813507 0.058587677776813507 0.058587677776813507
0.11851689964532852 0.11851689964532852 0.11851689964532852
0.22208958864212036 0.22208958864212036 0.22208958864212036
0.33260083198547363 0.33260083198547363 0.33260083198547363
0.43872860074043274 0.43872860074043274 0.43872860074043274
0.56004095077514648 0.56004095077514648 0.56004095077514648
0.08214530348777771 0.08214530348777771 0.08214530348777771
0.087866552174091339 0.087866552174091339 0.087866552174091339
0.15124975144863129 0.15124975144863129 0.15124975144863129
0.2518390417098999 0.2518390417098999 0.2518390417098999
0.35526290535926819 0.35526290535926819 0.35526290535926819
0.45595261454582214 0.45595261454582214 0.45595261454582214
0.57291716337203979 0.57291716337203979 0.57291716337203979
0.18578103184700012 0.18578103184700012 0.18578103184700012
0.19127677381038666 0.19127677381038666 0.19127677381038666
0.2335163801908493 0.2335163801908493 0.2335163801908493
0.30903589725494385 0.30903589725494385 0.30903589725494385
0.39708599448204041 0.39708599448204041 0.39708599448204041
0.4986092746257782 0.4986092746257782 0.4986092746257782
0.62060165405273438 0.62060165405273438 0.62060165405273438
0.31202107667922974 0.31202107667922974 0.31202107667922974
0.31796145439147949 0.31796145439147949 0.31796145439147949
0.33919760584831238 0.33919760584831238 0.33919760584831238
0.38510257005691528 0.38510257005691528 0.38510257005691528
0.45319339632987976 0.45319339632987976 0.45319339632987976
0.55129224061965942 0.55129224061965942 0.55129224061965942
0.68235576152801514 0.68235576152801514 0.68235576152801514
0.43684908747673035 0.43684908747673035 0.43684908747673035
0.44906497001647949 0.44906497001647949 0.44906497001647949
0.4644569456577301 0.4644569456577301 0.4644569456577301
0.4915461540222168 0.4915461540222168 0.4915461540222168
0.53553831577301025 0.53553831577301025 0.53553831577301025
0.61101752519607544 0.61101752519607544 0.61101752519607544
0.74013924598693848 0.74013924598693848 0.74013924598693848
0.60718321800231934 0.60718321800231934 0.60718321800231934
0.61819791793823242 0.61819791793823242 0.61819791793823242
0.63062024116516113 0.63062024116516113 0.63062024116516113
0.65113657712936401 0.65113657712936401 0.65113657712936401
0.6834108829498291 0.6834108829498291 0.6834108829498291
0.73310285806655884 0.73310285806655884 0.73310285806655884
0.81851768493652344 0.81851768493652344 0.81851768493652344
0.83032315969467163 0.83032315969467163 0.83032315969467163
0.8272128701210022 0.8272128701210022 0.8272128701210022
0.83116263151168823 0.83116263151168823 0.83116263151168823
0.84907257556915283 0.84907257556915283 0.84907257556915283
0.87852615118026733 0.87852615118026733 0.87852615118026733
0.9136921763420105 0.9136921763420105 0.9136921763420105
0.9374077320098877 0.9374077320098877 0.9374077320098877
0.05652974545955658 0.05652974545955658 0.05652974545955658
0.077133521437644958 0.077133521437644958 0.077133521437644958
0.13481862843036652 0.13481862843036652 0.13481862843036652
0.24109534919261932 0.24109534919261932 0.24109534919261932
0.35126107931137085 0.35126107931137085 0.35126107931137085
0.44840690493583679 0.44840690493583679 0.44840690493583679
0.56193655729293823 0.56193655729293823 0.56193655729293823
0.094215825200080872 0.094215825200080872 0.094215825200080872
0.12607878446578979 0.12607878446578979 0.12607878446578979
0.18893624842166901 0.18893624842166901 0.18893624842166901
0.28647983074188232 0.28647983074188232 0.28647983074188232
0.38229286670684814 0.38229286670684814 0.38229286670684814
0.47389084100723267 0.47389084100723267 0.47389084100723267
0.58360964059829712 0.58360964059829712 0.58360964059829712
0.22829514741897583 0.22829514741897583 0.22829514741897583
0.2428077906370163 0.2428077906370163 0.2428077906370163
0.28100952506065369 0.28100952506065369 0.28100952506065369
0.35132536292076111 0.35132536292076111 0.35132536292076111
0.42995473742485046 0.42995473742485046 0.42995473742485046
0.521709144115448 0.521709144115448 0.521709144115448
0.63557982444763184 0.63557982444763184 0.63557982444763184
0.36255377531051636 0.36255377531051636 0.36255377531051636
0.36713820695877075 0.36713820695877075 0.36713820695877075
0.37707868218421936 0.37707868218421936 0.37707868218421936
0.41709831357002258 0.41709831357002258 0.41709831357002258
0.48214375972747803 0.48214375972747803 0.48214375972747803
0.5723375678062439 0.5723375678062439 0.5723375678062439
0.68967068195343018 0.68967068195343018 0.68967068195343018
0.47357180714607239 0.47357180714607239 0.47357180714607239
0.48357897996902466 0.48357897996902466 0.48357897996902466
0.48684746026992798 0.48684746026992798 0.48684746026992798
0.50891715288162231 0.50891715288162231 0.50891715288162231
0.55669230222702026 0.55669230222702026 0.55669230222702026
0.6320229172706604 0.6320229172706604 0.6320229172706604
0.74358892440795898 0.74358892440795898 0.74358892440795898
0.6197279691696167 0.6197279691696167 0.6197279691696167
0.63591557741165161 0.63591557741165161 0.63591557741165161
0.64288341999053955 0.64288341999053955 0.64288341999053955
0.65959936380386353 0.65959936380386353 0.65959936380386353
0.69635605812072754 0.69635605812072754 0.69635605812072754
0.74980282783508301 0.74980282783508301 0.74980282783508301
0.82696163654327393 0.82696163654327393 0.82696163654327393
0.82515448331832886 0.82515448331832886 0.82515448331832886
0.83320361375808716 0.83320361375808716 0.83320361375808716
0.84002375602722168 0.84002375602722168 0.84002375602722168
0.8552248477935791 0.8552248477935791 0.8552248477935791
0.88321763277053833 0.88321763277053833 0.88321763277053833
0.9158751368522644 0.9158751368522644 0.9158751368522644
0.94740360975265503 0.94740360975265503 0.94740360975265503
0.12117002904415131 0.12117002904415131 0.12117002904415131
0.14607037603855133 0.14607037603855133 0.14607037603855133
0.1886761337518692 0.1886761337518692 0.1886761337518692
0.26862597465515137 0.26862597465515137 0.26862597465515137
0.36566203832626343 0.36566203832626343 0.36566203832626343
0.47266110777854919 0.47266110777854919 0.47266110777854919
0.59115290641784668 0.59115290641784668 0.59115290641784668
0.16166968643665314 0.16166968643665314 0.16166968643665314
0.20076549053192139 0.20076549053192139 0.20076549053192139
0.25606635212898254 0.25606635212898254 0.25606635212898254
0.32327762246131897 0.32327762246131897 0.32327762246131897
0.40648180246353149 0.40648180246353149 0.40648180246353149
0.51038986444473267 0.51038986444473267 0.51038986444473267
0.62766063213348389 0.62766063213348389 0.62766063213348389
0.25417414307594299 0.25417414307594299 0.25417414307594299
0.29506412148475647 0.29506412148475647 0.29506412148475647
0.33828675746917725 0.33828675746917725 0.33828675746917725
0.39304563403129578 0.39304563403129578 0.39304563403129578
0.46573156118392944 0.46573156118392944 0.46573156118392944
0.56095677614212036 0.56095677614212036 0.56095677614212036
0.67292362451553345 0.67292362451553345 0.67292362451553345
0.38673007488250732 0.38673007488250732 0.38673007488250732
0.40429410338401794 0.40429410338401794 0.40429410338401794
0.42142975330352783 0.42142975330352783 0.42142975330352783
0.46256151795387268 0.46256151795387268 0.46256151795387268
0.52888035774230957 0.52888035774230957 0.52888035774230957
0.61278915405273438 0.61278915405273438 0.61278915405273438
0.71746540069580078 0.71746540069580078 0.71746540069580078
0.52408206462860107 0.52408206462860107 0.52408206462860107
0.52805763483047485 0.52805763483047485 0.52805763483047485
0.53100621700286865 0.53100621700286865 0.53100621700286865
0.55428659915924072 0.55428659915924072 0.55428659915924072
0.59806472063064575 0.59806472063064575 0.59806472063064575
0.66231840848922729 0.66231840848922729 0.66231840848922729
0.76388025283813477 0.76388025283813477 0.76388025283813477
0.66244649887084961 0.66244649887084961 0.66244649887084961
0.67900079488754272 0.67900079488754272 0.67900079488754272
0.68608701229095459 0.68608701229095459 0.68608701229095459
0.69902253150939941 0.69902253150939941 0.69902253150939941
0.7258307933807373 0.7258307933807373 0.7258307933807373
0.76833665370941162 0.76833665370941162 0.76833665370941162
0.84447664022445679 0.84447664022445679 0.84447664022445679
0.85001403093338013 0.85001403093338013 0.85001403093338013
0.86150264739990234 0.86150264739990234 0.86150264739990234
0.86909884214401245 0.86909884214401245 0.86909884214401245
0.87971299886703491 0.87971299886703491 0.87971299886703491
0.89809900522232056 0.89809900522232056 0.89809900522232056
0.92508548498153687 0.92508548498153687 0.92508548498153687
0.95992177724838257 0.95992177724838257 0.95992177724838257
0.2317957878112793 0.2317957878112793 0.2317957878112793
0.25610673427581787 0.25610673427581787 0.25610673427581787
0.30714008212089539 0.30714008212089539 0.30714008212089539
0.35224461555480957 0.35224461555480957 0.35224461555480957
0.39235740900039673 0.39235740900039673 0.39235740900039673
0.49707731604576111 0.49707731604576111 0.49707731604576111
0.62453556060791016 0.62453556060791016 0.62453556060791016
0.28185012936592102 0.28185012936592102 0.28185012936592102
0.30487048625946045 0.30487048625946045 0.30487048625946045
0.35190263390541077 0.35190263390541077 0.35190263390541077
0.38485482335090637 0.38485482335090637 0.38485482335090637
0.43691068887710571 0.43691068887710571 0.43691068887710571
0.53761488199234009 0.53761488199234009 0.53761488199234009
0.6685948371887207 0.6685948371887207 0.6685948371887207
0.3279193639755249 0.3279193639755249 0.3279193639755249
0.35861662030220032 0.35861662030220032 0.35861662030220032
0.39849165081977844 0.39849165081977844 0.39849165081977844
0.43458887934684753 0.43458887934684753 0.43458887934684753
0.49105873703956604 0.49105873703956604 0.49105873703956604
0.58654302358627319 0.58654302358627319 0.58654302358627319
0.71112525463104248 0.71112525463104248 0.71112525463104248
0.39843747019767761 0.39843747019767761 0.39843747019767761
0.42365202307701111 0.42365202307701111 0.42365202307701111
0.46070402860641479 0.46070402860641479 0.46070402860641479
0.51159071922302246 0.51159071922302246 0.51159071922302246
0.57662630081176758 0.57662630081176758 0.57662630081176758
0.65334135293960571 0.65334135293960571 0.65334135293960571
0.75256574153900146 0.75256574153900146 0.75256574153900146
0.53089195489883423 0.53089195489883423 0.53089195489883423
0.54390019178390503 0.54390019178390503 0.54390019178390503
0.5770074725151062 0.5770074725151062 0.5770074725151062
0.61549878120422363 0.61549878120422363 0.61549878120422363
0.65402698516845703 0.65402698516845703 0.65402698516845703
0.71043378114700317 0.71043378114700317 0.71043378114700317
0.79931461811065674 0.79931461811065674 0.79931461811065674
0.69952905178070068 0.69952905178070068 0.69952905178070068
0.71135669946670532 0.71135669946670532 0.71135669946670532
0.74037212133407593 0.74037212133407593 0.74037212133407593
0.75911635160446167 0.75911635160446167 0.75911635160446167
0.77168399095535278 0.77168399095535278 0.77168399095535278
0.8054770827293396 0.8054770827293396 0.8054770827293396
0.8734244704246521 0.8734244704246521 0.8734244704246521
0.8851439356803894 0.8851439356803894 0.8851439356803894
0.88786756992340088 0.88786756992340088 0.88786756992340088
0.89835727214813232 0.89835727214813232 0.89835727214813232
0.91164529323577881 0.91164529323577881 0.91164529323577881
0.91831701993942261 0.91831701993942261 0.91831701993942261
0.93422853946685791 0.93422853946685791 0.93422853946685791
0.97133022546768188 0.97133022546768188 0.97133022546768188
0.35011956095695496 0.35011956095695496 0.35011956095695496
0.36717331409454346 0.36717331409454346 0.36717331409454346
0.40003255009651184 0.40003255009651184 0.40003255009651184
0.45616054534912109 0.45616054534912109 0.45616054534912109
0.49346944689750671 0.49346944689750671 0.49346944689750671
0.52886795997619629 0.52886795997619629 0.52886795997619629
0.65913271903991699 0.65913271903991699 0.65913271903991699
0.39097839593887329 0.39097839593887329 0.39097839593887329
0.40627855062484741 0.40627855062484741 0.40627855062484741
0.43792673945426941 0.43792673945426941 0.43792673945426941
0.49399381875991821 0.49399381875991821 0.49399381875991821
0.52948534488677979 0.52948534488677979 0.52948534488677979
0.56808924674987793 0.56808924674987793 0.56808924674987793
0.69430100917816162 0.69430100917816162 0.69430100917816162
0.43027776479721069 0.43027776479721069 0.43027776479721069
0.44709652662277222 0.44709652662277222 0.44709652662277222
0.47940742969512939 0.47940742969512939 0.47940742969512939
0.52753102779388428 0.52753102779388428 0.52753102779388428
0.56778907775878906 0.56778907775878906 0.56778907775878906
0.60938483476638794 0.60938483476638794 0.60938483476638794
0.73963457345962524 0.73963457345962524 0.73963457345962524
0.44509062170982361 0.44509062170982361 0.44509062170982361
0.47493496537208557 0.47493496537208557 0.47493496537208557
0.51859897375106812 0.51859897375106812 0.51859897375106812
0.57826530933380127 0.57826530933380127 0.57826530933380127
0.63405364751815796 0.63405364751815796 0.63405364751815796
0.687610924243927 0.687610924243927 0.687610924243927
0.77867317199707031 0.77867317199707031 0.77867317199707031
0.54073172807693481 0.54073172807693481 0.54073172807693481
0.5552675724029541 0.5552675724029541 0.5552675724029541
0.59493666887283325 0.59493666887283325 0.59493666887283325
0.65467441082000732 0.65467441082000732 0.65467441082000732
0.7055928111076355 0.7055928111076355 0.7055928111076355
0.75974327325820923 0.75974327325820923 0.75974327325820923
0.83352100849151611 0.83352100849151611 0.83352100849151611
0.7000420093536377 0.7000420093536377 0.7000420093536377
0.7061455249786377 0.7061455249786377 0.7061455249786377
0.73288130760192871 0.73288130760192871 0.73288130760192871
0.77670472860336304 0.77670472860336304 0.77670472860336304
0.80651563405990601 0.80651563405990601 0.80651563405990601
0.84580767154693604 0.84580767154693604 0.84580767154693604
0.90733200311660767 0.90733200311660767 0.90733200311660767
0.87397611141204834 0.87397611141204834 0.87397611141204834
0.87837624549865723 0.87837624549865723 0.87837624549865723
0.89336466789245605 0.89336466789245605 0.89336466789245605
0.91932106018066406 0.91932106018066406 0.91932106018066406
0.92866206169128418 0.92866206169128418 0.92866206169128418
0.94354444742202759 0.94354444742202759 0.94354444742202759
0.97994226217269897 0.97994226217269897 0.97994226217269897
0.49818047881126404 0.49818047881126404 0.49818047881126404
0.51556092500686646 0.51556092500686646 0.51556092500686646
0.54051929712295532 0.54051929712295532 0.54051929712295532
0.59850698709487915 0.59850698709487915 0.59850698709487915
0.66211563348770142 0.66211563348770142 0.66211563348770142
0.67133527994155884 0.67133527994155884 0.67133527994155884
0.70230734348297119 0.70230734348297119 0.70230734348297119
0.51807284355163574 0.51807284355163574 0.51807284355163574
0.54099768400192261 0.54099768400192261 0.54099768400192261
0.56553345918655396 0.56553345918655396 0.56553345918655396
0.61632484197616577 0.61632484197616577 0.61632484197616577
0.67640572786331177 0.67640572786331177 0.67640572786331177
0.69564461708068848 0.69564461708068848 0.69564461708068848
0.72255653142929077 0.72255653142929077 0.72255653142929077
0.57804709672927856 0.57804709672927856 0.57804709672927856
0.58216512203216553 0.58216512203216553 0.58216512203216553
0.60419732332229614 0.60419732332229614 0.60419732332229614
0.65472120046615601 0.65472120046615601 0.65472120046615601
0.708759605884552 0.708759605884552 0.708759605884552
0.71202349662780762 0.71202349662780762 0.71202349662780762
0.75423943996429443 0.75423943996429443 0.75423943996429443
0.58155012130737305 0.58155012130737305 0.58155012130737305
0.59545278549194336 0.59545278549194336 0.59545278549194336
0.62749201059341431 0.62749201059341431 0.62749201059341431
0.682395339012146 0.682395339012146 0.682395339012146
0.73388838768005371 0.73388838768005371 0.73388838768005371
0.75819772481918335 0.75819772481918335 0.75819772481918335
0.80199319124221802 0.80199319124221802 0.80199319124221802
0.6097601056098938 0.6097601056098938 0.6097601056098938
0.62761080265045166 0.62761080265045166 0.62761080265045166
0.65855324268341064 0.65855324268341064 0.65855324268341064
0.71172690391540527 0.71172690391540527 0.71172690391540527
0.76817780733108521 0.76817780733108521 0.76817780733108521
0.8149297833442688 0.8149297833442688 0.8149297833442688
0.86177510023117065 0.86177510023117065 0.86177510023117065
0.72235393524169922 0.72235393524169922 0.72235393524169922
0.73211753368377686 0.73211753368377686 0.73211753368377686
0.7480807900428772 0.7480807900428772 0.7480807900428772
0.7840278148651123 0.7840278148651123 0.7840278148651123
0.82905030250549316 0.82905030250549316 0.82905030250549316
0.87680113315582275 0.87680113315582275 0.87680113315582275
0.92686706781387329 0.92686706781387329 0.92686706781387329
0.8639405369758606 0.8639405369758606 0.8639405369758606
0.87462621927261353 0.87462621927261353 0.87462621927261353
0.88714361190795898 0.88714361190795898 0.88714361190795898
0.90645217895507812 0.90645217895507812 0.90645217895507812
0.92473691701889038 0.92473691701889038 0.92473691701889038
0.94460916519165039 0.94460916519165039 0.94460916519165039
0.97550570964813232 0.97550570964813232 0.97550570964813232
0.70942741632461548 0.70942741632461548 0.70942741632461548
0.72155410051345825 0.72155410051345825 0.72155410051345825
0.74352282285690308 0.74352282285690308 0.74352282285690308
0.77579587697982788 0.77579587697982788 0.77579587697982788
0.82877600193023682 0.82877600193023682 0.82877600193023682
0.86424076557159424 0.86424076557159424 0.86424076557159424
0.85756802558898926 0.85756802558898926 0.85756802558898926
0.72050970792770386 0.72050970792770386 0.72050970792770386
0.73512560129165649 0.73512560129165649 0.73512560129165649
0.75162798166275024 0.75162798166275024 0.75162798166275024
0.77732592821121216 0.77732592821121216 0.77732592821121216
0.82445019483566284 0.82445019483566284 0.82445019483566284
0.86702942848205566 0.86702942848205566 0.86702942848205566
0.87187469005584717 0.87187469005584717 0.87187469005584717
0.7577400803565979 0.7577400803565979 0.7577400803565979
0.76039701700210571 0.76039701700210571 0.76039701700210571
0.77165627479553223 0.77165627479553223 0.77165627479553223
0.80215680599212646 0.80215680599212646 0.80215680599212646
0.83886462450027466 0.83886462450027466 0.83886462450027466
0.86562281847000122 0.86562281847000122 0.86562281847000122
0.87378549575805664 0.87378549575805664 0.87378549575805664
0.76559334993362427 0.76559334993362427 0.76559334993362427
0.76613736152648926 0.76613736152648926 0.76613736152648926
0.78501278162002563 0.78501278162002563 0.78501278162002563
0.82492566108703613 0.82492566108703613 0.82492566108703613
0.8614736795425415 0.8614736795425415 0.8614736795425415
0.87687885761260986 0.87687885761260986 0.87687885761260986
0.88920050859451294 0.88920050859451294 0.88920050859451294
0.74057519435882568 0.74057519435882568 0.74057519435882568
0.77055966854095459 0.77055966854095459 0.77055966854095459
0.79708594083786011 0.79708594083786011 0.79708594083786011
0.83742725849151611 0.83742725849151611 0.83742725849151611
0.87879800796508789 0.87879800796508789 0.87879800796508789
0.91074442863464355 0.91074442863464355 0.91074442863464355
0.92645668983459473 0.92645668983459473 0.92645668983459473
0.81286913156509399 0.81286913156509399 0.81286913156509399
0.83429646492004395 0.83429646492004395 0.83429646492004395
0.84280705451965332 0.84280705451965332 0.84280705451965332
0.85714888572692871 0.85714888572692871 0.85714888572692871
0.89386165142059326 0.89386165142059326 0.89386165142059326
0.93149906396865845 0.93149906396865845 0.93149906396865845
0.95613515377044678 0.95613515377044678 0.95613515377044678
0.90430951118469238 0.90430951118469238 0.90430951118469238
0.92468518018722534 0.92468518018722534 0.92468518018722534
0.93182951211929321 0.93182951211929321 0.93182951211929321
0.93899673223495483 0.93899673223495483 0.93899673223495483
0.95261472463607788 0.95261472463607788 0.95261472463607788
0.96545326709747314 0.96545326709747314 0.96545326709747314
0.97967171669006348 0.97967171669006348 0.97967171669006348
