luts/negative_old/ilford_delta_3200.cube
# Created by: G'MIC (https://gmic.eu)
TITLE "ilford_delta_3200"
# LUT size
LUT_3D_SIZE 7
# Data domain
DOMAIN_MIN 0.0 0.0 0.0
DOMAIN_MAX 1.0 1.0 1.0
# LUT data points
0.068100720643997192 0.068100720643997192 0.068100720643997192
0.068750165402889252 0.068750165402889252 0.068750165402889252
0.10179343074560165 0.10179343074560165 0.10179343074560165
0.17748802900314331 0.17748802900314331 0.17748802900314331
0.29719418287277222 0.29719418287277222 0.29719418287277222
0.42986652255058289 0.42986652255058289 0.42986652255058289
0.57031285762786865 0.57031285762786865 0.57031285762786865
0.083757765591144562 0.083757765591144562 0.083757765591144562
0.099421210587024689 0.099421210587024689 0.099421210587024689
0.14158400893211365 0.14158400893211365 0.14158400893211365
0.21831195056438446 0.21831195056438446 0.21831195056438446
0.32833960652351379 0.32833960652351379 0.32833960652351379
0.44955694675445557 0.44955694675445557 0.44955694675445557
0.57658392190933228 0.57658392190933228 0.57658392190933228
0.16290557384490967 0.16290557384490967 0.16290557384490967
0.17901633679866791 0.17901633679866791 0.17901633679866791
0.22003458440303802 0.22003458440303802 0.22003458440303802
0.29101818799972534 0.29101818799972534 0.29101818799972534
0.3878878653049469 0.3878878653049469 0.3878878653049469
0.50019246339797974 0.50019246339797974 0.50019246339797974
0.61996442079544067 0.61996442079544067 0.61996442079544067
0.28826114535331726 0.28826114535331726 0.28826114535331726
0.29620230197906494 0.29620230197906494 0.29620230197906494
0.32261300086975098 0.32261300086975098 0.32261300086975098
0.37823367118835449 0.37823367118835449 0.37823367118835449
0.46044835448265076 0.46044835448265076 0.46044835448265076
0.57055115699768066 0.57055115699768066 0.57055115699768066
0.68232220411300659 0.68232220411300659 0.68232220411300659
0.43121439218521118 0.43121439218521118 0.43121439218521118
0.44116535782814026 0.44116535782814026 0.44116535782814026
0.4582335352897644 0.4582335352897644 0.4582335352897644
0.49474111199378967 0.49474111199378967 0.49474111199378967
0.55017054080963135 0.55017054080963135 0.55017054080963135
0.64636218547821045 0.64636218547821045 0.64636218547821045
0.74907565116882324 0.74907565116882324 0.74907565116882324
0.61731636524200439 0.61731636524200439 0.61731636524200439
0.63005954027175903 0.63005954027175903 0.63005954027175903
0.64279717206954956 0.64279717206954956 0.64279717206954956
0.6605340838432312 0.6605340838432312 0.6605340838432312
0.69425427913665771 0.69425427913665771 0.69425427913665771
0.74712681770324707 0.74712681770324707 0.74712681770324707
0.82556784152984619 0.82556784152984619 0.82556784152984619
0.8399200439453125 0.8399200439453125 0.8399200439453125
0.84646427631378174 0.84646427631378174 0.84646427631378174
0.85126858949661255 0.85126858949661255 0.85126858949661255
0.85376852750778198 0.85376852750778198 0.85376852750778198
0.87606745958328247 0.87606745958328247 0.87606745958328247
0.90827637910842896 0.90827637910842896 0.90827637910842896
0.93800842761993408 0.93800842761993408 0.93800842761993408
0.076132364571094513 0.076132364571094513 0.076132364571094513
0.083254829049110413 0.083254829049110413 0.083254829049110413
0.12006991356611252 0.12006991356611252 0.12006991356611252
0.20857526361942291 0.20857526361942291 0.20857526361942291
0.32971680164337158 0.32971680164337158 0.32971680164337158
0.45062494277954102 0.45062494277954102 0.45062494277954102
0.58170425891876221 0.58170425891876221 0.58170425891876221
0.11404064297676086 0.11404064297676086 0.11404064297676086
0.13037978112697601 0.13037978112697601 0.13037978112697601
0.17386525869369507 0.17386525869369507 0.17386525869369507
0.25843194127082825 0.25843194127082825 0.25843194127082825
0.36650174856185913 0.36650174856185913 0.36650174856185913
0.47744780778884888 0.47744780778884888 0.47744780778884888
0.59565246105194092 0.59565246105194092 0.59565246105194092
0.20750038325786591 0.20750038325786591 0.20750038325786591
0.22398479282855988 0.22398479282855988 0.22398479282855988
0.26536992192268372 0.26536992192268372 0.26536992192268372
0.3368399441242218 0.3368399441242218 0.3368399441242218
0.42573007941246033 0.42573007941246033 0.42573007941246033
0.52720218896865845 0.52720218896865845 0.52720218896865845
0.64066475629806519 0.64066475629806519 0.64066475629806519
0.34326604008674622 0.34326604008674622 0.34326604008674622
0.35228431224822998 0.35228431224822998 0.35228431224822998
0.37406730651855469 0.37406730651855469 0.37406730651855469
0.41774371266365051 0.41774371266365051 0.41774371266365051
0.48452284932136536 0.48452284932136536 0.48452284932136536
0.58115577697753906 0.58115577697753906 0.58115577697753906
0.693897545337677 0.693897545337677 0.693897545337677
0.47352084517478943 0.47352084517478943 0.47352084517478943
0.48681366443634033 0.48681366443634033 0.48681366443634033
0.49763864278793335 0.49763864278793335 0.49763864278793335
0.52203261852264404 0.52203261852264404 0.52203261852264404
0.56259840726852417 0.56259840726852417 0.56259840726852417
0.64564627408981323 0.64564627408981323 0.64564627408981323
0.75316894054412842 0.75316894054412842 0.75316894054412842
0.63926416635513306 0.63926416635513306 0.63926416635513306
0.64679217338562012 0.64679217338562012 0.64679217338562012
0.64991790056228638 0.64991790056228638 0.64991790056228638
0.67286628484725952 0.67286628484725952 0.67286628484725952
0.7068791389465332 0.7068791389465332 0.7068791389465332
0.76425552368164062 0.76425552368164062 0.76425552368164062
0.83753246068954468 0.83753246068954468 0.83753246068954468
0.84531313180923462 0.84531313180923462 0.84531313180923462
0.84739989042282104 0.84739989042282104 0.84739989042282104
0.8467944860458374 0.8467944860458374 0.8467944860458374
0.85780757665634155 0.85780757665634155 0.85780757665634155
0.88293516635894775 0.88293516635894775 0.88293516635894775
0.91759037971496582 0.91759037971496582 0.91759037971496582
0.95042204856872559 0.95042204856872559 0.95042204856872559
0.1121806725859642 0.1121806725859642 0.1121806725859642
0.1274426132440567 0.1274426132440567 0.1274426132440567
0.16467191278934479 0.16467191278934479 0.16467191278934479
0.23711927235126495 0.23711927235126495 0.23711927235126495
0.34256419539451599 0.34256419539451599 0.34256419539451599
0.4790656566619873 0.4790656566619873 0.4790656566619873
0.61750084161758423 0.61750084161758423 0.61750084161758423
0.16079045832157135 0.16079045832157135 0.16079045832157135
0.18738119304180145 0.18738119304180145 0.18738119304180145
0.22933828830718994 0.22933828830718994 0.22933828830718994
0.2895607054233551 0.2895607054233551 0.2895607054233551
0.39631417393684387 0.39631417393684387 0.39631417393684387
0.52003735303878784 0.52003735303878784 0.52003735303878784
0.64346683025360107 0.64346683025360107 0.64346683025360107
0.24183675646781921 0.24183675646781921 0.24183675646781921
0.26923629641532898 0.26923629641532898 0.26923629641532898
0.32260441780090332 0.32260441780090332 0.32260441780090332
0.38375842571258545 0.38375842571258545 0.38375842571258545
0.46931561827659607 0.46931561827659607 0.46931561827659607
0.5711703896522522 0.5711703896522522 0.5711703896522522
0.68283778429031372 0.68283778429031372 0.68283778429031372
0.37471294403076172 0.37471294403076172 0.37471294403076172
0.3975084125995636 0.3975084125995636 0.3975084125995636
0.43223917484283447 0.43223917484283447 0.43223917484283447
0.47339311242103577 0.47339311242103577 0.47339311242103577
0.53149956464767456 0.53149956464767456 0.53149956464767456
0.61859023571014404 0.61859023571014404 0.61859023571014404
0.72620576620101929 0.72620576620101929 0.72620576620101929
0.51594299077987671 0.51594299077987671 0.51594299077987671
0.54251354932785034 0.54251354932785034 0.54251354932785034
0.55780327320098877 0.55780327320098877 0.55780327320098877
0.57617521286010742 0.57617521286010742 0.57617521286010742
0.6069222092628479 0.6069222092628479 0.6069222092628479
0.67459875345230103 0.67459875345230103 0.67459875345230103
0.77456897497177124 0.77456897497177124 0.77456897497177124
0.68083500862121582 0.68083500862121582 0.68083500862121582
0.69025242328643799 0.69025242328643799 0.69025242328643799
0.69545722007751465 0.69545722007751465 0.69545722007751465
0.71326124668121338 0.71326124668121338 0.71326124668121338
0.73447966575622559 0.73447966575622559 0.73447966575622559
0.77942216396331787 0.77942216396331787 0.77942216396331787
0.85176688432693481 0.85176688432693481 0.85176688432693481
0.86919331550598145 0.86919331550598145 0.86919331550598145
0.87025976181030273 0.87025976181030273 0.87025976181030273
0.86825120449066162 0.86825120449066162 0.86825120449066162
0.87803679704666138 0.87803679704666138 0.87803679704666138
0.89359080791473389 0.89359080791473389 0.89359080791473389
0.9196319580078125 0.9196319580078125 0.9196319580078125
0.95771092176437378 0.95771092176437378 0.95771092176437378
0.18385569751262665 0.18385569751262665 0.18385569751262665
0.20877639949321747 0.20877639949321747 0.20877639949321747
0.26760309934616089 0.26760309934616089 0.26760309934616089
0.33134150505065918 0.33134150505065918 0.33134150505065918
0.37310591340065002 0.37310591340065002 0.37310591340065002
0.50983148813247681 0.50983148813247681 0.50983148813247681
0.65392923355102539 0.65392923355102539 0.65392923355102539
0.24652387201786041 0.24652387201786041 0.24652387201786041
0.27530834078788757 0.27530834078788757 0.27530834078788757
0.32888719439506531 0.32888719439506531 0.32888719439506531
0.37163707613945007 0.37163707613945007 0.37163707613945007
0.42354020476341248 0.42354020476341248 0.42354020476341248
0.55039298534393311 0.55039298534393311 0.55039298534393311
0.68501526117324829 0.68501526117324829 0.68501526117324829
0.29220783710479736 0.29220783710479736 0.29220783710479736
0.33429670333862305 0.33429670333862305 0.33429670333862305
0.39627933502197266 0.39627933502197266 0.39627933502197266
0.44651222229003906 0.44651222229003906 0.44651222229003906
0.50772994756698608 0.50772994756698608 0.50772994756698608
0.60512971878051758 0.60512971878051758 0.60512971878051758
0.72529524564743042 0.72529524564743042 0.72529524564743042
0.37902194261550903 0.37902194261550903 0.37902194261550903
0.41660872101783752 0.41660872101783752 0.41660872101783752
0.47961294651031494 0.47961294651031494 0.47961294651031494
0.53321588039398193 0.53321588039398193 0.53321588039398193
0.58589333295822144 0.58589333295822144 0.58589333295822144
0.66717445850372314 0.66717445850372314 0.66717445850372314
0.76873224973678589 0.76873224973678589 0.76873224973678589
0.52169406414031982 0.52169406414031982 0.52169406414031982
0.56041991710662842 0.56041991710662842 0.56041991710662842
0.60236376523971558 0.60236376523971558 0.60236376523971558
0.63232362270355225 0.63232362270355225 0.63232362270355225
0.66001182794570923 0.66001182794570923 0.66001182794570923
0.7164299488067627 0.7164299488067627 0.7164299488067627
0.80987918376922607 0.80987918376922607 0.80987918376922607
0.70353192090988159 0.70353192090988159 0.70353192090988159
0.72369885444641113 0.72369885444641113 0.72369885444641113
0.74791508913040161 0.74791508913040161 0.74791508913040161
0.76369822025299072 0.76369822025299072 0.76369822025299072
0.77121150493621826 0.77121150493621826 0.77121150493621826
0.80022227764129639 0.80022227764129639 0.80022227764129639
0.87241464853286743 0.87241464853286743 0.87241464853286743
0.89261490106582642 0.89261490106582642 0.89261490106582642
0.89477133750915527 0.89477133750915527 0.89477133750915527
0.89845162630081177 0.89845162630081177 0.89845162630081177
0.90858083963394165 0.90858083963394165 0.90858083963394165
0.9115983247756958 0.9115983247756958 0.9115983247756958
0.92415148019790649 0.92415148019790649 0.92415148019790649
0.96251493692398071 0.96251493692398071 0.96251493692398071
0.30567443370819092 0.30567443370819092 0.30567443370819092
0.33396655321121216 0.33396655321121216 0.33396655321121216
0.3856317400932312 0.3856317400932312 0.3856317400932312
0.46437999606132507 0.46437999606132507 0.46437999606132507
0.49853256344795227 0.49853256344795227 0.49853256344795227
0.53008407354354858 0.53008407354354858 0.53008407354354858
0.67738592624664307 0.67738592624664307 0.67738592624664307
0.37989872694015503 0.37989872694015503 0.37989872694015503
0.39154520630836487 0.39154520630836487 0.39154520630836487
0.42754533886909485 0.42754533886909485 0.42754533886909485
0.49170070886611938 0.49170070886611938 0.49170070886611938
0.52895158529281616 0.52895158529281616 0.52895158529281616
0.56897568702697754 0.56897568702697754 0.56897568702697754
0.70300674438476562 0.70300674438476562 0.70300674438476562
0.42523092031478882 0.42523092031478882 0.42523092031478882
0.44276422262191772 0.44276422262191772 0.44276422262191772
0.48422008752822876 0.48422008752822876 0.48422008752822876
0.54609203338623047 0.54609203338623047 0.54609203338623047
0.58013981580734253 0.58013981580734253 0.58013981580734253
0.62520450353622437 0.62520450353622437 0.62520450353622437
0.74795234203338623 0.74795234203338623 0.74795234203338623
0.44892221689224243 0.44892221689224243 0.44892221689224243
0.48543936014175415 0.48543936014175415 0.48543936014175415
0.54030692577362061 0.54030692577362061 0.54030692577362061
0.5994141697883606 0.5994141697883606 0.5994141697883606
0.64412397146224976 0.64412397146224976 0.64412397146224976
0.69791102409362793 0.69791102409362793 0.69791102409362793
0.79852676391601562 0.79852676391601562 0.79852676391601562
0.53856652975082397 0.53856652975082397 0.53856652975082397
0.57703995704650879 0.57703995704650879 0.57703995704650879
0.62062722444534302 0.62062722444534302 0.62062722444534302
0.6687433123588562 0.6687433123588562 0.6687433123588562
0.71266782283782959 0.71266782283782959 0.71266782283782959
0.76686137914657593 0.76686137914657593 0.76686137914657593
0.8473200798034668 0.8473200798034668 0.8473200798034668
0.70314764976501465 0.70314764976501465 0.70314764976501465
0.72343969345092773 0.72343969345092773 0.72343969345092773
0.74799960851669312 0.74799960851669312 0.74799960851669312
0.78373682498931885 0.78373682498931885 0.78373682498931885
0.81003957986831665 0.81003957986831665 0.81003957986831665
0.84321612119674683 0.84321612119674683 0.84321612119674683
0.90480577945709229 0.90480577945709229 0.90480577945709229
0.87742811441421509 0.87742811441421509 0.87742811441421509
0.88499033451080322 0.88499033451080322 0.88499033451080322
0.89660787582397461 0.89660787582397461 0.89660787582397461
0.9208645224571228 0.9208645224571228 0.9208645224571228
0.92691284418106079 0.92691284418106079 0.92691284418106079
0.93689000606536865 0.93689000606536865 0.93689000606536865
0.97174179553985596 0.97174179553985596 0.97174179553985596
0.5031624436378479 0.5031624436378479 0.5031624436378479
0.52050626277923584 0.52050626277923584 0.52050626277923584
0.5577397346496582 0.5577397346496582 0.5577397346496582
0.61549526453018188 0.61549526453018188 0.61549526453018188
0.66513103246688843 0.66513103246688843 0.66513103246688843
0.67110753059387207 0.67110753059387207 0.67110753059387207
0.7089085578918457 0.7089085578918457 0.7089085578918457
0.54623425006866455 0.54623425006866455 0.54623425006866455
0.55489414930343628 0.55489414930343628 0.55489414930343628
0.57686394453048706 0.57686394453048706 0.57686394453048706
0.63324433565139771 0.63324433565139771 0.63324433565139771
0.6898118257522583 0.6898118257522583 0.6898118257522583
0.69194537401199341 0.69194537401199341 0.69194537401199341
0.7291419506072998 0.7291419506072998 0.7291419506072998
0.57545775175094604 0.57545775175094604 0.57545775175094604
0.58718287944793701 0.58718287944793701 0.58718287944793701
0.610198974609375 0.610198974609375 0.610198974609375
0.66260194778442383 0.66260194778442383 0.66260194778442383
0.71724438667297363 0.71724438667297363 0.71724438667297363
0.73410242795944214 0.73410242795944214 0.73410242795944214
0.76419693231582642 0.76419693231582642 0.76419693231582642
0.57420569658279419 0.57420569658279419 0.57420569658279419
0.60237473249435425 0.60237473249435425 0.60237473249435425
0.63744509220123291 0.63744509220123291 0.63744509220123291
0.68898189067840576 0.68898189067840576 0.68898189067840576
0.7393612265586853 0.7393612265586853 0.7393612265586853
0.76997131109237671 0.76997131109237671 0.76997131109237671
0.82106345891952515 0.82106345891952515 0.82106345891952515
0.61769306659698486 0.61769306659698486 0.61769306659698486
0.64471304416656494 0.64471304416656494 0.64471304416656494
0.67172932624816895 0.67172932624816895 0.67172932624816895
0.7222900390625 0.7222900390625 0.7222900390625
0.77899706363677979 0.77899706363677979 0.77899706363677979
0.82384681701660156 0.82384681701660156 0.82384681701660156
0.87216991186141968 0.87216991186141968 0.87216991186141968
0.73509907722473145 0.73509907722473145 0.73509907722473145
0.74727338552474976 0.74727338552474976 0.74727338552474976
0.7580457329750061 0.7580457329750061 0.7580457329750061
0.79846048355102539 0.79846048355102539 0.79846048355102539
0.84646183252334595 0.84646183252334595 0.84646183252334595
0.88695979118347168 0.88695979118347168 0.88695979118347168
0.93356728553771973 0.93356728553771973 0.93356728553771973
0.86931693553924561 0.86931693553924561 0.86931693553924561
0.87713515758514404 0.87713515758514404 0.87713515758514404
0.88597863912582397 0.88597863912582397 0.88597863912582397
0.90739953517913818 0.90739953517913818 0.90739953517913818
0.92939454317092896 0.92939454317092896 0.92939454317092896
0.94779640436172485 0.94779640436172485 0.94779640436172485
0.97535246610641479 0.97535246610641479 0.97535246610641479
0.72320407629013062 0.72320407629013062 0.72320407629013062
0.73161333799362183 0.73161333799362183 0.73161333799362183
0.75053960084915161 0.75053960084915161 0.75053960084915161
0.7713736891746521 0.7713736891746521 0.7713736891746521
0.80658870935440063 0.80658870935440063 0.80658870935440063
0.85238349437713623 0.85238349437713623 0.85238349437713623
0.86288976669311523 0.86288976669311523 0.86288976669311523
0.74694961309432983 0.74694961309432983 0.74694961309432983
0.75195366144180298 0.75195366144180298 0.75195366144180298
0.76077395677566528 0.76077395677566528 0.76077395677566528
0.78663551807403564 0.78663551807403564 0.78663551807403564
0.83302897214889526 0.83302897214889526 0.83302897214889526
0.86695808172225952 0.86695808172225952 0.86695808172225952
0.86692792177200317 0.86692792177200317 0.86692792177200317
0.7694087028503418 0.7694087028503418 0.7694087028503418
0.7709583044052124 0.7709583044052124 0.7709583044052124
0.77570062875747681 0.77570062875747681 0.77570062875747681
0.80575942993164062 0.80575942993164062 0.80575942993164062
0.85558217763900757 0.85558217763900757 0.85558217763900757
0.88433641195297241 0.88433641195297241 0.88433641195297241
0.88458454608917236 0.88458454608917236 0.88458454608917236
0.76442712545394897 0.76442712545394897 0.76442712545394897
0.77215778827667236 0.77215778827667236 0.77215778827667236
0.78240108489990234 0.78240108489990234 0.78240108489990234
0.81551593542098999 0.81551593542098999 0.81551593542098999
0.86260992288589478 0.86260992288589478 0.86260992288589478
0.89397788047790527 0.89397788047790527 0.89397788047790527
0.90503263473510742 0.90503263473510742 0.90503263473510742
0.76701420545578003 0.76701420545578003 0.76701420545578003
0.78130483627319336 0.78130483627319336 0.78130483627319336
0.79371899366378784 0.79371899366378784 0.79371899366378784
0.82681238651275635 0.82681238651275635 0.82681238651275635
0.87417113780975342 0.87417113780975342 0.87417113780975342
0.90886104106903076 0.90886104106903076 0.90886104106903076
0.92631030082702637 0.92631030082702637 0.92631030082702637
0.83069568872451782 0.83069568872451782 0.83069568872451782
0.8377842903137207 0.8377842903137207 0.8377842903137207
0.83953028917312622 0.83953028917312622 0.83953028917312622
0.86323440074920654 0.86323440074920654 0.86323440074920654
0.90499460697174072 0.90499460697174072 0.90499460697174072
0.94265913963317871 0.94265913963317871 0.94265913963317871
0.96256142854690552 0.96256142854690552 0.96256142854690552
0.90853720903396606 0.90853720903396606 0.90853720903396606
0.91686487197875977 0.91686487197875977 0.91686487197875977
0.91762948036193848 0.91762948036193848 0.91762948036193848
0.92674261331558228 0.92674261331558228 0.92674261331558228
0.95113348960876465 0.95113348960876465 0.95113348960876465
0.96996736526489258 0.96996736526489258 0.96996736526489258
0.98275494575500488 0.98275494575500488 0.98275494575500488
