luts/negative_old/ilford_delta_3200_+.cube
# Created by: G'MIC (https://gmic.eu)
TITLE "ilford_delta_3200_+"
# LUT size
LUT_3D_SIZE 13
# Data domain
DOMAIN_MIN 0.0 0.0 0.0
DOMAIN_MAX 1.0 1.0 1.0
# LUT data points
0.095343619585037231 0.095343619585037231 0.095343619585037231
0.094095863401889801 0.094095863401889801 0.094095863401889801
0.098433926701545715 0.098433926701545715 0.098433926701545715
0.10942254215478897 0.10942254215478897 0.10942254215478897
0.12831316888332367 0.12831316888332367 0.12831316888332367
0.15515062212944031 0.15515062212944031 0.15515062212944031
0.19039101898670197 0.19039101898670197 0.19039101898670197
0.23333089053630829 0.23333089053630829 0.23333089053630829
0.28326457738876343 0.28326457738876343 0.28326457738876343
0.34067943692207336 0.34067943692207336 0.34067943692207336
0.40764680504798889 0.40764680504798889 0.40764680504798889
0.48530977964401245 0.48530977964401245 0.48530977964401245
0.5692063570022583 0.5692063570022583 0.5692063570022583
0.10215247422456741 0.10215247422456741 0.10215247422456741
0.10229827463626862 0.10229827463626862 0.10229827463626862
0.10776101052761078 0.10776101052761078 0.10776101052761078
0.11964090168476105 0.11964090168476105 0.11964090168476105
0.13901732861995697 0.13901732861995697 0.13901732861995697
0.16621921956539154 0.16621921956539154 0.16621921956539154
0.20121458172798157 0.20121458172798157 0.20121458172798157
0.24265331029891968 0.24265331029891968 0.24265331029891968
0.29056569933891296 0.29056569933891296 0.29056569933891296
0.34487932920455933 0.34487932920455933 0.34487932920455933
0.40859124064445496 0.40859124064445496 0.40859124064445496
0.48585060238838196 0.48585060238838196 0.48585060238838196
0.57071632146835327 0.57071632146835327 0.57071632146835327
0.11670386791229248 0.11670386791229248 0.11670386791229248
0.11824602633714676 0.11824602633714676 0.11824602633714676
0.12517476081848145 0.12517476081848145 0.12517476081848145
0.13825017213821411 0.13825017213821411 0.13825017213821411
0.15821990370750427 0.15821990370750427 0.15821990370750427
0.18571163713932037 0.18571163713932037 0.18571163713932037
0.2202795147895813 0.2202795147895813 0.2202795147895813
0.26107099652290344 0.26107099652290344 0.26107099652290344
0.30765834450721741 0.30765834450721741 0.30765834450721741
0.36057406663894653 0.36057406663894653 0.36057406663894653
0.42231011390686035 0.42231011390686035 0.42231011390686035
0.4975799024105072 0.4975799024105072 0.4975799024105072
0.5809255838394165 0.5809255838394165 0.5809255838394165
0.14126493036746979 0.14126493036746979 0.14126493036746979
0.14372655749320984 0.14372655749320984 0.14372655749320984
0.15182922780513763 0.15182922780513763 0.15182922780513763
0.1656176894903183 0.1656176894903183 0.1656176894903183
0.18569092452526093 0.18569092452526093 0.18569092452526093
0.21287776529788971 0.21287776529788971 0.21287776529788971
0.24702377617359161 0.24702377617359161 0.24702377617359161
0.28757503628730774 0.28757503628730774 0.28757503628730774
0.33401131629943848 0.33401131629943848 0.33401131629943848
0.38747408986091614 0.38747408986091614 0.38747408986091614
0.44967353343963623 0.44967353343963623 0.44967353343963623
0.52230846881866455 0.52230846881866455 0.52230846881866455
0.60122013092041016 0.60122013092041016 0.60122013092041016
0.1769731342792511 0.1769731342792511 0.1769731342792511
0.17972590029239655 0.17972590029239655 0.17972590029239655
0.18783479928970337 0.18783479928970337 0.18783479928970337
0.20138764381408691 0.20138764381408691 0.20138764381408691
0.22081191837787628 0.22081191837787628 0.22081191837787628
0.24714525043964386 0.24714525043964386 0.24714525043964386
0.28022480010986328 0.28022480010986328 0.28022480010986328
0.32037639617919922 0.32037639617919922 0.32037639617919922
0.36704543232917786 0.36704543232917786 0.36704543232917786
0.42108362913131714 0.42108362913131714 0.42108362913131714
0.483894944190979 0.483894944190979 0.483894944190979
0.55451738834381104 0.55451738834381104 0.55451738834381104
0.62955492734909058 0.62955492734909058 0.62955492734909058
0.22326695919036865 0.22326695919036865 0.22326695919036865
0.22577838599681854 0.22577838599681854 0.22577838599681854
0.23316536843776703 0.23316536843776703 0.23316536843776703
0.24506433308124542 0.24506433308124542 0.24506433308124542
0.26288625597953796 0.26288625597953796 0.26288625597953796
0.2877863347530365 0.2877863347530365 0.2877863347530365
0.31975731253623962 0.31975731253623962 0.31975731253623962
0.3587043285369873 0.3587043285369873 0.3587043285369873
0.40483525395393372 0.40483525395393372 0.40483525395393372
0.45907726883888245 0.45907726883888245 0.45907726883888245
0.52163398265838623 0.52163398265838623 0.52163398265838623
0.59102410078048706 0.59102410078048706 0.59102410078048706
0.66331714391708374 0.66331714391708374 0.66331714391708374
0.27935120463371277 0.27935120463371277 0.27935120463371277
0.28179866075515747 0.28179866075515747 0.28179866075515747
0.28785502910614014 0.28785502910614014 0.28785502910614014
0.2973606288433075 0.2973606288433075 0.2973606288433075
0.3130047619342804 0.3130047619342804 0.3130047619342804
0.33626815676689148 0.33626815676689148 0.33626815676689148
0.3666289746761322 0.3666289746761322 0.3666289746761322
0.40369892120361328 0.40369892120361328 0.40369892120361328
0.44778135418891907 0.44778135418891907 0.44778135418891907
0.5006786584854126 0.5006786584854126 0.5006786584854126
0.56231921911239624 0.56231921911239624 0.56231921911239624
0.63042163848876953 0.63042163848876953 0.63042163848876953
0.70011895895004272 0.70011895895004272 0.70011895895004272
0.34593504667282104 0.34593504667282104 0.34593504667282104
0.34855127334594727 0.34855127334594727 0.34855127334594727
0.3536624014377594 0.3536624014377594 0.3536624014377594
0.36079645156860352 0.36079645156860352 0.36079645156860352
0.37393480539321899 0.37393480539321899 0.37393480539321899
0.39547950029373169 0.39547950029373169 0.39547950029373169
0.42363592982292175 0.42363592982292175 0.42363592982292175
0.45712512731552124 0.45712512731552124 0.45712512731552124
0.4979059100151062 0.4979059100151062 0.4979059100151062
0.54745864868164062 0.54745864868164062 0.54745864868164062
0.60603505373001099 0.60603505373001099 0.60603505373001099
0.6711617112159729 0.6711617112159729 0.6711617112159729
0.73752677440643311 0.73752677440643311 0.73752677440643311
0.42498418688774109 0.42498418688774109 0.42498418688774109
0.42797002196311951 0.42797002196311951 0.42797002196311951
0.43304741382598877 0.43304741382598877 0.43304741382598877
0.43941968679428101 0.43941968679428101 0.43941968679428101
0.45076832175254822 0.45076832175254822 0.45076832175254822
0.46933662891387939 0.46933662891387939 0.46933662891387939
0.49354410171508789 0.49354410171508789 0.49354410171508789
0.52292168140411377 0.52292168140411377 0.52292168140411377
0.55850434303283691 0.55850434303283691 0.55850434303283691
0.60211122035980225 0.60211122035980225 0.60211122035980225
0.65437740087509155 0.65437740087509155 0.65437740087509155
0.71282505989074707 0.71282505989074707 0.71282505989074707
0.77210676670074463 0.77210676670074463 0.77210676670074463
0.51793134212493896 0.51793134212493896 0.51793134212493896
0.52097177505493164 0.52097177505493164 0.52097177505493164
0.52594977617263794 0.52594977617263794 0.52594977617263794
0.53257572650909424 0.53257572650909424 0.53257572650909424
0.54255014657974243 0.54255014657974243 0.54255014657974243
0.55732196569442749 0.55732196569442749 0.55732196569442749
0.57726991176605225 0.57726991176605225 0.57726991176605225
0.60120850801467896 0.60120850801467896 0.60120850801467896
0.63051128387451172 0.63051128387451172 0.63051128387451172
0.66655552387237549 0.66655552387237549 0.66655552387237549
0.70942807197570801 0.70942807197570801 0.70942807197570801
0.75669479370117188 0.75669479370117188 0.75669479370117188
0.80587893724441528 0.80587893724441528 0.80587893724441528
0.62145596742630005 0.62145596742630005 0.62145596742630005
0.62440609931945801 0.62440609931945801 0.62440609931945801
0.62897729873657227 0.62897729873657227 0.62897729873657227
0.63519966602325439 0.63519966602325439 0.63519966602325439
0.64422369003295898 0.64422369003295898 0.64422369003295898
0.65674930810928345 0.65674930810928345 0.65674930810928345
0.67181515693664551 0.67181515693664551 0.67181515693664551
0.68955349922180176 0.68955349922180176 0.68955349922180176
0.71155112981796265 0.71155112981796265 0.71155112981796265
0.73868066072463989 0.73868066072463989 0.73868066072463989
0.77023845911026001 0.77023845911026001 0.77023845911026001
0.80487710237503052 0.80487710237503052 0.80487710237503052
0.8415825366973877 0.8415825366973877 0.8415825366973877
0.73027247190475464 0.73027247190475464 0.73027247190475464
0.732738196849823 0.732738196849823 0.732738196849823
0.73618620634078979 0.73618620634078979 0.73618620634078979
0.74178117513656616 0.74178117513656616 0.74178117513656616
0.75000405311584473 0.75000405311584473 0.75000405311584473
0.7608831524848938 0.7608831524848938 0.7608831524848938
0.77106809616088867 0.77106809616088867 0.77106809616088867
0.78179609775543213 0.78179609775543213 0.78179609775543213
0.79599273204803467 0.79599273204803467 0.79599273204803467
0.81414002180099487 0.81414002180099487 0.81414002180099487
0.83403271436691284 0.83403271436691284 0.83403271436691284
0.85584127902984619 0.85584127902984619 0.85584127902984619
0.88118362426757812 0.88118362426757812 0.88118362426757812
0.83767426013946533 0.83767426013946533 0.83767426013946533
0.83870947360992432 0.83870947360992432 0.83870947360992432
0.84108155965805054 0.84108155965805054 0.84108155965805054
0.84534907341003418 0.84534907341003418 0.84534907341003418
0.85244733095169067 0.85244733095169067 0.85244733095169067
0.86073172092437744 0.86073172092437744 0.86073172092437744
0.86626642942428589 0.86626642942428589 0.86626642942428589
0.87082189321517944 0.87082189321517944 0.87082189321517944
0.87766319513320923 0.87766319513320923 0.87766319513320923
0.88728737831115723 0.88728737831115723 0.88728737831115723
0.897624671459198 0.897624671459198 0.897624671459198
0.90885776281356812 0.90885776281356812 0.90885776281356812
0.92423540353775024 0.92423540353775024 0.92423540353775024
0.091069839894771576 0.091069839894771576 0.091069839894771576
0.091433309018611908 0.091433309018611908 0.091433309018611908
0.097038477659225464 0.097038477659225464 0.097038477659225464
0.10923795402050018 0.10923795402050018 0.10923795402050018
0.12922467291355133 0.12922467291355133 0.12922467291355133
0.15797257423400879 0.15797257423400879 0.15797257423400879
0.19579385221004486 0.19579385221004486 0.19579385221004486
0.24152806401252747 0.24152806401252747 0.24152806401252747
0.2942822277545929 0.2942822277545929 0.2942822277545929
0.35390719771385193 0.35390719771385193 0.35390719771385193
0.42192324995994568 0.42192324995994568 0.42192324995994568
0.49845883250236511 0.49845883250236511 0.49845883250236511
0.57955127954483032 0.57955127954483032 0.57955127954483032
0.098255455493927002 0.098255455493927002 0.098255455493927002
0.10005027800798416 0.10005027800798416 0.10005027800798416
0.10725606232881546 0.10725606232881546 0.10725606232881546
0.12080573290586472 0.12080573290586472 0.12080573290586472
0.14156752824783325 0.14156752824783325 0.14156752824783325
0.17061683535575867 0.17061683535575867 0.17061683535575867
0.20822685956954956 0.20822685956954956 0.20822685956954956
0.25316706299781799 0.25316706299781799 0.25316706299781799
0.30400732159614563 0.30400732159614563 0.30400732159614563
0.36121314764022827 0.36121314764022827 0.36121314764022827
0.4266151487827301 0.4266151487827301 0.4266151487827301
0.50231611728668213 0.50231611728668213 0.50231611728668213
0.58401846885681152 0.58401846885681152 0.58401846885681152
0.11328922212123871 0.11328922212123871 0.11328922212123871
0.11754851788282394 0.11754851788282394 0.11754851788282394
0.12666775286197662 0.12666775286197662 0.12666775286197662
0.14168280363082886 0.14168280363082886 0.14168280363082886
0.1634858101606369 0.1634858101606369 0.1634858101606369
0.19283406436443329 0.19283406436443329 0.19283406436443329
0.23017869889736176 0.23017869889736176 0.23017869889736176
0.27395609021186829 0.27395609021186829 0.27395609021186829
0.32297998666763306 0.32297998666763306 0.32297998666763306
0.37820336222648621 0.37820336222648621 0.37820336222648621
0.44137021899223328 0.44137021899223328 0.44137021899223328
0.51477742195129395 0.51477742195129395 0.51477742195129395
0.59538406133651733 0.59538406133651733 0.59538406133651733
0.14036789536476135 0.14036789536476135 0.14036789536476135
0.14551728963851929 0.14551728963851929 0.14551728963851929
0.15626689791679382 0.15626689791679382 0.15626689791679382
0.17219442129135132 0.17219442129135132 0.17219442129135132
0.19396528601646423 0.19396528601646423 0.19396528601646423
0.2230328768491745 0.2230328768491745 0.2230328768491745
0.2592473030090332 0.2592473030090332 0.2592473030090332
0.30191135406494141 0.30191135406494141 0.30191135406494141
0.34972438216209412 0.34972438216209412 0.34972438216209412
0.40393862128257751 0.40393862128257751 0.40393862128257751
0.46649804711341858 0.46649804711341858 0.46649804711341858
0.53779512643814087 0.53779512643814087 0.53779512643814087
0.61490774154663086 0.61490774154663086 0.61490774154663086
0.17882260680198669 0.17882260680198669 0.17882260680198669
0.18500992655754089 0.18500992655754089 0.18500992655754089
0.19625447690486908 0.19625447690486908 0.19625447690486908
0.21150048077106476 0.21150048077106476 0.21150048077106476
0.23207506537437439 0.23207506537437439 0.23207506537437439
0.25929093360900879 0.25929093360900879 0.25929093360900879
0.29401850700378418 0.29401850700378418 0.29401850700378418
0.33461993932723999 0.33461993932723999 0.33461993932723999
0.38136368989944458 0.38136368989944458 0.38136368989944458
0.4352206289768219 0.4352206289768219 0.4352206289768219
0.49738213419914246 0.49738213419914246 0.49738213419914246
0.56689083576202393 0.56689083576202393 0.56689083576202393
0.64056956768035889 0.64056956768035889 0.64056956768035889
0.22865775227546692 0.22865775227546692 0.22865775227546692
0.23503120243549347 0.23503120243549347 0.23503120243549347
0.24559739232063293 0.24559739232063293 0.24559739232063293
0.25891399383544922 0.25891399383544922 0.25891399383544922
0.27670013904571533 0.27670013904571533 0.27670013904571533
0.30112946033477783 0.30112946033477783 0.30112946033477783
0.33272969722747803 0.33272969722747803 0.33272969722747803
0.3709045946598053 0.3709045946598053 0.3709045946598053
0.41628327965736389 0.41628327965736389 0.41628327965736389
0.46947726607322693 0.46947726607322693 0.46947726607322693
0.53132385015487671 0.53132385015487671 0.53132385015487671
0.59961181879043579 0.59961181879043579 0.59961181879043579
0.6708495020866394 0.6708495020866394 0.6708495020866394
0.28786075115203857 0.28786075115203857 0.28786075115203857
0.29412505030632019 0.29412505030632019 0.29412505030632019
0.30316153168678284 0.30316153168678284 0.30316153168678284
0.31347882747650146 0.31347882747650146 0.31347882747650146
0.32807162404060364 0.32807162404060364 0.32807162404060364
0.34943380951881409 0.34943380951881409 0.34943380951881409
0.37764221429824829 0.37764221429824829 0.37764221429824829
0.4125901460647583 0.4125901460647583 0.4125901460647583
0.45477083325386047 0.45477083325386047 0.45477083325386047
0.50621330738067627 0.50621330738067627 0.50621330738067627
0.56704491376876831 0.56704491376876831 0.56704491376876831
0.63446658849716187 0.63446658849716187 0.63446658849716187
0.70352029800415039 0.70352029800415039 0.70352029800415039
0.35548970103263855 0.35548970103263855 0.35548970103263855
0.36160194873809814 0.36160194873809814 0.36160194873809814
0.36913800239562988 0.36913800239562988 0.36913800239562988
0.37722340226173401 0.37722340226173401 0.37722340226173401
0.38857752084732056 0.38857752084732056 0.38857752084732056
0.40670818090438843 0.40670818090438843 0.40670818090438843
0.43145614862442017 0.43145614862442017 0.43145614862442017
0.46217933297157288 0.46217933297157288 0.46217933297157288
0.49980184435844421 0.49980184435844421 0.49980184435844421
0.54740279912948608 0.54740279912948608 0.54740279912948608
0.60585808753967285 0.60585808753967285 0.60585808753967285
0.67108744382858276 0.67108744382858276 0.67108744382858276
0.73680412769317627 0.73680412769317627 0.73680412769317627
0.4332675039768219 0.4332675039768219 0.4332675039768219
0.43940296769142151 0.43940296769142151 0.43940296769142151
0.44634789228439331 0.44634789228439331 0.44634789228439331
0.45277053117752075 0.45277053117752075 0.45277053117752075
0.46149483323097229 0.46149483323097229 0.46149483323097229
0.47629418969154358 0.47629418969154358 0.47629418969154358
0.49736464023590088 0.49736464023590088 0.49736464023590088
0.52374529838562012 0.52374529838562012 0.52374529838562012
0.55629891157150269 0.55629891157150269 0.55629891157150269
0.5982477068901062 0.5982477068901062 0.5982477068901062
0.65149444341659546 0.65149444341659546 0.65149444341659546
0.71083599328994751 0.71083599328994751 0.71083599328994751
0.77023136615753174 0.77023136615753174 0.77023136615753174
0.52376025915145874 0.52376025915145874 0.52376025915145874
0.52963536977767944 0.52963536977767944 0.52963536977767944
0.53600174188613892 0.53600174188613892 0.53600174188613892
0.54139029979705811 0.54139029979705811 0.54139029979705811
0.54850620031356812 0.54850620031356812 0.54850620031356812
0.56013154983520508 0.56013154983520508 0.56013154983520508
0.57767724990844727 0.57767724990844727 0.57767724990844727
0.59996712207794189 0.59996712207794189 0.59996712207794189
0.62764400243759155 0.62764400243759155 0.62764400243759155
0.66297394037246704 0.66297394037246704 0.66297394037246704
0.70718765258789062 0.70718765258789062 0.70718765258789062
0.75605249404907227 0.75605249404907227 0.75605249404907227
0.80539631843566895 0.80539631843566895 0.80539631843566895
0.62557423114776611 0.62557423114776611 0.62557423114776611
0.63046789169311523 0.63046789169311523 0.63046789169311523
0.63577675819396973 0.63577675819396973 0.63577675819396973
0.64087855815887451 0.64087855815887451 0.64087855815887451
0.64699339866638184 0.64699339866638184 0.64699339866638184
0.65645104646682739 0.65645104646682739 0.65645104646682739
0.66985046863555908 0.66985046863555908 0.66985046863555908
0.68782061338424683 0.68782061338424683 0.68782061338424683
0.71023797988891602 0.71023797988891602 0.71023797988891602
0.73865872621536255 0.73865872621536255 0.73865872621536255
0.77157419919967651 0.77157419919967651 0.77157419919967651
0.80678129196166992 0.80678129196166992 0.80678129196166992
0.84387832880020142 0.84387832880020142 0.84387832880020142
0.7327074408531189 0.7327074408531189 0.7327074408531189
0.73671412467956543 0.73671412467956543 0.73671412467956543
0.74072325229644775 0.74072325229644775 0.74072325229644775
0.74502533674240112 0.74502533674240112 0.74502533674240112
0.7507094144821167 0.7507094144821167 0.7507094144821167
0.75845009088516235 0.75845009088516235 0.75845009088516235
0.76801186800003052 0.76801186800003052 0.76801186800003052
0.78021323680877686 0.78021323680877686 0.78021323680877686
0.79642331600189209 0.79642331600189209 0.79642331600189209
0.81709194183349609 0.81709194183349609 0.81709194183349609
0.83923131227493286 0.83923131227493286 0.83923131227493286
0.86092638969421387 0.86092638969421387 0.86092638969421387
0.88549518585205078 0.88549518585205078 0.88549518585205078
0.83820599317550659 0.83820599317550659 0.83820599317550659
0.84136098623275757 0.84136098623275757 0.84136098623275757
0.84376233816146851 0.84376233816146851 0.84376233816146851
0.84702068567276001 0.84702068567276001 0.84702068567276001
0.85176199674606323 0.85176199674606323 0.85176199674606323
0.85733342170715332 0.85733342170715332 0.85733342170715332
0.86285418272018433 0.86285418272018433 0.86285418272018433
0.86933362483978271 0.86933362483978271 0.86933362483978271
0.8791506290435791 0.8791506290435791 0.8791506290435791
0.8918117880821228 0.8918117880821228 0.8918117880821228
0.90410745143890381 0.90410745143890381 0.90410745143890381
0.91531425714492798 0.91531425714492798 0.91531425714492798
0.93018543720245361 0.93018543720245361 0.93018543720245361
0.09309019148349762 0.09309019148349762 0.09309019148349762
0.094857789576053619 0.094857789576053619 0.094857789576053619
0.10219618678092957 0.10219618678092957 0.10219618678092957
0.11541286110877991 0.11541286110877991 0.11541286110877991
0.13602428138256073 0.13602428138256073 0.13602428138256073
0.1658310741186142 0.1658310741186142 0.1658310741186142
0.20610655844211578 0.20610655844211578 0.20610655844211578
0.25508961081504822 0.25508961081504822 0.25508961081504822
0.31074416637420654 0.31074416637420654 0.31074416637420654
0.37265688180923462 0.37265688180923462 0.37265688180923462
0.44078442454338074 0.44078442454338074 0.44078442454338074
0.51550471782684326 0.51550471782684326 0.51550471782684326
0.59385007619857788 0.59385007619857788 0.59385007619857788
0.10135094076395035 0.10135094076395035 0.10135094076395035
0.10460300743579865 0.10460300743579865 0.10460300743579865
0.11360876262187958 0.11360876262187958 0.11360876262187958
0.12837152183055878 0.12837152183055878 0.12837152183055878
0.15003477036952972 0.15003477036952972 0.15003477036952972
0.18052266538143158 0.18052266538143158 0.18052266538143158
0.22074910998344421 0.22074910998344421 0.22074910998344421
0.26884850859642029 0.26884850859642029 0.26884850859642029
0.32347550988197327 0.32347550988197327 0.32347550988197327
0.38266187906265259 0.38266187906265259 0.38266187906265259
0.44924637675285339 0.44924637675285339 0.44924637675285339
0.52308636903762817 0.52308636903762817 0.52308636903762817
0.60147082805633545 0.60147082805633545 0.60147082805633545
0.11774613708257675 0.11774613708257675 0.11774613708257675
0.12370062619447708 0.12370062619447708 0.12370062619447708
0.1351189911365509 0.1351189911365509 0.1351189911365509
0.15163561701774597 0.15163561701774597 0.15163561701774597
0.17461620271205902 0.17461620271205902 0.17461620271205902
0.20563571155071259 0.20563571155071259 0.20563571155071259
0.24587909877300262 0.24587909877300262 0.24587909877300262
0.29292237758636475 0.29292237758636475 0.29292237758636475
0.34455451369285583 0.34455451369285583 0.34455451369285583
0.40122231841087341 0.40122231841087341 0.40122231841087341
0.46547088027000427 0.46547088027000427 0.46547088027000427
0.53756725788116455 0.53756725788116455 0.53756725788116455
0.61459445953369141 0.61459445953369141 0.61459445953369141
0.14576183259487152 0.14576183259487152 0.14576183259487152
0.15446266531944275 0.15446266531944275 0.15446266531944275
0.16806340217590332 0.16806340217590332 0.16806340217590332
0.18579947948455811 0.18579947948455811 0.18579947948455811
0.2089807391166687 0.2089807391166687 0.2089807391166687
0.23946486413478851 0.23946486413478851 0.23946486413478851
0.27842938899993896 0.27842938899993896 0.27842938899993896
0.32359752058982849 0.32359752058982849 0.32359752058982849
0.372476726770401 0.372476726770401 0.372476726770401
0.42693233489990234 0.42693233489990234 0.42693233489990234
0.48898577690124512 0.48898577690124512 0.48898577690124512
0.55871438980102539 0.55871438980102539 0.55871438980102539
0.6330571174621582 0.6330571174621582 0.6330571174621582
0.18787261843681335 0.18787261843681335 0.18787261843681335
0.19814416766166687 0.19814416766166687 0.19814416766166687
0.21274676918983459 0.21274676918983459 0.21274676918983459
0.23001588881015778 0.23001588881015778 0.23001588881015778
0.25104105472564697 0.25104105472564697 0.25104105472564697
0.2789948582649231 0.2789948582649231 0.2789948582649231
0.31493696570396423 0.31493696570396423 0.31493696570396423
0.35667991638183594 0.35667991638183594 0.35667991638183594
0.40358632802963257 0.40358632802963257 0.40358632802963257
