luts/negative_old/ilford_delta_3200_-.cube
# Created by: G'MIC (https://gmic.eu)
TITLE "ilford_delta_3200_-"
# LUT size
LUT_3D_SIZE 13
# Data domain
DOMAIN_MIN 0.0 0.0 0.0
DOMAIN_MAX 1.0 1.0 1.0
# LUT data points
0.050490718334913254 0.050490718334913254 0.050490718334913254
0.049257136881351471 0.049257136881351471 0.049257136881351471
0.058587677776813507 0.058587677776813507 0.058587677776813507
0.081472523510456085 0.081472523510456085 0.081472523510456085
0.11851689964532852 0.11851689964532852 0.11851689964532852
0.16708624362945557 0.16708624362945557 0.16708624362945557
0.22208958864212036 0.22208958864212036 0.22208958864212036
0.27849119901657104 0.27849119901657104 0.27849119901657104
0.33260083198547363 0.33260083198547363 0.33260083198547363
0.38513782620429993 0.38513782620429993 0.38513782620429993
0.43872860074043274 0.43872860074043274 0.43872860074043274
0.49644795060157776 0.49644795060157776 0.49644795060157776
0.56004095077514648 0.56004095077514648 0.56004095077514648
0.057747036218643188 0.057747036218643188 0.057747036218643188
0.056253440678119659 0.056253440678119659 0.056253440678119659
0.06519211083650589 0.06519211083650589 0.06519211083650589
0.089594133198261261 0.089594133198261261 0.089594133198261261
0.12861655652523041 0.12861655652523041 0.12861655652523041
0.17825305461883545 0.17825305461883545 0.17825305461883545
0.23325037956237793 0.23325037956237793 0.23325037956237793
0.28851419687271118 0.28851419687271118 0.28851419687271118
0.34150630235671997 0.34150630235671997 0.34150630235671997
0.39274081587791443 0.39274081587791443 0.39274081587791443
0.44432827830314636 0.44432827830314636 0.44432827830314636
0.49989184737205505 0.49989184737205505 0.49989184737205505
0.56230950355529785 0.56230950355529785 0.56230950355529785
0.08214530348777771 0.08214530348777771 0.08214530348777771
0.080190993845462799 0.080190993845462799 0.080190993845462799
0.087866552174091339 0.087866552174091339 0.087866552174091339
0.11195395886898041 0.11195395886898041 0.11195395886898041
0.15124975144863129 0.15124975144863129 0.15124975144863129
0.19947916269302368 0.19947916269302368 0.19947916269302368
0.2518390417098999 0.2518390417098999 0.2518390417098999
0.3044244647026062 0.3044244647026062 0.3044244647026062
0.35526290535926819 0.35526290535926819 0.35526290535926819
0.40505725145339966 0.40505725145339966 0.40505725145339966
0.45595261454582214 0.45595261454582214 0.45595261454582214
0.51102751493453979 0.51102751493453979 0.51102751493453979
0.57291716337203979 0.57291716337203979 0.57291716337203979
0.12659129500389099 0.12659129500389099 0.12659129500389099
0.12543861567974091 0.12543861567974091 0.12543861567974091
0.13193875551223755 0.13193875551223755 0.13193875551223755
0.15269096195697784 0.15269096195697784 0.15269096195697784
0.18743716180324554 0.18743716180324554 0.18743716180324554
0.23039481043815613 0.23039481043815613 0.23039481043815613
0.27774709463119507 0.27774709463119507 0.27774709463119507
0.32593142986297607 0.32593142986297607 0.32593142986297607
0.37420409917831421 0.37420409917831421 0.37420409917831421
0.42313554883003235 0.42313554883003235 0.42313554883003235
0.47488060593605042 0.47488060593605042 0.47488060593605042
0.5310942530632019 0.5310942530632019 0.5310942530632019
0.59365737438201904 0.59365737438201904 0.59365737438201904
0.18578103184700012 0.18578103184700012 0.18578103184700012
0.18592996895313263 0.18592996895313263 0.18592996895313263
0.19127677381038666 0.19127677381038666 0.19127677381038666
0.20692594349384308 0.20692594349384308 0.20692594349384308
0.2335163801908493 0.2335163801908493 0.2335163801908493
0.26892676949501038 0.26892676949501038 0.26892676949501038
0.30903589725494385 0.30903589725494385 0.30903589725494385
0.35192763805389404 0.35192763805389404 0.35192763805389404
0.39708599448204041 0.39708599448204041 0.39708599448204041
0.44547253847122192 0.44547253847122192 0.44547253847122192
0.4986092746257782 0.4986092746257782 0.4986092746257782
0.55717295408248901 0.55717295408248901 0.55717295408248901
0.62060165405273438 0.62060165405273438 0.62060165405273438
0.24975338578224182 0.24975338578224182 0.24975338578224182
0.25114989280700684 0.25114989280700684 0.25114989280700684
0.2549755871295929 0.2549755871295929 0.2549755871295929
0.26556068658828735 0.26556068658828735 0.26556068658828735
0.28484901785850525 0.28484901785850525 0.28484901785850525
0.31179776787757874 0.31179776787757874 0.31179776787757874
0.34451949596405029 0.34451949596405029 0.34451949596405029
0.3817535936832428 0.3817535936832428 0.3817535936832428
0.42331293225288391 0.42331293225288391 0.42331293225288391
0.47043102979660034 0.47043102979660034 0.47043102979660034
0.52464908361434937 0.52464908361434937 0.52464908361434937
0.58548939228057861 0.58548939228057861 0.58548939228057861
0.65087813138961792 0.65087813138961792 0.65087813138961792
0.31202107667922974 0.31202107667922974 0.31202107667922974
0.31436818838119507 0.31436818838119507 0.31436818838119507
0.31796145439147949 0.31796145439147949 0.31796145439147949
0.32563045620918274 0.32563045620918274 0.32563045620918274
0.33919760584831238 0.33919760584831238 0.33919760584831238
0.35935208201408386 0.35935208201408386 0.35935208201408386
0.38510257005691528 0.38510257005691528 0.38510257005691528
0.41634318232536316 0.41634318232536316 0.41634318232536316
0.45319339632987976 0.45319339632987976 0.45319339632987976
0.49739021062850952 0.49739021062850952 0.49739021062850952
0.55129224061965942 0.55129224061965942 0.55129224061965942
0.6143794059753418 0.6143794059753418 0.6143794059753418
0.68235576152801514 0.68235576152801514 0.68235576152801514
0.37281531095504761 0.37281531095504761 0.37281531095504761
0.37628915905952454 0.37628915905952454 0.37628915905952454
0.38119828701019287 0.38119828701019287 0.38119828701019287
0.38779968023300171 0.38779968023300171 0.38779968023300171
0.39806845784187317 0.39806845784187317 0.39806845784187317
0.41306588053703308 0.41306588053703308 0.41306588053703308
0.43301701545715332 0.43301701545715332 0.43301701545715332
0.45799556374549866 0.45799556374549866 0.45799556374549866
0.4888666570186615 0.4888666570186615 0.4888666570186615
0.52785223722457886 0.52785223722457886 0.52785223722457886
0.57897132635116577 0.57897132635116577 0.57897132635116577
0.64281356334686279 0.64281356334686279 0.64281356334686279
0.71295839548110962 0.71295839548110962 0.71295839548110962
0.43684908747673035 0.43684908747673035 0.43684908747673035
0.44226199388504028 0.44226199388504028 0.44226199388504028
0.44906497001647949 0.44906497001647949 0.44906497001647949
0.45617955923080444 0.45617955923080444 0.45617955923080444
0.4644569456577301 0.4644569456577301 0.4644569456577301
0.4760526716709137 0.4760526716709137 0.4760526716709137
0.4915461540222168 0.4915461540222168 0.4915461540222168
0.51143991947174072 0.51143991947174072 0.51143991947174072
0.53553831577301025 0.53553831577301025 0.53553831577301025
0.56670820713043213 0.56670820713043213 0.56670820713043213
0.61101752519607544 0.61101752519607544 0.61101752519607544
0.6719052791595459 0.6719052791595459 0.6719052791595459
0.74013924598693848 0.74013924598693848 0.74013924598693848
0.51243042945861816 0.51243042945861816 0.51243042945861816
0.51920688152313232 0.51920688152313232 0.51920688152313232
0.52717673778533936 0.52717673778533936 0.52717673778533936
0.53442203998565674 0.53442203998565674 0.53442203998565674
0.54180324077606201 0.54180324077606201 0.54180324077606201
0.55129778385162354 0.55129778385162354 0.55129778385162354
0.5642208456993103 0.5642208456993103 0.5642208456993103
0.58023059368133545 0.58023059368133545 0.58023059368133545
0.59904283285140991 0.59904283285140991 0.59904283285140991
0.62283313274383545 0.62283313274383545 0.62283313274383545
0.65805554389953613 0.65805554389953613 0.65805554389953613
0.71209526062011719 0.71209526062011719 0.71209526062011719
0.77210474014282227 0.77210474014282227 0.77210474014282227
0.60718321800231934 0.60718321800231934 0.60718321800231934
0.61205810308456421 0.61205810308456421 0.61205810308456421
0.61819791793823242 0.61819791793823242 0.61819791793823242
0.62441772222518921 0.62441772222518921 0.62441772222518921
0.63062024116516113 0.63062024116516113 0.63062024116516113
0.6394304633140564 0.6394304633140564 0.6394304633140564
0.65113657712936401 0.65113657712936401 0.65113657712936401
0.66565841436386108 0.66565841436386108 0.66565841436386108
0.6834108829498291 0.6834108829498291 0.6834108829498291
0.70415091514587402 0.70415091514587402 0.70415091514587402
0.73310285806655884 0.73310285806655884 0.73310285806655884
0.77319622039794922 0.77319622039794922 0.77319622039794922
0.81851768493652344 0.81851768493652344 0.81851768493652344
0.7167208194732666 0.7167208194732666 0.7167208194732666
0.71791458129882812 0.71791458129882812 0.71791458129882812
0.72024828195571899 0.72024828195571899 0.72024828195571899
0.7236865758895874 0.7236865758895874 0.7236865758895874
0.72889053821563721 0.72889053821563721 0.72889053821563721
0.7366604208946228 0.7366604208946228 0.7366604208946228
0.74806606769561768 0.74806606769561768 0.74806606769561768
0.76270830631256104 0.76270830631256104 0.76270830631256104
0.7800447940826416 0.7800447940826416 0.7800447940826416
0.80056077241897583 0.80056077241897583 0.80056077241897583
0.82505154609680176 0.82505154609680176 0.82505154609680176
0.84888184070587158 0.84888184070587158 0.84888184070587158
0.87558764219284058 0.87558764219284058 0.87558764219284058
0.83032315969467163 0.83032315969467163 0.83032315969467163
0.82818603515625 0.82818603515625 0.82818603515625
0.8272128701210022 0.8272128701210022 0.8272128701210022
0.82771843671798706 0.82771843671798706 0.82771843671798706
0.83116263151168823 0.83116263151168823 0.83116263151168823
0.83819276094436646 0.83819276094436646 0.83819276094436646
0.84907257556915283 0.84907257556915283 0.84907257556915283
0.86294549703598022 0.86294549703598022 0.86294549703598022
0.87852615118026733 0.87852615118026733 0.87852615118026733
0.8957173228263855 0.8957173228263855 0.8957173228263855
0.9136921763420105 0.9136921763420105 0.9136921763420105
0.92533797025680542 0.92533797025680542 0.92533797025680542
0.9374077320098877 0.9374077320098877 0.9374077320098877
0.048010554164648056 0.048010554164648056 0.048010554164648056
0.050500713288784027 0.050500713288784027 0.050500713288784027
0.062593124806880951 0.062593124806880951 0.062593124806880951
0.086781986057758331 0.086781986057758331 0.086781986057758331
0.12400075793266296 0.12400075793266296 0.12400075793266296
0.17345172166824341 0.17345172166824341 0.17345172166824341
0.23113162815570831 0.23113162815570831 0.23113162815570831
0.28918704390525818 0.28918704390525818 0.28918704390525818
0.34173345565795898 0.34173345565795898 0.34173345565795898
0.3910466730594635 0.3910466730594635 0.3910466730594635
0.4412187933921814 0.4412187933921814 0.4412187933921814
0.49566346406936646 0.49566346406936646 0.49566346406936646
0.5570407509803772 0.5570407509803772 0.5570407509803772
0.056574128568172455 0.056574128568172455 0.056574128568172455
0.060108888894319534 0.060108888894319534 0.060108888894319534
0.073531955480575562 0.073531955480575562 0.073531955480575562
0.099314413964748383 0.099314413964748383 0.099314413964748383
0.13813871145248413 0.13813871145248413 0.13813871145248413
0.18826735019683838 0.18826735019683838 0.18826735019683838
0.24475187063217163 0.24475187063217163 0.24475187063217163
0.30069473385810852 0.30069473385810852 0.30069473385810852
0.3520209789276123 0.3520209789276123 0.3520209789276123
0.39978131651878357 0.39978131651878357 0.39978131651878357
0.44797870516777039 0.44797870516777039 0.44797870516777039
0.49902015924453735 0.49902015924453735 0.49902015924453735
0.55971884727478027 0.55971884727478027 0.55971884727478027
0.084675595164299011 0.084675595164299011 0.084675595164299011
0.089178897440433502 0.089178897440433502 0.089178897440433502
0.10270112007856369 0.10270112007856369 0.10270112007856369
0.12785722315311432 0.12785722315311432 0.12785722315311432
0.16630652546882629 0.16630652546882629 0.16630652546882629
0.21450777351856232 0.21450777351856232 0.21450777351856232
0.26711732149124146 0.26711732149124146 0.26711732149124146
0.31882759928703308 0.31882759928703308 0.31882759928703308
0.36744451522827148 0.36744451522827148 0.36744451522827148
0.41394999623298645 0.41394999623298645 0.41394999623298645
0.46126380562782288 0.46126380562782288 0.46126380562782288
0.51205849647521973 0.51205849647521973 0.51205849647521973
0.57234001159667969 0.57234001159667969 0.57234001159667969
0.13645239174365997 0.13645239174365997 0.13645239174365997
0.14095456898212433 0.14095456898212433 0.14095456898212433
0.1515812873840332 0.1515812873840332 0.1515812873840332
0.1730174720287323 0.1730174720287323 0.1730174720287323
0.20672200620174408 0.20672200620174408 0.20672200620174408
0.24924147129058838 0.24924147129058838 0.24924147129058838
0.29587388038635254 0.29587388038635254 0.29587388038635254
0.34231409430503845 0.34231409430503845 0.34231409430503845
0.38773560523986816 0.38773560523986816 0.38773560523986816
0.43367686867713928 0.43367686867713928 0.43367686867713928
0.48212093114852905 0.48212093114852905 0.48212093114852905
0.53528749942779541 0.53528749942779541 0.53528749942779541
0.59612196683883667 0.59612196683883667 0.59612196683883667
0.2046392410993576 0.2046392410993576 0.2046392410993576
0.20830132067203522 0.20830132067203522 0.20830132067203522
0.21426750719547272 0.21426750719547272 0.21426750719547272
0.22864645719528198 0.22864645719528198 0.22864645719528198
0.25399032235145569 0.25399032235145569 0.25399032235145569
0.28832638263702393 0.28832638263702393 0.28832638263702393
0.32746383547782898 0.32746383547782898 0.32746383547782898
0.3684992790222168 0.3684992790222168 0.3684992790222168
0.41120269894599915 0.41120269894599915 0.41120269894599915
0.4568554162979126 0.4568554162979126 0.4568554162979126
0.50714421272277832 0.50714421272277832 0.50714421272277832
0.5629584789276123 0.5629584789276123 0.5629584789276123
0.62476450204849243 0.62476450204849243 0.62476450204849243
0.2738892138004303 0.2738892138004303 0.2738892138004303
0.27705663442611694 0.27705663442611694 0.27705663442611694
0.27924612164497375 0.27924612164497375 0.27924612164497375
0.28706079721450806 0.28706079721450806 0.28706079721450806
0.30407369136810303 0.30407369136810303 0.30407369136810303
0.32954436540603638 0.32954436540603638 0.32954436540603638
0.36092385649681091 0.36092385649681091 0.36092385649681091
0.39663922786712646 0.39663922786712646 0.39663922786712646
0.43635678291320801 0.43635678291320801 0.43635678291320801
0.48143362998962402 0.48143362998962402 0.48143362998962402
0.53298908472061157 0.53298908472061157 0.53298908472061157
0.591300368309021 0.591300368309021 0.591300368309021
0.65441250801086426 0.65441250801086426 0.65441250801086426
0.33522149920463562 0.33522149920463562 0.33522149920463562
0.33880451321601868 0.33880451321601868 0.33880451321601868
0.34030905365943909 0.34030905365943909 0.34030905365943909
0.34476163983345032 0.34476163983345032 0.34476163983345032
0.35561227798461914 0.35561227798461914 0.35561227798461914
0.3736177384853363 0.3736177384853363 0.3736177384853363
0.39834696054458618 0.39834696054458618 0.39834696054458618
0.42841732501983643 0.42841732501983643 0.42841732501983643
0.46438774466514587 0.46438774466514587 0.46438774466514587
0.50715833902359009 0.50715833902359009 0.50715833902359009
0.55878138542175293 0.55878138542175293 0.55878138542175293
0.61883854866027832 0.61883854866027832 0.61883854866027832
0.68372488021850586 0.68372488021850586 0.68372488021850586
0.39159592986106873 0.39159592986106873 0.39159592986106873
0.39629775285720825 0.39629775285720825 0.39629775285720825
0.3995688259601593 0.3995688259601593 0.3995688259601593
0.40319469571113586 0.40319469571113586 0.40319469571113586
0.41066268086433411 0.41066268086433411 0.41066268086433411
0.42341619729995728 0.42341619729995728 0.42341619729995728
0.44242456555366516 0.44242456555366516 0.44242456555366516
0.46712967753410339 0.46712967753410339 0.46712967753410339
0.49800422787666321 0.49800422787666321 0.49800422787666321
0.53662705421447754 0.53662705421447754 0.53662705421447754
0.58592158555984497 0.58592158555984497 0.58592158555984497
0.64602643251419067 0.64602643251419067 0.64602643251419067
0.71179115772247314 0.71179115772247314 0.71179115772247314
0.44966492056846619 0.44966492056846619 0.44966492056846619
0.4566093385219574 0.4566093385219574 0.4566093385219574
0.46266460418701172 0.46266460418701172 0.46266460418701172
0.46722015738487244 0.46722015738487244 0.46722015738487244
0.47282159328460693 0.47282159328460693 0.47282159328460693
0.48237866163253784 0.48237866163253784 0.48237866163253784
0.49731400609016418 0.49731400609016418 0.49731400609016418
0.51762819290161133 0.51762819290161133 0.51762819290161133
0.54293781518936157 0.54293781518936157 0.54293781518936157
0.57529222965240479 0.57529222965240479 0.57529222965240479
0.61922657489776611 0.61922657489776611 0.61922657489776611
0.67615872621536255 0.67615872621536255 0.67615872621536255
0.73972791433334351 0.73972791433334351 0.73972791433334351
0.51855319738388062 0.51855319738388062 0.51855319738388062
0.52763485908508301 0.52763485908508301 0.52763485908508301
0.53587937355041504 0.53587937355041504 0.53587937355041504
0.54159975051879883 0.54159975051879883 0.54159975051879883
0.54672306776046753 0.54672306776046753 0.54672306776046753
0.55459487438201904 0.55459487438201904 0.55459487438201904
0.56715089082717896 0.56715089082717896 0.56715089082717896
0.58439451456069946 0.58439451456069946 0.58439451456069946
0.60535609722137451 0.60535609722137451 0.60535609722137451
0.63162249326705933 0.63162249326705933 0.63162249326705933
0.66841608285903931 0.66841608285903931 0.66841608285903931
0.7177855372428894 0.7177855372428894 0.7177855372428894
0.77412384748458862 0.77412384748458862 0.77412384748458862
0.60801339149475098 0.60801339149475098 0.60801339149475098
0.61539602279663086 0.61539602279663086 0.61539602279663086
0.62310647964477539 0.62310647964477539 0.62310647964477539
0.62875372171401978 0.62875372171401978 0.62875372171401978
0.63388991355895996 0.63388991355895996 0.63388991355895996
0.64119511842727661 0.64119511842727661 0.64119511842727661
0.65276908874511719 0.65276908874511719 0.65276908874511719
0.66841518878936768 0.66841518878936768 0.66841518878936768
0.6872704029083252 0.6872704029083252 0.6872704029083252
0.7102542519569397 0.7102542519569397 0.7102542519569397
0.74010682106018066 0.74010682106018066 0.74010682106018066
0.77759373188018799 0.77759373188018799 0.77759373188018799
0.82091057300567627 0.82091057300567627 0.82091057300567627
0.71394795179367065 0.71394795179367065 0.71394795179367065
0.71799862384796143 0.71799862384796143 0.71799862384796143
0.72246783971786499 0.72246783971786499 0.72246783971786499
0.72659003734588623 0.72659003734588623 0.72659003734588623
0.73130267858505249 0.73130267858505249 0.73130267858505249
0.73855143785476685 0.73855143785476685 0.73855143785476685
0.74956363439559937 0.74956363439559937 0.74956363439559937
0.76435881853103638 0.76435881853103638 0.76435881853103638
0.78228247165679932 0.78228247165679932 0.78228247165679932
0.80323642492294312 0.80323642492294312 0.80323642492294312
0.82625889778137207 0.82625889778137207 0.82625889778137207
0.85055720806121826 0.85055720806121826 0.85055720806121826
0.8782966136932373 0.8782966136932373 0.8782966136932373
0.82504665851593018 0.82504665851593018 0.82504665851593018
0.82646739482879639 0.82646739482879639 0.82646739482879639
0.82775783538818359 0.82775783538818359 0.82775783538818359
0.82963055372238159 0.82963055372238159 0.82963055372238159
0.83335393667221069 0.83335393667221069 0.83335393667221069
0.83992505073547363 0.83992505073547363 0.83992505073547363
0.85025739669799805 0.85025739669799805 0.85025739669799805
0.86372017860412598 0.86372017860412598 0.86372017860412598
0.87978434562683105 0.87978434562683105 0.87978434562683105
0.89667046070098877 0.89667046070098877 0.89667046070098877
0.9128652811050415 0.9128652811050415 0.9128652811050415
0.92601865530014038 0.92601865530014038 0.92601865530014038
0.94110715389251709 0.94110715389251709 0.94110715389251709
0.05652974545955658 0.05652974545955658 0.05652974545955658
0.06249510869383812 0.06249510869383812 0.06249510869383812
0.077133521437644958 0.077133521437644958 0.077133521437644958
0.10063494741916656 0.10063494741916656 0.10063494741916656
0.13481862843036652 0.13481862843036652 0.13481862843036652
0.18253651261329651 0.18253651261329651 0.18253651261329651
0.24109534919261932 0.24109534919261932 0.24109534919261932
0.3004925549030304 0.3004925549030304 0.3004925549030304
0.35126107931137085 0.35126107931137085 0.35126107931137085
0.39925932884216309 0.39925932884216309 0.39925932884216309
0.44840690493583679 0.44840690493583679 0.44840690493583679
0.50189757347106934 0.50189757347106934 0.50189757347106934
0.56193655729293823 0.56193655729293823 0.56193655729293823
0.065152548253536224 0.065152548253536224 0.065152548253536224
0.074493929743766785 0.074493929743766785 0.074493929743766785
0.091933198273181915 0.091933198273181915 0.091933198273181915
0.11787869036197662 0.11787869036197662 0.11787869036197662
0.15389935672283173 0.15389935672283173 0.15389935672283173
0.20162594318389893 0.20162594318389893 0.20162594318389893
0.25783434510231018 0.25783434510231018 0.25783434510231018
0.31375914812088013 0.31375914812088013 0.31375914812088013
0.36406815052032471 0.36406815052032471 0.36406815052032471
0.41089087724685669 0.41089087724685669 0.41089087724685669
0.45820719003677368 0.45820719003677368 0.45820719003677368
0.50893419981002808 0.50893419981002808 0.50893419981002808
0.56844037771224976 0.56844037771224976 0.56844037771224976
0.094215825200080872 0.094215825200080872 0.094215825200080872
0.10691846907138824 0.10691846907138824 0.10691846907138824
0.12607878446578979 0.12607878446578979 0.12607878446578979
0.15254196524620056 0.15254196524620056 0.15254196524620056
0.18893624842166901 0.18893624842166901 0.18893624842166901
0.23489093780517578 0.23489093780517578 0.23489093780517578
0.28647983074188232 0.28647983074188232 0.28647983074188232
0.3361223042011261 0.3361223042011261 0.3361223042011261
0.38229286670684814 0.38229286670684814 0.38229286670684814
0.42743909358978271 0.42743909358978271 0.42743909358978271
0.47389084100723267 0.47389084100723267 0.47389084100723267
0.52414673566818237 0.52414673566818237 0.52414673566818237
0.58360964059829712 0.58360964059829712 0.58360964059829712
0.15175342559814453 0.15175342559814453 0.15175342559814453
0.16349485516548157 0.16349485516548157 0.16349485516548157
0.17894653975963593 0.17894653975963593 0.17894653975963593
0.20110546052455902 0.20110546052455902 0.20110546052455902
0.23331896960735321 0.23331896960735321 0.23331896960735321
0.27456161379814148 0.27456161379814148 0.27456161379814148
0.31969660520553589 0.31969660520553589 0.31969660520553589
0.36304453015327454 0.36304453015327454 0.36304453015327454
0.40512129664421082 0.40512129664421082 0.40512129664421082
0.44905349612236023 0.44905349612236023 0.44905349612236023
0.49619364738464355 0.49619364738464355 0.49619364738464355
0.54831200838088989 0.54831200838088989 0.54831200838088989
0.6077648401260376 0.6077648401260376 0.6077648401260376
0.22829514741897583 0.22829514741897583 0.22829514741897583
0.23615966737270355 0.23615966737270355 0.23615966737270355
0.2428077906370163 0.2428077906370163 0.2428077906370163
0.25691598653793335 0.25691598653793335 0.25691598653793335
0.28100952506065369 0.28100952506065369 0.28100952506065369
0.31374436616897583 0.31374436616897583 0.31374436616897583
0.35132536292076111 0.35132536292076111 0.35132536292076111
0.38988766074180603 0.38988766074180603 0.38988766074180603
