luts/negative_old/ilford_delta_3200_++.cube
# Created by: G'MIC (https://gmic.eu)
TITLE "ilford_delta_3200_++"
# LUT size
LUT_3D_SIZE 7
# Data domain
DOMAIN_MIN 0.0 0.0 0.0
DOMAIN_MAX 1.0 1.0 1.0
# LUT data points
0.1398332267999649 0.1398332267999649 0.1398332267999649
0.14067409932613373 0.14067409932613373 0.14067409932613373
0.15736971795558929 0.15736971795558929 0.15736971795558929
0.18825112283229828 0.18825112283229828 0.18825112283229828
0.23497004806995392 0.23497004806995392 0.23497004806995392
0.30943253636360168 0.30943253636360168 0.30943253636360168
0.42805182933807373 0.42805182933807373 0.42805182933807373
0.15854285657405853 0.15854285657405853 0.15854285657405853
0.16392067074775696 0.16392067074775696 0.16392067074775696
0.18902920186519623 0.18902920186519623 0.18902920186519623
0.23164264857769012 0.23164264857769012 0.23164264857769012
0.2851947546005249 0.2851947546005249 0.2851947546005249
0.3522028923034668 0.3522028923034668 0.3522028923034668
0.46518337726593018 0.46518337726593018 0.46518337726593018
0.20674920082092285 0.20674920082092285 0.20674920082092285
0.21380537748336792 0.21380537748336792 0.21380537748336792
0.24695473909378052 0.24695473909378052 0.24695473909378052
0.30609527230262756 0.30609527230262756 0.30609527230262756
0.38000506162643433 0.38000506162643433 0.38000506162643433
0.45317724347114563 0.45317724347114563 0.45317724347114563
0.55120468139648438 0.55120468139648438 0.55120468139648438
0.29077985882759094 0.29077985882759094 0.29077985882759094
0.29546710848808289 0.29546710848808289 0.29546710848808289
0.32784619927406311 0.32784619927406311 0.32784619927406311
0.39017042517662048 0.39017042517662048 0.39017042517662048
0.4647291898727417 0.4647291898727417 0.4647291898727417
0.54680830240249634 0.54680830240249634 0.54680830240249634
0.64703273773193359 0.64703273773193359 0.64703273773193359
0.41764453053474426 0.41764453053474426 0.41764453053474426
0.42074227333068848 0.42074227333068848 0.42074227333068848
0.44410976767539978 0.44410976767539978 0.44410976767539978
0.4916437566280365 0.4916437566280365 0.4916437566280365
0.5478706955909729 0.5478706955909729 0.5478706955909729
0.61695963144302368 0.61695963144302368 0.61695963144302368
0.71381145715713501 0.71381145715713501 0.71381145715713501
0.58986389636993408 0.58986389636993408 0.58986389636993408
0.58932256698608398 0.58932256698608398 0.58932256698608398
0.60192102193832397 0.60192102193832397 0.60192102193832397
0.63250929117202759 0.63250929117202759 0.63250929117202759
0.66947025060653687 0.66947025060653687 0.66947025060653687
0.71391797065734863 0.71391797065734863 0.71391797065734863
0.78472167253494263 0.78472167253494263 0.78472167253494263
0.78548109531402588 0.78548109531402588 0.78548109531402588
0.77723467350006104 0.77723467350006104 0.77723467350006104
0.78336435556411743 0.78336435556411743 0.78336435556411743
0.80614066123962402 0.80614066123962402 0.80614066123962402
0.83214795589447021 0.83214795589447021 0.83214795589447021
0.85548913478851318 0.85548913478851318 0.85548913478851318
0.89036500453948975 0.89036500453948975 0.89036500453948975
0.13709810376167297 0.13709810376167297 0.13709810376167297
0.14749127626419067 0.14749127626419067 0.14749127626419067
0.17160172760486603 0.17160172760486603 0.17160172760486603
0.20223051309585571 0.20223051309585571 0.20223051309585571
0.24816866219043732 0.24816866219043732 0.24816866219043732
0.32700341939926147 0.32700341939926147 0.32700341939926147
0.43956223130226135 0.43956223130226135 0.43956223130226135
0.15954382717609406 0.15954382717609406 0.15954382717609406
0.17188036441802979 0.17188036441802979 0.17188036441802979
0.20242796838283539 0.20242796838283539 0.20242796838283539
0.24268233776092529 0.24268233776092529 0.24268233776092529
0.29532986879348755 0.29532986879348755 0.29532986879348755
0.37179222702980042 0.37179222702980042 0.37179222702980042
0.47772464156150818 0.47772464156150818 0.47772464156150818
0.21861468255519867 0.21861468255519867 0.21861468255519867
0.23266634345054626 0.23266634345054626 0.23266634345054626
0.2688957154750824 0.2688957154750824 0.2688957154750824
0.32173824310302734 0.32173824310302734 0.32173824310302734
0.38868799805641174 0.38868799805641174 0.38868799805641174
0.46669283509254456 0.46669283509254456 0.46669283509254456
0.56025058031082153 0.56025058031082153 0.56025058031082153
0.32373103499412537 0.32373103499412537 0.32373103499412537
0.33477824926376343 0.33477824926376343 0.33477824926376343
0.36425462365150452 0.36425462365150452 0.36425462365150452
0.41615834832191467 0.41615834832191467 0.41615834832191467
0.48583260178565979 0.48583260178565979 0.48583260178565979
0.5665745735168457 0.5665745735168457 0.5665745735168457
0.66072672605514526 0.66072672605514526 0.66072672605514526
0.457418292760849 0.457418292760849 0.457418292760849
0.46338820457458496 0.46338820457458496 0.46338820457458496
0.47804313898086548 0.47804313898086548 0.47804313898086548
0.51297688484191895 0.51297688484191895 0.51297688484191895
0.56518620252609253 0.56518620252609253 0.56518620252609253
0.63094455003738403 0.63094455003738403 0.63094455003738403
0.72644519805908203 0.72644519805908203 0.72644519805908203
0.60352557897567749 0.60352557897567749 0.60352557897567749
0.61078459024429321 0.61078459024429321 0.61078459024429321
0.61635595560073853 0.61635595560073853 0.61635595560073853
0.63668715953826904 0.63668715953826904 0.63668715953826904
0.67717856168746948 0.67717856168746948 0.67717856168746948
0.72461581230163574 0.72461581230163574 0.72461581230163574
0.79649502038955688 0.79649502038955688 0.79649502038955688
0.78162187337875366 0.78162187337875366 0.78162187337875366
0.78319984674453735 0.78319984674453735 0.78319984674453735
0.78618496656417847 0.78618496656417847 0.78618496656417847
0.80310142040252686 0.80310142040252686 0.80310142040252686
0.83631986379623413 0.83631986379623413 0.83631986379623413
0.87180006504058838 0.87180006504058838 0.87180006504058838
0.90472608804702759 0.90472608804702759 0.90472608804702759
0.15267446637153625 0.15267446637153625 0.15267446637153625
0.17469297349452972 0.17469297349452972 0.17469297349452972
0.21209795773029327 0.21209795773029327 0.21209795773029327
0.23997582495212555 0.23997582495212555 0.23997582495212555
0.27679687738418579 0.27679687738418579 0.27679687738418579
0.35998785495758057 0.35998785495758057 0.35998785495758057
0.46995556354522705 0.46995556354522705 0.46995556354522705
0.17508748173713684 0.17508748173713684 0.17508748173713684
0.19590608775615692 0.19590608775615692 0.19590608775615692
0.23724628984928131 0.23724628984928131 0.23724628984928131
0.27128508687019348 0.27128508687019348 0.27128508687019348
0.31305587291717529 0.31305587291717529 0.31305587291717529
0.39557331800460815 0.39557331800460815 0.39557331800460815
0.49620881676673889 0.49620881676673889 0.49620881676673889
0.23668113350868225 0.23668113350868225 0.23668113350868225
0.25902381539344788 0.25902381539344788 0.25902381539344788
0.30641502141952515 0.30641502141952515 0.30641502141952515
0.35110378265380859 0.35110378265380859 0.35110378265380859
0.40380999445915222 0.40380999445915222 0.40380999445915222
0.47800400853157043 0.47800400853157043 0.47800400853157043
0.55855995416641235 0.55855995416641235 0.55855995416641235
0.35750937461853027 0.35750937461853027 0.35750937461853027
0.37912595272064209 0.37912595272064209 0.37912595272064209
0.41537803411483765 0.41537803411483765 0.41537803411483765
0.45551237463951111 0.45551237463951111 0.45551237463951111
0.51796120405197144 0.51796120405197144 0.51796120405197144
0.5879407525062561 0.5879407525062561 0.5879407525062561
0.65423321723937988 0.65423321723937988 0.65423321723937988
0.51009798049926758 0.51009798049926758 0.51009798049926758
0.51709699630737305 0.51709699630737305 0.51709699630737305
0.52752178907394409 0.52752178907394409 0.52752178907394409
0.55303019285202026 0.55303019285202026 0.55303019285202026
0.60101628303527832 0.60101628303527832 0.60101628303527832
0.65859806537628174 0.65859806537628174 0.65859806537628174
0.73249280452728271 0.73249280452728271 0.73249280452728271
0.64112555980682373 0.64112555980682373 0.64112555980682373
0.65038347244262695 0.65038347244262695 0.65038347244262695
0.65022736787796021 0.65022736787796021 0.65022736787796021
0.66199517250061035 0.66199517250061035 0.66199517250061035
0.70143634080886841 0.70143634080886841 0.70143634080886841
0.7468496561050415 0.7468496561050415 0.7468496561050415
0.81228268146514893 0.81228268146514893 0.81228268146514893
0.80029845237731934 0.80029845237731934 0.80029845237731934
0.80498367547988892 0.80498367547988892 0.80498367547988892
0.80497568845748901 0.80497568845748901 0.80497568845748901
0.81508862972259521 0.81508862972259521 0.81508862972259521
0.84378987550735474 0.84378987550735474 0.84378987550735474
0.8775901198387146 0.8775901198387146 0.8775901198387146
0.91647011041641235 0.91647011041641235 0.91647011041641235
0.19718846678733826 0.19718846678733826 0.19718846678733826
0.22827969491481781 0.22827969491481781 0.22827969491481781
0.28030523657798767 0.28030523657798767 0.28030523657798767
0.31936922669410706 0.31936922669410706 0.31936922669410706
0.3329213559627533 0.3329213559627533 0.3329213559627533
0.41221266984939575 0.41221266984939575 0.41221266984939575
0.52025097608566284 0.52025097608566284 0.52025097608566284
0.22433851659297943 0.22433851659297943 0.22433851659297943
0.24963124096393585 0.24963124096393585 0.24963124096393585
0.30291590094566345 0.30291590094566345 0.30291590094566345
0.34648615121841431 0.34648615121841431 0.34648615121841431
0.36202928423881531 0.36202928423881531 0.36202928423881531
0.44113349914550781 0.44113349914550781 0.44113349914550781
0.53713381290435791 0.53713381290435791 0.53713381290435791
0.27356100082397461 0.27356100082397461 0.27356100082397461
0.30177775025367737 0.30177775025367737 0.30177775025367737
0.36456757783889771 0.36456757783889771 0.36456757783889771
0.41254466772079468 0.41254466772079468 0.41254466772079468
0.43821960687637329 0.43821960687637329 0.43821960687637329
0.50313502550125122 0.50313502550125122 0.50313502550125122
0.57779675722122192 0.57779675722122192 0.57779675722122192
0.36087486147880554 0.36087486147880554 0.36087486147880554
0.40535697340965271 0.40535697340965271 0.40535697340965271
0.45807978510856628 0.45807978510856628 0.45807978510856628
0.5010981559753418 0.5010981559753418 0.5010981559753418
0.54848551750183105 0.54848551750183105 0.54848551750183105
0.60426831245422363 0.60426831245422363 0.60426831245422363
0.66246891021728516 0.66246891021728516 0.66246891021728516
0.5141531229019165 0.5141531229019165 0.5141531229019165
0.53984725475311279 0.53984725475311279 0.53984725475311279
0.56525862216949463 0.56525862216949463 0.56525862216949463
0.59674912691116333 0.59674912691116333 0.59674912691116333
0.64176970720291138 0.64176970720291138 0.64176970720291138
0.69305920600891113 0.69305920600891113 0.69305920600891113
0.75086170434951782 0.75086170434951782 0.75086170434951782
0.67143529653549194 0.67143529653549194 0.67143529653549194
0.68199700117111206 0.68199700117111206 0.68199700117111206
0.68966668844223022 0.68966668844223022 0.68966668844223022
0.70913326740264893 0.70913326740264893 0.70913326740264893
0.74205046892166138 0.74205046892166138 0.74205046892166138
0.78312629461288452 0.78312629461288452 0.78312629461288452
0.83666068315505981 0.83666068315505981 0.83666068315505981
0.82871490716934204 0.82871490716934204 0.82871490716934204
0.83226966857910156 0.83226966857910156 0.83226966857910156
0.83470958471298218 0.83470958471298218 0.83470958471298218
0.84615564346313477 0.84615564346313477 0.84615564346313477
0.86371302604675293 0.86371302604675293 0.86371302604675293
0.88934838771820068 0.88934838771820068 0.88934838771820068
0.92670696973800659 0.92670696973800659 0.92670696973800659
0.28197255730628967 0.28197255730628967 0.28197255730628967
0.31769007444381714 0.31769007444381714 0.31769007444381714
0.37227445840835571 0.37227445840835571 0.37227445840835571
0.44099175930023193 0.44099175930023193 0.44099175930023193
0.46116176247596741 0.46116176247596741 0.46116176247596741
0.48367536067962646 0.48367536067962646 0.48367536067962646
0.57030165195465088 0.57030165195465088 0.57030165195465088
0.32669976353645325 0.32669976353645325 0.32669976353645325
0.34684184193611145 0.34684184193611145 0.34684184193611145
0.39039677381515503 0.39039677381515503 0.39039677381515503
0.46080830693244934 0.46080830693244934 0.46080830693244934
0.48718371987342834 0.48718371987342834 0.48718371987342834
0.50776451826095581 0.50776451826095581 0.50776451826095581
0.59252035617828369 0.59252035617828369 0.59252035617828369
0.37726864218711853 0.37726864218711853 0.37726864218711853
0.39787560701370239 0.39787560701370239 0.39787560701370239
0.44876152276992798 0.44876152276992798 0.44876152276992798
0.51396465301513672 0.51396465301513672 0.51396465301513672
0.54643708467483521 0.54643708467483521 0.54643708467483521
0.56680059432983398 0.56680059432983398 0.56680059432983398
0.63114982843399048 0.63114982843399048 0.63114982843399048
0.40577030181884766 0.40577030181884766 0.40577030181884766
0.45496264100074768 0.45496264100074768 0.45496264100074768
0.50806283950805664 0.50806283950805664 0.50806283950805664
0.56386727094650269 0.56386727094650269 0.56386727094650269
0.61102402210235596 0.61102402210235596 0.61102402210235596
0.64670372009277344 0.64670372009277344 0.64670372009277344
0.6916467547416687 0.6916467547416687 0.6916467547416687
0.53230011463165283 0.53230011463165283 0.53230011463165283
0.55435711145401001 0.55435711145401001 0.55435711145401001
0.58601289987564087 0.58601289987564087 0.58601289987564087
0.63093680143356323 0.63093680143356323 0.63093680143356323
0.67990821599960327 0.67990821599960327 0.67990821599960327
0.72756636142730713 0.72756636142730713 0.72756636142730713
0.77833682298660278 0.77833682298660278 0.77833682298660278
0.67803502082824707 0.67803502082824707 0.67803502082824707
0.69023346900939941 0.69023346900939941 0.69023346900939941
0.7055627703666687 0.7055627703666687 0.7055627703666687
0.73523586988449097 0.73523586988449097 0.73523586988449097
0.76839923858642578 0.76839923858642578 0.76839923858642578
0.80937588214874268 0.80937588214874268 0.80937588214874268
0.8613961935043335 0.8613961935043335 0.8613961935043335
0.83186846971511841 0.83186846971511841 0.83186846971511841
0.84091836214065552 0.84091836214065552 0.84091836214065552
0.84854143857955933 0.84854143857955933 0.84854143857955933
0.86554908752441406 0.86554908752441406 0.86554908752441406
0.87535792589187622 0.87535792589187622 0.87535792589187622
0.89497452974319458 0.89497452974319458 0.89497452974319458
0.93032336235046387 0.93032336235046387 0.93032336235046387
0.43435701727867126 0.43435701727867126 0.43435701727867126
0.45982283353805542 0.45982283353805542 0.45982283353805542
0.5001070499420166 0.5001070499420166 0.5001070499420166
0.5617794394493103 0.5617794394493103 0.5617794394493103
0.61644935607910156 0.61644935607910156 0.61644935607910156
0.62545937299728394 0.62545937299728394 0.62545937299728394
0.63666850328445435 0.63666850328445435 0.63666850328445435
0.4636070728302002 0.4636070728302002 0.4636070728302002
0.48513174057006836 0.48513174057006836 0.48513174057006836
0.51552605628967285 0.51552605628967285 0.51552605628967285
0.5751383900642395 0.5751383900642395 0.5751383900642395
0.62220662832260132 0.62220662832260132 0.62220662832260132
0.62959825992584229 0.62959825992584229 0.62959825992584229
0.65751105546951294 0.65751105546951294 0.65751105546951294
0.50630748271942139 0.50630748271942139 0.50630748271942139
0.52773892879486084 0.52773892879486084 0.52773892879486084
0.56416386365890503 0.56416386365890503 0.56416386365890503
0.62203776836395264 0.62203776836395264 0.62203776836395264
0.66794782876968384 0.66794782876968384 0.66794782876968384
0.6670336127281189 0.6670336127281189 0.6670336127281189
0.68410801887512207 0.68410801887512207 0.68410801887512207
0.51718097925186157 0.51718097925186157 0.51718097925186157
0.54960215091705322 0.54960215091705322 0.54960215091705322
0.59095519781112671 0.59095519781112671 0.59095519781112671
0.64908194541931152 0.64908194541931152 0.64908194541931152
0.69828206300735474 0.69828206300735474 0.69828206300735474
0.72101348638534546 0.72101348638534546 0.72101348638534546
0.74062865972518921 0.74062865972518921 0.74062865972518921
0.56826192140579224 0.56826192140579224 0.56826192140579224
0.58740568161010742 0.58740568161010742 0.58740568161010742
0.61213630437850952 0.61213630437850952 0.61213630437850952
0.66852104663848877 0.66852104663848877 0.66852104663848877
0.72556388378143311 0.72556388378143311 0.72556388378143311
0.77340662479400635 0.77340662479400635 0.77340662479400635
0.81599158048629761 0.81599158048629761 0.81599158048629761
0.6813657283782959 0.6813657283782959 0.6813657283782959
0.69254207611083984 0.69254207611083984 0.69254207611083984
0.70594316720962524 0.70594316720962524 0.70594316720962524
0.73852932453155518 0.73852932453155518 0.73852932453155518
0.78037190437316895 0.78037190437316895 0.78037190437316895
0.82544636726379395 0.82544636726379395 0.82544636726379395
0.87335389852523804 0.87335389852523804 0.87335389852523804
0.82289725542068481 0.82289725542068481 0.82289725542068481
0.83683377504348755 0.83683377504348755 0.83683377504348755
0.8423302173614502 0.8423302173614502 0.8423302173614502
0.85380691289901733 0.85380691289901733 0.85380691289901733
0.86829996109008789 0.86829996109008789 0.86829996109008789
0.88863933086395264 0.88863933086395264 0.88863933086395264
0.92136287689208984 0.92136287689208984 0.92136287689208984
0.63487964868545532 0.63487964868545532 0.63487964868545532
0.64512556791305542 0.64512556791305542 0.64512556791305542
0.66778028011322021 0.66778028011322021 0.66778028011322021
0.70316481590270996 0.70316481590270996 0.70316481590270996
0.74816113710403442 0.74816113710403442 0.74816113710403442
0.80437004566192627 0.80437004566192627 0.80437004566192627
0.81394630670547485 0.81394630670547485 0.81394630670547485
0.64523947238922119 0.64523947238922119 0.64523947238922119
0.66303294897079468 0.66303294897079468 0.66303294897079468
0.6862485408782959 0.6862485408782959 0.6862485408782959
0.72151857614517212 0.72151857614517212 0.72151857614517212
0.7637706995010376 0.7637706995010376 0.7637706995010376
0.80308443307876587 0.80308443307876587 0.80308443307876587
0.81169700622558594 0.81169700622558594 0.81169700622558594
0.67443966865539551 0.67443966865539551 0.67443966865539551
0.69450592994689941 0.69450592994689941 0.69450592994689941
0.72072708606719971 0.72072708606719971 0.72072708606719971
0.75748968124389648 0.75748968124389648 0.75748968124389648
0.79201215505599976 0.79201215505599976 0.79201215505599976
0.80883240699768066 0.80883240699768066 0.80883240699768066
0.81629455089569092 0.81629455089569092 0.81629455089569092
0.6846349835395813 0.6846349835395813 0.6846349835395813
0.70262551307678223 0.70262551307678223 0.70262551307678223
0.73390692472457886 0.73390692472457886 0.73390692472457886
0.7738376259803772 0.7738376259803772 0.7738376259803772
0.80728054046630859 0.80728054046630859 0.80728054046630859
0.83679050207138062 0.83679050207138062 0.83679050207138062
0.85559529066085815 0.85559529066085815 0.85559529066085815
0.66635441780090332 0.66635441780090332 0.66635441780090332
0.68741285800933838 0.68741285800933838 0.68741285800933838
0.71140897274017334 0.71140897274017334 0.71140897274017334
0.75937211513519287 0.75937211513519287 0.75937211513519287
0.80288165807723999 0.80288165807723999 0.80288165807723999
0.84861963987350464 0.84861963987350464 0.84861963987350464
0.88470911979675293 0.88470911979675293 0.88470911979675293
0.73146152496337891 0.73146152496337891 0.73146152496337891
0.73951238393783569 0.73951238393783569 0.73951238393783569
0.75331264734268188 0.75331264734268188 0.75331264734268188
0.77986419200897217 0.77986419200897217 0.77986419200897217
0.81878489255905151 0.81878489255905151 0.81878489255905151
0.86001330614089966 0.86001330614089966 0.86001330614089966
0.89875888824462891 0.89875888824462891 0.89875888824462891
0.84066641330718994 0.84066641330718994 0.84066641330718994
0.84890025854110718 0.84890025854110718 0.84890025854110718
0.85648983716964722 0.85648983716964722 0.85648983716964722
0.86624222993850708 0.86624222993850708 0.86624222993850708
0.88139581680297852 0.88139581680297852 0.88139581680297852
0.8987305760383606 0.8987305760383606 0.8987305760383606
0.92310154438018799 0.92310154438018799 0.92310154438018799
