luts/negative_old/ilford_delta_3200.cube
# Created by: G'MIC (https://gmic.eu)
TITLE "ilford_delta_3200"
# LUT size
LUT_3D_SIZE 5
# Data domain
DOMAIN_MIN 0.0 0.0 0.0
DOMAIN_MAX 1.0 1.0 1.0
# LUT data points
0.068100720643997192 0.068100720643997192 0.068100720643997192
0.080438308417797089 0.080438308417797089 0.080438308417797089
0.17748802900314331 0.17748802900314331 0.17748802900314331
0.36297410726547241 0.36297410726547241 0.36297410726547241
0.57031285762786865 0.57031285762786865 0.57031285762786865
0.11420703679323196 0.11420703679323196 0.11420703679323196
0.1515115350484848 0.1515115350484848 0.1515115350484848
0.252545565366745 0.252545565366745 0.252545565366745
0.41291055083274841 0.41291055083274841 0.41291055083274841
0.59454190731048584 0.59454190731048584 0.59454190731048584
0.28826114535331726 0.28826114535331726 0.28826114535331726
0.30607390403747559 0.30607390403747559 0.30607390403747559
0.37823367118835449 0.37823367118835449 0.37823367118835449
0.51291698217391968 0.51291698217391968 0.51291698217391968
0.68232220411300659 0.68232220411300659 0.68232220411300659
0.51648849248886108 0.51648849248886108 0.51648849248886108
0.53640460968017578 0.53640460968017578 0.53640460968017578
0.57156515121459961 0.57156515121459961 0.57156515121459961
0.63918352127075195 0.63918352127075195 0.63918352127075195
0.78249019384384155 0.78249019384384155 0.78249019384384155
0.8399200439453125 0.8399200439453125 0.8399200439453125
0.85045307874679565 0.85045307874679565 0.85045307874679565
0.85376852750778198 0.85376852750778198 0.85376852750778198
0.89306908845901489 0.89306908845901489 0.89306908845901489
0.93800842761993408 0.93800842761993408 0.93800842761993408
0.090345732867717743 0.090345732867717743 0.090345732867717743
0.11438129097223282 0.11438129097223282 0.11438129097223282
0.21979117393493652 0.21979117393493652 0.21979117393493652
0.39991450309753418 0.39991450309753418 0.39991450309753418
0.59785360097885132 0.59785360097885132 0.59785360097885132
0.17441622912883759 0.17441622912883759 0.17441622912883759
0.21772721409797668 0.21772721409797668 0.21772721409797668
0.32143417000770569 0.32143417000770569 0.32143417000770569
0.46871978044509888 0.46871978044509888 0.46871978044509888
0.63764864206314087 0.63764864206314087 0.63764864206314087
0.36903655529022217 0.36903655529022217 0.36903655529022217
0.391550213098526 0.391550213098526 0.391550213098526
0.4449273943901062 0.4449273943901062 0.4449273943901062
0.54731267690658569 0.54731267690658569 0.54731267690658569
0.70746022462844849 0.70746022462844849 0.70746022462844849
0.57379031181335449 0.57379031181335449 0.57379031181335449
0.58807027339935303 0.58807027339935303 0.58807027339935303
0.6123688817024231 0.6123688817024231 0.6123688817024231
0.66856801509857178 0.66856801509857178 0.66856801509857178
0.79819780588150024 0.79819780588150024 0.79819780588150024
0.85540485382080078 0.85540485382080078 0.85540485382080078
0.8531983494758606 0.8531983494758606 0.8531983494758606
0.86535501480102539 0.86535501480102539 0.86535501480102539
0.90327233076095581 0.90327233076095581 0.90327233076095581
0.95451086759567261 0.95451086759567261 0.95451086759567261
0.18385569751262665 0.18385569751262665 0.18385569751262665
0.23250888288021088 0.23250888288021088 0.23250888288021088
0.33134150505065918 0.33134150505065918 0.33134150505065918
0.43667823076248169 0.43667823076248169 0.43667823076248169
0.65392923355102539 0.65392923355102539 0.65392923355102539
0.27496996521949768 0.27496996521949768 0.27496996521949768
0.33785024285316467 0.33785024285316467 0.33785024285316467
0.40221872925758362 0.40221872925758362 0.40221872925758362
0.51798754930496216 0.51798754930496216 0.51798754930496216
0.70451003313064575 0.70451003313064575 0.70451003313064575
0.37902194261550903 0.37902194261550903 0.37902194261550903
0.4476291835308075 0.4476291835308075 0.4476291835308075
0.53321588039398193 0.53321588039398193 0.53321588039398193
0.62175768613815308 0.62175768613815308 0.62175768613815308
0.76873224973678589 0.76873224973678589 0.76873224973678589
0.6080508828163147 0.6080508828163147 0.6080508828163147
0.6565585732460022 0.6565585732460022 0.6565585732460022
0.69465655088424683 0.69465655088424683 0.69465655088424683
0.7228398323059082 0.7228398323059082 0.7228398323059082
0.83675730228424072 0.83675730228424072 0.83675730228424072
0.89261490106582642 0.89261490106582642 0.89261490106582642
0.89500051736831665 0.89500051736831665 0.89500051736831665
0.90858083963394165 0.90858083963394165 0.90858083963394165
0.91492897272109985 0.91492897272109985 0.91492897272109985
0.96251493692398071 0.96251493692398071 0.96251493692398071
0.39826172590255737 0.39826172590255737 0.39826172590255737
0.4400639533996582 0.4400639533996582 0.4400639533996582
0.54011911153793335 0.54011911153793335 0.54011911153793335
0.57939893007278442 0.57939893007278442 0.57939893007278442
0.69133889675140381 0.69133889675140381 0.69133889675140381
0.48319521546363831 0.48319521546363831 0.48319521546363831
0.50067669153213501 0.50067669153213501 0.50067669153213501
0.57736021280288696 0.57736021280288696 0.57736021280288696
0.63230746984481812 0.63230746984481812 0.63230746984481812
0.73133713006973267 0.73133713006973267 0.73133713006973267
0.5045202374458313 0.5045202374458313 0.5045202374458313
0.55817848443984985 0.55817848443984985 0.55817848443984985
0.63946020603179932 0.63946020603179932 0.63946020603179932
0.70131224393844604 0.70131224393844604 0.70131224393844604
0.80936688184738159 0.80936688184738159 0.80936688184738159
0.63444191217422485 0.63444191217422485 0.63444191217422485
0.66925323009490967 0.66925323009490967 0.66925323009490967
0.73052990436553955 0.73052990436553955 0.73052990436553955
0.80303996801376343 0.80303996801376343 0.80303996801376343
0.8909727931022644 0.8909727931022644 0.8909727931022644
0.86858505010604858 0.86858505010604858 0.86858505010604858
0.88115143775939941 0.88115143775939941 0.88115143775939941
0.9136807918548584 0.9136807918548584 0.9136807918548584
0.93369960784912109 0.93369960784912109 0.93369960784912109
0.97506916522979736 0.97506916522979736 0.97506916522979736
0.72320407629013062 0.72320407629013062 0.72320407629013062
0.73957496881484985 0.73957496881484985 0.73957496881484985
0.7713736891746521 0.7713736891746521 0.7713736891746521
0.83577823638916016 0.83577823638916016 0.83577823638916016
0.86288976669311523 0.86288976669311523 0.86288976669311523
0.75953406095504761 0.75953406095504761 0.75953406095504761
0.76362419128417969 0.76362419128417969 0.76362419128417969
0.79731738567352295 0.79731738567352295 0.79731738567352295
0.8666234016418457 0.8666234016418457 0.8666234016418457
0.87234282493591309 0.87234282493591309 0.87234282493591309
0.76442712545394897 0.76442712545394897 0.76442712545394897
0.77503395080566406 0.77503395080566406 0.77503395080566406
0.81551593542098999 0.81551593542098999 0.81551593542098999
0.88181871175765991 0.88181871175765991 0.88181871175765991
0.90503263473510742 0.90503263473510742 0.90503263473510742
0.79405492544174194 0.79405492544174194 0.79405492544174194
0.80657958984375 0.80657958984375 0.80657958984375
0.84093880653381348 0.84093880653381348 0.84093880653381348
0.90947765111923218 0.90947765111923218 0.90947765111923218
0.9467654824256897 0.9467654824256897 0.9467654824256897
0.90853720903396606 0.90853720903396606 0.90853720903396606
0.91739392280578613 0.91739392280578613 0.91739392280578613
0.92674261331558228 0.92674261331558228 0.92674261331558228
0.96223276853561401 0.96223276853561401 0.96223276853561401
0.98275494575500488 0.98275494575500488 0.98275494575500488
