luts/negative_old/ilford_delta_3200_++.cube
# Created by: G'MIC (https://gmic.eu)
TITLE "ilford_delta_3200_++"
# LUT size
LUT_3D_SIZE 13
# Data domain
DOMAIN_MIN 0.0 0.0 0.0
DOMAIN_MAX 1.0 1.0 1.0
# LUT data points
0.1398332267999649 0.1398332267999649 0.1398332267999649
0.13862767815589905 0.13862767815589905 0.13862767815589905
0.14067409932613373 0.14067409932613373 0.14067409932613373
0.1470542699098587 0.1470542699098587 0.1470542699098587
0.15736971795558929 0.15736971795558929 0.15736971795558929
0.171099454164505 0.171099454164505 0.171099454164505
0.18825112283229828 0.18825112283229828 0.18825112283229828
0.20932063460350037 0.20932063460350037 0.20932063460350037
0.23497004806995392 0.23497004806995392 0.23497004806995392
0.26717099547386169 0.26717099547386169 0.26717099547386169
0.30943253636360168 0.30943253636360168 0.30943253636360168
0.36432364583015442 0.36432364583015442 0.36432364583015442
0.42805182933807373 0.42805182933807373 0.42805182933807373
0.146449014544487 0.146449014544487 0.146449014544487
0.14596821367740631 0.14596821367740631 0.14596821367740631
0.14944657683372498 0.14944657683372498 0.14944657683372498
0.15743719041347504 0.15743719041347504 0.15743719041347504
0.16967311501502991 0.16967311501502991 0.16967311501502991
0.18621858954429626 0.18621858954429626 0.18621858954429626
0.20563758909702301 0.20563758909702301 0.20563758909702301
0.22750715911388397 0.22750715911388397 0.22750715911388397
0.25300294160842896 0.25300294160842896 0.25300294160842896
0.28303518891334534 0.28303518891334534 0.28303518891334534
0.3216877281665802 0.3216877281665802 0.3216877281665802
0.37577715516090393 0.37577715516090393 0.37577715516090393
0.44004061818122864 0.44004061818122864 0.44004061818122864
0.15854285657405853 0.15854285657405853 0.15854285657405853
0.15902571380138397 0.15902571380138397 0.15902571380138397
0.16392067074775696 0.16392067074775696 0.16392067074775696
0.17378108203411102 0.17378108203411102 0.17378108203411102
0.18902920186519623 0.18902920186519623 0.18902920186519623
0.20832157135009766 0.20832157135009766 0.20832157135009766
0.23164264857769012 0.23164264857769012 0.23164264857769012
0.25756627321243286 0.25756627321243286 0.25756627321243286
0.2851947546005249 0.2851947546005249 0.2851947546005249
0.31506869196891785 0.31506869196891785 0.31506869196891785
0.3522028923034668 0.3522028923034668 0.3522028923034668
0.40347418189048767 0.40347418189048767 0.40347418189048767
0.46518337726593018 0.46518337726593018 0.46518337726593018
0.17836387455463409 0.17836387455463409 0.17836387455463409
0.17902292311191559 0.17902292311191559 0.17902292311191559
0.18515133857727051 0.18515133857727051 0.18515133857727051
0.19711926579475403 0.19711926579475403 0.19711926579475403
0.21496047079563141 0.21496047079563141 0.21496047079563141
0.23836047947406769 0.23836047947406769 0.23836047947406769
0.26646926999092102 0.26646926999092102 0.26646926999092102
0.29771861433982849 0.29771861433982849 0.29771861433982849
0.32996323704719543 0.32996323704719543 0.32996323704719543
0.36239355802536011 0.36239355802536011 0.36239355802536011
0.39987799525260925 0.39987799525260925 0.39987799525260925
0.44766205549240112 0.44766205549240112 0.44766205549240112
0.50380891561508179 0.50380891561508179 0.50380891561508179
0.20674920082092285 0.20674920082092285 0.20674920082092285
0.20728085935115814 0.20728085935115814 0.20728085935115814
0.21380537748336792 0.21380537748336792 0.21380537748336792
0.22688598930835724 0.22688598930835724 0.22688598930835724
0.24695473909378052 0.24695473909378052 0.24695473909378052
0.27371707558631897 0.27371707558631897 0.27371707558631897
0.30609527230262756 0.30609527230262756 0.30609527230262756
0.34261533617973328 0.34261533617973328 0.34261533617973328
0.38000506162643433 0.38000506162643433 0.38000506162643433
0.41494980454444885 0.41494980454444885 0.41494980454444885
0.45317724347114563 0.45317724347114563 0.45317724347114563
0.49892199039459229 0.49892199039459229 0.49892199039459229
0.55120468139648438 0.55120468139648438 0.55120468139648438
0.24410171806812286 0.24410171806812286 0.24410171806812286
0.24429149925708771 0.24429149925708771 0.24429149925708771
0.25018733739852905 0.25018733739852905 0.25018733739852905
0.26332011818885803 0.26332011818885803 0.26332011818885803
0.28452387452125549 0.28452387452125549 0.28452387452125549
0.31293046474456787 0.31293046474456787 0.31293046474456787
0.34753355383872986 0.34753355383872986 0.34753355383872986
0.38592866063117981 0.38592866063117981 0.38592866063117981
0.42508351802825928 0.42508351802825928 0.42508351802825928
0.46296417713165283 0.46296417713165283 0.46296417713165283
0.50354200601577759 0.50354200601577759 0.50354200601577759
0.55041706562042236 0.55041706562042236 0.55041706562042236
0.60101962089538574 0.60101962089538574 0.60101962089538574
0.29077985882759094 0.29077985882759094 0.29077985882759094
0.29063495993614197 0.29063495993614197 0.29063495993614197
0.29546710848808289 0.29546710848808289 0.29546710848808289
0.30704301595687866 0.30704301595687866 0.30704301595687866
0.32784619927406311 0.32784619927406311 0.32784619927406311
0.35654506087303162 0.35654506087303162 0.35654506087303162
0.39017042517662048 0.39017042517662048 0.39017042517662048
0.42691752314567566 0.42691752314567566 0.42691752314567566
0.4647291898727417 0.4647291898727417 0.4647291898727417
0.50393599271774292 0.50393599271774292 0.50393599271774292
0.54680830240249634 0.54680830240249634 0.54680830240249634
0.59534114599227905 0.59534114599227905 0.59534114599227905
0.64703273773193359 0.64703273773193359 0.64703273773193359
0.34797877073287964 0.34797877073287964 0.34797877073287964
0.34781506657600403 0.34781506657600403 0.34781506657600403
0.35165894031524658 0.35165894031524658 0.35165894031524658
0.36092016100883484 0.36092016100883484 0.36092016100883484
0.38004472851753235 0.38004472851753235 0.38004472851753235
0.40647348761558533 0.40647348761558533 0.40647348761558533
0.43714654445648193 0.43714654445648193 0.43714654445648193
0.46995845437049866 0.46995845437049866 0.46995845437049866
0.50429892539978027 0.50429892539978027 0.50429892539978027
0.54109561443328857 0.54109561443328857 0.54109561443328857
0.5831419825553894 0.5831419825553894 0.5831419825553894
0.63206732273101807 0.63206732273101807 0.63206732273101807
0.68410396575927734 0.68410396575927734 0.68410396575927734
0.41764453053474426 0.41764453053474426 0.41764453053474426
0.41736456751823425 0.41736456751823425 0.41736456751823425
0.42074227333068848 0.42074227333068848 0.42074227333068848
0.42887943983078003 0.42887943983078003 0.42887943983078003
0.44410976767539978 0.44410976767539978 0.44410976767539978
0.46597635746002197 0.46597635746002197 0.46597635746002197
0.4916437566280365 0.4916437566280365 0.4916437566280365
0.51914465427398682 0.51914465427398682 0.51914465427398682
0.5478706955909729 0.5478706955909729 0.5478706955909729
0.57927966117858887 0.57927966117858887 0.57927966117858887
0.61695963144302368 0.61695963144302368 0.61695963144302368
0.66332852840423584 0.66332852840423584 0.66332852840423584
0.71381145715713501 0.71381145715713501 0.71381145715713501
0.49946761131286621 0.49946761131286621 0.49946761131286621
0.49860069155693054 0.49860069155693054 0.49860069155693054
0.50092178583145142 0.50092178583145142 0.50092178583145142
0.5072091817855835 0.5072091817855835 0.5072091817855835
0.51896518468856812 0.51896518468856812 0.51896518468856812
0.53594017028808594 0.53594017028808594 0.53594017028808594
0.5564844012260437 0.5564844012260437 0.5564844012260437
0.57863056659698486 0.57863056659698486 0.57863056659698486
0.60174953937530518 0.60174953937530518 0.60174953937530518
0.62646001577377319 0.62646001577377319 0.62646001577377319
0.65758895874023438 0.65758895874023438 0.65758895874023438
0.69879090785980225 0.69879090785980225 0.69879090785980225
0.74498283863067627 0.74498283863067627 0.74498283863067627
0.58986389636993408 0.58986389636993408 0.58986389636993408
0.58847987651824951 0.58847987651824951 0.58847987651824951
0.58932256698608398 0.58932256698608398 0.58932256698608398
0.59329241514205933 0.59329241514205933 0.59329241514205933
0.60192102193832397 0.60192102193832397 0.60192102193832397
0.61520636081695557 0.61520636081695557 0.61520636081695557
0.63250929117202759 0.63250929117202759 0.63250929117202759
0.65157097578048706 0.65157097578048706 0.65157097578048706
0.66947025060653687 0.66947025060653687 0.66947025060653687
0.6892927885055542 0.6892927885055542 0.6892927885055542
0.71391797065734863 0.71391797065734863 0.71391797065734863
0.74658787250518799 0.74658787250518799 0.74658787250518799
0.78472167253494263 0.78472167253494263 0.78472167253494263
0.68651151657104492 0.68651151657104492 0.68651151657104492
0.6843145489692688 0.6843145489692688 0.6843145489692688
0.68262684345245361 0.68262684345245361 0.68262684345245361
0.68499743938446045 0.68499743938446045 0.68499743938446045
0.69136160612106323 0.69136160612106323 0.69136160612106323
0.70207095146179199 0.70207095146179199 0.70207095146179199
0.71710300445556641 0.71710300445556641 0.71710300445556641
0.73308533430099487 0.73308533430099487 0.73308533430099487
0.74871283769607544 0.74871283769607544 0.74871283769607544
0.76451760530471802 0.76451760530471802 0.76451760530471802
0.78264307975769043 0.78264307975769043 0.78264307975769043
0.80539393424987793 0.80539393424987793 0.80539393424987793
0.83405804634094238 0.83405804634094238 0.83405804634094238
0.78548109531402588 0.78548109531402588 0.78548109531402588
0.78115272521972656 0.78115272521972656 0.78115272521972656
0.77723467350006104 0.77723467350006104 0.77723467350006104
0.77829468250274658 0.77829468250274658 0.77829468250274658
0.78336435556411743 0.78336435556411743 0.78336435556411743
0.7927621603012085 0.7927621603012085 0.7927621603012085
0.80614066123962402 0.80614066123962402 0.80614066123962402
0.8205609917640686 0.8205609917640686 0.8205609917640686
0.83214795589447021 0.83214795589447021 0.83214795589447021
0.8433157205581665 0.8433157205581665 0.8433157205581665
0.85548913478851318 0.85548913478851318 0.85548913478851318
0.87034285068511963 0.87034285068511963 0.87034285068511963
0.89036500453948975 0.89036500453948975 0.89036500453948975
0.13687179982662201 0.13687179982662201 0.13687179982662201
0.13785092532634735 0.13785092532634735 0.13785092532634735
0.14216563105583191 0.14216563105583191 0.14216563105583191
0.15042604506015778 0.15042604506015778 0.15042604506015778
0.16180025041103363 0.16180025041103363 0.16180025041103363
0.17585818469524384 0.17585818469524384 0.17585818469524384
0.19291885197162628 0.19291885197162628 0.19291885197162628
0.21344617009162903 0.21344617009162903 0.21344617009162903
0.23930412530899048 0.23930412530899048 0.23930412530899048
0.27262508869171143 0.27262508869171143 0.27262508869171143
0.31579434871673584 0.31579434871673584 0.31579434871673584
0.36981281638145447 0.36981281638145447 0.36981281638145447
0.43161895871162415 0.43161895871162415 0.43161895871162415
0.14415574073791504 0.14415574073791504 0.14415574073791504
0.14522728323936462 0.14522728323936462 0.14522728323936462
0.15091845393180847 0.15091845393180847 0.15091845393180847
0.16044408082962036 0.16044408082962036 0.16044408082962036
0.17379215359687805 0.17379215359687805 0.17379215359687805
0.19011619687080383 0.19011619687080383 0.19011619687080383
0.20895276963710785 0.20895276963710785 0.20895276963710785
0.23114198446273804 0.23114198446273804 0.23114198446273804
0.25723803043365479 0.25723803043365479 0.25723803043365479
0.28922650218009949 0.28922650218009949 0.28922650218009949
0.33053600788116455 0.33053600788116455 0.33053600788116455
0.38360360264778137 0.38360360264778137 0.38360360264778137
0.44497829675674438 0.44497829675674438 0.44497829675674438
0.15708449482917786 0.15708449482917786 0.15708449482917786
0.15942965447902679 0.15942965447902679 0.15942965447902679
0.16612999141216278 0.16612999141216278 0.16612999141216278
0.17765755951404572 0.17765755951404572 0.17765755951404572
0.19337010383605957 0.19337010383605957 0.19337010383605957
0.21302458643913269 0.21302458643913269 0.21302458643913269
0.23548430204391479 0.23548430204391479 0.23548430204391479
0.26098519563674927 0.26098519563674927 0.26098519563674927
0.28919672966003418 0.28919672966003418 0.28919672966003418
0.32151305675506592 0.32151305675506592 0.32151305675506592
0.36120492219924927 0.36120492219924927 0.36120492219924927
0.41165474057197571 0.41165474057197571 0.41165474057197571
0.4705810546875 0.4705810546875 0.4705810546875
0.17928057909011841 0.17928057909011841 0.17928057909011841
0.1817297488451004 0.1817297488451004 0.1817297488451004
0.18923613429069519 0.18923613429069519 0.18923613429069519
0.20242594182491302 0.20242594182491302 0.20242594182491302
0.22096258401870728 0.22096258401870728 0.22096258401870728
0.24404832720756531 0.24404832720756531 0.24404832720756531
0.27119272947311401 0.27119272947311401 0.27119272947311401
0.30137106776237488 0.30137106776237488 0.30137106776237488
0.33365800976753235 0.33365800976753235 0.33365800976753235
0.36772730946540833 0.36772730946540833 0.36772730946540833
0.40692785382270813 0.40692785382270813 0.40692785382270813
0.45443159341812134 0.45443159341812134 0.45443159341812134
0.50899142026901245 0.50899142026901245 0.50899142026901245
0.21092495322227478 0.21092495322227478 0.21092495322227478
0.21332959830760956 0.21332959830760956 0.21332959830760956
0.22120414674282074 0.22120414674282074 0.22120414674282074
0.23517857491970062 0.23517857491970062 0.23517857491970062
0.25556647777557373 0.25556647777557373 0.25556647777557373
0.28183385729789734 0.28183385729789734 0.28183385729789734
0.31260883808135986 0.31260883808135986 0.31260883808135986
0.3473753035068512 0.3473753035068512 0.3473753035068512
0.38381034135818481 0.38381034135818481 0.38381034135818481
0.42031267285346985 0.42031267285346985 0.42031267285346985
0.46008408069610596 0.46008408069610596 0.46008408069610596
0.50605148077011108 0.50605148077011108 0.50605148077011108
0.55717259645462036 0.55717259645462036 0.55717259645462036
0.25272798538208008 0.25272798538208008 0.25272798538208008
0.25461298227310181 0.25461298227310181 0.25461298227310181
0.26207789778709412 0.26207789778709412 0.26207789778709412
0.27574515342712402 0.27574515342712402 0.27574515342712402
0.29637238383293152 0.29637238383293152 0.29637238383293152
0.32354745268821716 0.32354745268821716 0.32354745268821716
0.35626500844955444 0.35626500844955444 0.35626500844955444
0.39298412203788757 0.39298412203788757 0.39298412203788757
0.4314243495464325 0.4314243495464325 0.4314243495464325
0.47039845585823059 0.47039845585823059 0.47039845585823059
0.5121309757232666 0.5121309757232666 0.5121309757232666
0.55887007713317871 0.55887007713317871 0.55887007713317871
0.60904103517532349 0.60904103517532349 0.60904103517532349
0.30394041538238525 0.30394041538238525 0.30394041538238525
0.30560332536697388 0.30560332536697388 0.30560332536697388
0.31170845031738281 0.31170845031738281 0.31170845031738281
0.32356840372085571 0.32356840372085571 0.32356840372085571
0.34285688400268555 0.34285688400268555 0.34285688400268555
0.36900144815444946 0.36900144815444946 0.36900144815444946
0.40080675482749939 0.40080675482749939 0.40080675482749939
0.43627229332923889 0.43627229332923889 0.43627229332923889
0.47385534644126892 0.47385534644126892 0.47385534644126892
0.51334959268569946 0.51334959268569946 0.51334959268569946
0.5568045973777771 0.5568045973777771 0.5568045973777771
0.60594910383224487 0.60594910383224487 0.60594910383224487
0.65812492370605469 0.65812492370605469 0.65812492370605469
0.36432093381881714 0.36432093381881714 0.36432093381881714
0.36587667465209961 0.36587667465209961 0.36587667465209961
0.37018945813179016 0.37018945813179016 0.37018945813179016
0.37948882579803467 0.37948882579803467 0.37948882579803467
0.39571243524551392 0.39571243524551392 0.39571243524551392
0.41939535737037659 0.41939535737037659 0.41939535737037659
0.4475502073764801 0.4475502073764801 0.4475502073764801
0.4791572093963623 0.4791572093963623 0.4791572093963623
0.5131152868270874 0.5131152868270874 0.5131152868270874
0.54998135566711426 0.54998135566711426 0.54998135566711426
0.59238946437835693 0.59238946437835693 0.59238946437835693
0.64243942499160767 0.64243942499160767 0.64243942499160767
0.69593244791030884 0.69593244791030884 0.69593244791030884
0.43329784274101257 0.43329784274101257 0.43329784274101257
0.43433693051338196 0.43433693051338196 0.43433693051338196
0.43801763653755188 0.43801763653755188 0.43801763653755188
0.44496327638626099 0.44496327638626099 0.44496327638626099
0.45760154724121094 0.45760154724121094 0.45760154724121094
0.47630992531776428 0.47630992531776428 0.47630992531776428
0.49972105026245117 0.49972105026245117 0.49972105026245117
0.52630114555358887 0.52630114555358887 0.52630114555358887
0.55447924137115479 0.55447924137115479 0.55447924137115479
0.58582764863967896 0.58582764863967896 0.58582764863967896
0.62401694059371948 0.62401694059371948 0.62401694059371948
0.67114841938018799 0.67114841938018799 0.67114841938018799
0.72241640090942383 0.72241640090942383 0.72241640090942383
0.51031023263931274 0.51031023263931274 0.51031023263931274
0.51066571474075317 0.51066571474075317 0.51066571474075317
0.51383006572723389 0.51383006572723389 0.51383006572723389
0.51900428533554077 0.51900428533554077 0.51900428533554077
0.52816051244735718 0.52816051244735718 0.52816051244735718
0.54203975200653076 0.54203975200653076 0.54203975200653076
0.56088161468505859 0.56088161468505859 0.56088161468505859
0.58269751071929932 0.58269751071929932 0.58269751071929932
0.60595160722732544 0.60595160722732544 0.60595160722732544
0.63126248121261597 0.63126248121261597 0.63126248121261597
0.6630861759185791 0.6630861759185791 0.6630861759185791
0.70459097623825073 0.70459097623825073 0.70459097623825073
0.75129204988479614 0.75129204988479614 0.75129204988479614
0.59454083442687988 0.59454083442687988 0.59454083442687988
0.59500706195831299 0.59500706195831299 0.59500706195831299
0.59700220823287964 0.59700220823287964 0.59700220823287964
0.60052049160003662 0.60052049160003662 0.60052049160003662
0.60693639516830444 0.60693639516830444 0.60693639516830444
0.61774402856826782 0.61774402856826782 0.61774402856826782
0.63303548097610474 0.63303548097610474 0.63303548097610474
0.65197193622589111 0.65197193622589111 0.65197193622589111
0.67219942808151245 0.67219942808151245 0.67219942808151245
0.69372564554214478 0.69372564554214478 0.69372564554214478
0.71936565637588501 0.71936565637588501 0.71936565637588501
0.75227701663970947 0.75227701663970947 0.75227701663970947
0.79036879539489746 0.79036879539489746 0.79036879539489746
0.68592244386672974 0.68592244386672974 0.68592244386672974
0.68566030263900757 0.68566030263900757 0.68566030263900757
0.68645799160003662 0.68645799160003662 0.68645799160003662
0.68842405080795288 0.68842405080795288 0.68842405080795288
0.69319897890090942 0.69319897890090942 0.69319897890090942
0.70233267545700073 0.70233267545700073 0.70233267545700073
0.71618854999542236 0.71618854999542236 0.71618854999542236
0.73318278789520264 0.73318278789520264 0.73318278789520264
0.75126892328262329 0.75126892328262329 0.75126892328262329
0.77013486623764038 0.77013486623764038 0.77013486623764038
0.79012978076934814 0.79012978076934814 0.79012978076934814
0.81257718801498413 0.81257718801498413 0.81257718801498413
0.84024763107299805 0.84024763107299805 0.84024763107299805
0.78163617849349976 0.78163617849349976 0.78163617849349976
0.78052961826324463 0.78052961826324463 0.78052961826324463
0.7789924144744873 0.7789924144744873 0.7789924144744873
0.77964955568313599 0.77964955568313599 0.77964955568313599
0.78358596563339233 0.78358596563339233 0.78358596563339233
0.7918505072593689 0.7918505072593689 0.7918505072593689
0.80438709259033203 0.80438709259033203 0.80438709259033203
0.81940209865570068 0.81940209865570068 0.81940209865570068
0.83449357748031616 0.83449357748031616 0.83449357748031616
0.84952187538146973 0.84952187538146973 0.84952187538146973
0.86387240886688232 0.86387240886688232 0.86387240886688232
0.87800520658493042 0.87800520658493042 0.87800520658493042
0.89708453416824341 0.89708453416824341 0.89708453416824341
0.13709810376167297 0.13709810376167297 0.13709810376167297
0.14025451242923737 0.14025451242923737 0.14025451242923737
0.14749127626419067 0.14749127626419067 0.14749127626419067
0.15860579907894135 0.15860579907894135 0.15860579907894135
0.17160172760486603 0.17160172760486603 0.17160172760486603
0.18618294596672058 0.18618294596672058 0.18618294596672058
0.20223051309585571 0.20223051309585571 0.20223051309585571
0.222026526927948 0.222026526927948 0.222026526927948
0.24816866219043732 0.24816866219043732 0.24816866219043732
0.28262320160865784 0.28262320160865784 0.28262320160865784
0.32700341939926147 0.32700341939926147 0.32700341939926147
0.38023734092712402 0.38023734092712402 0.38023734092712402
0.43956223130226135 0.43956223130226135 0.43956223130226135
0.14462614059448242 0.14462614059448242 0.14462614059448242
0.14790602028369904 0.14790602028369904 0.14790602028369904
0.15602709352970123 0.15602709352970123 0.15602709352970123
0.16814978420734406 0.16814978420734406 0.16814978420734406
0.1828317791223526 0.1828317791223526 0.1828317791223526
0.19916807115077972 0.19916807115077972 0.19916807115077972
0.21691733598709106 0.21691733598709106 0.21691733598709106
0.23821809887886047 0.23821809887886047 0.23821809887886047
0.26481282711029053 0.26481282711029053 0.26481282711029053
0.29932969808578491 0.29932969808578491 0.29932969808578491
0.34249782562255859 0.34249782562255859 0.34249782562255859
0.3946627676486969 0.3946627676486969 0.3946627676486969
0.45345494151115417 0.45345494151115417 0.45345494151115417
0.15954382717609406 0.15954382717609406 0.15954382717609406
0.16295935213565826 0.16295935213565826 0.16295935213565826
0.17188036441802979 0.17188036441802979 0.17188036441802979
0.1855902373790741 0.1855902373790741 0.1855902373790741
0.20242796838283539 0.20242796838283539 0.20242796838283539
0.22151933610439301 0.22151933610439301 0.22151933610439301
0.24268233776092529 0.24268233776092529 0.24268233776092529
0.26672849059104919 0.26672849059104919 0.26672849059104919
0.29532986879348755 0.29532986879348755 0.29532986879348755
0.32977285981178284 0.32977285981178284 0.32977285981178284
0.37179222702980042 0.37179222702980042 0.37179222702980042
0.42164987325668335 0.42164987325668335 0.42164987325668335
0.47772464156150818 0.47772464156150818 0.47772464156150818
0.18339082598686218 0.18339082598686218 0.18339082598686218
0.18726418912410736 0.18726418912410736 0.18726418912410736
0.19695281982421875 0.19695281982421875 0.19695281982421875
0.21197153627872467 0.21197153627872467 0.21197153627872467
0.23119786381721497 0.23119786381721497 0.23119786381721497
0.25355207920074463 0.25355207920074463 0.25355207920074463
0.27855578064918518 0.27855578064918518 0.27855578064918518
0.30653318762779236 0.30653318762779236 0.30653318762779236
0.33824348449707031 0.33824348449707031 0.33824348449707031
0.37384974956512451 0.37384974956512451 0.37384974956512451
0.4147743284702301 0.4147743284702301 0.4147743284702301
0.46172216534614563 0.46172216534614563 0.46172216534614563
0.51394188404083252 0.51394188404083252 0.51394188404083252
0.21861468255519867 0.21861468255519867 0.21861468255519867
0.2227674275636673 0.2227674275636673 0.2227674275636673
0.23266634345054626 0.23266634345054626 0.23266634345054626
0.24834173917770386 0.24834173917770386 0.24834173917770386
0.2688957154750824 0.2688957154750824 0.2688957154750824
0.2934887707233429 0.2934887707233429 0.2934887707233429
0.32173824310302734 0.32173824310302734 0.32173824310302734
0.35370329022407532 0.35370329022407532 0.35370329022407532
0.38868799805641174 0.38868799805641174 0.38868799805641174
