luts/negative_old/ilford_delta_3200_-.cube
# Created by: G'MIC (https://gmic.eu)
TITLE "ilford_delta_3200_-"
# LUT size
LUT_3D_SIZE 5
# Data domain
DOMAIN_MIN 0.0 0.0 0.0
DOMAIN_MAX 1.0 1.0 1.0
# LUT data points
0.050490718334913254 0.050490718334913254 0.050490718334913254
0.081472523510456085 0.081472523510456085 0.081472523510456085
0.22208958864212036 0.22208958864212036 0.22208958864212036
0.38513782620429993 0.38513782620429993 0.38513782620429993
0.56004095077514648 0.56004095077514648 0.56004095077514648
0.12659129500389099 0.12659129500389099 0.12659129500389099
0.15269096195697784 0.15269096195697784 0.15269096195697784
0.27774709463119507 0.27774709463119507 0.27774709463119507
0.42313554883003235 0.42313554883003235 0.42313554883003235
0.59365737438201904 0.59365737438201904 0.59365737438201904
0.31202107667922974 0.31202107667922974 0.31202107667922974
0.32563045620918274 0.32563045620918274 0.32563045620918274
0.38510257005691528 0.38510257005691528 0.38510257005691528
0.49739021062850952 0.49739021062850952 0.49739021062850952
0.68235576152801514 0.68235576152801514 0.68235576152801514
0.51243042945861816 0.51243042945861816 0.51243042945861816
0.53442203998565674 0.53442203998565674 0.53442203998565674
0.5642208456993103 0.5642208456993103 0.5642208456993103
0.62283313274383545 0.62283313274383545 0.62283313274383545
0.77210474014282227 0.77210474014282227 0.77210474014282227
0.83032315969467163 0.83032315969467163 0.83032315969467163
0.82771843671798706 0.82771843671798706 0.82771843671798706
0.84907257556915283 0.84907257556915283 0.84907257556915283
0.8957173228263855 0.8957173228263855 0.8957173228263855
0.9374077320098877 0.9374077320098877 0.9374077320098877
0.080694563686847687 0.080694563686847687 0.080694563686847687
0.12545794248580933 0.12545794248580933 0.12545794248580933
0.25004500150680542 0.25004500150680542 0.25004500150680542
0.40829521417617798 0.40829521417617798 0.40829521417617798
0.57460176944732666 0.57460176944732666 0.57460176944732666
0.17260901629924774 0.17260901629924774 0.17260901629924774
0.23353321850299835 0.23353321850299835 0.23353321850299835
0.34381750226020813 0.34381750226020813 0.34381750226020813
0.46619400382041931 0.46619400382041931 0.46619400382041931
0.62698018550872803 0.62698018550872803 0.62698018550872803
0.38120272755622864 0.38120272755622864 0.38120272755622864
0.3914031982421875 0.3914031982421875 0.3914031982421875
0.43925297260284424 0.43925297260284424 0.43925297260284424
0.54458743333816528 0.54458743333816528 0.54458743333816528
0.70118790864944458 0.70118790864944458 0.70118790864944458
0.56326770782470703 0.56326770782470703 0.56326770782470703
0.57633161544799805 0.57633161544799805 0.57633161544799805
0.59116590023040771 0.59116590023040771 0.59116590023040771
0.65815907716751099 0.65815907716751099 0.65815907716751099
0.7875133752822876 0.7875133752822876 0.7875133752822876
0.83367651700973511 0.83367651700973511 0.83367651700973511
0.84876048564910889 0.84876048564910889 0.84876048564910889
0.86510950326919556 0.86510950326919556 0.86510950326919556
0.90603315830230713 0.90603315830230713 0.90603315830230713
0.95399975776672363 0.95399975776672363 0.95399975776672363
0.2317957878112793 0.2317957878112793 0.2317957878112793
0.2780340313911438 0.2780340313911438 0.2780340313911438
0.35224461555480957 0.35224461555480957 0.35224461555480957
0.44171231985092163 0.44171231985092163 0.44171231985092163
0.62453556060791016 0.62453556060791016 0.62453556060791016
0.30923357605934143 0.30923357605934143 0.30923357605934143
0.35260942578315735 0.35260942578315735 0.35260942578315735
0.40408200025558472 0.40408200025558472 0.40408200025558472
0.50186729431152344 0.50186729431152344 0.50186729431152344
0.68945431709289551 0.68945431709289551 0.68945431709289551
0.39843747019767761 0.39843747019767761 0.39843747019767761
0.43965843319892883 0.43965843319892883 0.43965843319892883
0.51159071922302246 0.51159071922302246 0.51159071922302246
0.61430174112319946 0.61430174112319946 0.61430174112319946
0.75256574153900146 0.75256574153900146 0.75256574153900146
0.61072629690170288 0.61072629690170288 0.61072629690170288
0.63778209686279297 0.63778209686279297 0.63778209686279297
0.68421542644500732 0.68421542644500732 0.68421542644500732
0.72415649890899658 0.72415649890899658 0.72415649890899658
0.83227312564849854 0.83227312564849854 0.83227312564849854
0.8851439356803894 0.8851439356803894 0.8851439356803894
0.89158767461776733 0.89158767461776733 0.89158767461776733
0.91164529323577881 0.91164529323577881 0.91164529323577881
0.92379462718963623 0.92379462718963623 0.92379462718963623
0.97133022546768188 0.97133022546768188 0.97133022546768188
0.4164435863494873 0.4164435863494873 0.4164435863494873
0.44318866729736328 0.44318866729736328 0.44318866729736328
0.52222979068756104 0.52222979068756104 0.52222979068756104
0.58087068796157837 0.58087068796157837 0.58087068796157837
0.67694711685180664 0.67694711685180664 0.67694711685180664
0.47554975748062134 0.47554975748062134 0.47554975748062134
0.49968346953392029 0.49968346953392029 0.49968346953392029
0.57025492191314697 0.57025492191314697 0.57025492191314697
0.62317490577697754 0.62317490577697754 0.62317490577697754
0.7185249924659729 0.7185249924659729 0.7185249924659729
0.50263422727584839 0.50263422727584839 0.50263422727584839
0.54331594705581665 0.54331594705581665 0.54331594705581665
0.62527316808700562 0.62527316808700562 0.62527316808700562
0.69840770959854126 0.69840770959854126 0.69840770959854126
0.78753340244293213 0.78753340244293213 0.78753340244293213
0.6287340521812439 0.6287340521812439 0.6287340521812439
0.64356040954589844 0.64356040954589844 0.64356040954589844
0.7190050482749939 0.7190050482749939 0.7190050482749939
0.79510176181793213 0.79510176181793213 0.79510176181793213
0.88452881574630737 0.88452881574630737 0.88452881574630737
0.86432194709777832 0.86432194709777832 0.86432194709777832
0.87704402208328247 0.87704402208328247 0.87704402208328247
0.91118019819259644 0.91118019819259644 0.91118019819259644
0.93334490060806274 0.93334490060806274 0.93334490060806274
0.9791795015335083 0.9791795015335083 0.9791795015335083
0.70942741632461548 0.70942741632461548 0.70942741632461548
0.7317814826965332 0.7317814826965332 0.7317814826965332
0.77579587697982788 0.77579587697982788 0.77579587697982788
0.85203808546066284 0.85203808546066284 0.85203808546066284
0.85756802558898926 0.85756802558898926 0.85756802558898926
0.7387879490852356 0.7387879490852356 0.7387879490852356
0.75360262393951416 0.75360262393951416 0.75360262393951416
0.7885061502456665 0.7885061502456665 0.7885061502456665
0.84679347276687622 0.84679347276687622 0.84679347276687622
0.87479329109191895 0.87479329109191895 0.87479329109191895
0.76559334993362427 0.76559334993362427 0.76559334993362427
0.77247047424316406 0.77247047424316406 0.77247047424316406
0.82492566108703613 0.82492566108703613 0.82492566108703613
0.8716931939125061 0.8716931939125061 0.8716931939125061
0.88920050859451294 0.88920050859451294 0.88920050859451294
0.76803964376449585 0.76803964376449585 0.76803964376449585
0.80422890186309814 0.80422890186309814 0.80422890186309814
0.83943480253219604 0.83943480253219604 0.83943480253219604
0.90517383813858032 0.90517383813858032 0.90517383813858032
0.9442024827003479 0.9442024827003479 0.9442024827003479
0.90430951118469238 0.90430951118469238 0.90430951118469238
0.92913818359375 0.92913818359375 0.92913818359375
0.93899673223495483 0.93899673223495483 0.93899673223495483
0.95986104011535645 0.95986104011535645 0.95986104011535645
0.97967171669006348 0.97967171669006348 0.97967171669006348
