luts/negative_old/ilford_delta_3200.cube
# Created by: G'MIC (https://gmic.eu)
TITLE "ilford_delta_3200"
# LUT size
LUT_3D_SIZE 13
# Data domain
DOMAIN_MIN 0.0 0.0 0.0
DOMAIN_MAX 1.0 1.0 1.0
# LUT data points
0.068100720643997192 0.068100720643997192 0.068100720643997192
0.065365210175514221 0.065365210175514221 0.065365210175514221
0.068750165402889252 0.068750165402889252 0.068750165402889252
0.080438308417797089 0.080438308417797089 0.080438308417797089
0.10179343074560165 0.10179343074560165 0.10179343074560165
0.13392913341522217 0.13392913341522217 0.13392913341522217
0.17748802900314331 0.17748802900314331 0.17748802900314331
0.23340502381324768 0.23340502381324768 0.23340502381324768
0.29719418287277222 0.29719418287277222 0.29719418287277222
0.36297410726547241 0.36297410726547241 0.36297410726547241
0.42986652255058289 0.42986652255058289 0.42986652255058289
0.49883735179901123 0.49883735179901123 0.49883735179901123
0.57031285762786865 0.57031285762786865 0.57031285762786865
0.070982746779918671 0.070982746779918671 0.070982746779918671
0.07167816162109375 0.07167816162109375 0.07167816162109375
0.07864660769701004 0.07864660769701004 0.07864660769701004
0.09305870532989502 0.09305870532989502 0.09305870532989502
0.11581476032733917 0.11581476032733917 0.11581476032733917
0.14853926002979279 0.14853926002979279 0.14853926002979279
0.19150017201900482 0.19150017201900482 0.19150017201900482
0.24591037631034851 0.24591037631034851 0.24591037631034851
0.30812522768974304 0.30812522768974304 0.30812522768974304
0.37185549736022949 0.37185549736022949 0.37185549736022949
0.43579497933387756 0.43579497933387756 0.43579497933387756
0.5010833740234375 0.5010833740234375 0.5010833740234375
0.56920886039733887 0.56920886039733887 0.56920886039733887
0.083757765591144562 0.083757765591144562 0.083757765591144562
0.088569924235343933 0.088569924235343933 0.088569924235343933
0.099421210587024689 0.099421210587024689 0.099421210587024689
0.11688434332609177 0.11688434332609177 0.11688434332609177
0.14158400893211365 0.14158400893211365 0.14158400893211365
0.17510968446731567 0.17510968446731567 0.17510968446731567
0.21831195056438446 0.21831195056438446 0.21831195056438446
0.27038028836250305 0.27038028836250305 0.27038028836250305
0.32833960652351379 0.32833960652351379 0.32833960652351379
0.38861748576164246 0.38861748576164246 0.38861748576164246
0.44955694675445557 0.44955694675445557 0.44955694675445557
0.5115971565246582 0.5115971565246582 0.5115971565246582
0.57658392190933228 0.57658392190933228 0.57658392190933228
0.11420703679323196 0.11420703679323196 0.11420703679323196
0.12057330459356308 0.12057330459356308 0.12057330459356308
0.13315528631210327 0.13315528631210327 0.13315528631210327
0.1515115350484848 0.1515115350484848 0.1515115350484848
0.17686356604099274 0.17686356604099274 0.17686356604099274
0.21091057360172272 0.21091057360172272 0.21091057360172272
0.252545565366745 0.252545565366745 0.252545565366745
0.30176535248756409 0.30176535248756409 0.30176535248756409
0.35600718855857849 0.35600718855857849 0.35600718855857849
0.41291055083274841 0.41291055083274841 0.41291055083274841
0.47156932950019836 0.47156932950019836 0.47156932950019836
0.53193187713623047 0.53193187713623047 0.53193187713623047
0.59454190731048584 0.59454190731048584 0.59454190731048584
0.16290557384490967 0.16290557384490967 0.16290557384490967
0.16801217198371887 0.16801217198371887 0.16801217198371887
0.17901633679866791 0.17901633679866791 0.17901633679866791
0.19600984454154968 0.19600984454154968 0.19600984454154968
0.22003458440303802 0.22003458440303802 0.22003458440303802
0.25166487693786621 0.25166487693786621 0.25166487693786621
0.29101818799972534 0.29101818799972534 0.29101818799972534
0.3368474543094635 0.3368474543094635 0.3368474543094635
0.3878878653049469 0.3878878653049469 0.3878878653049469
0.44275912642478943 0.44275912642478943 0.44275912642478943
0.50019246339797974 0.50019246339797974 0.50019246339797974
0.55946439504623413 0.55946439504623413 0.55946439504623413
0.61996442079544067 0.61996442079544067 0.61996442079544067
0.22298276424407959 0.22298276424407959 0.22298276424407959
0.22613593935966492 0.22613593935966492 0.22613593935966492
0.23436093330383301 0.23436093330383301 0.23436093330383301
0.2480614185333252 0.2480614185333252 0.2480614185333252
0.26861077547073364 0.26861077547073364 0.26861077547073364
0.29704293608665466 0.29704293608665466 0.29704293608665466
0.33251306414604187 0.33251306414604187 0.33251306414604187
0.37471720576286316 0.37471720576286316 0.37471720576286316
0.42275342345237732 0.42275342345237732 0.42275342345237732
0.47637155652046204 0.47637155652046204 0.47637155652046204
0.53348821401596069 0.53348821401596069 0.53348821401596069
0.5914604663848877 0.5914604663848877 0.5914604663848877
0.64969944953918457 0.64969944953918457 0.64969944953918457
0.28826114535331726 0.28826114535331726 0.28826114535331726
0.29045847058296204 0.29045847058296204 0.29045847058296204
0.29620230197906494 0.29620230197906494 0.29620230197906494
0.30607390403747559 0.30607390403747559 0.30607390403747559
0.32261300086975098 0.32261300086975098 0.32261300086975098
0.34709998965263367 0.34709998965263367 0.34709998965263367
0.37823367118835449 0.37823367118835449 0.37823367118835449
0.41576996445655823 0.41576996445655823 0.41576996445655823
0.46044835448265076 0.46044835448265076 0.46044835448265076
0.51291698217391968 0.51291698217391968 0.51291698217391968
0.57055115699768066 0.57055115699768066 0.57055115699768066
0.62742900848388672 0.62742900848388672 0.62742900848388672
0.68232220411300659 0.68232220411300659 0.68232220411300659
0.35708355903625488 0.35708355903625488 0.35708355903625488
0.3594774603843689 0.3594774603843689 0.3594774603843689
0.36434170603752136 0.36434170603752136 0.36434170603752136
0.37161397933959961 0.37161397933959961 0.37161397933959961
0.384317547082901 0.384317547082901 0.384317547082901
0.40504935383796692 0.40504935383796692 0.40504935383796692
0.431184321641922 0.431184321641922 0.431184321641922
0.46283414959907532 0.46283414959907532 0.46283414959907532
0.5019843578338623 0.5019843578338623 0.5019843578338623
0.55170959234237671 0.55170959234237671 0.55170959234237671
0.60941582918167114 0.60941582918167114 0.60941582918167114
0.66524261236190796 0.66524261236190796 0.66524261236190796
0.71610593795776367 0.71610593795776367 0.71610593795776367
0.43121439218521118 0.43121439218521118 0.43121439218521118
0.43543252348899841 0.43543252348899841 0.43543252348899841
0.44116535782814026 0.44116535782814026 0.44116535782814026
0.44781523942947388 0.44781523942947388 0.44781523942947388
0.4582335352897644 0.4582335352897644 0.4582335352897644
0.47429955005645752 0.47429955005645752 0.47429955005645752
0.49474111199378967 0.49474111199378967 0.49474111199378967
0.5194162130355835 0.5194162130355835 0.5194162130355835
0.55017054080963135 0.55017054080963135 0.55017054080963135
0.59115928411483765 0.59115928411483765 0.59115928411483765
0.64636218547821045 0.64636218547821045 0.64636218547821045
0.7007293701171875 0.7007293701171875 0.7007293701171875
0.74907565116882324 0.74907565116882324 0.74907565116882324
0.51648849248886108 0.51648849248886108 0.51648849248886108
0.52245169878005981 0.52245169878005981 0.52245169878005981
0.52962040901184082 0.52962040901184082 0.52962040901184082
0.53640460968017578 0.53640460968017578 0.53640460968017578
0.54490143060684204 0.54490143060684204 0.54490143060684204
0.55659675598144531 0.55659675598144531 0.55659675598144531
0.57156515121459961 0.57156515121459961 0.57156515121459961
0.59019041061401367 0.59019041061401367 0.59019041061401367
0.61210149526596069 0.61210149526596069 0.61210149526596069
0.63918352127075195 0.63918352127075195 0.63918352127075195
0.67789661884307861 0.67789661884307861 0.67789661884307861
0.73240166902542114 0.73240166902542114 0.73240166902542114
0.78249019384384155 0.78249019384384155 0.78249019384384155
0.61731636524200439 0.61731636524200439 0.61731636524200439
0.62306594848632812 0.62306594848632812 0.62306594848632812
0.63005954027175903 0.63005954027175903 0.63005954027175903
0.63667136430740356 0.63667136430740356 0.63667136430740356
0.64279717206954956 0.64279717206954956 0.64279717206954956
0.64997941255569458 0.64997941255569458 0.64997941255569458
0.6605340838432312 0.6605340838432312 0.6605340838432312
0.67515861988067627 0.67515861988067627 0.67515861988067627
0.69425427913665771 0.69425427913665771 0.69425427913665771
0.71820896863937378 0.71820896863937378 0.71820896863937378
0.74712681770324707 0.74712681770324707 0.74712681770324707
0.78448992967605591 0.78448992967605591 0.78448992967605591
0.82556784152984619 0.82556784152984619 0.82556784152984619
0.72844171524047852 0.72844171524047852 0.72844171524047852
0.73293405771255493 0.73293405771255493 0.73293405771255493
0.73866385221481323 0.73866385221481323 0.73866385221481323
0.74451828002929688 0.74451828002929688 0.74451828002929688
0.74783200025558472 0.74783200025558472 0.74783200025558472
0.75052928924560547 0.75052928924560547 0.75052928924560547
0.75709044933319092 0.75709044933319092 0.75709044933319092
0.76879072189331055 0.76879072189331055 0.76879072189331055
0.7866055965423584 0.7866055965423584 0.7866055965423584
0.81019037961959839 0.81019037961959839 0.81019037961959839
0.83310317993164062 0.83310317993164062 0.83310317993164062
0.85336577892303467 0.85336577892303467 0.85336577892303467
0.8793829083442688 0.8793829083442688 0.8793829083442688
0.8399200439453125 0.8399200439453125 0.8399200439453125
0.84308993816375732 0.84308993816375732 0.84308993816375732
0.84646427631378174 0.84646427631378174 0.84646427631378174
0.85045307874679565 0.85045307874679565 0.85045307874679565
0.85126858949661255 0.85126858949661255 0.85126858949661255
0.8513723611831665 0.8513723611831665 0.8513723611831665
0.85376852750778198 0.85376852750778198 0.85376852750778198
0.86239755153656006 0.86239755153656006 0.86239755153656006
0.87606745958328247 0.87606745958328247 0.87606745958328247
0.89306908845901489 0.89306908845901489 0.89306908845901489
0.90827637910842896 0.90827637910842896 0.90827637910842896
0.92141926288604736 0.92141926288604736 0.92141926288604736
0.93800842761993408 0.93800842761993408 0.93800842761993408
0.069390617311000824 0.069390617311000824 0.069390617311000824
0.068483613431453705 0.068483613431453705 0.068483613431453705
0.073320396244525909 0.073320396244525909 0.073320396244525909
0.086224652826786041 0.086224652826786041 0.086224652826786041
0.1090770810842514 0.1090770810842514 0.1090770810842514
0.14461271464824677 0.14461271464824677 0.14461271464824677
0.19332203269004822 0.19332203269004822 0.19332203269004822
0.25195440649986267 0.25195440649986267 0.25195440649986267
0.31366923451423645 0.31366923451423645 0.31366923451423645
0.37551334500312805 0.37551334500312805 0.37551334500312805
0.43862339854240417 0.43862339854240417 0.43862339854240417
0.50397545099258423 0.50397545099258423 0.50397545099258423
0.57249754667282104 0.57249754667282104 0.57249754667282104
0.077530205249786377 0.077530205249786377 0.077530205249786377
0.079026207327842712 0.079026207327842712 0.079026207327842712
0.08670169860124588 0.08670169860124588 0.08670169860124588
0.10163180530071259 0.10163180530071259 0.10163180530071259
0.12583783268928528 0.12583783268928528 0.12583783268928528
0.16138851642608643 0.16138851642608643 0.16138851642608643
0.20893916487693787 0.20893916487693787 0.20893916487693787
0.26561036705970764 0.26561036705970764 0.26561036705970764
0.32544833421707153 0.32544833421707153 0.32544833421707153
0.38538125157356262 0.38538125157356262 0.38538125157356262
0.44564279913902283 0.44564279913902283 0.44564279913902283
0.50670927762985229 0.50670927762985229 0.50670927762985229
0.57171940803527832 0.57171940803527832 0.57171940803527832
0.096557334065437317 0.096557334065437317 0.096557334065437317
0.10095389932394028 0.10095389932394028 0.10095389932394028
0.11171514540910721 0.11171514540910721 0.11171514540910721
0.12920805811882019 0.12920805811882019 0.12920805811882019
0.15523548424243927 0.15523548424243927 0.15523548424243927
0.19144779443740845 0.19144779443740845 0.19144779443740845
0.2369002103805542 0.2369002103805542 0.2369002103805542
0.28989598155021667 0.28989598155021667 0.28989598155021667
0.34589365124702454 0.34589365124702454 0.34589365124702454
0.40293508768081665 0.40293508768081665 0.40293508768081665
0.46064922213554382 0.46064922213554382 0.46064922213554382
0.51852703094482422 0.51852703094482422 0.51852703094482422
0.5807146430015564 0.5807146430015564 0.5807146430015564
0.13184632360935211 0.13184632360935211 0.13184632360935211
0.13742223381996155 0.13742223381996155 0.13742223381996155
0.14964891970157623 0.14964891970157623 0.14964891970157623
0.16797566413879395 0.16797566413879395 0.16797566413879395
0.19427122175693512 0.19427122175693512 0.19427122175693512
0.22971270978450775 0.22971270978450775 0.22971270978450775
0.27253985404968262 0.27253985404968262 0.27253985404968262
0.3216305673122406 0.3216305673122406 0.3216305673122406
0.37374842166900635 0.37374842166900635 0.37374842166900635
0.42782920598983765 0.42782920598983765 0.42782920598983765
0.48316505551338196 0.48316505551338196 0.48316505551338196
0.54046374559402466 0.54046374559402466 0.54046374559402466
0.60118752717971802 0.60118752717971802 0.60118752717971802
0.18326437473297119 0.18326437473297119 0.18326437473297119
0.18848969042301178 0.18848969042301178 0.18848969042301178
0.19909396767616272 0.19909396767616272 0.19909396767616272
0.21595749258995056 0.21595749258995056 0.21595749258995056
0.2400054931640625 0.2400054931640625 0.2400054931640625
0.27183312177658081 0.27183312177658081 0.27183312177658081
0.31115704774856567 0.31115704774856567 0.31115704774856567
0.35582220554351807 0.35582220554351807 0.35582220554351807
0.40426409244537354 0.40426409244537354 0.40426409244537354
0.45618075132369995 0.45618075132369995 0.45618075132369995
0.51084303855895996 0.51084303855895996 0.51084303855895996
0.56774324178695679 0.56774324178695679 0.56774324178695679
0.62718421220779419 0.62718421220779419 0.62718421220779419
0.24600782990455627 0.24600782990455627 0.24600782990455627
0.24990071356296539 0.24990071356296539 0.24990071356296539
0.25763699412345886 0.25763699412345886 0.25763699412345886
0.27057400345802307 0.27057400345802307 0.27057400345802307
0.29031199216842651 0.29031199216842651 0.29031199216842651
0.31737297773361206 0.31737297773361206 0.31737297773361206
0.35108086466789246 0.35108086466789246 0.35108086466789246
0.3908919095993042 0.3908919095993042 0.3908919095993042
0.43603730201721191 0.43603730201721191 0.43603730201721191
0.48647543787956238 0.48647543787956238 0.48647543787956238
0.54116261005401611 0.54116261005401611 0.54116261005401611
0.59797632694244385 0.59797632694244385 0.59797632694244385
0.65577238798141479 0.65577238798141479 0.65577238798141479
0.31240767240524292 0.31240767240524292 0.31240767240524292
0.3158603310585022 0.3158603310585022 0.3158603310585022
0.32121491432189941 0.32121491432189941 0.32121491432189941
0.33023586869239807 0.33023586869239807 0.33023586869239807
0.34486585855484009 0.34486585855484009 0.34486585855484009
0.36658695340156555 0.36658695340156555 0.36658695340156555
0.39482736587524414 0.39482736587524414 0.39482736587524414
0.4285314679145813 0.4285314679145813 0.4285314679145813
0.4693945050239563 0.4693945050239563 0.4693945050239563
0.51796644926071167 0.51796644926071167 0.51796644926071167
0.57295632362365723 0.57295632362365723 0.57295632362365723
0.63003647327423096 0.63003647327423096 0.63003647327423096
0.68610095977783203 0.68610095977783203 0.68610095977783203
0.37872099876403809 0.37872099876403809 0.37872099876403809
0.38293355703353882 0.38293355703353882 0.38293355703353882
0.38792863488197327 0.38792863488197327 0.38792863488197327
0.39461508393287659 0.39461508393287659 0.39461508393287659
0.4053322970867157 0.4053322970867157 0.4053322970867157
0.42227256298065186 0.42227256298065186 0.42227256298065186
0.44440865516662598 0.44440865516662598 0.44440865516662598
0.47212457656860352 0.47212457656860352 0.47212457656860352
0.50674748420715332 0.50674748420715332 0.50674748420715332
0.55183607339859009 0.55183607339859009 0.55183607339859009
0.60681593418121338 0.60681593418121338 0.60681593418121338
0.66335195302963257 0.66335195302963257 0.66335195302963257
0.71734648942947388 0.71734648942947388 0.71734648942947388
0.44746896624565125 0.44746896624565125 0.44746896624565125
0.45348408818244934 0.45348408818244934 0.45348408818244934
0.45958137512207031 0.45958137512207031 0.45958137512207031
0.46567001938819885 0.46567001938819885 0.46567001938819885
0.47395715117454529 0.47395715117454529 0.47395715117454529
0.48710599541664124 0.48710599541664124 0.48710599541664124
0.50462323427200317 0.50462323427200317 0.50462323427200317
0.52616161108016968 0.52616161108016968 0.52616161108016968
0.55351752042770386 0.55351752042770386 0.55351752042770386
0.5916481614112854 0.5916481614112854 0.5916481614112854
0.64313220977783203 0.64313220977783203 0.64313220977783203
0.69781786203384399 0.69781786203384399 0.69781786203384399
0.74947524070739746 0.74947524070739746 0.74947524070739746
0.52608054876327515 0.52608054876327515 0.52608054876327515
0.53390985727310181 0.53390985727310181 0.53390985727310181
0.54112416505813599 0.54112416505813599 0.54112416505813599
0.54649680852890015 0.54649680852890015 0.54649680852890015
0.55316102504730225 0.55316102504730225 0.55316102504730225
0.5638192892074585 0.5638192892074585 0.5638192892074585
0.57790142297744751 0.57790142297744751 0.57790142297744751
0.59523743391036987 0.59523743391036987 0.59523743391036987
0.61696630716323853 0.61696630716323853 0.61696630716323853
0.64658576250076294 0.64658576250076294 0.64658576250076294
0.6878083348274231 0.6878083348274231 0.6878083348274231
0.73700368404388428 0.73700368404388428 0.73700368404388428
0.78540885448455811 0.78540885448455811 0.78540885448455811
0.62306457757949829 0.62306457757949829 0.62306457757949829
0.6293291449546814 0.6293291449546814 0.6293291449546814
0.63531953096389771 0.63531953096389771 0.63531953096389771
0.63934421539306641 0.63934421539306641 0.63934421539306641
0.64437240362167358 0.64437240362167358 0.64437240362167358
0.65235382318496704 0.65235382318496704 0.65235382318496704
0.66407352685928345 0.66407352685928345 0.66407352685928345
0.67914789915084839 0.67914789915084839 0.67914789915084839
0.69905537366867065 0.69905537366867065 0.69905537366867065
0.72490793466567993 0.72490793466567993 0.72490793466567993
0.75616127252578735 0.75616127252578735 0.75616127252578735
0.79222565889358521 0.79222565889358521 0.79222565889358521
0.83080315589904785 0.83080315589904785 0.83080315589904785
0.73158127069473267 0.73158127069473267 0.73158127069473267
0.73554188013076782 0.73554188013076782 0.73554188013076782
0.73944318294525146 0.73944318294525146 0.73944318294525146
0.7424730658531189 0.7424730658531189 0.7424730658531189
0.7453080415725708 0.7453080415725708 0.7453080415725708
0.75003862380981445 0.75003862380981445 0.75003862380981445
0.75863081216812134 0.75863081216812134 0.75863081216812134
0.77182495594024658 0.77182495594024658 0.77182495594024658
0.79036104679107666 0.79036104679107666 0.79036104679107666
0.81370139122009277 0.81370139122009277 0.81370139122009277
0.83748137950897217 0.83748137950897217 0.83748137950897217
0.85953730344772339 0.85953730344772339 0.85953730344772339
0.88530343770980835 0.88530343770980835 0.88530343770980835
0.84061074256896973 0.84061074256896973 0.84061074256896973
0.84366816282272339 0.84366816282272339 0.84366816282272339
0.84567141532897949 0.84567141532897949 0.84567141532897949
0.84733790159225464 0.84733790159225464 0.84733790159225464
0.84815341234207153 0.84815341234207153 0.84815341234207153
0.84996432065963745 0.84996432065963745 0.84996432065963745
0.85482543706893921 0.85482543706893921 0.85482543706893921
0.86478710174560547 0.86478710174560547 0.86478710174560547
0.87941616773605347 0.87941616773605347 0.87941616773605347
0.89683723449707031 0.89683723449707031 0.89683723449707031
0.91313064098358154 0.91313064098358154 0.91313064098358154
0.92704188823699951 0.92704188823699951 0.92704188823699951
0.9438367486000061 0.9438367486000061 0.9438367486000061
0.076132364571094513 0.076132364571094513 0.076132364571094513
0.076845221221446991 0.076845221221446991 0.076845221221446991
0.083254829049110413 0.083254829049110413 0.083254829049110413
0.096763670444488525 0.096763670444488525 0.096763670444488525
0.12006991356611252 0.12006991356611252 0.12006991356611252
0.15695032477378845 0.15695032477378845 0.15695032477378845
0.20857526361942291 0.20857526361942291 0.20857526361942291
0.26965764164924622 0.26965764164924622 0.26965764164924622
0.32971680164337158 0.32971680164337158 0.32971680164337158
0.38911524415016174 0.38911524415016174 0.38911524415016174
0.45062494277954102 0.45062494277954102 0.45062494277954102
0.5146174430847168 0.5146174430847168 0.5146174430847168
0.58170425891876221 0.58170425891876221 0.58170425891876221
0.089646793901920319 0.089646793901920319 0.089646793901920319
0.092145644128322601 0.092145644128322601 0.092145644128322601
0.100735142827034 0.100735142827034 0.100735142827034
0.11573918908834457 0.11573918908834457 0.11573918908834457
0.13997834920883179 0.13997834920883179 0.13997834920883179
0.17649617791175842 0.17649617791175842 0.17649617791175842
0.22639122605323792 0.22639122605323792 0.22639122605323792
0.28481000661849976 0.28481000661849976 0.28481000661849976
0.34360453486442566 0.34360453486442566 0.34360453486442566
0.4019833505153656 0.4019833505153656 0.4019833505153656
0.46083912253379822 0.46083912253379822 0.46083912253379822
0.5206068754196167 0.5206068754196167 0.5206068754196167
0.58431339263916016 0.58431339263916016 0.58431339263916016
0.11404064297676086 0.11404064297676086 0.11404064297676086
0.11913477629423141 0.11913477629423141 0.11913477629423141
0.13037978112697601 0.13037978112697601 0.13037978112697601
0.14810216426849365 0.14810216426849365 0.14810216426849365
0.17386525869369507 0.17386525869369507 0.17386525869369507
0.21076506376266479 0.21076506376266479 0.21076506376266479
0.25843194127082825 0.25843194127082825 0.25843194127082825
0.3118668794631958 0.3118668794631958 0.3118668794631958
0.36650174856185913 0.36650174856185913 0.36650174856185913
0.4218946099281311 0.4218946099281311 0.4218946099281311
0.47744780778884888 0.47744780778884888 0.47744780778884888
0.53368937969207764 0.53368937969207764 0.53368937969207764
0.59565246105194092 0.59565246105194092 0.59565246105194092
0.1531171053647995 0.1531171053647995 0.1531171053647995
0.15938438475131989 0.15938438475131989 0.15938438475131989
0.17176118493080139 0.17176118493080139 0.17176118493080139
0.19062258303165436 0.19062258303165436 0.19062258303165436
0.21697345376014709 0.21697345376014709 0.21697345376014709
0.2528497576713562 0.2528497576713562 0.2528497576713562
0.29761651158332825 0.29761651158332825 0.29761651158332825
0.34620434045791626 0.34620434045791626 0.34620434045791626
0.39577680826187134 0.39577680826187134 0.39577680826187134
0.44732099771499634 0.44732099771499634 0.44732099771499634
0.50084435939788818 0.50084435939788818 0.50084435939788818
0.55660742521286011 0.55660742521286011 0.55660742521286011
0.61615335941314697 0.61615335941314697 0.61615335941314697
0.20750038325786591 0.20750038325786591 0.20750038325786591
0.21313956379890442 0.21313956379890442 0.21313956379890442
0.22398479282855988 0.22398479282855988 0.22398479282855988
0.24111437797546387 0.24111437797546387 0.24111437797546387
0.26536992192268372 0.26536992192268372 0.26536992192268372
0.29757454991340637 0.29757454991340637 0.29757454991340637
0.3368399441242218 0.3368399441242218 0.3368399441242218
0.37996694445610046 0.37996694445610046 0.37996694445610046
