luts/negative_old/ilford_delta_3200_+.cube
# Created by: G'MIC (https://gmic.eu)
TITLE "ilford_delta_3200_+"
# LUT size
LUT_3D_SIZE 5
# Data domain
DOMAIN_MIN 0.0 0.0 0.0
DOMAIN_MAX 1.0 1.0 1.0
# LUT data points
0.095343619585037231 0.095343619585037231 0.095343619585037231
0.10942254215478897 0.10942254215478897 0.10942254215478897
0.19039101898670197 0.19039101898670197 0.19039101898670197
0.34067943692207336 0.34067943692207336 0.34067943692207336
0.5692063570022583 0.5692063570022583 0.5692063570022583
0.14126493036746979 0.14126493036746979 0.14126493036746979
0.1656176894903183 0.1656176894903183 0.1656176894903183
0.24702377617359161 0.24702377617359161 0.24702377617359161
0.38747408986091614 0.38747408986091614 0.38747408986091614
0.60122013092041016 0.60122013092041016 0.60122013092041016
0.27935120463371277 0.27935120463371277 0.27935120463371277
0.2973606288433075 0.2973606288433075 0.2973606288433075
0.3666289746761322 0.3666289746761322 0.3666289746761322
0.5006786584854126 0.5006786584854126 0.5006786584854126
0.70011895895004272 0.70011895895004272 0.70011895895004272
0.51793134212493896 0.51793134212493896 0.51793134212493896
0.53257572650909424 0.53257572650909424 0.53257572650909424
0.57726991176605225 0.57726991176605225 0.57726991176605225
0.66655552387237549 0.66655552387237549 0.66655552387237549
0.80587893724441528 0.80587893724441528 0.80587893724441528
0.83767426013946533 0.83767426013946533 0.83767426013946533
0.84534907341003418 0.84534907341003418 0.84534907341003418
0.86626642942428589 0.86626642942428589 0.86626642942428589
0.88728737831115723 0.88728737831115723 0.88728737831115723
0.92423540353775024 0.92423540353775024 0.92423540353775024
0.10432959347963333 0.10432959347963333 0.10432959347963333
0.13022452592849731 0.13022452592849731 0.13022452592849731
0.22095079720020294 0.22095079720020294 0.22095079720020294
0.39251211285591125 0.39251211285591125 0.39251211285591125
0.61060762405395508 0.61060762405395508 0.61060762405395508
0.15984557569026947 0.15984557569026947 0.15984557569026947
0.20542195439338684 0.20542195439338684 0.20542195439338684
0.3005964457988739 0.3005964457988739 0.3005964457988739
0.45066145062446594 0.45066145062446594 0.45066145062446594
0.65304350852966309 0.65304350852966309 0.65304350852966309
0.33014363050460815 0.33014363050460815 0.33014363050460815
0.37146109342575073 0.37146109342575073 0.37146109342575073
0.42721563577651978 0.42721563577651978 0.42721563577651978
0.54405105113983154 0.54405105113983154 0.54405105113983154
0.72173410654067993 0.72173410654067993 0.72173410654067993
0.56556868553161621 0.56556868553161621 0.56556868553161621
0.58757644891738892 0.58757644891738892 0.58757644891738892
0.60702568292617798 0.60702568292617798 0.60702568292617798
0.67844444513320923 0.67844444513320923 0.67844444513320923
0.81309020519256592 0.81309020519256592 0.81309020519256592
0.85375136137008667 0.85375136137008667 0.85375136137008667
0.86138933897018433 0.86138933897018433 0.86138933897018433
0.86392295360565186 0.86392295360565186 0.86392295360565186
0.89692038297653198 0.89692038297653198 0.89692038297653198
0.94275093078613281 0.94275093078613281 0.94275093078613281
0.19884264469146729 0.19884264469146729 0.19884264469146729
0.24117660522460938 0.24117660522460938 0.24117660522460938
0.31689795851707458 0.31689795851707458 0.31689795851707458
0.4316432774066925 0.4316432774066925 0.4316432774066925
0.66560077667236328 0.66560077667236328 0.66560077667236328
0.26877501606941223 0.26877501606941223 0.26877501606941223
0.30241477489471436 0.30241477489471436 0.30241477489471436
0.38092795014381409 0.38092795014381409 0.38092795014381409
0.49364128708839417 0.49364128708839417 0.49364128708839417
0.71120536327362061 0.71120536327362061 0.71120536327362061
0.37492474913597107 0.37492474913597107 0.37492474913597107
0.42338249087333679 0.42338249087333679 0.42338249087333679
0.52271765470504761 0.52271765470504761 0.52271765470504761
0.6322249174118042 0.6322249174118042 0.6322249174118042
0.76357185840606689 0.76357185840606689 0.76357185840606689
0.62945163249969482 0.62945163249969482 0.62945163249969482
0.6537596583366394 0.6537596583366394 0.6537596583366394
0.70175659656524658 0.70175659656524658 0.70175659656524658
0.74633634090423584 0.74633634090423584 0.74633634090423584
0.84335601329803467 0.84335601329803467 0.84335601329803467
0.89273202419281006 0.89273202419281006 0.89273202419281006
0.89211636781692505 0.89211636781692505 0.89211636781692505
0.8919641375541687 0.8919641375541687 0.8919641375541687
0.9061286449432373 0.9061286449432373 0.9061286449432373
0.95039719343185425 0.95039719343185425 0.95039719343185425
0.37895065546035767 0.37895065546035767 0.37895065546035767
0.41777533292770386 0.41777533292770386 0.41777533292770386
0.51925110816955566 0.51925110816955566 0.51925110816955566
0.59078067541122437 0.59078067541122437 0.59078067541122437
0.70521795749664307 0.70521795749664307 0.70521795749664307
0.46527120471000671 0.46527120471000671 0.46527120471000671
0.49516108632087708 0.49516108632087708 0.49516108632087708
0.5875777006149292 0.5875777006149292 0.5875777006149292
0.6422276496887207 0.6422276496887207 0.6422276496887207
0.74414604902267456 0.74414604902267456 0.74414604902267456
0.50888609886169434 0.50888609886169434 0.50888609886169434
0.55946075916290283 0.55946075916290283 0.55946075916290283
0.65515661239624023 0.65515661239624023 0.65515661239624023
0.71486526727676392 0.71486526727676392 0.71486526727676392
0.80037409067153931 0.80037409067153931 0.80037409067153931
0.65264523029327393 0.65264523029327393 0.65264523029327393
0.66737848520278931 0.66737848520278931 0.66737848520278931
0.746235191822052 0.746235191822052 0.746235191822052
0.81850540637969971 0.81850540637969971 0.81850540637969971
0.88385593891143799 0.88385593891143799 0.88385593891143799
0.88323044776916504 0.88323044776916504 0.88323044776916504
0.8861081600189209 0.8861081600189209 0.8861081600189209
0.90979057550430298 0.90979057550430298 0.90979057550430298
0.92999118566513062 0.92999118566513062 0.92999118566513062
0.95823001861572266 0.95823001861572266 0.95823001861572266
0.73053133487701416 0.73053133487701416 0.73053133487701416
0.74214249849319458 0.74214249849319458 0.74214249849319458
0.78313648700714111 0.78313648700714111 0.78313648700714111
0.85823309421539307 0.85823309421539307 0.85823309421539307
0.86655235290527344 0.86655235290527344 0.86655235290527344
0.77424073219299316 0.77424073219299316 0.77424073219299316
0.77745670080184937 0.77745670080184937 0.77745670080184937
0.8051941990852356 0.8051941990852356 0.8051941990852356
0.85416620969772339 0.85416620969772339 0.85416620969772339
0.87502366304397583 0.87502366304397583 0.87502366304397583
0.77752971649169922 0.77752971649169922 0.77752971649169922
0.79493945837020874 0.79493945837020874 0.79493945837020874
0.83432197570800781 0.83432197570800781 0.83432197570800781
0.87443751096725464 0.87443751096725464 0.87443751096725464
0.91533750295639038 0.91533750295639038 0.91533750295639038
0.79738247394561768 0.79738247394561768 0.79738247394561768
0.81045621633529663 0.81045621633529663 0.81045621633529663
0.85071009397506714 0.85071009397506714 0.85071009397506714
0.89715951681137085 0.89715951681137085 0.89715951681137085
0.94077253341674805 0.94077253341674805 0.94077253341674805
0.90337353944778442 0.90337353944778442 0.90337353944778442
0.90654873847961426 0.90654873847961426 0.90654873847961426
0.91710859537124634 0.91710859537124634 0.91710859537124634
0.94159024953842163 0.94159024953842163 0.94159024953842163
0.95978224277496338 0.95978224277496338 0.95978224277496338
