luts/negative_old/ilford_delta_3200_++.cube
# Created by: G'MIC (https://gmic.eu)
TITLE "ilford_delta_3200_++"
# LUT size
LUT_3D_SIZE 5
# Data domain
DOMAIN_MIN 0.0 0.0 0.0
DOMAIN_MAX 1.0 1.0 1.0
# LUT data points
0.1398332267999649 0.1398332267999649 0.1398332267999649
0.1470542699098587 0.1470542699098587 0.1470542699098587
0.18825112283229828 0.18825112283229828 0.18825112283229828
0.26717099547386169 0.26717099547386169 0.26717099547386169
0.42805182933807373 0.42805182933807373 0.42805182933807373
0.17836387455463409 0.17836387455463409 0.17836387455463409
0.19711926579475403 0.19711926579475403 0.19711926579475403
0.26646926999092102 0.26646926999092102 0.26646926999092102
0.36239355802536011 0.36239355802536011 0.36239355802536011
0.50380891561508179 0.50380891561508179 0.50380891561508179
0.29077985882759094 0.29077985882759094 0.29077985882759094
0.30704301595687866 0.30704301595687866 0.30704301595687866
0.39017042517662048 0.39017042517662048 0.39017042517662048
0.50393599271774292 0.50393599271774292 0.50393599271774292
0.64703273773193359 0.64703273773193359 0.64703273773193359
0.49946761131286621 0.49946761131286621 0.49946761131286621
0.5072091817855835 0.5072091817855835 0.5072091817855835
0.5564844012260437 0.5564844012260437 0.5564844012260437
0.62646001577377319 0.62646001577377319 0.62646001577377319
0.74498283863067627 0.74498283863067627 0.74498283863067627
0.78548109531402588 0.78548109531402588 0.78548109531402588
0.77829468250274658 0.77829468250274658 0.77829468250274658
0.80614066123962402 0.80614066123962402 0.80614066123962402
0.8433157205581665 0.8433157205581665 0.8433157205581665
0.89036500453948975 0.89036500453948975 0.89036500453948975
0.14196281135082245 0.14196281135082245 0.14196281135082245
0.17253668606281281 0.17253668606281281 0.17253668606281281
0.21749074757099152 0.21749074757099152 0.21749074757099152
0.29586008191108704 0.29586008191108704 0.29586008191108704
0.45221364498138428 0.45221364498138428 0.45221364498138428
0.18987517058849335 0.18987517058849335 0.18987517058849335
0.22494840621948242 0.22494840621948242 0.22494840621948242
0.28948107361793518 0.28948107361793518 0.28948107361793518
0.38053673505783081 0.38053673505783081 0.38053673505783081
0.51745247840881348 0.51745247840881348 0.51745247840881348
0.34398779273033142 0.34398779273033142 0.34398779273033142
0.3719136118888855 0.3719136118888855 0.3719136118888855
0.43476182222366333 0.43476182222366333 0.43476182222366333
0.5402756929397583 0.5402756929397583 0.5402756929397583
0.65732550621032715 0.65732550621032715 0.65732550621032715
0.5508425235748291 0.5508425235748291 0.5508425235748291
0.55996614694595337 0.55996614694595337 0.55996614694595337
0.58297491073608398 0.58297491073608398 0.58297491073608398
0.64812260866165161 0.64812260866165161 0.64812260866165161
0.76111280918121338 0.76111280918121338 0.76111280918121338
0.787758469581604 0.787758469581604 0.787758469581604
0.79225188493728638 0.79225188493728638 0.79225188493728638
0.80565345287322998 0.80565345287322998 0.80565345287322998
0.85707235336303711 0.85707235336303711 0.85707235336303711
0.91105741262435913 0.91105741262435913 0.91105741262435913
0.19718846678733826 0.19718846678733826 0.19718846678733826
0.25335565209388733 0.25335565209388733 0.25335565209388733
0.31936922669410706 0.31936922669410706 0.31936922669410706
0.36218824982643127 0.36218824982643127 0.36218824982643127
0.52025097608566284 0.52025097608566284 0.52025097608566284
0.24683550000190735 0.24683550000190735 0.24683550000190735
0.29772698879241943 0.29772698879241943 0.29772698879241943
0.37985798716545105 0.37985798716545105 0.37985798716545105
0.42628064751625061 0.42628064751625061 0.42628064751625061
0.55159258842468262 0.55159258842468262 0.55159258842468262
0.36087486147880554 0.36087486147880554 0.36087486147880554
0.43178892135620117 0.43178892135620117 0.43178892135620117
0.5010981559753418 0.5010981559753418 0.5010981559753418
0.57705438137054443 0.57705438137054443 0.57705438137054443
0.66246891021728516 0.66246891021728516 0.66246891021728516
0.59319806098937988 0.59319806098937988 0.59319806098937988
0.61617118120193481 0.61617118120193481 0.61617118120193481
0.649425208568573 0.649425208568573 0.649425208568573
0.71110516786575317 0.71110516786575317 0.71110516786575317
0.79343807697296143 0.79343807697296143 0.79343807697296143
0.82871490716934204 0.82871490716934204 0.82871490716934204
0.8327142596244812 0.8327142596244812 0.8327142596244812
0.84615564346313477 0.84615564346313477 0.84615564346313477
0.87505906820297241 0.87505906820297241 0.87505906820297241
0.92670696973800659 0.92670696973800659 0.92670696973800659
0.34863898158073425 0.34863898158073425 0.34863898158073425
0.40351149439811707 0.40351149439811707 0.40351149439811707
0.50137370824813843 0.50137370824813843 0.50137370824813843
0.54711616039276123 0.54711616039276123 0.54711616039276123
0.592335045337677 0.592335045337677 0.592335045337677
0.42261561751365662 0.42261561751365662 0.42261561751365662
0.45032301545143127 0.45032301545143127 0.45032301545143127
0.54024696350097656 0.54024696350097656 0.54024696350097656
0.58019423484802246 0.58019423484802246 0.58019423484802246
0.63854247331619263 0.63854247331619263 0.63854247331619263
0.45517188310623169 0.45517188310623169 0.45517188310623169
0.51811373233795166 0.51811373233795166 0.51811373233795166
0.60294616222381592 0.60294616222381592 0.60294616222381592
0.66823065280914307 0.66823065280914307 0.66823065280914307
0.71154564619064331 0.71154564619064331 0.71154564619064331
0.60923707485198975 0.60923707485198975 0.60923707485198975
0.63011521100997925 0.63011521100997925 0.63011521100997925
0.6848939061164856 0.6848939061164856 0.6848939061164856
0.75779920816421509 0.75779920816421509 0.75779920816421509
0.83464503288269043 0.83464503288269043 0.83464503288269043
0.82649987936019897 0.82649987936019897 0.82649987936019897
0.84247398376464844 0.84247398376464844 0.84247398376464844
0.86101776361465454 0.86101776361465454 0.86101776361465454
0.88064330816268921 0.88064330816268921 0.88064330816268921
0.92732173204421997 0.92732173204421997 0.92732173204421997
0.63487964868545532 0.63487964868545532 0.63487964868545532
0.6547124981880188 0.6547124981880188 0.6547124981880188
0.70316481590270996 0.70316481590270996 0.70316481590270996
0.77873504161834717 0.77873504161834717 0.77873504161834717
0.81394630670547485 0.81394630670547485 0.81394630670547485
0.65866357088088989 0.65866357088088989 0.65866357088088989
0.69000053405761719 0.69000053405761719 0.69000053405761719
0.73923605680465698 0.73923605680465698 0.73923605680465698
0.79245495796203613 0.79245495796203613 0.79245495796203613
0.81125199794769287 0.81125199794769287 0.81125199794769287
0.6846349835395813 0.6846349835395813 0.6846349835395813
0.71583253145217896 0.71583253145217896 0.71583253145217896
0.7738376259803772 0.7738376259803772 0.7738376259803772
0.82272195816040039 0.82272195816040039 0.82272195816040039
0.85559529066085815 0.85559529066085815 0.85559529066085815
0.69033634662628174 0.69033634662628174 0.69033634662628174
0.70929151773452759 0.70929151773452759 0.70929151773452759
0.75861835479736328 0.75861835479736328 0.75861835479736328
0.82949680089950562 0.82949680089950562 0.82949680089950562
0.89246934652328491 0.89246934652328491 0.89246934652328491
0.84066641330718994 0.84066641330718994 0.84066641330718994
0.85298705101013184 0.85298705101013184 0.85298705101013184
0.86624222993850708 0.86624222993850708 0.86624222993850708
0.8900333046913147 0.8900333046913147 0.8900333046913147
0.92310154438018799 0.92310154438018799 0.92310154438018799
