luts/negative_old/ilford_delta_3200_+.cube
# Created by: G'MIC (https://gmic.eu)
TITLE "ilford_delta_3200_+"
# LUT size
LUT_3D_SIZE 7
# Data domain
DOMAIN_MIN 0.0 0.0 0.0
DOMAIN_MAX 1.0 1.0 1.0
# LUT data points
0.095343619585037231 0.095343619585037231 0.095343619585037231
0.098433926701545715 0.098433926701545715 0.098433926701545715
0.12831316888332367 0.12831316888332367 0.12831316888332367
0.19039101898670197 0.19039101898670197 0.19039101898670197
0.28326457738876343 0.28326457738876343 0.28326457738876343
0.40764680504798889 0.40764680504798889 0.40764680504798889
0.5692063570022583 0.5692063570022583 0.5692063570022583
0.11670386791229248 0.11670386791229248 0.11670386791229248
0.12517476081848145 0.12517476081848145 0.12517476081848145
0.15821990370750427 0.15821990370750427 0.15821990370750427
0.2202795147895813 0.2202795147895813 0.2202795147895813
0.30765834450721741 0.30765834450721741 0.30765834450721741
0.42231011390686035 0.42231011390686035 0.42231011390686035
0.5809255838394165 0.5809255838394165 0.5809255838394165
0.1769731342792511 0.1769731342792511 0.1769731342792511
0.18783479928970337 0.18783479928970337 0.18783479928970337
0.22081191837787628 0.22081191837787628 0.22081191837787628
0.28022480010986328 0.28022480010986328 0.28022480010986328
0.36704543232917786 0.36704543232917786 0.36704543232917786
0.483894944190979 0.483894944190979 0.483894944190979
0.62955492734909058 0.62955492734909058 0.62955492734909058
0.27935120463371277 0.27935120463371277 0.27935120463371277
0.28785502910614014 0.28785502910614014 0.28785502910614014
0.3130047619342804 0.3130047619342804 0.3130047619342804
0.3666289746761322 0.3666289746761322 0.3666289746761322
0.44778135418891907 0.44778135418891907 0.44778135418891907
0.56231921911239624 0.56231921911239624 0.56231921911239624
0.70011895895004272 0.70011895895004272 0.70011895895004272
0.42498418688774109 0.42498418688774109 0.42498418688774109
0.43304741382598877 0.43304741382598877 0.43304741382598877
0.45076832175254822 0.45076832175254822 0.45076832175254822
0.49354410171508789 0.49354410171508789 0.49354410171508789
0.55850434303283691 0.55850434303283691 0.55850434303283691
0.65437740087509155 0.65437740087509155 0.65437740087509155
0.77210676670074463 0.77210676670074463 0.77210676670074463
0.62145596742630005 0.62145596742630005 0.62145596742630005
0.62897729873657227 0.62897729873657227 0.62897729873657227
0.64422369003295898 0.64422369003295898 0.64422369003295898
0.67181515693664551 0.67181515693664551 0.67181515693664551
0.71155112981796265 0.71155112981796265 0.71155112981796265
0.77023845911026001 0.77023845911026001 0.77023845911026001
0.8415825366973877 0.8415825366973877 0.8415825366973877
0.83767426013946533 0.83767426013946533 0.83767426013946533
0.84108155965805054 0.84108155965805054 0.84108155965805054
0.85244733095169067 0.85244733095169067 0.85244733095169067
0.86626642942428589 0.86626642942428589 0.86626642942428589
0.87766319513320923 0.87766319513320923 0.87766319513320923
0.897624671459198 0.897624671459198 0.897624671459198
0.92423540353775024 0.92423540353775024 0.92423540353775024
0.09309019148349762 0.09309019148349762 0.09309019148349762
0.10219618678092957 0.10219618678092957 0.10219618678092957
0.13602428138256073 0.13602428138256073 0.13602428138256073
0.20610655844211578 0.20610655844211578 0.20610655844211578
0.31074416637420654 0.31074416637420654 0.31074416637420654
0.44078442454338074 0.44078442454338074 0.44078442454338074
0.59385007619857788 0.59385007619857788 0.59385007619857788
0.11774613708257675 0.11774613708257675 0.11774613708257675
0.1351189911365509 0.1351189911365509 0.1351189911365509
0.17461620271205902 0.17461620271205902 0.17461620271205902
0.24587909877300262 0.24587909877300262 0.24587909877300262
0.34455451369285583 0.34455451369285583 0.34455451369285583
0.46547088027000427 0.46547088027000427 0.46547088027000427
0.61459445953369141 0.61459445953369141 0.61459445953369141
0.18787261843681335 0.18787261843681335 0.18787261843681335
0.21274676918983459 0.21274676918983459 0.21274676918983459
0.25104105472564697 0.25104105472564697 0.25104105472564697
0.31493696570396423 0.31493696570396423 0.31493696570396423
0.40358632802963257 0.40358632802963257 0.40358632802963257
0.51735490560531616 0.51735490560531616 0.51735490560531616
0.65602737665176392 0.65602737665176392 0.65602737665176392
0.30620667338371277 0.30620667338371277 0.30620667338371277
0.32929810881614685 0.32929810881614685 0.32929810881614685
0.35351142287254333 0.35351142287254333 0.35351142287254333
0.39864891767501831 0.39864891767501831 0.39864891767501831
0.47118937969207764 0.47118937969207764 0.47118937969207764
0.57891684770584106 0.57891684770584106 0.57891684770584106
0.71018368005752563 0.71018368005752563 0.71018368005752563
0.45352864265441895 0.45352864265441895 0.45352864265441895
0.47126337885856628 0.47126337885856628 0.47126337885856628
0.48253431916236877 0.48253431916236877 0.48253431916236877
0.51151913404464722 0.51151913404464722 0.51151913404464722
0.56235700845718384 0.56235700845718384 0.56235700845718384
0.65454721450805664 0.65454721450805664 0.65454721450805664
0.77173817157745361 0.77173817157745361 0.77173817157745361
0.63701373338699341 0.63701373338699341 0.63701373338699341
0.65102541446685791 0.65102541446685791 0.65102541446685791
0.65627521276473999 0.65627521276473999 0.65627521276473999
0.67437648773193359 0.67437648773193359 0.67437648773193359
0.71340882778167725 0.71340882778167725 0.71340882778167725
0.77583867311477661 0.77583867311477661 0.77583867311477661
0.84777063131332397 0.84777063131332397 0.84777063131332397
0.8428337574005127 0.8428337574005127 0.8428337574005127
0.8501206636428833 0.8501206636428833 0.8501206636428833
0.8535800576210022 0.8535800576210022 0.8535800576210022
0.8611912727355957 0.8611912727355957 0.8611912727355957
0.88086223602294922 0.88086223602294922 0.88086223602294922
0.91091066598892212 0.91091066598892212 0.91091066598892212
0.9375685453414917 0.9375685453414917 0.9375685453414917
0.1262090653181076 0.1262090653181076 0.1262090653181076
0.14081040024757385 0.14081040024757385 0.14081040024757385
0.17669793963432312 0.17669793963432312 0.17669793963432312
0.2421337366104126 0.2421337366104126 0.2421337366104126
0.34830471873283386 0.34830471873283386 0.34830471873283386
0.47881150245666504 0.47881150245666504 0.47881150245666504
0.62873721122741699 0.62873721122741699 0.62873721122741699
0.15677443146705627 0.15677443146705627 0.15677443146705627
0.17745955288410187 0.17745955288410187 0.17745955288410187
0.21537023782730103 0.21537023782730103 0.21537023782730103
0.28060835599899292 0.28060835599899292 0.28060835599899292
0.38234725594520569 0.38234725594520569 0.38234725594520569
0.50870269536972046 0.50870269536972046 0.50870269536972046
0.65639764070510864 0.65639764070510864 0.65639764070510864
0.2274363785982132 0.2274363785982132 0.2274363785982132
0.25899463891983032 0.25899463891983032 0.25899463891983032
0.29953905940055847 0.29953905940055847 0.29953905940055847
0.36418455839157104 0.36418455839157104 0.36418455839157104
0.45324578881263733 0.45324578881263733 0.45324578881263733
0.56326526403427124 0.56326526403427124 0.56326526403427124
0.69300442934036255 0.69300442934036255 0.69300442934036255
0.35247522592544556 0.35247522592544556 0.35247522592544556
0.38497728109359741 0.38497728109359741 0.38497728109359741
0.41200169920921326 0.41200169920921326 0.41200169920921326
0.45969584584236145 0.45969584584236145 0.45969584584236145
0.52978748083114624 0.52978748083114624 0.52978748083114624
0.62474489212036133 0.62474489212036133 0.62474489212036133
0.73647135496139526 0.73647135496139526 0.73647135496139526
0.52110344171524048 0.52110344171524048 0.52110344171524048
0.53338080644607544 0.53338080644607544 0.53338080644607544
0.54842841625213623 0.54842841625213623 0.54842841625213623
0.57362866401672363 0.57362866401672363 0.57362866401672363
0.61413466930389404 0.61413466930389404 0.61413466930389404
0.69074612855911255 0.69074612855911255 0.69074612855911255
0.78851759433746338 0.78851759433746338 0.78851759433746338
0.6896517276763916 0.6896517276763916 0.6896517276763916
0.70154780149459839 0.70154780149459839 0.70154780149459839
0.70422559976577759 0.70422559976577759 0.70422559976577759
0.71200418472290039 0.71200418472290039 0.71200418472290039
0.73740363121032715 0.73740363121032715 0.73740363121032715
0.79251062870025635 0.79251062870025635 0.79251062870025635
0.86009687185287476 0.86009687185287476 0.86009687185287476
0.86887288093566895 0.86887288093566895 0.86887288093566895
0.87513065338134766 0.87513065338134766 0.87513065338134766
0.87198173999786377 0.87198173999786377 0.87198173999786377
0.87096822261810303 0.87096822261810303 0.87096822261810303
0.88352209329605103 0.88352209329605103 0.88352209329605103
0.91197007894515991 0.91197007894515991 0.91197007894515991
0.94594931602478027 0.94594931602478027 0.94594931602478027
0.19884264469146729 0.19884264469146729 0.19884264469146729
0.21917186677455902 0.21917186677455902 0.21917186677455902
0.27008342742919922 0.27008342742919922 0.27008342742919922
0.31689795851707458 0.31689795851707458 0.31689795851707458
0.37021079659461975 0.37021079659461975 0.37021079659461975
0.50644814968109131 0.50644814968109131 0.50644814968109131
0.66560077667236328 0.66560077667236328 0.66560077667236328
0.24311926960945129 0.24311926960945129 0.24311926960945129
0.25731745362281799 0.25731745362281799 0.25731745362281799
0.29493764042854309 0.29493764042854309 0.29493764042854309
0.34364843368530273 0.34364843368530273 0.34364843368530273
0.40944629907608032 0.40944629907608032 0.40944629907608032
0.53475171327590942 0.53475171327590942 0.53475171327590942
0.6972164511680603 0.6972164511680603 0.6972164511680603
0.29064646363258362 0.29064646363258362 0.29064646363258362
0.31629243493080139 0.31629243493080139 0.31629243493080139
0.36322611570358276 0.36322611570358276 0.36322611570358276
0.42576473951339722 0.42576473951339722 0.42576473951339722
0.49599790573120117 0.49599790573120117 0.49599790573120117
0.5952410101890564 0.5952410101890564 0.5952410101890564
0.72629910707473755 0.72629910707473755 0.72629910707473755
0.37492474913597107 0.37492474913597107 0.37492474913597107
0.40296831727027893 0.40296831727027893 0.40296831727027893
0.45360645651817322 0.45360645651817322 0.45360645651817322
0.52271765470504761 0.52271765470504761 0.52271765470504761
0.59273207187652588 0.59273207187652588 0.59273207187652588
0.67089807987213135 0.67089807987213135 0.67089807987213135
0.76357185840606689 0.76357185840606689 0.76357185840606689
0.53605633974075317 0.53605633974075317 0.53605633974075317
0.55193555355072021 0.55193555355072021 0.55193555355072021
0.59855669736862183 0.59855669736862183 0.59855669736862183
0.64014190435409546 0.64014190435409546 0.64014190435409546
0.67501682043075562 0.67501682043075562 0.67501682043075562
0.73637622594833374 0.73637622594833374 0.73637622594833374
0.81310802698135376 0.81310802698135376 0.81310802698135376
0.72055643796920776 0.72055643796920776 0.72055643796920776
0.72911638021469116 0.72911638021469116 0.72911638021469116
0.74825924634933472 0.74825924634933472 0.74825924634933472
0.76185435056686401 0.76185435056686401 0.76185435056686401
0.77514791488647461 0.77514791488647461 0.77514791488647461
0.8205752968788147 0.8205752968788147 0.8205752968788147
0.87679970264434814 0.87679970264434814 0.87679970264434814
0.89273202419281006 0.89273202419281006 0.89273202419281006
0.89387845993041992 0.89387845993041992 0.89387845993041992
0.89146220684051514 0.89146220684051514 0.89146220684051514
0.8919641375541687 0.8919641375541687 0.8919641375541687
0.89726036787033081 0.89726036787033081 0.89726036787033081
0.91833150386810303 0.91833150386810303 0.91833150386810303
0.95039719343185425 0.95039719343185425 0.95039719343185425
0.30515220761299133 0.30515220761299133 0.30515220761299133
0.3266245424747467 0.3266245424747467 0.3266245424747467
0.37944707274436951 0.37944707274436951 0.37944707274436951
0.44109824299812317 0.44109824299812317 0.44109824299812317
0.48646652698516846 0.48646652698516846 0.48646652698516846
0.53602534532546997 0.53602534532546997 0.53602534532546997
0.69763410091400146 0.69763410091400146 0.69763410091400146
0.36339077353477478 0.36339077353477478 0.36339077353477478
0.37254053354263306 0.37254053354263306 0.37254053354263306
0.4159107506275177 0.4159107506275177 0.4159107506275177
0.48123690485954285 0.48123690485954285 0.48123690485954285
0.52007681131362915 0.52007681131362915 0.52007681131362915
0.57585841417312622 0.57585841417312622 0.57585841417312622
0.72411978244781494 0.72411978244781494 0.72411978244781494
0.39750379323959351 0.39750379323959351 0.39750379323959351
0.41832628846168518 0.41832628846168518 0.41832628846168518
0.47678953409194946 0.47678953409194946 0.47678953409194946
0.54171794652938843 0.54171794652938843 0.54171794652938843
0.58690559864044189 0.58690559864044189 0.58690559864044189
0.62976497411727905 0.62976497411727905 0.62976497411727905
0.7491418719291687 0.7491418719291687 0.7491418719291687
0.43950366973876953 0.43950366973876953 0.43950366973876953
0.46075642108917236 0.46075642108917236 0.46075642108917236
0.53038477897644043 0.53038477897644043 0.53038477897644043
0.59932839870452881 0.59932839870452881 0.59932839870452881
0.65529567003250122 0.65529567003250122 0.65529567003250122
0.69863379001617432 0.69863379001617432 0.69863379001617432
0.78311467170715332 0.78311467170715332 0.78311467170715332
0.54836028814315796 0.54836028814315796 0.54836028814315796
0.56669151782989502 0.56669151782989502 0.56669151782989502
0.60888785123825073 0.60888785123825073 0.60888785123825073
0.66606301069259644 0.66606301069259644 0.66606301069259644
0.72678571939468384 0.72678571939468384 0.72678571939468384
0.77693849802017212 0.77693849802017212 0.77693849802017212
0.83860218524932861 0.83860218524932861 0.83860218524932861
0.71592044830322266 0.71592044830322266 0.71592044830322266
0.72491949796676636 0.72491949796676636 0.72491949796676636
0.74729764461517334 0.74729764461517334 0.74729764461517334
0.79520046710968018 0.79520046710968018 0.79520046710968018
0.82585436105728149 0.82585436105728149 0.82585436105728149
0.85553574562072754 0.85553574562072754 0.85553574562072754
0.89812201261520386 0.89812201261520386 0.89812201261520386
0.88680708408355713 0.88680708408355713 0.88680708408355713
0.89009690284729004 0.89009690284729004 0.89009690284729004
0.89236116409301758 0.89236116409301758 0.89236116409301758
0.9098060131072998 0.9098060131072998 0.9098060131072998
0.92007273435592651 0.92007273435592651 0.92007273435592651
0.93171232938766479 0.93171232938766479 0.93171232938766479
0.9561387300491333 0.9561387300491333 0.9561387300491333
0.47962629795074463 0.47962629795074463 0.47962629795074463
0.49497181177139282 0.49497181177139282 0.49497181177139282
0.53341352939605713 0.53341352939605713 0.53341352939605713
0.59988820552825928 0.59988820552825928 0.59988820552825928
0.67108017206192017 0.67108017206192017 0.67108017206192017
0.68983954191207886 0.68983954191207886 0.68983954191207886
0.72544974088668823 0.72544974088668823 0.72544974088668823
0.53475767374038696 0.53475767374038696 0.53475767374038696
0.54128628969192505 0.54128628969192505 0.54128628969192505
0.57464921474456787 0.57464921474456787 0.57464921474456787
0.63424348831176758 0.63424348831176758 0.63424348831176758
0.68976885080337524 0.68976885080337524 0.68976885080337524
0.70271652936935425 0.70271652936935425 0.70271652936935425
0.74057561159133911 0.74057561159133911 0.74057561159133911
0.57953876256942749 0.57953876256942749 0.57953876256942749
0.59070420265197754 0.59070420265197754 0.59070420265197754
0.635265052318573 0.635265052318573 0.635265052318573
0.68663245439529419 0.68663245439529419 0.68663245439529419
0.73558914661407471 0.73558914661407471 0.73558914661407471
0.73727649450302124 0.73727649450302124 0.73727649450302124
0.78288573026657104 0.78288573026657104 0.78288573026657104
0.58931928873062134 0.58931928873062134 0.58931928873062134
0.60972779989242554 0.60972779989242554 0.60972779989242554
0.66950035095214844 0.66950035095214844 0.66950035095214844
0.71602356433868408 0.71602356433868408 0.71602356433868408
0.75583124160766602 0.75583124160766602 0.75583124160766602
0.77656131982803345 0.77656131982803345 0.77656131982803345
0.82931745052337646 0.82931745052337646 0.82931745052337646
0.6359371542930603 0.6359371542930603 0.6359371542930603
0.65339821577072144 0.65339821577072144 0.65339821577072144
0.69003832340240479 0.69003832340240479 0.69003832340240479
0.74302703142166138 0.74302703142166138 0.74302703142166138
0.79343581199645996 0.79343581199645996 0.79343581199645996
0.83205771446228027 0.83205771446228027 0.83205771446228027
0.87743699550628662 0.87743699550628662 0.87743699550628662
0.75333064794540405 0.75333064794540405 0.75333064794540405
0.75715881586074829 0.75715881586074829 0.75715881586074829
0.77437633275985718 0.77437633275985718 0.77437633275985718
0.81926238536834717 0.81926238536834717 0.81926238536834717
0.8588678240776062 0.8588678240776062 0.8588678240776062
0.89057987928390503 0.89057987928390503 0.89057987928390503
0.92348849773406982 0.92348849773406982 0.92348849773406982
0.88302844762802124 0.88302844762802124 0.88302844762802124
0.88683152198791504 0.88683152198791504 0.88683152198791504
0.88882887363433838 0.88882887363433838 0.88882887363433838
0.90718382596969604 0.90718382596969604 0.90718382596969604
0.92547869682312012 0.92547869682312012 0.92547869682312012
0.93966573476791382 0.93966573476791382 0.93966573476791382
0.95863872766494751 0.95863872766494751 0.95863872766494751
0.73053133487701416 0.73053133487701416 0.73053133487701416
0.73337727785110474 0.73337727785110474 0.73337727785110474
0.75508475303649902 0.75508475303649902 0.75508475303649902
0.78313648700714111 0.78313648700714111 0.78313648700714111
0.83176714181900024 0.83176714181900024 0.83176714181900024
0.87112432718276978 0.87112432718276978 0.87112432718276978
0.86655235290527344 0.86655235290527344 0.86655235290527344
0.75660175085067749 0.75660175085067749 0.75660175085067749
0.75847047567367554 0.75847047567367554 0.75847047567367554
0.76945877075195312 0.76945877075195312 0.76945877075195312
0.79183638095855713 0.79183638095855713 0.79183638095855713
0.8294791579246521 0.8294791579246521 0.8294791579246521
0.85836160182952881 0.85836160182952881 0.85836160182952881
0.86326658725738525 0.86326658725738525 0.86326658725738525
0.78894633054733276 0.78894633054733276 0.78894633054733276
0.78751975297927856 0.78751975297927856 0.78751975297927856
0.79785656929016113 0.79785656929016113 0.79785656929016113
0.81984716653823853 0.81984716653823853 0.81984716653823853
0.84946954250335693 0.84946954250335693 0.84946954250335693
0.8734784722328186 0.8734784722328186 0.8734784722328186
0.8921540379524231 0.8921540379524231 0.8921540379524231
0.77752971649169922 0.77752971649169922 0.77752971649169922
0.78608053922653198 0.78608053922653198 0.78608053922653198
0.80720031261444092 0.80720031261444092 0.80720031261444092
0.83432197570800781 0.83432197570800781 0.83432197570800781
0.86233150959014893 0.86233150959014893 0.86233150959014893
0.88595479726791382 0.88595479726791382 0.88595479726791382
0.91533750295639038 0.91533750295639038 0.91533750295639038
0.76852935552597046 0.76852935552597046 0.76852935552597046
0.78498423099517822 0.78498423099517822 0.78498423099517822
0.80863481760025024 0.80863481760025024 0.80863481760025024
0.83991783857345581 0.83991783857345581 0.83991783857345581
0.87232816219329834 0.87232816219329834 0.87232816219329834
0.90088832378387451 0.90088832378387451 0.90088832378387451
0.93257707357406616 0.93257707357406616 0.93257707357406616
0.83563876152038574 0.83563876152038574 0.83563876152038574
0.83301550149917603 0.83301550149917603 0.83301550149917603
0.84328180551528931 0.84328180551528931 0.84328180551528931
0.8679547905921936 0.8679547905921936 0.8679547905921936
0.89664822816848755 0.89664822816848755 0.89664822816848755
0.92234516143798828 0.92234516143798828 0.92234516143798828
0.94769501686096191 0.94769501686096191 0.94769501686096191
0.90337353944778442 0.90337353944778442 0.90337353944778442
0.90614533424377441 0.90614533424377441 0.90614533424377441
0.90775769948959351 0.90775769948959351 0.90775769948959351
0.91710859537124634 0.91710859537124634 0.91710859537124634
0.93436777591705322 0.93436777591705322 0.93436777591705322
0.94723391532897949 0.94723391532897949 0.94723391532897949
0.95978224277496338 0.95978224277496338 0.95978224277496338
