luts/negative_old/kodak_portra_160_nc_+.cube
# Created by: G'MIC (https://gmic.eu)
TITLE "kodak_portra_160_nc_+"
# LUT size
LUT_3D_SIZE 13
# Data domain
DOMAIN_MIN 0.0 0.0 0.0
DOMAIN_MAX 1.0 1.0 1.0
# LUT data points
0.067118220031261444 0.088389992713928223 0.090149387717247009
0.079750895500183105 0.083961799740791321 0.087123781442642212
0.12112220376729965 0.085605069994926453 0.085642844438552856
0.17652231454849243 0.088569283485412598 0.083654917776584625
0.25317901372909546 0.089199498295783997 0.081973686814308167
0.36862429976463318 0.093613073229789734 0.077399343252182007
0.49570557475090027 0.09212532639503479 0.065645046532154083
0.61937606334686279 0.085368797183036804 0.049709782004356384
0.71912693977355957 0.092081271111965179 0.037826687097549438
0.79512912034988403 0.11147783696651459 0.027972636744379997
0.86143010854721069 0.13506686687469482 0.020689886063337326
0.92195653915405273 0.16487757861614227 0.01873563788831234
0.97515660524368286 0.19867332279682159 0.026775136590003967
0.064596466720104218 0.098906621336936951 0.090301990509033203
0.08193187415599823 0.10164748877286911 0.088758088648319244
0.1276562362909317 0.10756524652242661 0.086510710418224335
0.19580934941768646 0.11836793273687363 0.082568041980266571
0.2823023796081543 0.12725478410720825 0.075200729072093964
0.39607858657836914 0.12870681285858154 0.068917594850063324
0.52130353450775146 0.13237304985523224 0.053009767085313797
0.64063656330108643 0.13522733747959137 0.035258080810308456
0.72677785158157349 0.14494319260120392 0.027325363829731941
0.80076658725738525 0.15656054019927979 0.018373886123299599
0.86646932363510132 0.17423059046268463 0.01313807163387537
0.92463952302932739 0.19741292297840118 0.013938170857727528
0.97867268323898315 0.22348196804523468 0.016852345317602158
0.057985000312328339 0.1363300234079361 0.096430808305740356
0.080005824565887451 0.14238476753234863 0.095623090863227844
0.12427326291799545 0.14955776929855347 0.089038491249084473
0.20751935243606567 0.16766698658466339 0.076534554362297058
0.31385898590087891 0.18348291516304016 0.059713639318943024
0.44272342324256897 0.19291439652442932 0.041112728416919708
0.56588834524154663 0.20159107446670532 0.024772629141807556
0.67051982879638672 0.20645628869533539 0.013364784419536591
0.74429178237915039 0.21453765034675598 0.011218635365366936
0.81413191556930542 0.2197912335395813 0.0067298440262675285
0.8736799955368042 0.22821199893951416 0.0073000588454306126
0.92953407764434814 0.24780216813087463 0.01038227416574955
0.98033297061920166 0.26830798387527466 0.01112792082130909
0.039397265762090683 0.19962942600250244 0.10978806763887405
0.071389950811862946 0.20289291441440582 0.11028572171926498
0.1263384222984314 0.2154143750667572 0.10170575231313705
0.20556561648845673 0.23787607252597809 0.081996604800224304
0.33049073815345764 0.270395427942276 0.041743125766515732
0.4850362241268158 0.2906242311000824 0.010960148647427559
0.61259740591049194 0.29497981071472168 0.0041061104275286198
0.70411157608032227 0.29619333148002625 0.0021967419888824224
0.76904541254043579 0.29967877268791199 0.0040397043339908123
0.82972127199172974 0.29884505271911621 0.0045643225312232971
0.88609606027603149 0.29631394147872925 0.0065000946633517742
0.93815761804580688 0.30355328321456909 0.0078670131042599678
0.98403912782669067 0.32243156433105469 0.0084721138700842857
0.0072314245626330376 0.30174055695533752 0.13163681328296661
0.039171285927295685 0.30480116605758667 0.13255177438259125
0.1158750057220459 0.31315881013870239 0.12287983298301697
0.20624105632305145 0.33388924598693848 0.098830863833427429
0.32951083779335022 0.36709433794021606 0.047333631664514542
0.48435044288635254 0.40298017859458923 0.0064304424449801445
0.61278098821640015 0.4100169837474823 0.001466594054363668
0.71153998374938965 0.40127384662628174 0.00096270989160984755
0.78901112079620361 0.38895776867866516 0.0021504720207303762
0.84466284513473511 0.37988299131393433 0.0039138044230639935
0.89846628904342651 0.37473425269126892 0.0042483462020754814
0.94575858116149902 0.3726840615272522 0.0069932378828525543
0.98633646965026855 0.38162809610366821 0.0079368744045495987
0.0026123644784092903 0.42350888252258301 0.15745362639427185
0.014009214006364346 0.42622402310371399 0.15932665765285492
0.097573556005954742 0.43120238184928894 0.15285186469554901
0.21293741464614868 0.43738511204719543 0.13435637950897217
0.32800748944282532 0.45882061123847961 0.080903910100460052
0.45497032999992371 0.48691096901893616 0.020968388766050339
0.58859598636627197 0.51202487945556641 0.0010372087126597762
0.69134747982025146 0.50513619184494019 4.6913297410355881e-05
0.77821546792984009 0.48570284247398376 0.00087772443657740951
0.84790176153182983 0.46941491961479187 0.0018455504905432463
0.9105486273765564 0.45818254351615906 0.0027224372606724501
0.95772981643676758 0.44959381222724915 0.0051831412129104137
0.99121880531311035 0.44804540276527405 0.0076084062457084656
0.0062695522792637348 0.52549397945404053 0.19550797343254089
0.03034026175737381 0.52862733602523804 0.19895267486572266
0.13169203698635101 0.52556848526000977 0.20000414550304413
0.23428201675415039 0.52542853355407715 0.1887952983379364
0.32863268256187439 0.53650486469268799 0.15343104302883148
0.42931848764419556 0.55293136835098267 0.097189657390117645
0.54366987943649292 0.57054233551025391 0.031610406935214996
0.65960872173309326 0.5881999135017395 0.0037138694897294044
0.75677764415740967 0.58485448360443115 0.00010860667680390179
0.83012109994888306 0.56536829471588135 0.0007215163204818964
0.90121150016784668 0.54478681087493896 0.0021195653825998306
0.96114295721054077 0.5287402868270874 0.0026379453483968973
0.99649304151535034 0.5212700366973877 0.0028209311421960592
0.098076827824115753 0.60430240631103516 0.25812456011772156
0.14827552437782288 0.6040845513343811 0.26287105679512024
0.21669270098209381 0.60163027048110962 0.26382333040237427
0.28781032562255859 0.59779882431030273 0.25745269656181335
0.3584044873714447 0.60167068243026733 0.24198172986507416
0.44069936871528625 0.61327981948852539 0.20448212325572968
0.52440613508224487 0.62669885158538818 0.14033477008342743
0.61451560258865356 0.64028120040893555 0.063728258013725281
0.71899867057800293 0.65598815679550171 0.011500519700348377
0.80831044912338257 0.65427559614181519 0.0011667289072647691
0.87889128923416138 0.63443136215209961 0.001645944663323462
0.94411295652389526 0.61724966764450073 0.0020610734354704618
0.99135112762451172 0.60370820760726929 0.0036475537344813347
0.25613296031951904 0.66918349266052246 0.33903634548187256
0.2702692449092865 0.66474658250808716 0.34201398491859436
0.30278044939041138 0.66299140453338623 0.34410446882247925
0.35727506875991821 0.66260504722595215 0.34115886688232422
0.40740218758583069 0.66359961032867432 0.33264309167861938
0.46490389108657837 0.6719476580619812 0.30887100100517273
0.52276444435119629 0.68246090412139893 0.2727101743221283
0.59292179346084595 0.69189631938934326 0.21683961153030396
0.67751771211624146 0.70276594161987305 0.13723818957805634
0.77020120620727539 0.7161865234375 0.056418325752019882
0.85841101408004761 0.71905028820037842 0.007851993665099144
0.9265139102935791 0.70564275979995728 0.0040795421227812767
0.98210442066192627 0.68969249725341797 0.0089668277651071548
0.37891212105751038 0.72853118181228638 0.42403703927993774
0.38519543409347534 0.72462576627731323 0.4255366325378418
0.39853742718696594 0.72186076641082764 0.42650452256202698
0.43375381827354431 0.72198396921157837 0.42567282915115356
0.4697965681552887 0.72176265716552734 0.41897621750831604
0.50685954093933105 0.72739243507385254 0.40632295608520508
0.5508541464805603 0.73507100343704224 0.38264167308807373
0.59990179538726807 0.74282097816467285 0.34815070033073425
0.66353929042816162 0.7517240047454834 0.30657705664634705
0.73613876104354858 0.7597811222076416 0.25172561407089233
0.82120394706726074 0.77308917045593262 0.16261526942253113
0.90326446294784546 0.78001296520233154 0.10149969905614853
0.96875286102294922 0.77087163925170898 0.11764948070049286
0.48441311717033386 0.78477358818054199 0.51230865716934204
0.49114659428596497 0.78291934728622437 0.51277858018875122
0.49983161687850952 0.78012275695800781 0.51101958751678467
0.51422369480133057 0.7786259651184082 0.50836211442947388
0.53787261247634888 0.7782861590385437 0.50254154205322266
0.56545871496200562 0.78043138980865479 0.49470418691635132
0.59479987621307373 0.78537088632583618 0.48470872640609741
0.63062620162963867 0.79077780246734619 0.4628136157989502
0.6773831844329834 0.79804360866546631 0.43733412027359009
0.73012739419937134 0.80485004186630249 0.40757343173027039
0.79308104515075684 0.81459236145019531 0.36743450164794922
0.87014645338058472 0.82807028293609619 0.31054997444152832
0.94787228107452393 0.83794605731964111 0.27842915058135986
0.57950234413146973 0.83812457323074341 0.60277503728866577
0.58697843551635742 0.83807188272476196 0.6049811840057373
0.59502166509628296 0.8364410400390625 0.60348355770111084
0.60102289915084839 0.83397406339645386 0.59829163551330566
0.61645591259002686 0.83317059278488159 0.59658646583557129
0.63917034864425659 0.83597546815872192 0.59258610010147095
0.65964698791503906 0.83810698986053467 0.58585458993911743
0.68267560005187988 0.84227794408798218 0.57450813055038452
0.71130490303039551 0.84792411327362061 0.55960249900817871
0.75023347139358521 0.85514593124389648 0.5397266149520874
0.80063122510910034 0.86462694406509399 0.51537811756134033
0.852009117603302 0.87355583906173706 0.4881950318813324
0.91441333293914795 0.88198548555374146 0.45038166642189026
0.67416840791702271 0.89209538698196411 0.69237291812896729
0.67772454023361206 0.8913264274597168 0.69382935762405396
0.68358743190765381 0.8897973895072937 0.69411218166351318
0.68930375576019287 0.88886499404907227 0.69254744052886963
0.70128679275512695 0.88914662599563599 0.69386863708496094
0.71702051162719727 0.88948553800582886 0.69419628381729126
0.73257642984390259 0.89208251237869263 0.69287359714508057
0.74852287769317627 0.8955034613609314 0.68599754571914673
0.76773059368133545 0.9010469913482666 0.67458873987197876
0.79535287618637085 0.90943735837936401 0.66358458995819092
0.82703405618667603 0.91560620069503784 0.64804595708847046
0.86309444904327393 0.92484951019287109 0.6357535719871521
0.90760785341262817 0.93239688873291016 0.6140933632850647
0.064901985228061676 0.084457129240036011 0.10509398579597473
0.082167185842990875 0.082573309540748596 0.10462215542793274
0.12703149020671844 0.082626238465309143 0.1045941635966301
0.18370825052261353 0.080837547779083252 0.10271398723125458
0.25953155755996704 0.081263236701488495 0.10473481565713882
0.36898049712181091 0.080167151987552643 0.10811889916658401
0.49156272411346436 0.07241453230381012 0.10524754226207733
0.61450040340423584 0.057548105716705322 0.099414333701133728
0.71690475940704346 0.063849881291389465 0.091452114284038544
0.7919880747795105 0.088072516024112701 0.087691634893417358
0.85767954587936401 0.11952375620603561 0.082609407603740692
0.91903114318847656 0.15765328705310822 0.080165833234786987
0.97491854429244995 0.1935771107673645 0.085961990058422089
0.06041862815618515 0.10218346118927002 0.10830923169851303
0.086961142718791962 0.10496945679187775 0.11289798468351364
0.13354580104351044 0.10720732808113098 0.10872216522693634
0.19836726784706116 0.11316344141960144 0.10637033730745316
0.28353247046470642 0.12051527947187424 0.10582298040390015
0.39531633257865906 0.11816772818565369 0.10558342933654785
0.51784157752990723 0.11525856703519821 0.097254611551761627
0.63567721843719482 0.1122199147939682 0.089603453874588013
0.72694534063339233 0.12265647202730179 0.084412321448326111
0.79918366670608521 0.13784892857074738 0.076463036239147186
0.86288458108901978 0.16522809863090515 0.071607358753681183
0.92256653308868408 0.19692057371139526 0.072706960141658783
0.97530657052993774 0.22328886389732361 0.082398466765880585
0.057160951197147369 0.1451936811208725 0.1218063086271286
0.086676627397537231 0.14855565130710602 0.12385774403810501
0.13395613431930542 0.15620934963226318 0.12090753018856049
0.21034811437129974 0.16735611855983734 0.11018235236406326
0.32062169909477234 0.17836321890354156 0.098630554974079132
0.44239449501037598 0.18529665470123291 0.088089719414710999
0.56109035015106201 0.19310040771961212 0.073434703052043915
0.66764044761657715 0.1938873827457428 0.066220059990882874
0.74521040916442871 0.20131298899650574 0.062568753957748413
0.8115270733833313 0.20904006063938141 0.058644238859415054
0.87295770645141602 0.22532971203327179 0.051706008613109589
0.92960768938064575 0.24796374142169952 0.055965542793273926
0.97930043935775757 0.26797083020210266 0.070520110428333282
0.043234493583440781 0.21354813873767853 0.14145338535308838
0.075814299285411835 0.21411889791488647 0.1418256014585495
0.13153956830501556 0.2208964079618454 0.13648694753646851
0.20963107049465179 0.24219481647014618 0.11986807733774185
0.34308081865310669 0.26915326714515686 0.094010703265666962
0.49469217658042908 0.28743472695350647 0.060924068093299866
0.61509323120117188 0.29172858595848083 0.039451256394386292
0.70030605792999268 0.28975334763526917 0.036028288304805756
0.76868897676467896 0.28854921460151672 0.030539853498339653
0.82888150215148926 0.29069289565086365 0.030790681019425392
0.88633078336715698 0.29414486885070801 0.028422143310308456
0.93824559450149536 0.3041776716709137 0.034209500998258591
0.98476392030715942 0.32013645768165588 0.050236228853464127
0.0064350501634180546 0.31651970744132996 0.16314095258712769
0.039068754762411118 0.32054758071899414 0.16471751034259796
0.12474261969327927 0.32583621144294739 0.16149480640888214
0.21445898711681366 0.34124347567558289 0.14359639585018158
0.34054207801818848 0.37261587381362915 0.099460259079933167
0.49404963850975037 0.40525758266448975 0.036239564418792725
0.62352776527404785 0.40700188279151917 0.013311558403074741
0.71667993068695068 0.39480507373809814 0.010674376040697098
0.78772884607315063 0.38136735558509827 0.010540292598307133
0.84533548355102539 0.37439987063407898 0.012089957483112812
0.89832770824432373 0.37217342853546143 0.014383787289261818
0.94797402620315552 0.37219560146331787 0.017228757962584496
0.98866689205169678 0.38056337833404541 0.02905070036649704
0.0023869234137237072 0.43313497304916382 0.19160467386245728
0.022530604153871536 0.43838465213775635 0.19416032731533051
0.12159654498100281 0.43971654772758484 0.19367879629135132
0.22863055765628815 0.44362619519233704 0.18300233781337738
0.33434334397315979 0.46388864517211914 0.141179159283638
0.46363285183906555 0.48823711276054382 0.072794385254383087
0.5965193510055542 0.51112979650497437 0.012214376591145992
0.69902253150939941 0.5030021071434021 0.0030928219202905893
0.78193080425262451 0.48124200105667114 0.0050449147820472717
0.85098642110824585 0.46600893139839172 0.0059024887159466743
0.90801447629928589 0.4571366012096405 0.0069144456647336483
0.95756047964096069 0.44837531447410583 0.0089620854705572128
0.99217730760574341 0.44766515493392944 0.017118312418460846
0.017552709206938744 0.53268945217132568 0.22995570302009583
0.06745445728302002 0.53649532794952393 0.23746086657047272
0.16491654515266418 0.53391486406326294 0.24030236899852753
0.25815299153327942 0.53464221954345703 0.23064950108528137
0.33861473202705383 0.54232382774353027 0.20207318663597107
0.43895229697227478 0.55498874187469482 0.15379606187343597
0.54878073930740356 0.57158201932907104 0.082862347364425659
0.6649634838104248 0.58890223503112793 0.020087508484721184
0.76009654998779297 0.58515304327011108 0.0033878250978887081
0.83348256349563599 0.56592720746994019 0.0041483710519969463
0.90231233835220337 0.54612290859222412 0.0071516595780849457
0.95818191766738892 0.52901721000671387 0.0074286367744207382
0.99324637651443481 0.52207958698272705 0.0085234548896551132
0.1479618102312088 0.6097596287727356 0.29259684681892395
0.19010151922702789 0.60824394226074219 0.30000674724578857
0.24890589714050293 0.60531914234161377 0.30395925045013428
0.31675902009010315 0.60373306274414062 0.29481595754623413
0.37418940663337708 0.60567384958267212 0.27978727221488953
0.44815027713775635 0.61477243900299072 0.24511021375656128
0.5271335244178772 0.62806791067123413 0.19722823798656464
0.61902898550033569 0.64112633466720581 0.1265847384929657
0.72154241800308228 0.65693992376327515 0.03929678350687027
0.81109273433685303 0.65591311454772949 0.006602313369512558
0.8818209171295166 0.63786894083023071 0.0075803720392286777
0.94529932737350464 0.61909002065658569 0.0096450354903936386
0.99014741182327271 0.60561138391494751 0.0097083896398544312
0.28756505250930786 0.6726381778717041 0.36834794282913208
0.29984903335571289 0.66935437917709351 0.37202095985412598
0.33190524578094482 0.66746574640274048 0.37577894330024719
0.38030803203582764 0.66626167297363281 0.37145379185676575
0.42492631077766418 0.66646021604537964 0.36456567049026489
0.47463905811309814 0.67294692993164062 0.34350630640983582
0.53102332353591919 0.68315666913986206 0.30817133188247681
0.59795117378234863 0.69167482852935791 0.25851890444755554
0.68228203058242798 0.70266813039779663 0.19088076055049896
0.77431422472000122 0.71735018491744995 0.10022668540477753
0.85933297872543335 0.72007185220718384 0.044182166457176208
0.92744201421737671 0.70719242095947266 0.046951025724411011
0.9830518364906311 0.69116431474685669 0.054764136672019958
0.39521896839141846 0.72863447666168213 0.44716072082519531
0.40312603116035461 0.72789090871810913 0.44788327813148499
0.4199327826499939 0.7252463698387146 0.45022895932197571
0.4539029598236084 0.72466933727264404 0.44954827427864075
0.48384585976600647 0.72339564561843872 0.44258290529251099
0.51701241731643677 0.72695690393447876 0.43159711360931396
0.55801886320114136 0.73423725366592407 0.40968397259712219
0.60760557651519775 0.74066627025604248 0.37374380230903625
0.66740250587463379 0.74955403804779053 0.33625039458274841
0.74025160074234009 0.7589106559753418 0.28458115458488464
0.8225281834602356 0.77141022682189941 0.21919094026088715
0.90359419584274292 0.77922004461288452 0.17625530064105988
0.96691358089447021 0.77016580104827881 0.18878284096717834
0.49163466691970825 0.78377926349639893 0.52487778663635254
0.50113123655319214 0.78323733806610107 0.52774292230606079
0.51240843534469604 0.78237247467041016 0.52923679351806641
0.52805101871490479 0.77957969903945923 0.52634346485137939
0.54662173986434937 0.77755463123321533 0.51983404159545898
0.57298201322555542 0.78003114461898804 0.51281839609146118
0.60388743877410889 0.78492432832717896 0.50245696306228638
0.63704729080200195 0.79066222906112671 0.4805540144443512
0.67985492944717407 0.79725527763366699 0.45694407820701599
0.73397111892700195 0.80550140142440796 0.42911940813064575
0.79738712310791016 0.81508493423461914 0.39124611020088196
0.87325376272201538 0.82816153764724731 0.34015300869941711
0.94644027948379517 0.83759069442749023 0.31141266226768494
0.58531242609024048 0.83798623085021973 0.61077350378036499
0.59385049343109131 0.83858335018157959 0.6152569055557251
0.60255438089370728 0.83797091245651245 0.61585944890975952
0.61146014928817749 0.83616846799850464 0.61212587356567383
0.62421309947967529 0.83325469493865967 0.60811221599578857
0.64281296730041504 0.8339354395866394 0.60715514421463013
0.66627496480941772 0.83802801370620728 0.59822279214859009
0.69084048271179199 0.84262049198150635 0.584403395652771
0.7165563702583313 0.8481450080871582 0.57060027122497559
0.75585871934890747 0.85666924715042114 0.55625206232070923
0.803058922290802 0.86414557695388794 0.53004556894302368
0.85384029150009155 0.87267589569091797 0.50080567598342896
0.9159085750579834 0.88116228580474854 0.46458232402801514
0.67812943458557129 0.89118278026580811 0.69774812459945679
0.68123048543930054 0.89131027460098267 0.70054531097412109
0.68630564212799072 0.89096230268478394 0.7002558708190918
0.69361275434494019 0.8905951976776123 0.69929635524749756
0.70399516820907593 0.89042091369628906 0.6983945369720459
0.71708571910858154 0.88843381404876709 0.69955825805664062
0.73457330465316772 0.89179849624633789 0.70033895969390869
0.75179612636566162 0.8950543999671936 0.69054245948791504
0.76911574602127075 0.89927017688751221 0.67825597524642944
0.79765129089355469 0.90912836790084839 0.67235344648361206
0.82892769575119019 0.91713219881057739 0.65920639038085938
0.86621904373168945 0.92427992820739746 0.64110291004180908
0.90879291296005249 0.93143033981323242 0.62043505907058716
0.054724134504795074 0.085241012275218964 0.14755012094974518
0.083851970732212067 0.082015678286552429 0.14762353897094727
0.12745901942253113 0.08288034051656723 0.14728587865829468
0.18723906576633453 0.081674747169017792 0.14640392363071442
0.27592605352401733 0.068427875638008118 0.1483931839466095
0.38683828711509705 0.038245946168899536 0.14817959070205688
0.50829225778579712 0.022063596174120903 0.15078991651535034
0.62663072347640991 0.017911739647388458 0.15116944909095764
0.71773850917816162 0.030158428475260735 0.15392181277275085
0.78852707147598267 0.062166925519704819 0.15435944497585297
0.85238033533096313 0.10574222356081009 0.15569265186786652
0.91371053457260132 0.14964891970157623 0.15443339943885803
0.96994471549987793 0.19087094068527222 0.15756158530712128
0.042567234486341476 0.11021332442760468 0.15639404952526093
0.082818649709224701 0.1101209744811058 0.16131500899791718
0.13416872918605804 0.11228393763303757 0.15909707546234131
0.19803032279014587 0.11395878344774246 0.15659907460212708
0.29006767272949219 0.10902676731348038 0.15750458836555481
0.40293389558792114 0.091176457703113556 0.15567591786384583
0.52599740028381348 0.078463546931743622 0.15522423386573792
0.63898062705993652 0.077006831765174866 0.15529938042163849
0.72551065683364868 0.095812872052192688 0.15549856424331665
0.79385972023010254 0.12017728388309479 0.15228284895420074
0.85657060146331787 0.15437747538089752 0.1502138078212738
0.91733890771865845 0.19181795418262482 0.15049093961715698
0.97397619485855103 0.22298388183116913 0.15974658727645874
0.041432816535234451 0.15449507534503937 0.16749401390552521
0.081312306225299835 0.15622918307781219 0.1741187572479248
0.13439057767391205 0.16317224502563477 0.17515456676483154
0.21235480904579163 0.16826805472373962 0.16897650063037872
0.32358467578887939 0.17008769512176514 0.16376383602619171
0.45073920488357544 0.17234566807746887 0.15976746380329132
0.56672948598861694 0.17596888542175293 0.15487547218799591
0.66387778520584106 0.17482618987560272 0.15028122067451477
0.74037331342697144 0.18131366372108459 0.14433509111404419
0.80505156517028809 0.1957283616065979 0.14214986562728882
0.86645102500915527 0.21933136880397797 0.1358855664730072
0.9237552285194397 0.24313491582870483 0.14211930334568024
0.97573071718215942 0.26658055186271667 0.15651580691337585
0.037145007401704788 0.22899137437343597 0.18848541378974915
0.078070260584354401 0.23256659507751465 0.19307132065296173
0.14018921554088593 0.24025164544582367 0.19440624117851257
0.22756803035736084 0.25284948945045471 0.18580745160579681
0.36199775338172913 0.27193120121955872 0.16845718026161194
0.50348460674285889 0.28157168626785278 0.1544659286737442
0.6146124005317688 0.28236496448516846 0.14055913686752319
0.69557899236679077 0.2801094651222229 0.13226109743118286
0.76130467653274536 0.27983686327934265 0.12625586986541748
0.82191574573516846 0.28365331888198853 0.1239689365029335
0.87932848930358887 0.29360067844390869 0.12472993135452271
0.93311315774917603 0.30434104800224304 0.12993717193603516
0.98102205991744995 0.32066050171852112 0.14779958128929138
0.012116271071135998 0.34202286601066589 0.22069405019283295
0.06179586797952652 0.34871771931648254 0.22526110708713531
0.15200258791446686 0.35015344619750977 0.22591139376163483
0.23953802883625031 0.35848769545555115 0.21182307600975037
