luts/negative_old/kodak_portra_400_uc.cube
# Created by: G'MIC (https://gmic.eu)
TITLE "kodak_portra_400_uc"
# LUT size
LUT_3D_SIZE 5
# Data domain
DOMAIN_MIN 0.0 0.0 0.0
DOMAIN_MAX 1.0 1.0 1.0
# LUT data points
0.039784286171197891 0.053031653165817261 0.053404863923788071
0.21441633999347687 0.069358676671981812 0.042023900896310806
0.57740646600723267 0.046515684574842453 0.011587703600525856
0.8770143985748291 0.037572883069515228 0.003433287376537919
0.99859702587127686 0.18158099055290222 0.0018027661135420203
0.0032238380517810583 0.22223012149333954 0.082670904695987701
0.15781933069229126 0.26067504286766052 0.054663326591253281
0.6100885272026062 0.28768479824066162 0.0063350903801620007
0.87581968307495117 0.28501191735267639 0.0056255413219332695
0.99686574935913086 0.31728675961494446 0.0039215688593685627
0.0023472954053431749 0.51309716701507568 0.14881476759910583
0.0094841150566935539 0.52714627981185913 0.14667342603206635
0.48178470134735107 0.56662744283676147 0.047193266451358795
0.8385847806930542 0.56989341974258423 0.0075163599103689194
0.99212992191314697 0.54345202445983887 0
0.00032734591513872147 0.74378448724746704 0.29717066884040833
0.0072730421088635921 0.74573677778244019 0.31816580891609192
0.36786013841629028 0.75353574752807617 0.31118631362915039
0.72889387607574463 0.77837592363357544 0.25850951671600342
0.96804243326187134 0.79680150747299194 0.14588178694248199
0.47980251908302307 0.91642600297927856 0.61915373802185059
0.51574450731277466 0.91467756032943726 0.62627804279327393
0.6089242696762085 0.91390413045883179 0.64228945970535278
0.73973363637924194 0.92042309045791626 0.63166987895965576
0.8996545672416687 0.93773549795150757 0.63165628910064697
0.0099513037130236626 0.06499868631362915 0.23000651597976685
0.22874565422534943 0.059958662837743759 0.24229459464550018
0.57000350952148438 0.0096442131325602531 0.22573906183242798
0.87390303611755371 0.025425286963582039 0.20882321894168854
0.99845880270004272 0.22229865193367004 0.20490148663520813
0.0037150364369153976 0.26519057154655457 0.25804030895233154
0.24403147399425507 0.28333494067192078 0.27849990129470825
0.63324958086013794 0.28610557317733765 0.24704186618328094
0.87791675329208374 0.29397985339164734 0.20598191022872925
0.99561840295791626 0.35085725784301758 0.17565630376338959
0.030183799564838409 0.55411672592163086 0.3462989330291748
0.14617538452148438 0.55448657274246216 0.3336450457572937
0.55147576332092285 0.58435297012329102 0.30933696031570435
0.85020577907562256 0.56160938739776611 0.18895097076892853
0.9964105486869812 0.54172927141189575 0.11268336325883865
0.07802397757768631 0.75509655475616455 0.42527255415916443
0.18445441126823425 0.75349193811416626 0.42351135611534119
0.463206946849823 0.75759232044219971 0.44091451168060303
0.7457701563835144 0.78658866882324219 0.4174303412437439
0.96613806486129761 0.79313904047012329 0.34799632430076599
0.52221381664276123 0.91330868005752563 0.65698903799057007
0.55146276950836182 0.91338247060775757 0.6615031361579895
0.64097219705581665 0.91404825448989868 0.68065392971038818
0.75582355260848999 0.92118430137634277 0.68502622842788696
0.90071231126785278 0.93695580959320068 0.67737078666687012
0.0039752437733113766 0.106980100274086 0.51140773296356201
0.21880903840065002 0.098619244992733002 0.54213786125183105
0.62322360277175903 0.047179531306028366 0.57098889350891113
0.84020090103149414 0.049824118614196777 0.49919089674949646
0.99315941333770752 0.15588246285915375 0.46041765809059143
0.0023214302491396666 0.28424718976020813 0.52339392900466919
0.20227348804473877 0.30097568035125732 0.55919343233108521
0.64184284210205078 0.33564159274101257 0.57690787315368652
0.86039125919342041 0.32211369276046753 0.52309137582778931
0.99323850870132446 0.3574846088886261 0.485990971326828
0.010584213770925999 0.56309175491333008 0.54129213094711304
0.30162701010704041 0.57297194004058838 0.56215077638626099
0.63045591115951538 0.6012081503868103 0.59391647577285767
0.84491467475891113 0.59128910303115845 0.54822725057601929
0.98351871967315674 0.6058574914932251 0.52072441577911377
0.4030059278011322 0.76685339212417603 0.62171196937561035
0.49874639511108398 0.76726615428924561 0.63083577156066895
0.61225628852844238 0.76964128017425537 0.63220220804214478
0.78081667423248291 0.79205763339996338 0.62938868999481201
0.96456199884414673 0.780986487865448 0.56550347805023193
0.62717741727828979 0.90908223390579224 0.74923837184906006
0.63806271553039551 0.90942156314849854 0.74392372369766235
0.68023550510406494 0.91272354125976562 0.74328744411468506
0.78024375438690186 0.92324841022491455 0.75625151395797729
0.91403114795684814 0.93679904937744141 0.74724841117858887
0.0024007759056985378 0.17246019840240479 0.77206003665924072
0.18694499135017395 0.18496996164321899 0.7799268364906311
0.60547024011611938 0.21940180659294128 0.79169505834579468
0.8604578971862793 0.29083061218261719 0.79192239046096802
0.97524696588516235 0.36568880081176758 0.75115507841110229
0.0033423779532313347 0.31104472279548645 0.76462936401367188
0.20534525811672211 0.32816338539123535 0.77594691514968872
0.60536932945251465 0.38943925499916077 0.78774869441986084
0.84392905235290527 0.44940167665481567 0.78859668970108032
0.97078597545623779 0.48418188095092773 0.75086581707000732
0.0054141771979629993 0.52610605955123901 0.73106789588928223
0.13199755549430847 0.53172165155410767 0.74279379844665527
0.57111215591430664 0.58191299438476562 0.76427340507507324
0.82370167970657349 0.64902585744857788 0.78529578447341919
0.96182060241699219 0.6544262170791626 0.75130665302276611
0.2357502281665802 0.76264297962188721 0.75371855497360229
0.38635429739952087 0.75856155157089233 0.75810909271240234
0.60275733470916748 0.76190024614334106 0.77868735790252686
0.81219935417175293 0.8023642897605896 0.79832249879837036
0.95289021730422974 0.79818552732467651 0.76760363578796387
0.62271833419799805 0.92253118753433228 0.8245164155960083
0.65196132659912109 0.9172978401184082 0.82640141248703003
0.73297899961471558 0.92204433679580688 0.83946377038955688
0.81296360492706299 0.92163336277008057 0.83788383007049561
0.92646747827529907 0.93995422124862671 0.84455931186676025
0.35556766390800476 0.39103782176971436 0.93950039148330688
0.48228609561920166 0.40366396307945251 0.93567156791687012
0.68016344308853149 0.44601190090179443 0.93307530879974365
0.85850721597671509 0.5379672646522522 0.92735737562179565
0.98427665233612061 0.60186654329299927 0.92839533090591431
0.38460800051689148 0.47655466198921204 0.93589472770690918
0.50369834899902344 0.49299290776252747 0.93456411361694336
0.68664383888244629 0.52970242500305176 0.92957693338394165
0.85540592670440674 0.60560142993927002 0.92804151773452759
0.97844994068145752 0.65372169017791748 0.92903977632522583
0.36162528395652771 0.61974883079528809 0.92430400848388672
0.46311333775520325 0.6172824501991272 0.92411124706268311
0.65461069345474243 0.64003735780715942 0.9252551794052124
0.83156323432922363 0.70708900690078735 0.92281222343444824
0.96690577268600464 0.74676358699798584 0.92468678951263428
0.19981102645397186 0.77706658840179443 0.91358405351638794
0.33174401521682739 0.77193671464920044 0.91217684745788574
0.53850305080413818 0.76600503921508789 0.91020804643630981
0.79462814331054688 0.80115973949432373 0.92607587575912476
0.95494294166564941 0.84054946899414062 0.92511039972305298
0.56214624643325806 0.94262468814849854 0.92714297771453857
0.59684282541275024 0.9327850341796875 0.92543148994445801
0.68617600202560425 0.93301862478256226 0.92806887626647949
0.8001474142074585 0.93819946050643921 0.93446260690689087
0.9490586519241333 0.95298910140991211 0.94398528337478638
