luts/negative_old/kodak_portra_160_vc_+.cube
# Created by: G'MIC (https://gmic.eu)
TITLE "kodak_portra_160_vc_+"
# LUT size
LUT_3D_SIZE 7
# Data domain
DOMAIN_MIN 0.0 0.0 0.0
DOMAIN_MAX 1.0 1.0 1.0
# LUT data points
0.017599113285541534 0.073418214917182922 0.099128648638725281
0.10871061682701111 0.077302388846874237 0.093694634735584259
0.32283547520637512 0.080634281039237976 0.088831864297389984
0.57617837190628052 0.048400115221738815 0.067213185131549835
0.80034142732620239 0.047014497220516205 0.030578223988413811
0.93916791677474976 0.1219012662768364 0.013246424496173859
0.99909299612045288 0.20466563105583191 0.0065070656128227711
0.00060305127408355474 0.15578678250312805 0.10837492346763611
0.081703126430511475 0.16916035115718842 0.097060002386569977
0.33819133043289185 0.18719837069511414 0.07321186363697052
0.60045844316482544 0.1921439915895462 0.038481138646602631
0.80128198862075806 0.19666096568107605 0.015211217105388641
0.93745023012161255 0.23074392974376678 0.0078475652262568474
0.99848997592926025 0.27725237607955933 0.0052083930931985378
0.00047858743346296251 0.33578187227249146 0.15168409049510956
0.012779625132679939 0.34402716159820557 0.14827215671539307
0.30987253785133362 0.3774668276309967 0.087853826582431793
0.59971171617507935 0.38314968347549438 0.010871827602386475
0.78853738307952881 0.35295408964157104 0.0083181643858551979
0.9276268482208252 0.36150595545768738 0.0035378700122237206
0.99317306280136108 0.37831613421440125 0.0027053235098719597
0.0015264324611052871 0.52878034114837646 0.22838063538074493
0.024025322869420052 0.52865517139434814 0.22939762473106384
0.28104844689369202 0.536659836769104 0.19955222308635712
0.53519344329833984 0.55566668510437012 0.10043688118457794
0.76382195949554443 0.55868971347808838 0.0049204658716917038
0.90565317869186401 0.52029913663864136 0.0014038983499631286
0.99540251493453979 0.50578433275222778 0.0012938256841152906
0.11495278775691986 0.67856156826019287 0.32526251673698425
0.22035250067710876 0.67397654056549072 0.33246055245399475
0.35531413555145264 0.66875368356704712 0.32967039942741394
0.51373308897018433 0.6837429404258728 0.28244921565055847
0.69805973768234253 0.69768589735031128 0.1933179646730423
0.88076233863830566 0.70513975620269775 0.046886969357728958
0.99005043506622314 0.68187296390533447 0.0053691640496253967
0.41038691997528076 0.79834723472595215 0.47866767644882202
0.4421536922454834 0.79335951805114746 0.48158749938011169
0.50248581171035767 0.79405122995376587 0.48078179359436035
0.57960563898086548 0.79843008518218994 0.46660718321800232
0.68845677375793457 0.80819118022918701 0.42231962084770203
0.82476955652236938 0.81875455379486084 0.3533484935760498
0.97325170040130615 0.83512157201766968 0.25968813896179199
0.6315123438835144 0.90962255001068115 0.66889488697052002
0.64476227760314941 0.9085579514503479 0.66980397701263428
0.67129194736480713 0.90766578912734985 0.67465829849243164
0.71251535415649414 0.90861409902572632 0.68033123016357422
0.76007825136184692 0.91489911079406738 0.65732014179229736
0.83508086204528809 0.92745649814605713 0.63180446624755859
0.92717456817626953 0.93796193599700928 0.57891839742660522
0.003974525723606348 0.078472480177879333 0.17988041043281555
0.10819593071937561 0.080969236791133881 0.1753498762845993
0.323589026927948 0.037747610360383987 0.16775567829608917
0.58758741617202759 0.015884758904576302 0.17080104351043701
0.79848015308380127 0.076522558927536011 0.18153031170368195
0.93518990278244019 0.15929350256919861 0.17524881660938263
0.99685269594192505 0.24112981557846069 0.17188084125518799
0.0019596472848206758 0.17682774364948273 0.19410149753093719
0.10374317318201065 0.18255244195461273 0.19704532623291016
0.35357674956321716 0.1845109760761261 0.18561051785945892
0.60789215564727783 0.19534981250762939 0.18464761972427368
0.7997666597366333 0.21732503175735474 0.17219331860542297
0.93319594860076904 0.25087496638298035 0.16098098456859589
0.99855351448059082 0.30023342370986938 0.16020973026752472
0.0065679661929607391 0.36569556593894958 0.24393573403358459
0.11214400827884674 0.36537525057792664 0.24437618255615234
0.3499569296836853 0.38356110453605652 0.21587046980857849
0.60687470436096191 0.37621712684631348 0.16513384878635406
0.79265278577804565 0.3608434796333313 0.13241098821163177
0.92753893136978149 0.37109321355819702 0.12139974534511566
0.99905174970626831 0.39226028323173523 0.12030648440122604
0.035177655518054962 0.54486119747161865 0.30001896619796753
0.16741490364074707 0.54359954595565796 0.30442014336585999
0.33838281035423279 0.5428888201713562 0.29299604892730713
0.55639588832855225 0.55842071771621704 0.23015671968460083
0.76526874303817749 0.55644285678863525 0.14666731655597687
0.91004675626754761 0.52167630195617676 0.07252056896686554
0.9974483847618103 0.51450198888778687 0.053115934133529663
0.23763155937194824 0.68280625343322754 0.38246247172355652
0.30622062087059021 0.68211156129837036 0.39124450087547302
0.41057148575782776 0.67830079793930054 0.38535609841346741
0.53745222091674805 0.6850009560585022 0.35995465517044067
0.70748937129974365 0.69629585742950439 0.28897330164909363
0.88294744491577148 0.70531100034713745 0.20406535267829895
0.99255543947219849 0.68046784400939941 0.11141268908977509
0.45319211483001709 0.80030196905136108 0.51660341024398804
0.47699767351150513 0.79966551065444946 0.51916682720184326
0.53204131126403809 0.797099769115448 0.52384459972381592
0.6010054349899292 0.79679840803146362 0.5113837718963623
0.69846808910369873 0.80646079778671265 0.46829068660736084
0.82915186882019043 0.81979286670684814 0.40824425220489502
0.97191703319549561 0.8365248441696167 0.33547016978263855
0.64614695310592651 0.91168105602264404 0.68406957387924194
0.65522748231887817 0.9098200798034668 0.6875540018081665
0.68483477830886841 0.90874451398849487 0.69330960512161255
0.71842318773269653 0.90774643421173096 0.69268631935119629
0.77114808559417725 0.91649854183197021 0.67908591032028198
0.83853292465209961 0.92746120691299438 0.65186178684234619
0.92892521619796753 0.93859124183654785 0.60743147134780884
0.0016145145054906607 0.10388483107089996 0.36919400095939636
0.14118704199790955 0.11766914278268814 0.36906415224075317
0.36670732498168945 0.12006469070911407 0.3529852032661438
0.58675408363342285 0.019628383219242096 0.33367559313774109
0.79860991239547729 0.0019846300128847361 0.30922269821166992
0.94308274984359741 0.069294378161430359 0.30993685126304626
0.99989712238311768 0.29772117733955383 0.35958370566368103
0.0032376009039580822 0.23540304601192474 0.37829068303108215
0.13030456006526947 0.2306668609380722 0.37737995386123657
0.3945508599281311 0.23614217340946198 0.37233707308769226
0.60944384336471558 0.18747828900814056 0.35100427269935608
0.80336207151412964 0.17513632774353027 0.33367228507995605
0.93407827615737915 0.28089132905006409 0.35307440161705017
0.9984474778175354 0.37137541174888611 0.37474951148033142
0.0033345988485962152 0.40278369188308716 0.38985094428062439
0.17007829248905182 0.40482243895530701 0.39646881818771362
0.41256862878799438 0.40208137035369873 0.39379128813743591
0.6206744909286499 0.39143234491348267 0.36916762590408325
0.7896571159362793 0.4033966064453125 0.3633723258972168
0.91947275400161743 0.42326492071151733 0.35306242108345032
0.9944116473197937 0.45062124729156494 0.35531908273696899
0.24537660181522369 0.56923031806945801 0.43575498461723328
0.33668401837348938 0.56541019678115845 0.44130566716194153
0.44529798626899719 0.56057387590408325 0.43378755450248718
0.59371483325958252 0.56095367670059204 0.39885115623474121
0.76967787742614746 0.55063998699188232 0.35352739691734314
0.90695059299468994 0.53394973278045654 0.3179003894329071
0.99525904655456543 0.54115432500839233 0.31428641080856323
0.41182371973991394 0.6932862401008606 0.50108808279037476
0.43853235244750977 0.69394177198410034 0.49957659840583801
0.4986976683139801 0.69077080488204956 0.49546328186988831
0.58280789852142334 0.68756961822509766 0.47998598217964172
0.72834861278533936 0.69890850782394409 0.4352327287197113
0.88137704133987427 0.69815993309020996 0.37578874826431274
0.99002337455749512 0.67442262172698975 0.31872189044952393
0.52595162391662598 0.80672162771224976 0.58822125196456909
0.54208827018737793 0.80292415618896484 0.58879971504211426
0.58504968881607056 0.80295997858047485 0.59162390232086182
0.64306885004043579 0.80172246694564819 0.59330445528030396
0.72456866502761841 0.80711579322814941 0.56037312746047974
0.83649724721908569 0.81926530599594116 0.51243793964385986
0.96692728996276855 0.8335610032081604 0.45921635627746582
0.66788411140441895 0.91283494234085083 0.71777629852294922
0.67768889665603638 0.91245013475418091 0.71861726045608521
0.7019844651222229 0.91153442859649658 0.72265809774398804
0.73915672302246094 0.91095083951950073 0.72869682312011719
0.78356069326400757 0.91676545143127441 0.72035247087478638
0.84479045867919922 0.92684698104858398 0.70067721605300903
0.93218523263931274 0.93993395566940308 0.66098189353942871
0.0024737040512263775 0.17199957370758057 0.58931118249893188
0.17515851557254791 0.18106658756732941 0.58684229850769043
0.45845535397529602 0.21653223037719727 0.58040916919708252
0.65358984470367432 0.21873490512371063 0.56995922327041626
0.78451907634735107 0.12130796909332275 0.51527732610702515
0.92656278610229492 0.1034502387046814 0.47039291262626648
0.99738562107086182 0.21938090026378632 0.46421903371810913
0.0042772181332111359 0.29168635606765747 0.59879976511001587
0.19962354004383087 0.29429289698600769 0.59869611263275146
0.47469028830528259 0.32218530774116516 0.59259343147277832
0.65665286779403687 0.32639023661613464 0.57783323526382446
0.78446376323699951 0.26505336165428162 0.52368152141571045
0.92488163709640503 0.26315751671791077 0.49038618803024292
0.99846500158309937 0.31844210624694824 0.48150473833084106
0.0063744490034878254 0.46849760413169861 0.59949398040771484
0.22493566572666168 0.4653678834438324 0.59812909364700317
0.46388924121856689 0.45826157927513123 0.59000402688980103
0.64571267366409302 0.45864066481590271 0.57427763938903809
0.78082644939422607 0.41936638951301575 0.53388947248458862
0.91660958528518677 0.42882624268531799 0.51918911933898926
0.99448627233505249 0.4812350869178772 0.53429490327835083
0.21557086706161499 0.59564495086669922 0.58121073246002197
0.33160316944122314 0.59214407205581665 0.58311563730239868
0.47989752888679504 0.58719754219055176 0.5845412015914917
0.62642914056777954 0.57847636938095093 0.57138442993164062
0.77031475305557251 0.56915199756622314 0.55339860916137695
0.89602434635162354 0.57934701442718506 0.54307687282562256
0.98803353309631348 0.59470796585083008 0.54271584749221802
0.45088863372802734 0.71383059024810791 0.61634856462478638
0.49329498410224915 0.71012920141220093 0.6218985915184021
0.57297855615615845 0.70423907041549683 0.62018698453903198
0.64286571741104126 0.69731950759887695 0.61203217506408691
0.7476813793182373 0.7036173939704895 0.58471566438674927
0.87829792499542236 0.69613754749298096 0.5437159538269043
0.98446160554885864 0.67850404977798462 0.50001341104507446
0.60704094171524048 0.81642866134643555 0.69051563739776611
0.62209278345108032 0.81303775310516357 0.68548786640167236
0.65139299631118774 0.81182444095611572 0.68401646614074707
0.68595343828201294 0.80740177631378174 0.67707496881484985
0.74875730276107788 0.80840492248535156 0.66914945840835571
0.84545981884002686 0.82243591547012329 0.63597100973129272
0.96610283851623535 0.82969558238983154 0.59154045581817627
0.70741868019104004 0.91848641633987427 0.77038466930389404
0.70933419466018677 0.91631311178207397 0.7662891149520874
0.72573113441467285 0.91434717178344727 0.76473760604858398
0.75650691986083984 0.91395658254623413 0.76740819215774536
0.79944366216659546 0.91659748554229736 0.77469885349273682
0.85562670230865479 0.92685985565185547 0.7560049295425415
0.93652158975601196 0.93896663188934326 0.7289237380027771
0.043983608484268188 0.26246529817581177 0.76166218519210815
0.28561878204345703 0.28231939673423767 0.76163190603256226
0.5036625862121582 0.3212587833404541 0.75294595956802368
0.69249433279037476 0.37198549509048462 0.74240201711654663
0.81872165203094482 0.36962142586708069 0.73115009069442749
0.9062570333480835 0.31892842054367065 0.67898380756378174
0.99447864294052124 0.32772573828697205 0.63782453536987305
0.16080017387866974 0.36555668711662292 0.76849842071533203
0.33285248279571533 0.38015437126159668 0.760772705078125
0.52584421634674072 0.40368390083312988 0.75376647710800171
0.69228780269622803 0.44573256373405457 0.74268358945846558
0.81709581613540649 0.44481572508811951 0.73428595066070557
0.90315210819244385 0.39516347646713257 0.68501937389373779
0.9935605525970459 0.39190277457237244 0.64926552772521973
0.29777875542640686 0.5218309760093689 0.75894701480865479
0.38899686932563782 0.51597869396209717 0.75573986768722534
0.52924549579620361 0.51472628116607666 0.74791723489761353
0.68437474966049194 0.53759664297103882 0.73717790842056274
0.80521476268768311 0.54686588048934937 0.73395037651062012
0.8971211314201355 0.50132685899734497 0.68855100870132446
0.98423248529434204 0.51182985305786133 0.66884243488311768
0.30823597311973572 0.63268953561782837 0.73724991083145142
0.39169910550117493 0.63127928972244263 0.73546808958053589
0.5228341817855835 0.62730956077575684 0.73497462272644043
0.66491848230361938 0.63091671466827393 0.72862154245376587
0.78632467985153198 0.63831889629364014 0.72566205263137817
0.8831636905670166 0.61049932241439819 0.70102089643478394
0.98642319440841675 0.61274725198745728 0.69042903184890747
0.44757157564163208 0.73093712329864502 0.72899442911148071
0.49846836924552917 0.73197060823440552 0.7296941876411438
0.57715433835983276 0.72608667612075806 0.73237621784210205
0.67357373237609863 0.7236286997795105 0.7387281060218811
0.76690202951431274 0.71806877851486206 0.72563886642456055
0.87579864263534546 0.71371966600418091 0.71201843023300171
0.97455114126205444 0.72374135255813599 0.7062908411026001
0.6073877215385437 0.83096885681152344 0.763602614402771
0.62937170267105103 0.82902133464813232 0.76826697587966919
0.67065262794494629 0.82639205455780029 0.77280408143997192
0.72871911525726318 0.82169294357299805 0.77026242017745972
0.77967482805252075 0.81910860538482666 0.7617727518081665
0.85789936780929565 0.82348251342773438 0.74612826108932495
0.96587151288986206 0.82227396965026855 0.7093806266784668
0.72388678789138794 0.92580205202102661 0.82388573884963989
0.7328190803527832 0.92430251836776733 0.82824897766113281
0.76080000400543213 0.92345285415649414 0.82947427034378052
0.78928148746490479 0.922077476978302 0.82804429531097412
0.82262265682220459 0.91929095983505249 0.82610929012298584
0.86856770515441895 0.92651462554931641 0.8185737133026123
0.94100344181060791 0.9404289722442627 0.79958420991897583
0.35968461632728577 0.40259253978729248 0.87512493133544922
0.447517991065979 0.41593524813652039 0.8741382360458374
0.58048886060714722 0.44038999080657959 0.86927127838134766
0.72608435153961182 0.48961815237998962 0.85487526655197144
0.83754390478134155 0.5459827184677124 0.84962314367294312
0.92293602228164673 0.54797136783599854 0.84622824192047119
0.9892076849937439 0.50974959135055542 0.81485378742218018
0.4070008397102356 0.47555708885192871 0.87225085496902466
0.48620036244392395 0.48214834928512573 0.86961191892623901
0.60226356983184814 0.50410383939743042 0.86543005704879761
0.72851133346557617 0.54350501298904419 0.85641002655029297
0.83834832906723022 0.58943158388137817 0.85072726011276245
0.91782140731811523 0.5812261700630188 0.84499514102935791
0.98301273584365845 0.54891645908355713 0.81989061832427979
0.47935500741004944 0.58054524660110474 0.86693906784057617
0.51833462715148926 0.57980561256408691 0.86494910717010498
0.61799007654190063 0.58963251113891602 0.86131972074508667
0.7313646674156189 0.61270821094512939 0.85508394241333008
0.83554291725158691 0.65194648504257202 0.85183954238891602
0.90886926651000977 0.64837408065795898 0.84707546234130859
0.97615617513656616 0.61544680595397949 0.82452738285064697
0.4796905517578125 0.67851543426513672 0.85473132133483887
0.52834343910217285 0.68127632141113281 0.85513889789581299
0.61517214775085449 0.67992275953292847 0.8545803427696228
0.71747082471847534 0.68292635679244995 0.85421401262283325
0.81992173194885254 0.71075642108917236 0.85000360012054443
0.89924740791320801 0.71102011203765869 0.84487783908843994
0.96990752220153809 0.67999792098999023 0.82284736633300781
0.53084391355514526 0.76555216312408447 0.84369844198226929
0.56111234426498413 0.76633983850479126 0.84541958570480347
0.61638146638870239 0.76598948240280151 0.8482062816619873
0.69512033462524414 0.76284134387969971 0.84767872095108032
0.79689091444015503 0.76864731311798096 0.84511959552764893
0.8921051025390625 0.77767163515090942 0.84716939926147461
0.96738642454147339 0.75402188301086426 0.82664710283279419
0.61260759830474854 0.84757578372955322 0.84770160913467407
0.63363564014434814 0.84940510988235474 0.84939330816268921
0.67450302839279175 0.84643375873565674 0.85115683078765869
0.73478657007217407 0.8424256443977356 0.85209643840789795
0.79938369989395142 0.84288007020950317 0.85492157936096191
0.87581413984298706 0.84220826625823975 0.8509482741355896
0.96907961368560791 0.83997100591659546 0.83340835571289062
0.71696001291275024 0.93435758352279663 0.87706917524337769
0.72843420505523682 0.93471860885620117 0.88129079341888428
0.75853228569030762 0.93411386013031006 0.88368397951126099
0.79632061719894409 0.92929834127426147 0.8843916654586792
0.84433776140213013 0.93454146385192871 0.89130318164825439
0.89092981815338135 0.93591594696044922 0.88831770420074463
0.95325183868408203 0.94130927324295044 0.87487190961837769
0.58175802230834961 0.56401056051254272 0.95466774702072144
0.61795735359191895 0.57026869058609009 0.95479243993759155
0.68772685527801514 0.58896255493164062 0.95061641931533813
0.77454298734664917 0.61844223737716675 0.94172900915145874
0.85811120271682739 0.65898716449737549 0.93254083395004272
0.93309658765792847 0.70023590326309204 0.93467414379119873
0.9839586615562439 0.70121318101882935 0.9301791787147522
0.59980088472366333 0.60266220569610596 0.95470869541168213
0.63524097204208374 0.61033600568771362 0.95258700847625732
0.704559326171875 0.62827551364898682 0.94881123304367065
0.77963399887084961 0.64847326278686523 0.9427030086517334
0.86158353090286255 0.68536090850830078 0.94021081924438477
0.93011218309402466 0.71818345785140991 0.93621450662612915
0.98638170957565308 0.71546930074691772 0.9326820969581604
0.62330454587936401 0.66316157579421997 0.95013314485549927
0.6545029878616333 0.67069500684738159 0.94933080673217773
0.71086430549621582 0.6777806282043457 0.94644564390182495
0.78432446718215942 0.69714921712875366 0.94326531887054443
0.86020976305007935 0.7233583927154541 0.93735188245773315
0.92874974012374878 0.75290286540985107 0.93626242876052856
0.98556560277938843 0.7488328218460083 0.93579661846160889
0.6448701024055481 0.74387097358703613 0.94774407148361206
0.66784685850143433 0.7416796088218689 0.94721376895904541
0.71480268239974976 0.74160456657409668 0.94433248043060303
0.77828186750411987 0.74818414449691772 0.94319140911102295
0.85369879007339478 0.76499754190444946 0.93813186883926392
0.92165893316268921 0.78791278600692749 0.93659001588821411
0.97542238235473633 0.78867924213409424 0.93324857950210571
0.61287486553192139 0.808746337890625 0.94550395011901855
0.63799470663070679 0.80907917022705078 0.94693624973297119
0.68561255931854248 0.80988562107086182 0.94551730155944824
0.76024669408798218 0.80810505151748657 0.94396722316741943
0.83455836772918701 0.81693112850189209 0.93997126817703247
0.91438794136047363 0.83357304334640503 0.94012987613677979
0.97680389881134033 0.84104335308074951 0.93965071439743042
0.66376674175262451 0.88258397579193115 0.94477164745330811
0.67908471822738647 0.88241267204284668 0.94516986608505249
0.70971578359603882 0.88034540414810181 0.94610625505447388
0.7592693567276001 0.87583833932876587 0.94397640228271484
0.82465767860412598 0.87878555059432983 0.94771361351013184
0.90195417404174805 0.88662475347518921 0.94794875383377075
0.96522468328475952 0.89390712976455688 0.94120109081268311
0.72248005867004395 0.95381921529769897 0.94830930233001709
0.73538678884506226 0.95499879121780396 0.95019954442977905
0.76275014877319336 0.95136791467666626 0.95098710060119629
0.79925578832626343 0.94916409254074097 0.95003294944763184
0.84696918725967407 0.94770210981369019 0.95159399509429932
0.90438187122344971 0.94927698373794556 0.9539070725440979
0.96508067846298218 0.9568641185760498 0.95468544960021973
