luts/negative_old/kodak_portra_400_uc_+.cube
# Created by: G'MIC (https://gmic.eu)
TITLE "kodak_portra_400_uc_+"
# LUT size
LUT_3D_SIZE 7
# Data domain
DOMAIN_MIN 0.0 0.0 0.0
DOMAIN_MAX 1.0 1.0 1.0
# LUT data points
0.067128323018550873 0.076630689203739166 0.066567651927471161
0.1575191468000412 0.082163505256175995 0.062098514288663864
0.3398253321647644 0.093033015727996826 0.051528062671422958
0.57212656736373901 0.084326393902301788 0.017542775720357895
0.77673721313476562 0.099033743143081665 0.0022083655931055546
0.91492891311645508 0.15633286535739899 0.0017775292508304119
0.9969140887260437 0.21985562145709991 0.0013068554690107703
0.024784073233604431 0.16238807141780853 0.073624193668365479
0.12919548153877258 0.176104336977005 0.065584979951381683
0.34799423813819885 0.20081840455532074 0.023173447698354721
0.59221565723419189 0.21433940529823303 0.0055682314559817314
0.78173637390136719 0.22885625064373016 0.0026285059284418821
0.91598242521286011 0.25292849540710449 0.0039239623583853245
0.99333810806274414 0.29448029398918152 0.0017628688365221024
0.0023875515908002853 0.33320748805999756 0.10205502808094025
0.018133994191884995 0.34273034334182739 0.098936401307582855
0.2811683714389801 0.37971997261047363 0.042711790651082993
0.59039843082427979 0.40666064620018005 0.0044035669416189194
0.78509068489074707 0.38743287324905396 0.0019266465678811073
0.91646599769592285 0.38900676369667053 0.0014957353705540299
0.98989206552505493 0.39481860399246216 0.00043204813846386969
0.0012618419714272022 0.51527726650238037 0.15310660004615784
0.0079333139583468437 0.52180969715118408 0.16677400469779968
0.10739812254905701 0.53459042310714722 0.14099019765853882
0.47584742307662964 0.55907469987869263 0.061557307839393616
0.74022841453552246 0.57924830913543701 0.0073739294894039631
0.89844012260437012 0.54765570163726807 0.0045901876874268055
0.99514800310134888 0.52570819854736328 0.0016092637088149786
0 0.65976375341415405 0.24643771350383759
0.0025995143223553896 0.66379928588867188 0.25534242391586304
0.025779424235224724 0.66317808628082275 0.25776845216751099
0.38868612051010132 0.6761319637298584 0.237089604139328
0.64025789499282837 0.69526928663253784 0.19511005282402039
0.85399478673934937 0.7188270092010498 0.10707590728998184
0.97716665267944336 0.698356032371521 0.013803699053823948
0.011653466150164604 0.78746688365936279 0.39273327589035034
0.036809343844652176 0.78656798601150513 0.39508917927742004
0.2049105167388916 0.78342223167419434 0.40719202160835266
0.42288583517074585 0.78747493028640747 0.41398212313652039
0.60070598125457764 0.79886996746063232 0.40029439330101013
0.77354878187179565 0.81053990125656128 0.37737920880317688
0.93628418445587158 0.83333361148834229 0.3617156445980072
0.46422204375267029 0.89943802356719971 0.60343790054321289
0.48291376233100891 0.89874041080474854 0.60571885108947754
0.52233964204788208 0.89614111185073853 0.61248457431793213
0.5950920581817627 0.89826011657714844 0.62252217531204224
0.68163543939590454 0.90449219942092896 0.62252229452133179
0.78469705581665039 0.91417038440704346 0.61871784925460815
0.89127397537231445 0.92643159627914429 0.60873943567276001
0.059311423450708389 0.082186982035636902 0.15270771086215973
0.16587260365486145 0.083641007542610168 0.15816384553909302
0.33435148000717163 0.065602980554103851 0.14676797389984131
0.57304912805557251 0.035914551466703415 0.13944646716117859
0.77649146318435669 0.096318170428276062 0.1304813027381897
0.91294330358505249 0.16150891780853271 0.10063973069190979
0.99357044696807861 0.234882652759552 0.078774608671665192
0.036699302494525909 0.18468448519706726 0.16757327318191528
0.16479073464870453 0.19671054184436798 0.1735660582780838
0.36688503623008728 0.20361627638339996 0.1580488383769989
0.59923082590103149 0.2122102826833725 0.14000929892063141
0.77805161476135254 0.22692263126373291 0.11269863694906235
0.91485989093780518 0.25745508074760437 0.085662141442298889
0.99597847461700439 0.29842716455459595 0.061173845082521439
0.0090856663882732391 0.36497414112091064 0.21739839017391205
0.084184788167476654 0.36810541152954102 0.21182389557361603
0.33658704161643982 0.39420819282531738 0.19575978815555573
0.60982412099838257 0.40197977423667908 0.12430364638566971
0.78608435392379761 0.38378629088401794 0.062928140163421631
0.91938555240631104 0.38659185171127319 0.042330291122198105
0.99713528156280518 0.40431994199752808 0.035296212881803513
0.0051215826533734798 0.53549009561538696 0.26656040549278259
0.0085102152079343796 0.53887301683425903 0.25931236147880554
0.20185171067714691 0.54607558250427246 0.25756493210792542
0.50660616159439087 0.56826281547546387 0.22371478378772736
0.74968165159225464 0.57750076055526733 0.13246338069438934
0.90526539087295532 0.54619032144546509 0.027792641893029213
0.99481678009033203 0.53172856569290161 0.01085236482322216
0.0046904319897294044 0.66916334629058838 0.33282390236854553
0.0089117614552378654 0.66998231410980225 0.33380970358848572
0.1457015722990036 0.66793549060821533 0.33546769618988037
0.41490817070007324 0.68184059858322144 0.33224567770957947
0.65759515762329102 0.69780415296554565 0.29775157570838928
0.85625576972961426 0.71645200252532959 0.24700883030891418
0.98053532838821411 0.69611984491348267 0.10733237117528915
0.064313776791095734 0.78915810585021973 0.43579280376434326
0.14179737865924835 0.78853964805603027 0.43956553936004639
0.28524374961853027 0.78587555885314941 0.45474487543106079
0.44613412022590637 0.7885550856590271 0.4593157172203064
0.61602962017059326 0.79897463321685791 0.45359149575233459
0.78411209583282471 0.81272429227828979 0.43710425496101379
0.93682569265365601 0.83625829219818115 0.42438006401062012
0.48161256313323975 0.90010225772857666 0.61971026659011841
0.50338101387023926 0.89956003427505493 0.62420415878295898
0.54244852066040039 0.89866137504577637 0.63275521993637085
0.60951322317123413 0.8976515531539917 0.6421625018119812
0.69027012586593628 0.90541070699691772 0.64412325620651245
0.79134684801101685 0.91465646028518677 0.64163112640380859
0.89210337400436401 0.92531037330627441 0.63201606273651123
0.0091205369681119919 0.093901507556438446 0.32752329111099243
0.15859782695770264 0.099525347352027893 0.33915635943412781
0.35440164804458618 0.098456725478172302 0.34670057892799377
0.55792629718780518 0.050508968532085419 0.33018094301223755
0.7566978931427002 0.0079564116895198822 0.3031611442565918
0.91315978765487671 0.042700659483671188 0.28024071455001831
0.99668169021606445 0.25519174337387085 0.30794438719749451
0.0071252263151109219 0.2066044807434082 0.33974245190620422
0.13901609182357788 0.20794102549552917 0.35350221395492554
0.38128542900085449 0.22508695721626282 0.36858841776847839
0.58918190002441406 0.20833003520965576 0.34904080629348755
0.77519875764846802 0.18382541835308075 0.31590330600738525
0.91108572483062744 0.2565065324306488 0.31388136744499207
0.99354720115661621 0.3423423171043396 0.32012724876403809
0.0038113612681627274 0.37873572111129761 0.35531759262084961
0.12213996797800064 0.3970540463924408 0.37803694605827332
0.40294930338859558 0.41604062914848328 0.40078443288803101
0.61317175626754761 0.41230106353759766 0.37164673209190369
0.77489572763442993 0.40850621461868286 0.34818434715270996
0.9058603048324585 0.42347082495689392 0.32355844974517822
0.98561817407608032 0.44166037440299988 0.30751949548721313
0.091538466513156891 0.5588347315788269 0.41320949792861938
0.24939149618148804 0.56459605693817139 0.42903557419776917
0.3814949095249176 0.5650450587272644 0.42986726760864258
0.56535953283309937 0.57916736602783203 0.41399630904197693
0.76206153631210327 0.56771034002304077 0.36381968855857849
0.89588242769241333 0.55163377523422241 0.30220264196395874
0.98688125610351562 0.55035418272018433 0.28654998540878296
0.2715228796005249 0.68391746282577515 0.47792497277259827
0.29316455125808716 0.68337821960449219 0.47210308909416199
0.36349573731422424 0.68107134103775024 0.46471086144447327
0.50973260402679443 0.68768179416656494 0.46300491690635681
0.69338816404342651 0.70610833168029785 0.45493650436401367
0.85619163513183594 0.70931965112686157 0.41035029292106628
0.97586935758590698 0.68851923942565918 0.32725435495376587
0.33623602986335754 0.78958255052566528 0.53839987516403198
0.36173525452613831 0.79166990518569946 0.53434038162231445
0.41335958242416382 0.7898021936416626 0.53516775369644165
0.51159858703613281 0.78844690322875977 0.5400930643081665
0.64980584383010864 0.79919487237930298 0.5456356406211853
0.79769992828369141 0.81729239225387573 0.53656500577926636
0.9341965913772583 0.83576351404190063 0.52592211961746216
0.54516899585723877 0.90007328987121582 0.66686314344406128
0.55066239833831787 0.90076285600662231 0.66285485029220581
0.58275038003921509 0.89986151456832886 0.66655218601226807
0.63820385932922363 0.89943093061447144 0.67756283283233643
0.70891600847244263 0.90172141790390015 0.67917126417160034
0.80086934566497803 0.91264623403549194 0.67956191301345825
0.89613068103790283 0.92781692743301392 0.67757219076156616
0.0077987969852983952 0.12436297535896301 0.52143567800521851
0.08646538108587265 0.12095983326435089 0.53044766187667847
0.37783029675483704 0.13194617629051208 0.55184924602508545
0.60742318630218506 0.11994919180870056 0.56333708763122559
0.74378180503845215 0.11785198748111725 0.51786667108535767
0.88500595092773438 0.14990903437137604 0.48231992125511169
0.98799079656600952 0.21043451130390167 0.46189415454864502
0.0032862345688045025 0.22470174729824066 0.5187569260597229
0.073158949613571167 0.22137822210788727 0.54285347461700439
0.37793463468551636 0.24784663319587708 0.56425374746322632
0.61186838150024414 0.26405960321426392 0.56918728351593018
0.75145798921585083 0.25386467576026917 0.52306324243545532
0.89849269390106201 0.26576247811317444 0.4888119101524353
0.98998099565505981 0.30594030022621155 0.47077426314353943
0.0034832225646823645 0.38370963931083679 0.51585930585861206
0.04148947075009346 0.3918488621711731 0.53900563716888428
0.37907937169075012 0.41612783074378967 0.56504946947097778
0.61754500865936279 0.44455227255821228 0.57841843366622925
0.76438689231872559 0.42843183875083923 0.54320311546325684
0.88861715793609619 0.42503273487091064 0.51797962188720703
0.98710846900939941 0.44786664843559265 0.50464332103729248
0.018284322693943977 0.55942106246948242 0.53777396678924561
0.1726277619600296 0.56268155574798584 0.54990941286087036
0.41233256459236145 0.56982064247131348 0.56819635629653931
0.60352998971939087 0.58529216051101685 0.58300101757049561
0.75753509998321533 0.58673155307769775 0.55869746208190918
0.87880867719650269 0.58211857080459595 0.53826892375946045
0.97455000877380371 0.58509176969528198 0.5222582221031189
0.30791082978248596 0.69210577011108398 0.57875627279281616
0.38095360994338989 0.69294875860214233 0.58724391460418701
0.49506974220275879 0.69451677799224854 0.600139319896698
0.60068976879119873 0.70065617561340332 0.60186046361923218
0.72552633285522461 0.71144294738769531 0.59534412622451782
0.8614499568939209 0.70713764429092407 0.56525880098342896
0.97533005475997925 0.69338172674179077 0.51224678754806519
0.47572124004364014 0.79319256544113159 0.64047300815582275
0.51217198371887207 0.79494494199752808 0.6441149115562439
0.55333977937698364 0.79371494054794312 0.64344459772109985
0.59257704019546509 0.79346972703933716 0.6312260627746582
0.68909549713134766 0.80212217569351196 0.64222049713134766
0.81572872400283813 0.81960427761077881 0.63796526193618774
0.94268989562988281 0.82840454578399658 0.62337768077850342
0.61358559131622314 0.90008747577667236 0.72482991218566895
0.62237399816513062 0.89991503953933716 0.72220629453659058
0.6413276195526123 0.89895349740982056 0.71963226795196533
0.67248857021331787 0.89917689561843872 0.71737813949584961
0.7298896312713623 0.90417450666427612 0.7279740571975708
0.81135153770446777 0.91358292102813721 0.72689557075500488
0.90978538990020752 0.93063688278198242 0.72903293371200562
0.0037883534096181393 0.16974706947803497 0.67882651090621948
0.053517017513513565 0.16320818662643433 0.68721234798431396
0.354909747838974 0.17962703108787537 0.69523406028747559
0.59538537263870239 0.21088305115699768 0.70800256729125977
0.77429103851318359 0.23625092208385468 0.71003752946853638
0.88229471445083618 0.25442487001419067 0.67261332273483276
0.9728853702545166 0.34346738457679749 0.65064221620559692
0.0033868378959596157 0.24654844403266907 0.67595559358596802
0.053784284740686417 0.24861283600330353 0.69003194570541382
0.36035540699958801 0.27022871375083923 0.69674903154373169
0.60066497325897217 0.3097476065158844 0.71134209632873535
0.77627301216125488 0.34342527389526367 0.71561110019683838
0.88803184032440186 0.34726992249488831 0.68278360366821289
0.97090840339660645 0.40289756655693054 0.65342128276824951
0.0039224661886692047 0.384604811668396 0.65734767913818359
0.066673636436462402 0.39197945594787598 0.67934918403625488
0.36557304859161377 0.41297361254692078 0.68723958730697632
0.5917893648147583 0.45199719071388245 0.70849090814590454
0.76415544748306274 0.48480495810508728 0.7139849066734314
0.86764723062515259 0.47510114312171936 0.68107384443283081
0.96782833337783813 0.49236240983009338 0.66318035125732422
0.0041044047102332115 0.53773057460784912 0.65462857484817505
0.030958183109760284 0.53773969411849976 0.65949785709381104
0.33104056119918823 0.54513585567474365 0.66941416263580322
0.56343430280685425 0.57519680261611938 0.6935465931892395
0.76032662391662598 0.61258155107498169 0.71059131622314453
0.86625188589096069 0.60431069135665894 0.68881493806838989
0.96376019716262817 0.59751933813095093 0.66895973682403564
0.17278198897838593 0.68279606103897095 0.67058867216110229
0.28525036573410034 0.68427354097366333 0.67469930648803711
0.43469157814979553 0.68945729732513428 0.68540042638778687
0.59860086441040039 0.69793391227722168 0.69939637184143066
0.75082129240036011 0.72161728143692017 0.71846204996109009
0.86153173446655273 0.72106623649597168 0.70429891347885132
0.95959687232971191 0.71835649013519287 0.68168395757675171
0.44683220982551575 0.8001401424407959 0.70854902267456055
0.48717597126960754 0.80008208751678467 0.71009892225265503
0.56508797407150269 0.8008430004119873 0.7205776572227478
0.66449952125549316 0.80470168590545654 0.73061180114746094
0.7440301775932312 0.81365233659744263 0.73710817098617554
0.83929502964019775 0.82505488395690918 0.73742806911468506
0.95205157995223999 0.82502460479736328 0.71170073747634888
0.62173259258270264 0.90356731414794922 0.77924245595932007
0.64177310466766357 0.9038206934928894 0.77929794788360596
0.68106758594512939 0.90511113405227661 0.7840467095375061
0.71820992231369019 0.90451455116271973 0.78195756673812866
0.76112526655197144 0.90918141603469849 0.78105241060256958
0.8278995156288147 0.91691869497299194 0.78320008516311646
0.92042791843414307 0.93333923816680908 0.78621208667755127
0.01013602502644062 0.23364052176475525 0.80912554264068604
0.16753526031970978 0.24145530164241791 0.81162494421005249
0.39311772584915161 0.26523759961128235 0.81096106767654419
0.59811663627624512 0.29720807075500488 0.81759655475616455
0.76859420537948608 0.37027275562286377 0.8245728611946106
0.89400023221969604 0.39602836966514587 0.81832492351531982
0.96900767087936401 0.41630509495735168 0.79218572378158569
0.015808884054422379 0.30101087689399719 0.80675339698791504
0.17857810854911804 0.30903637409210205 0.80860525369644165
0.40756165981292725 0.33697676658630371 0.80952852964401245
0.59716475009918213 0.36500674486160278 0.81765627861022949
0.76890462636947632 0.43403542041778564 0.82405012845993042
0.88440454006195068 0.4599112868309021 0.81529676914215088
0.96557998657226562 0.46740105748176575 0.79681193828582764
0.012862097471952438 0.41164377331733704 0.7960662841796875
0.14936062693595886 0.41268405318260193 0.80016767978668213
0.39450281858444214 0.4352184534072876 0.802215576171875
0.58796089887619019 0.4727189838886261 0.81068170070648193
0.76251202821731567 0.52637845277786255 0.81954747438430786
0.874400794506073 0.55326026678085327 0.8130793571472168
0.95600730180740356 0.56045210361480713 0.79487764835357666
0.0053682513535022736 0.53547662496566772 0.77291834354400635
0.072594664990901947 0.53650367259979248 0.77914786338806152
0.35930788516998291 0.54876822233200073 0.78534966707229614
0.56725990772247314 0.57598036527633667 0.79747682809829712
0.7432563304901123 0.62566912174224854 0.81288272142410278
0.87290900945663452 0.65509206056594849 0.81203985214233398
0.9418330192565918 0.6445431113243103 0.79321980476379395
0.01266504917293787 0.66858208179473877 0.77111208438873291
0.072008974850177765 0.66300028562545776 0.769756019115448
0.30473935604095459 0.66171318292617798 0.77468979358673096
0.50598859786987305 0.66591423749923706 0.77821296453475952
0.71432250738143921 0.70523148775100708 0.80428516864776611
0.86304372549057007 0.74553197622299194 0.81986266374588013
0.9424242377281189 0.7458566427230835 0.80375808477401733
0.32587337493896484 0.79635798931121826 0.7876662015914917
0.3826119601726532 0.79463130235671997 0.78668570518493652
0.48799619078636169 0.79508978128433228 0.79082077741622925
0.61448949575424194 0.79651141166687012 0.79716509580612183
0.7369077205657959 0.80915993452072144 0.81033015251159668
0.85515230894088745 0.83081704378128052 0.82726490497589111
0.95176595449447632 0.83565938472747803 0.81596797704696655
0.5851176381111145 0.91242557764053345 0.82539242506027222
0.6037481427192688 0.90876072645187378 0.82531225681304932
0.65467637777328491 0.91157692670822144 0.82855761051177979
0.71082669496536255 0.91019803285598755 0.83467960357666016
0.78661042451858521 0.91606932878494263 0.84508377313613892
0.85680568218231201 0.92286431789398193 0.85011166334152222
0.93815004825592041 0.93696063756942749 0.85053062438964844
0.36156126856803894 0.40259343385696411 0.91748052835464478
0.42604592442512512 0.40789750218391418 0.91709053516387939
0.53669470548629761 0.42342007160186768 0.91420704126358032
0.66718548536300659 0.4539109468460083 0.91434144973754883
0.78594160079956055 0.50393402576446533 0.91052705049514771
0.89918613433837891 0.56120073795318604 0.91103672981262207
0.98251485824584961 0.58462852239608765 0.91072696447372437
0.37241822481155396 0.44803294539451599 0.91648298501968384
0.43583124876022339 0.45166480541229248 0.91522848606109619
0.54465985298156738 0.46620082855224609 0.91343909502029419
0.66585922241210938 0.48951810598373413 0.91281461715698242
0.78654390573501587 0.54006767272949219 0.90962368249893188
0.89429187774658203 0.59237593412399292 0.91082346439361572
0.97787940502166748 0.61084413528442383 0.91039538383483887
0.365325927734375 0.51574897766113281 0.9115411639213562
0.42972877621650696 0.52382314205169678 0.91117078065872192
0.53891193866729736 0.5376056432723999 0.90981638431549072
0.66218417882919312 0.5606234073638916 0.90990924835205078
0.78698527812957764 0.5983198881149292 0.91206628084182739
0.88848137855529785 0.64317667484283447 0.91083216667175293
0.97028326988220215 0.66182160377502441 0.90844142436981201
0.34768489003181458 0.61096024513244629 0.90239250659942627
0.40558934211730957 0.61118459701538086 0.90387970209121704
0.50240981578826904 0.60952234268188477 0.90561234951019287
0.63984888792037964 0.62751418352127075 0.90677320957183838
0.76787662506103516 0.66162145137786865 0.90722751617431641
0.8874281644821167 0.70303583145141602 0.9124140739440918
0.96421217918395996 0.72012591361999512 0.91037452220916748
0.10848494619131088 0.6965143084526062 0.89405280351638794
0.19909808039665222 0.69495874643325806 0.89419370889663696
0.38501036167144775 0.69628423452377319 0.894814133644104
0.57421362400054932 0.70455414056777954 0.89809894561767578
0.73181521892547607 0.72297823429107666 0.90462446212768555
0.87324637174606323 0.76306861639022827 0.91466373205184937
0.96017122268676758 0.787486732006073 0.91612797975540161
0.34624668955802917 0.81842142343521118 0.8982309103012085
0.38270044326782227 0.81663203239440918 0.89649343490600586
0.45658570528030396 0.81310439109802246 0.89709961414337158
0.55850112438201904 0.8084723949432373 0.89708602428436279
0.67924731969833374 0.80427247285842896 0.90185225009918213
0.83366751670837402 0.82798117399215698 0.91375672817230225
0.9546579122543335 0.85745924711227417 0.92183691263198853
0.5371132493019104 0.92843508720397949 0.90888500213623047
0.55945843458175659 0.92999798059463501 0.91168773174285889
0.60351687669754028 0.93115401268005371 0.91365218162536621
0.66335517168045044 0.92848718166351318 0.91644865274429321
0.74529021978378296 0.92958164215087891 0.91997283697128296
0.83759719133377075 0.93335455656051636 0.92535477876663208
0.95399564504623413 0.94424247741699219 0.93050539493560791
