luts/negative_old/kodak_portra_400_nc_-.cube
# Created by: G'MIC (https://gmic.eu)
TITLE "kodak_portra_400_nc_-"
# LUT size
LUT_3D_SIZE 13
# Data domain
DOMAIN_MIN 0.0 0.0 0.0
DOMAIN_MAX 1.0 1.0 1.0
# LUT data points
0.0078003229573369026 0.0092874709516763687 0.0090443780645728111
0.035038907080888748 0.0098222466185688972 0.011908796615898609
0.10304795950651169 0.017013804987072945 0.009041505865752697
0.19706457853317261 0.028670592233538628 0.0043477527797222137
0.3179422914981842 0.032408829778432846 0.0023840512149035931
0.45093896985054016 0.02499765157699585 0.0017324709333479404
0.57205939292907715 0.013249790295958519 0.0019494000589475036
0.67960554361343384 0.0084999380633234978 0.0024141648318618536
0.76276767253875732 0.0084077278152108192 0.0011875077616423368
0.83038890361785889 0.021857108920812607 0.00081727269571274519
0.89238446950912476 0.058053020387887955 0.00089180143550038338
0.9526979923248291 0.10462779551744461 0.0016265719896182418
0.99140036106109619 0.13875234127044678 0.0029886732809245586
0.0081830490380525589 0.044933632016181946 0.013412161730229855
0.039298564195632935 0.047304250299930573 0.013363273814320564
0.11343401670455933 0.071303606033325195 0.011739094741642475
0.2181013822555542 0.083298057317733765 0.0054355398751795292
0.34258776903152466 0.090415135025978088 0.0044853957369923592
0.47261667251586914 0.092327862977981567 0.0042658336460590363
0.59155523777008057 0.085257589817047119 0.0012759489472955465
0.69424223899841309 0.08267897367477417 0.001570967142470181
0.77059352397918701 0.086427666246891022 0.0018748564179986715
0.83738082647323608 0.10071535408496857 0.0019318823469802737
0.89687454700469971 0.12398149073123932 0.0032632267102599144
0.9495815634727478 0.1517573744058609 0.0044449302367866039
0.99061936140060425 0.18218111991882324 0.0059685800224542618
0.0068834642879664898 0.12098763883113861 0.025754876434803009
0.032093707472085953 0.12440191209316254 0.023488333448767662
0.11060741543769836 0.14241772890090942 0.012377690523862839
0.23190303146839142 0.16545841097831726 0.0078433016315102577
0.37005573511123657 0.182681605219841 0.0065537248738110065
0.50404530763626099 0.1889445036649704 0.0038718278519809246
0.62413287162780762 0.18925479054450989 0.0014250811655074358
0.71269887685775757 0.18563616275787354 0.002068433677777648
0.78081893920898438 0.18291887640953064 0.0039520864374935627
0.84396612644195557 0.1923290342092514 0.004091210663318634
0.90259134769439697 0.20194873213768005 0.0053035509772598743
0.95259624719619751 0.21517714858055115 0.0050925761461257935
0.99154055118560791 0.23698036372661591 0.0062957466579973698
0.0025900448672473431 0.21695950627326965 0.049425926059484482
0.015205787494778633 0.22113381326198578 0.051120053976774216
0.095574729144573212 0.23580837249755859 0.029239848256111145
0.22216998040676117 0.26430898904800415 0.0084738936275243759
0.37883532047271729 0.29942619800567627 0.0040389415808022022
0.52940171957015991 0.30869320034980774 0.0024338068906217813
0.64889931678771973 0.29996141791343689 0.001177365193143487
0.73080503940582275 0.28928709030151367 0.0024182787165045738
0.79432159662246704 0.28119358420372009 0.0048887063749134541
0.85024923086166382 0.28060486912727356 0.0045439326204359531
0.90847498178482056 0.28646504878997803 0.0075586056336760521
0.96084195375442505 0.29354250431060791 0.0053135892376303673
0.99483317136764526 0.30305102467536926 0.0040116105228662491
0.0038062450475990772 0.33725842833518982 0.10301432758569717
0.0095029491931200027 0.34224003553390503 0.10435635596513748
0.093856394290924072 0.35167673230171204 0.085564829409122467
0.22379891574382782 0.3705170750617981 0.044311121106147766
0.36372441053390503 0.40079602599143982 0.0088445032015442848
0.52039176225662231 0.4290371835231781 0.001033094828017056
0.6383395791053772 0.42324084043502808 0.00034761615097522736
0.733559250831604 0.40144038200378418 0.0018017936963587999
0.80282235145568848 0.38399231433868408 0.003177702659741044
0.85992127656936646 0.37613329291343689 0.0039215688593685627
0.91460967063903809 0.37333980202674866 0.0038903329987078905
0.96693265438079834 0.37604677677154541 0.0029280418530106544
0.995311439037323 0.37540721893310547 0.0020402944646775723
0.0049796607345342636 0.45165804028511047 0.17227044701576233
0.029385240748524666 0.45716667175292969 0.17168603837490082
0.13202130794525146 0.45909994840621948 0.1602906733751297
0.2387910783290863 0.46786412596702576 0.13471740484237671
0.34831622242927551 0.4852747917175293 0.079581752419471741
0.47851598262786865 0.50825029611587524 0.02216765470802784
0.60957425832748413 0.52728521823883057 0.0021952609531581402
0.70863848924636841 0.51481825113296509 0.0011348798871040344
0.78616625070571899 0.49359652400016785 0.0023424935061484575
0.85562902688980103 0.48098471760749817 0.0039790133014321327
0.91586768627166748 0.46875640749931335 0.0026616863906383514
0.96836292743682861 0.45856490731239319 0.00021622602071147412
0.9947669506072998 0.45378315448760986 0.00016394222620874643
0.06226818636059761 0.54663640260696411 0.23646701872348785
0.1265728771686554 0.54524248838424683 0.23999848961830139
0.2037980705499649 0.54432922601699829 0.2380957156419754
0.27966070175170898 0.5467073917388916 0.22677476704120636
0.36065295338630676 0.55658197402954102 0.19054877758026123
0.45588085055351257 0.57158476114273071 0.1305597722530365
0.55581170320510864 0.58694994449615479 0.056470431387424469
0.66863393783569336 0.60299456119537354 0.01021753903478384
0.7626916766166687 0.6000550389289856 0.0015780130634084344
0.8340994119644165 0.5844414234161377 0.0038829878903925419
0.90117686986923218 0.56672888994216919 0.0040542604401707649
0.96571195125579834 0.5465577244758606 0.0013876671437174082
0.99544107913970947 0.53589034080505371 0.0003209731075912714
0.20553803443908691 0.61901348829269409 0.30526953935623169
0.23553432524204254 0.61669456958770752 0.30865633487701416
0.28308501839637756 0.61397719383239746 0.30732336640357971
0.33586299419403076 0.61399084329605103 0.30353045463562012
0.39239916205406189 0.61787259578704834 0.28318905830383301
0.4625917375087738 0.62924259901046753 0.24325191974639893
0.53412044048309326 0.6422119140625 0.19556693732738495
0.62150949239730835 0.65543240308761597 0.11682167649269104
0.72113263607025146 0.67101854085922241 0.035411849617958069
0.81004631519317627 0.67466771602630615 0.004155521746724844
0.88158482313156128 0.65965664386749268 0.0033952151425182819
0.94946736097335815 0.63993769884109497 0.0025308944750577211
0.99259316921234131 0.624808669090271 0.0027379204984754324
0.30477815866470337 0.67970150709152222 0.37005123496055603
0.32565721869468689 0.68071842193603516 0.37602049112319946
0.36038357019424438 0.67855966091156006 0.37460616230964661
0.39733341336250305 0.67835891246795654 0.37231495976448059
0.43046924471855164 0.6778252124786377 0.36551812291145325
0.47718983888626099 0.68469959497451782 0.34521782398223877
0.53268074989318848 0.69474250078201294 0.31415605545043945
0.60476040840148926 0.7078700065612793 0.26613146066665649
0.68320077657699585 0.71992915868759155 0.20221896469593048
0.77441221475601196 0.73444652557373047 0.10573196411132812
0.86229157447814941 0.73877394199371338 0.041464023292064667
0.93168371915817261 0.72727030515670776 0.036231651902198792
0.98519957065582275 0.71247637271881104 0.044132247567176819
0.39869323372840881 0.7375836968421936 0.44295379519462585
0.40937462449073792 0.74087858200073242 0.44285133481025696
0.42897519469261169 0.73998194932937622 0.44279754161834717
0.45716527104377747 0.73724478483200073 0.44275179505348206
0.48371443152427673 0.73639571666717529 0.44191238284111023
0.52001285552978516 0.74056136608123779 0.43114915490150452
0.55783170461654663 0.74898892641067505 0.41058105230331421
0.61024069786071777 0.75825750827789307 0.38018104434013367
0.6732635498046875 0.76755845546722412 0.34413900971412659
0.7442326545715332 0.77632021903991699 0.29070764780044556
0.824684739112854 0.78593891859054565 0.22896227240562439
0.90930968523025513 0.79320859909057617 0.18188229203224182
0.97280234098434448 0.78896701335906982 0.18154151737689972
0.48615884780883789 0.79418385028839111 0.51763474941253662
0.49323078989982605 0.79455500841140747 0.51736211776733398
0.50371813774108887 0.79397350549697876 0.51695418357849121
0.51969659328460693 0.79346102476119995 0.51563531160354614
0.54325830936431885 0.79273247718811035 0.51695764064788818
0.57220762968063354 0.79558151960372925 0.51543635129928589
0.6019514799118042 0.80051654577255249 0.50258386135101318
0.63920730352401733 0.80631911754608154 0.4812265932559967
0.6887548565864563 0.81383991241455078 0.45563200116157532
0.73677653074264526 0.8204580545425415 0.42459753155708313
0.80087459087371826 0.82731360197067261 0.38448449969291687
0.8786500096321106 0.83869975805282593 0.33758914470672607
0.95868736505508423 0.85287922620773315 0.31104955077171326
0.57538282871246338 0.84840142726898193 0.59975957870483398
0.58447343111038208 0.84850674867630005 0.60292279720306396
0.59076762199401855 0.84834951162338257 0.60133332014083862
0.60053485631942749 0.84844827651977539 0.60184615850448608
0.61925148963928223 0.85019665956497192 0.60505521297454834
0.64063167572021484 0.85226714611053467 0.60485976934432983
0.65985357761383057 0.8526386022567749 0.59629136323928833
0.68631452322006226 0.85702455043792725 0.58316761255264282
0.71785509586334229 0.86248725652694702 0.56491434574127197
0.75902146100997925 0.87020570039749146 0.54511016607284546
0.80710530281066895 0.87813776731491089 0.52222192287445068
0.86275142431259155 0.88616329431533813 0.4902128279209137
0.9276806116104126 0.89773190021514893 0.45609349012374878
0.67234444618225098 0.90753018856048584 0.69401144981384277
0.67704117298126221 0.90718156099319458 0.69380313158035278
0.68066203594207764 0.9052768349647522 0.69306939840316772
0.68988704681396484 0.90549927949905396 0.69509130716323853
0.70435088872909546 0.9080575704574585 0.6988760232925415
0.71938621997833252 0.90780019760131836 0.69961649179458618
0.7362130880355835 0.90888303518295288 0.69874304533004761
0.75292813777923584 0.91235256195068359 0.69058746099472046
0.77318763732910156 0.9184955358505249 0.67921137809753418
0.80132925510406494 0.92676210403442383 0.66764849424362183
0.83654618263244629 0.9355466365814209 0.6516842246055603
0.87712788581848145 0.94390177726745605 0.63283419609069824
0.92307472229003906 0.95147824287414551 0.60884040594100952
0.0055073010735213757 0.010882942005991936 0.045899812132120132
0.034973546862602234 0.0087701389566063881 0.042167976498603821
0.10375280678272247 0.0081918155774474144 0.041441600769758224
0.20398031175136566 0.0091198636218905449 0.039777118712663651
0.32593771815299988 0.009309401735663414 0.036342412233352661
0.45587989687919617 0.0072973812930285931 0.033338196575641632
0.57502204179763794 0.0042970543727278709 0.025618294253945351
0.67821091413497925 0.0026253494434058666 0.021422876045107841
0.76276546716690063 0.0033813028130680323 0.015242437832057476
0.82779997587203979 0.0093008903786540031 0.0096187964081764221
0.88916045427322388 0.031731579452753067 0.008094114251434803
0.94840431213378906 0.086208879947662354 0.0067461798898875713
0.99019521474838257 0.13564261794090271 0.0062572406604886055
0.0046181473881006241 0.053001031279563904 0.055723316967487335
0.038837239146232605 0.052043434232473373 0.053894132375717163
0.1168648973107338 0.061509463936090469 0.052551973611116409
0.2249230295419693 0.06186777725815773 0.042291108518838882
0.34944453835487366 0.062325853854417801 0.042325396090745926
0.47621944546699524 0.057859160006046295 0.03413015604019165
0.59576177597045898 0.04799937829375267 0.022600062191486359
0.69551140069961548 0.045344468206167221 0.017792360857129097
0.77039831876754761 0.057936590164899826 0.013688853941857815
0.83353590965270996 0.072829484939575195 0.014632864855229855
0.89350056648254395 0.10610718280076981 0.013068599626421928
0.94920939207077026 0.1428876519203186 0.0086166979745030403
0.99109816551208496 0.17822660505771637 0.0089746210724115372
0.0030735540203750134 0.13289380073547363 0.077410422265529633
0.035401362925767899 0.13722382485866547 0.07809072732925415
0.12156586349010468 0.15141341090202332 0.064558394253253937
0.24400149285793304 0.16783440113067627 0.041809514164924622
0.38198289275169373 0.1718667596578598 0.034003224223852158
0.51256030797958374 0.17279331386089325 0.025392509996891022
0.62502568960189819 0.16863217949867249 0.018157958984375
0.71319305896759033 0.16672256588935852 0.013690514490008354
0.78121495246887207 0.17148041725158691 0.012295277789235115
0.84137558937072754 0.18161956965923309 0.0175667405128479
0.90108031034469604 0.19545693695545197 0.012823381461203098
0.95419108867645264 0.21288938820362091 0.0092726610600948334
0.99412494897842407 0.23523031175136566 0.0084666088223457336
0.0013053744332864881 0.23629966378211975 0.11229720711708069
0.025507938116788864 0.24027444422245026 0.1153719425201416
0.11700569838285446 0.24938769638538361 0.10299959033727646
0.23986811935901642 0.27342855930328369 0.064447976648807526
0.39645519852638245 0.29925921559333801 0.027712369337677956
0.54099661111831665 0.30149421095848083 0.016481766477227211
0.65207123756408691 0.29101166129112244 0.011823272332549095
0.73119091987609863 0.28125345706939697 0.011047049425542355
0.7942882776260376 0.27523636817932129 0.011908167973160744
0.85181212425231934 0.27722585201263428 0.0096232844516634941
0.90899026393890381 0.28338503837585449 0.0099963322281837463
0.96183353662490845 0.29077664017677307 0.0063581876456737518
0.99585580825805664 0.30310732126235962 0.0062161912210285664
0.0054741655476391315 0.3565400242805481 0.16449014842510223
0.033516287803649902 0.35789090394973755 0.16738733649253845
0.1300521045923233 0.36170056462287903 0.16109679639339447
0.2462516725063324 0.37888985872268677 0.12863180041313171
0.38078898191452026 0.40543070435523987 0.069061607122421265
0.53088456392288208 0.42934641242027283 0.018911698833107948
0.64288300275802612 0.42081645131111145 0.010347717441618443
0.73441797494888306 0.39784711599349976 0.0094406725838780403
0.80348247289657593 0.38017776608467102 0.0075941947288811207
0.86118757724761963 0.37310761213302612 0.0068329158239066601
0.91562312841415405 0.37107130885124207 0.0058076297864317894
0.9660455584526062 0.37317544221878052 0.0051502902060747147
0.99647265672683716 0.37620088458061218 0.0071489522233605385
0.023972993716597557 0.46465221047401428 0.21788270771503448
0.080572836101055145 0.46689063310623169 0.22417418658733368
0.17579910159111023 0.46725255250930786 0.22080036997795105
0.26840716600418091 0.47397917509078979 0.20122770965099335
0.36865779757499695 0.48752415180206299 0.16153492033481598
0.48847422003746033 0.51020544767379761 0.087418936192989349
0.61353445053100586 0.52774924039840698 0.022552954033017159
0.71199870109558105 0.51543956995010376 0.0080796787515282631
0.79060828685760498 0.49275508522987366 0.008520941250026226
0.85972070693969727 0.47641852498054504 0.0083834780380129814
0.91856729984283447 0.46521285176277161 0.0046545290388166904
0.96889883279800415 0.45770519971847534 0.0047022951766848564
0.99574059247970581 0.45623335242271423 0.0057411342859268188
0.1243976503610611 0.55177032947540283 0.27538785338401794
0.17721016705036163 0.5498010516166687 0.28150695562362671
0.24170754849910736 0.54938560724258423 0.2814696729183197
0.31196430325508118 0.55194509029388428 0.27042931318283081
0.37746146321296692 0.55811131000518799 0.24494798481464386
0.46506088972091675 0.57288575172424316 0.19734826683998108
0.56456750631332397 0.58865255117416382 0.12619104981422424
0.67310464382171631 0.60536420345306396 0.044220209121704102
0.76552510261535645 0.60119974613189697 0.013748109340667725
0.83977490663528442 0.58312457799911499 0.01356932707130909
0.90568047761917114 0.56434005498886108 0.0099872061982750893
0.96611690521240234 0.546051025390625 0.0079402551054954529
0.99678468704223633 0.5388340950012207 0.0096967807039618492
0.24012996256351471 0.62183976173400879 0.33804214000701904
0.26934161782264709 0.62085038423538208 0.34331369400024414
0.31135955452919006 0.61840426921844482 0.34216409921646118
0.36299103498458862 0.61904662847518921 0.33332836627960205
0.40439876914024353 0.62101894617080688 0.32040512561798096
0.46478134393692017 0.62991416454315186 0.29108133912086487
0.54292440414428711 0.64388847351074219 0.24638335406780243
0.62778562307357788 0.65706926584243774 0.18190373480319977
0.72667384147644043 0.67445868253707886 0.09073060005903244
0.81458562612533569 0.6765981912612915 0.040587946772575378
0.88609826564788818 0.66061139106750488 0.034680474549531937
0.95146733522415161 0.64224070310592651 0.030652888119220734
0.99399453401565552 0.62537580728530884 0.03016592375934124
0.33196327090263367 0.68443381786346436 0.40002891421318054
0.35222640633583069 0.68539923429489136 0.40452036261558533
0.37969204783439636 0.68283224105834961 0.40254780650138855
0.41723698377609253 0.68210744857788086 0.39571657776832581
0.45071607828140259 0.68205070495605469 0.38889968395233154
0.49207419157028198 0.68803256750106812 0.36866000294685364
0.54349690675735474 0.6975976824760437 0.34365862607955933
0.61411458253860474 0.70932459831237793 0.30363357067108154
0.68812960386276245 0.72028881311416626 0.24966496229171753
0.77568167448043823 0.7334253191947937 0.17610795795917511
0.86093807220458984 0.73711901903152466 0.12758873403072357
0.92954903841018677 0.72472339868545532 0.11883610486984253
0.98279178142547607 0.71067720651626587 0.12090884894132614
0.41440871357917786 0.74127256870269775 0.46323058009147644
0.42791825532913208 0.74288105964660645 0.46502497792243958
0.44254562258720398 0.74267792701721191 0.46304643154144287
0.46923995018005371 0.74144566059112549 0.46187293529510498
0.49730145931243896 0.73921972513198853 0.45893207192420959
0.53038525581359863 0.74257946014404297 0.44724538922309875
0.56818556785583496 0.7502666711807251 0.43208408355712891
0.6248587965965271 0.75898391008377075 0.40024131536483765
0.67901283502578735 0.76754319667816162 0.37040895223617554
0.74845755100250244 0.77625554800033569 0.32243436574935913
0.82749295234680176 0.78827357292175293 0.26971015334129333
0.90898996591567993 0.79363691806793213 0.23248483240604401
0.97123485803604126 0.78664863109588623 0.234183669090271
0.49350622296333313 0.79590290784835815 0.52787643671035767
0.50332534313201904 0.7958868145942688 0.53068071603775024
0.51524960994720459 0.79635155200958252 0.53279250860214233
0.53017055988311768 0.79461586475372314 0.53075629472732544
0.54938709735870361 0.7936626672744751 0.52915781736373901
0.57654082775115967 0.7961384654045105 0.52505356073379517
0.60869204998016357 0.80082261562347412 0.51531463861465454
0.64342784881591797 0.8065190315246582 0.49451997876167297
0.6902117133140564 0.81408601999282837 0.47405806183815002
0.74222844839096069 0.8216819167137146 0.44486120343208313
0.80466282367706299 0.82847946882247925 0.40620312094688416
0.87759280204772949 0.83803540468215942 0.36143773794174194
0.95827925205230713 0.85188955068588257 0.33498683571815491
0.58125627040863037 0.85142660140991211 0.60981130599975586
0.58795034885406494 0.84971731901168823 0.61054027080535889
0.59563583135604858 0.84889394044876099 0.60997384786605835
0.60844773054122925 0.84840446710586548 0.61084526777267456
0.62414735555648804 0.84854817390441895 0.61303317546844482
0.64191585779190063 0.85064077377319336 0.61240845918655396
0.66696017980575562 0.85324943065643311 0.60399383306503296
0.69282692670822144 0.85816174745559692 0.59275102615356445
0.7213858962059021 0.86324787139892578 0.57703328132629395
0.76105284690856934 0.87063407897949219 0.55808454751968384
0.80868273973464966 0.87855356931686401 0.53359949588775635
0.86241310834884644 0.8856041431427002 0.50217586755752563
0.92743653059005737 0.89567989110946655 0.46716025471687317
0.67567980289459229 0.90857434272766113 0.70055484771728516
0.67894214391708374 0.90766191482543945 0.6992073655128479
0.68467599153518677 0.90636283159255981 0.69891595840454102
0.69422483444213867 0.90672725439071655 0.70174843072891235
0.70600992441177368 0.90634346008300781 0.70282864570617676
0.71849673986434937 0.90564382076263428 0.70228046178817749
0.73782914876937866 0.90858584642410278 0.7028394341468811
0.75525033473968506 0.91264468431472778 0.69475382566452026
0.77588695287704468 0.9195217490196228 0.68663817644119263
0.80191600322723389 0.92719578742980957 0.67425417900085449
0.83719998598098755 0.93556565046310425 0.65980821847915649
0.87604612112045288 0.94253051280975342 0.6400865912437439
0.92357993125915527 0.95041841268539429 0.61720365285873413
0.0067194919101893902 0.011518201790750027 0.12476480752229691
0.048890534788370132 0.011845173314213753 0.1267838180065155
0.11518013477325439 0.0087964078411459923 0.12612299621105194
0.21027939021587372 0.0053832409903407097 0.12982508540153503
0.33914914727210999 0.0030321157537400723 0.13004913926124573
0.46861690282821655 0.0022125991526991129 0.12519212067127228
0.58757287263870239 0.00094887230079621077 0.11703920364379883
0.68287140130996704 0.0013260187115520239 0.1195114403963089
0.76001745462417603 0.0027723873499780893 0.11539052426815033
0.82416093349456787 0.0056096543557941914 0.107541523873806
0.88577711582183838 0.027659067884087563 0.10171522200107574
0.94308269023895264 0.089075110852718353 0.094639122486114502
0.98957961797714233 0.14075809717178345 0.094198472797870636
0.0015107847284525633 0.05985037237405777 0.13941328227519989
0.035292547196149826 0.059727493673563004 0.14179962873458862
0.12492860108613968 0.067108333110809326 0.14282962679862976
0.23190517723560333 0.056722261011600494 0.13959844410419464
0.35656851530075073 0.032187934964895248 0.13444189727306366
0.48190063238143921 0.024528877809643745 0.13057222962379456
0.59989607334136963 0.024782996624708176 0.12988635897636414
0.69439077377319336 0.02934601716697216 0.1255241334438324
0.76672184467315674 0.04323209822177887 0.11793889105319977
0.82869887351989746 0.064226232469081879 0.11467548459768295
0.88869035243988037 0.10565466433763504 0.10504309087991714
0.94505196809768677 0.15022386610507965 0.093891382217407227
0.98884755373001099 0.18666534125804901 0.096106618642807007
0.0022044163197278976 0.14612475037574768 0.15593764185905457
0.029214566573500633 0.15155583620071411 0.16224129498004913
0.1320415586233139 0.16329285502433777 0.16475668549537659
0.25533938407897949 0.16831688582897186 0.15692602097988129
0.38613030314445496 0.16039068996906281 0.14641498029232025
0.51269042491912842 0.15682035684585571 0.14199970662593842
0.62368494272232056 0.15558822453022003 0.13471081852912903
0.7100641131401062 0.16028852760791779 0.12438108026981354
0.77562737464904785 0.16902381181716919 0.11522107571363449
0.83623069524765015 0.17572331428527832 0.11823727190494537
0.89621621370315552 0.19589021801948547 0.10796068608760834
0.9515615701675415 0.22060397267341614 0.099484384059906006
0.99327176809310913 0.24088165163993835 0.097105525434017181
0.0039765452966094017 0.25914496183395386 0.1957077831029892
0.050233624875545502 0.26313644647598267 0.20058850944042206
0.14842934906482697 0.26468548178672791 0.19965241849422455
0.2643219530582428 0.28266876935958862 0.18558737635612488
0.41441839933395386 0.29866522550582886 0.15999920666217804
0.55023986101150513 0.29473692178726196 0.14722602069377899
0.65152835845947266 0.28520411252975464 0.13540513813495636
0.72752100229263306 0.2788512110710144 0.12501288950443268
0.7898484468460083 0.27608755230903625 0.11627879738807678
0.84834033250808716 0.27679929137229919 0.11129797995090485
0.90395277738571167 0.28395214676856995 0.1071314662694931
0.9563794732093811 0.29594734311103821 0.098831966519355774
0.99310755729675293 0.30995267629623413 0.098555214703083038
0.032581988722085953 0.38378620147705078 0.24962577223777771
0.10359800606966019 0.38320434093475342 0.25231122970581055
