luts/negative_old/kodak_portra_400_vc_++.cube
# Created by: G'MIC (https://gmic.eu)
TITLE "kodak_portra_400_vc_++"
# LUT size
LUT_3D_SIZE 13
# Data domain
DOMAIN_MIN 0.0 0.0 0.0
DOMAIN_MAX 1.0 1.0 1.0
# LUT data points
0.083080247044563293 0.094660200178623199 0.075386270880699158
0.10463675856590271 0.095021732151508331 0.077259674668312073
0.15305434167385101 0.094611436128616333 0.075623743236064911
0.21458517014980316 0.093129895627498627 0.069656401872634888
0.30765825510025024 0.091782577335834503 0.061733171343803406
0.42946389317512512 0.086209394037723541 0.049050934612751007
0.55373352766036987 0.07403748482465744 0.026218084618449211
0.66739547252655029 0.064765781164169312 0.008331972174346447
0.75942999124526978 0.0617026686668396 0.0046485001221299171
0.83784323930740356 0.084056958556175232 0.0032136207446455956
0.89556682109832764 0.11139460653066635 0.00069928634911775589
0.94158917665481567 0.14209999144077301 0
0.98267477750778198 0.17019571363925934 0.00020303165365476161
0.082470595836639404 0.11338233202695847 0.076835691928863525
0.10261496901512146 0.10954125970602036 0.074794456362724304
0.160382941365242 0.11292625963687897 0.072720877826213837
0.22716447710990906 0.11479200422763824 0.065816231071949005
0.32432514429092407 0.11853515356779099 0.05385984480381012
0.44442108273506165 0.11990209668874741 0.038962975144386292
0.56827497482299805 0.12038698047399521 0.019998887553811073
0.68188238143920898 0.11650790274143219 0.0082199098542332649
0.76793664693832397 0.11554067581892014 0.0078164944425225258
0.84111243486404419 0.12927475571632385 0.0063027474097907543
0.89852184057235718 0.14757470786571503 0.0036272683646529913
0.94552338123321533 0.17577710747718811 0.0017597721889615059
0.98240947723388672 0.204811692237854 0.0021193560678511858
0.076366886496543884 0.14476124942302704 0.080174736678600311
0.097278296947479248 0.14804321527481079 0.079291626811027527
0.14981226623058319 0.15045027434825897 0.076289311051368713
0.22496019303798676 0.1615324467420578 0.064801536500453949
0.34010565280914307 0.17997981607913971 0.041310537606477737
0.47628849744796753 0.19045832753181458 0.020627697929739952
0.6039920449256897 0.19734501838684082 0.010112942196428776
0.70020210742950439 0.19647806882858276 0.0068130046129226685
0.77789098024368286 0.19356800615787506 0.0076906690374016762
0.84439021348953247 0.18902553617954254 0.0078332191333174706
0.90009087324142456 0.19752927124500275 0.0052396738901734352
0.94966989755630493 0.21902693808078766 0.0037469302769750357
0.98463171720504761 0.24489918351173401 0.0026298672892153263
0.044869888573884964 0.20655339956283569 0.085891902446746826
0.076727487146854401 0.20926016569137573 0.08611220121383667
0.12749412655830383 0.21355871856212616 0.080154642462730408
0.21009765565395355 0.23552064597606659 0.06309846043586731
0.34629690647125244 0.27216196060180664 0.024877855554223061
0.50071060657501221 0.290374755859375 0.0055554858408868313
0.63423210382461548 0.29381006956100464 0.0034902684856206179
0.72078299522399902 0.289054274559021 0.004754937719553709
0.79216235876083374 0.28580129146575928 0.0046470044180750847
0.85262840986251831 0.27541905641555786 0.0059217712841928005
0.90493488311767578 0.27041637897491455 0.0045547336339950562
0.95423376560211182 0.27649644017219543 0.0036570830270648003
0.99004971981048584 0.29082819819450378 0.0022191365715116262
0.0058079441078007221 0.30737784504890442 0.087376266717910767
0.020141137763857841 0.30810335278511047 0.091384053230285645
0.072225816547870636 0.31554487347602844 0.084169097244739532
0.1812649667263031 0.34124323725700378 0.05869891494512558
0.31992343068122864 0.37891557812690735 0.018651895225048065
0.4915165901184082 0.41079941391944885 0.0039797467179596424
0.63089859485626221 0.41480964422225952 0.00091045605950057507
0.73194015026092529 0.39829921722412109 0.0021500980947166681
0.80424684286117554 0.38074168562889099 0.0030777426436543465
0.86217260360717773 0.3631879985332489 0.0038651858922094107
0.91533005237579346 0.35470062494277954 0.0035656648688018322
0.96066004037857056 0.3533780574798584 0.0024982078466564417
0.99316287040710449 0.35023671388626099 0.0015715355984866619
0.00061305926647037268 0.43187582492828369 0.093305878341197968
0.0029054379556328058 0.43459051847457886 0.10039257258176804
0.01467660628259182 0.43540480732917786 0.095964588224887848
0.10668188333511353 0.44942393898963928 0.069983355700969696
0.27457079291343689 0.47321870923042297 0.024445043876767159
0.44735455513000488 0.50314629077911377 0.006083125714212656
0.60332667827606201 0.52238172292709351 0.0020966771990060806
0.71507304906845093 0.51181471347808838 0.0007413228158839047
0.79456740617752075 0.48267278075218201 0.0017627043416723609
0.86362761259078979 0.45545181632041931 0.0019914065487682819
0.91994798183441162 0.43651089072227478 0.0017628987552598119
0.96153116226196289 0.427694171667099 0.0012457006378099322
0.99154007434844971 0.41981250047683716 0.00072468776488676667
0 0.53289538621902466 0.12481848150491714
9.216607577400282e-05 0.53857266902923584 0.13274909555912018
0.0044213836081326008 0.53713524341583252 0.13300308585166931
0.047591608017683029 0.53807342052459717 0.12263086438179016
0.22907519340515137 0.55110186338424683 0.087043747305870056
0.38612392544746399 0.5680091381072998 0.037258792668581009
0.53520661592483521 0.58498328924179077 0.013697455637156963
0.67383694648742676 0.59598749876022339 0.0044134249910712242
0.77250939607620239 0.58197546005249023 0.00056162814144045115
0.84443068504333496 0.55554711818695068 0.0016902849311009049
0.90709793567657471 0.52934557199478149 0.0033358854707330465
0.95675027370452881 0.50694829225540161 0.0016030255937948823
0.99261701107025146 0.49118554592132568 0
0.00045047834282740951 0.60731989145278931 0.19034525752067566
0.0020820917561650276 0.6118742823600769 0.19681915640830994
0.004855466540902853 0.61055588722229004 0.1995222270488739
0.060179319232702255 0.60764026641845703 0.20011238753795624
0.22673805058002472 0.61348390579223633 0.18751917779445648
0.36158591508865356 0.62325781583786011 0.15396760404109955
0.48000594973564148 0.63357555866241455 0.10912317037582397
0.60301560163497925 0.64408993721008301 0.060215521603822708
0.7280462384223938 0.6542438268661499 0.018328318372368813
0.822925865650177 0.64817291498184204 0.008405737578868866
0.8873516321182251 0.62366312742233276 0.0084740733727812767
0.94156861305236816 0.59808868169784546 0.0039642634801566601
0.98320209980010986 0.57841753959655762 0.0011575885582715273
0.011827925220131874 0.67045062780380249 0.28093260526657104
0.025531230494379997 0.67136824131011963 0.28345257043838501
0.063164308667182922 0.6690247654914856 0.28438887000083923
0.16710507869720459 0.66639268398284912 0.2880324125289917
0.27351251244544983 0.66742867231369019 0.28470709919929504
0.37474030256271362 0.67288076877593994 0.26880666613578796
0.46608880162239075 0.6795036792755127 0.24873258173465729
0.57040625810623169 0.68735998868942261 0.21497705578804016
0.67308932542800903 0.6962851881980896 0.17212769389152527
0.78042370080947876 0.70659357309341431 0.11648650467395782
0.86771750450134277 0.70644122362136841 0.069817453622817993
0.9270978569984436 0.68599444627761841 0.028635481372475624
0.97401636838912964 0.66766500473022461 0.0066071455366909504
0.19190992414951324 0.72311025857925415 0.37939733266830444
0.2146294116973877 0.72008723020553589 0.37877392768859863
0.25228813290596008 0.71784120798110962 0.38071990013122559
0.30105087161064148 0.7153441309928894 0.38447415828704834
0.35664308071136475 0.71382308006286621 0.38790300488471985
0.43287324905395508 0.7157294750213623 0.38079607486724854
0.49468880891799927 0.72104734182357788 0.36678645014762878
0.56549793481826782 0.72809064388275146 0.34966844320297241
0.65131831169128418 0.73493450880050659 0.3275907039642334
0.73692077398300171 0.74243271350860596 0.3034624457359314
0.82394689321517944 0.75191742181777954 0.27233657240867615
0.90262359380722046 0.75512397289276123 0.22892116010189056
0.96206086874008179 0.74574226140975952 0.1661846935749054
0.37781479954719543 0.76598638296127319 0.47574225068092346
0.38459903001785278 0.76284784078598022 0.47388193011283875
0.40340349078178406 0.76207929849624634 0.47673475742340088
0.43024742603302002 0.76014071702957153 0.47969132661819458
0.46810781955718994 0.75892078876495361 0.48753759264945984
0.507762610912323 0.75905978679656982 0.48599475622177124
0.54404014348983765 0.76135891675949097 0.47202792763710022
0.59495562314987183 0.76698058843612671 0.45979294180870056
0.65669965744018555 0.77299737930297852 0.45017126202583313
0.72534167766571045 0.77973258495330811 0.43822816014289856
0.7935071587562561 0.78705883026123047 0.42026159167289734
0.8704524040222168 0.79914182424545288 0.40154442191123962
0.93499839305877686 0.80635243654251099 0.38262581825256348
0.50986343622207642 0.81023448705673218 0.56522828340530396
0.51479506492614746 0.80832278728485107 0.56518650054931641
0.5260205864906311 0.80811357498168945 0.56794136762619019
0.54405045509338379 0.80814272165298462 0.57102257013320923
0.5703052282333374 0.80890560150146484 0.57720714807510376
0.59271103143692017 0.80817514657974243 0.57615429162979126
0.61730021238327026 0.80802983045578003 0.56449031829833984
0.65285152196884155 0.8111954927444458 0.55764925479888916
0.70035427808761597 0.81663590669631958 0.55175322294235229
0.74279338121414185 0.82368665933609009 0.55072164535522461
0.7938646674156189 0.83030396699905396 0.54140239953994751
0.84861737489700317 0.83842253684997559 0.53057742118835449
0.91072690486907959 0.85175198316574097 0.52094143629074097
0.62094151973724365 0.85854101181030273 0.64915376901626587
0.62243306636810303 0.85585647821426392 0.64772820472717285
0.62988895177841187 0.85525381565093994 0.6502692699432373
0.64360666275024414 0.85682457685470581 0.65481352806091309
0.65899962186813354 0.85837453603744507 0.6592901349067688
0.67609566450119019 0.85667383670806885 0.66065376996994019
0.69585502147674561 0.855674147605896 0.6548534631729126
0.72101408243179321 0.85820388793945312 0.64943337440490723
0.74796384572982788 0.86468291282653809 0.64709484577178955
0.77951270341873169 0.87339252233505249 0.64880472421646118
0.81614786386489868 0.88012677431106567 0.64271301031112671
0.8575441837310791 0.88751673698425293 0.63474267721176147
0.90103185176849365 0.89348584413528442 0.62367016077041626
0.083259359002113342 0.09479166567325592 0.095683000981807709
0.10269434005022049 0.094609640538692474 0.091865435242652893
0.14964762330055237 0.092075765132904053 0.091353684663772583
0.21613115072250366 0.085472255945205688 0.089525483548641205
0.30586457252502441 0.077110216021537781 0.083378434181213379
0.42524769902229309 0.064606942236423492 0.076042249798774719
0.55453944206237793 0.043413467705249786 0.060142531991004944
0.67211544513702393 0.034059248864650726 0.035249970853328705
0.76491397619247437 0.032251052558422089 0.014055348932743073
0.83574920892715454 0.050362233072519302 0.0074665891006588936
0.89436107873916626 0.080434329807758331 0.0037245058920234442
0.94401389360427856 0.11581229418516159 0.0011125601595267653
0.98197698593139648 0.15055413544178009 0.00089747109450399876
0.085132256150245667 0.1130991205573082 0.096118181943893433
0.10690896958112717 0.11356157809495926 0.098832301795482635
0.15969355404376984 0.1142018660902977 0.097491800785064697
0.22753262519836426 0.11258970946073532 0.091618508100509644
0.32672551274299622 0.1100824847817421 0.083299241960048676
0.44659087061882019 0.10700053721666336 0.071097895503044128
0.57301026582717896 0.10024745017290115 0.049137745052576065
0.6881365180015564 0.098236888647079468 0.024502487853169441
0.7716747522354126 0.1006556823849678 0.012259210459887981
0.84058225154876709 0.11084961146116257 0.0078556286171078682
0.89872056245803833 0.12684208154678345 0.0042128618806600571
0.9460914134979248 0.15691027045249939 0.0033938388805836439
0.9824637770652771 0.18653935194015503 0.0043421727605164051
0.081993281841278076 0.15386730432510376 0.10468833893537521
0.10619548708200455 0.15688928961753845 0.10710877180099487
0.15483835339546204 0.15983140468597412 0.1047484278678894
0.23612383008003235 0.16477382183074951 0.096716828644275665
0.35370656847953796 0.16926711797714233 0.075278520584106445
0.48362749814987183 0.1757061779499054 0.053974539041519165
0.60315978527069092 0.1831410825252533 0.032665807753801346
0.70515626668930054 0.1859893798828125 0.01582043245434761
0.78137636184692383 0.18434342741966248 0.010293414816260338
0.84563201665878296 0.18204279243946075 0.0078623900189995766
0.89989745616912842 0.18913441896438599 0.0071822670288383961
0.94954979419708252 0.20874127745628357 0.0063004288822412491
0.98343145847320557 0.2297157347202301 0.0060629001818597317
0.061951130628585815 0.21745549142360687 0.11442616581916809
0.086987391114234924 0.22313886880874634 0.11533985286951065
0.13724353909492493 0.22498390078544617 0.111611507833004
0.22953777015209198 0.24281728267669678 0.096205420792102814
0.36165550351142883 0.27187457680702209 0.063711188733577728
0.51118618249893188 0.28770589828491211 0.027477174997329712
0.63454741239547729 0.28534898161888123 0.011852817609906197
0.72582328319549561 0.27798563241958618 0.0076659559272229671
0.79334032535552979 0.2728826105594635 0.0079197604209184647
0.85409659147262573 0.26819461584091187 0.008130720816552639
0.90612179040908813 0.26734936237335205 0.0079271802678704262
0.95357519388198853 0.27241808176040649 0.0070360521785914898
0.9869193434715271 0.28141197562217712 0.0054281344637274742
0.0064204796217381954 0.32359176874160767 0.12641078233718872
0.022941933944821358 0.32879999279975891 0.12780512869358063
0.088972188532352448 0.32853800058364868 0.12232273817062378
0.20305263996124268 0.35215446352958679 0.10244755446910858
0.33618056774139404 0.38195368647575378 0.064508326351642609
0.50201702117919922 0.41594389081001282 0.014755338430404663
0.636363685131073 0.41246360540390015 0.0045945262536406517
0.73334544897079468 0.38873505592346191 0.0061327763833105564
0.80311596393585205 0.36986052989959717 0.0061933929100632668
0.86329424381256104 0.35606151819229126 0.0070514604449272156
0.91464352607727051 0.35094079375267029 0.0089097712188959122
0.95787858963012695 0.34831506013870239 0.0059198117814958096
0.98850983381271362 0.34565317630767822 0.0045914594084024429
0.00028206320712342858 0.4456632137298584 0.14611276984214783
0.0032318863086402416 0.44925877451896667 0.15048204362392426
0.019815586507320404 0.44627532362937927 0.14483799040317535
0.13303762674331665 0.45869499444961548 0.1274312436580658
0.29000562429428101 0.47821229696273804 0.09151749312877655
0.44895449280738831 0.50427776575088501 0.035787321627140045
0.60578405857086182 0.52404338121414185 0.010811271145939827
0.71646618843078613 0.50907272100448608 0.0055311615578830242
0.79598397016525269 0.4799618124961853 0.0046867220662534237
0.86346888542175293 0.45409980416297913 0.0072672227397561073
0.91639161109924316 0.43708479404449463 0.0059458864852786064
0.95897239446640015 0.42463558912277222 0.0042173946276307106
0.9883192777633667 0.41714182496070862 0.0047429404221475124
0.00069639919092878699 0.54298055171966553 0.17506115138530731
0.00066549261100590229 0.54690676927566528 0.18999037146568298
0.0059408298693597317 0.54438680410385132 0.18664275109767914
0.083449691534042358 0.544197678565979 0.17690981924533844
0.25389820337295532 0.55458790063858032 0.15698039531707764
0.40049275755882263 0.56936728954315186 0.11340034008026123
0.53875827789306641 0.58431267738342285 0.059887874871492386
0.67415523529052734 0.59676879644393921 0.018761100247502327
0.77693814039230347 0.58541333675384521 0.0071767172776162624
0.8476530909538269 0.55770313739776611 0.0088910870254039764
0.90647411346435547 0.53221940994262695 0.0043824887834489346
0.95625662803649902 0.50684058666229248 0.0043256720528006554
0.99234354496002197 0.48941445350646973 0.0024384891148656607
0.0026571087073534727 0.614249587059021 0.24071699380874634
0.0055101881735026836 0.61653673648834229 0.24523356556892395
0.016902564093470573 0.61541903018951416 0.24398176372051239
0.11531192809343338 0.61137503385543823 0.24306343495845795
0.25348678231239319 0.61396443843841553 0.23487761616706848
0.37585744261741638 0.62475836277008057 0.21385003626346588
0.49232274293899536 0.63462889194488525 0.17652668058872223
0.61206150054931641 0.64535194635391235 0.12325677275657654
0.73298567533493042 0.65546262264251709 0.071312770247459412
0.82561665773391724 0.64918535947799683 0.031799901276826859
0.89076757431030273 0.62546747922897339 0.010201023891568184
0.94440901279449463 0.59863430261611938 0.0056251226924359798
0.98699235916137695 0.57582014799118042 0.0042318603955209255
0.041409824043512344 0.67481899261474609 0.31447914242744446
0.06877058744430542 0.67454862594604492 0.31657499074935913
0.12730354070663452 0.67155826091766357 0.3176911473274231
0.21590806543827057 0.66727173328399658 0.32136553525924683
0.30518588423728943 0.66650950908660889 0.3227270245552063
0.3941841721534729 0.67282003164291382 0.31211763620376587
0.48311313986778259 0.68061494827270508 0.2910865843296051
0.57961428165435791 0.68848854303359985 0.26101154088973999
0.68570202589035034 0.6969870924949646 0.22394591569900513
0.78446072340011597 0.70740777254104614 0.18356731534004211
0.86901313066482544 0.70543950796127319 0.12804381549358368
0.9287533164024353 0.6861380934715271 0.067259468138217926
0.97784924507141113 0.66551214456558228 0.026657044887542725
0.24059955775737762 0.72321236133575439 0.40359562635421753
0.2613392174243927 0.72131431102752686 0.40484333038330078
0.28862440586090088 0.71883726119995117 0.40466588735580444
0.33205351233482361 0.71668004989624023 0.40633714199066162
0.38348686695098877 0.71407008171081543 0.4099128246307373
0.44173452258110046 0.71663552522659302 0.40607035160064697
0.50244247913360596 0.72259259223937988 0.39582794904708862
0.57506710290908813 0.72887331247329712 0.37966296076774597
0.65570509433746338 0.73515099287033081 0.3588235080242157
0.73966342210769653 0.74221086502075195 0.33528813719749451
0.82928162813186646 0.75134336948394775 0.30720469355583191
0.90424305200576782 0.75566554069519043 0.27638256549835205
0.96099585294723511 0.74558538198471069 0.21986253559589386
0.39821016788482666 0.7664673924446106 0.49163159728050232
0.40788692235946655 0.76527237892150879 0.49278536438941956
0.42274370789527893 0.76366615295410156 0.49486139416694641
0.44969585537910461 0.7621161937713623 0.49712806940078735
0.48210597038269043 0.75961565971374512 0.49967265129089355
0.51273822784423828 0.75765860080718994 0.49678763747215271
0.55271404981613159 0.76200783252716064 0.48869812488555908
0.60272657871246338 0.76788210868835449 0.48037281632423401
0.66557091474533081 0.77327710390090942 0.47029823064804077
0.7310328483581543 0.77903223037719727 0.45846587419509888
0.79828959703445435 0.78610062599182129 0.43864142894744873
0.87234765291213989 0.79947918653488159 0.42579838633537292
0.93347811698913574 0.80570536851882935 0.4079795777797699
0.52000576257705688 0.81110203266143799 0.57568681240081787
0.52700221538543701 0.81164807081222534 0.57804208993911743
0.53910171985626221 0.81048393249511719 0.58196520805358887
0.55943679809570312 0.80982482433319092 0.58523368835449219
0.58032310009002686 0.80918329954147339 0.58673518896102905
0.59732073545455933 0.80697113275527954 0.58399504423141479
0.62436193227767944 0.80821341276168823 0.57744789123535156
0.65751200914382935 0.81236028671264648 0.57044017314910889
0.7023627758026123 0.81794947385787964 0.56414127349853516
0.74941736459732056 0.82374668121337891 0.56025815010070801
0.79956167936325073 0.82967460155487061 0.55151826143264771
0.84954506158828735 0.83752691745758057 0.54309111833572388
0.90228933095932007 0.84709697961807251 0.53265970945358276
0.62770372629165649 0.86026513576507568 0.65713340044021606
0.631325364112854 0.8595043420791626 0.65730887651443481
0.63870799541473389 0.85751438140869141 0.65911734104156494
0.65204596519470215 0.85753542184829712 0.66254377365112305
0.66534543037414551 0.85807693004608154 0.66523289680480957
0.67812979221343994 0.85448479652404785 0.66328257322311401
0.69869738817214966 0.85601085424423218 0.66526049375534058
0.72304880619049072 0.85932987928390503 0.6577039361000061
0.74875402450561523 0.86447858810424805 0.65198242664337158
0.78105169534683228 0.87247222661972046 0.65322315692901611
0.81863135099411011 0.8790164589881897 0.64854013919830322
0.85686832666397095 0.88664191961288452 0.6431923508644104
0.89686548709869385 0.89451795816421509 0.63702654838562012
0.078926160931587219 0.09512145072221756 0.13569460809230804
0.10398575663566589 0.09482632577419281 0.14302921295166016
0.14883862435817719 0.093455187976360321 0.13799761235713959
0.21437251567840576 0.083543978631496429 0.13261620700359344
0.31366437673568726 0.056972309947013855 0.12862575054168701
0.4361361563205719 0.019709672778844833 0.11747602373361588
0.56965941190719604 0.0080425934866070747 0.10425657033920288
0.68141984939575195 0.0077492357231676579 0.091811418533325195
0.76671743392944336 0.0072783078067004681 0.072829887270927429
0.83397585153579712 0.015365914441645145 0.051815330982208252
0.89379161596298218 0.044177394360303879 0.031441707164049149
0.94539481401443481 0.086907841265201569 0.014106780290603638
0.98316699266433716 0.13144931197166443 0.0051171248778700829
0.079170092940330505 0.11747480183839798 0.14052298665046692
0.10656242817640305 0.11577185988426208 0.14424583315849304
0.15953461825847626 0.11614525318145752 0.14398904144763947
0.22836482524871826 0.11211010813713074 0.13995431363582611
0.3301863968372345 0.092094078660011292 0.13079304993152618
0.4556908905506134 0.055632393807172775 0.11720389872789383
0.58356994390487671 0.047369085252285004 0.10720718652009964
0.68984377384185791 0.049301043152809143 0.09336458146572113
0.77207100391387939 0.056374359875917435 0.071141757071018219
0.83788901567459106 0.077547617256641388 0.050214372575283051
0.89720433950424194 0.10612820088863373 0.029644191265106201
0.94793987274169922 0.13681457936763763 0.015291685238480568
0.98485815525054932 0.16774941980838776 0.0067851496860384941
0.080272912979125977 0.159515380859375 0.14819703996181488
0.1089225634932518 0.16240936517715454 0.15245823562145233
0.16296687722206116 0.16429975628852844 0.15313820540904999
0.24588048458099365 0.16600826382637024 0.14779260754585266
0.36321750283241272 0.15876272320747375 0.1332770437002182
0.48905670642852783 0.15326160192489624 0.12080592662096024
0.60772502422332764 0.15359035134315491 0.10284844040870667
0.70838707685470581 0.15809285640716553 0.082501880824565887
0.78281116485595703 0.16110830008983612 0.06119830533862114
0.84722864627838135 0.16884489357471466 0.03664233535528183
0.89976543188095093 0.18172457814216614 0.028932085260748863
0.95104193687438965 0.19738480448722839 0.013844194822013378
0.98574149608612061 0.21651427447795868 0.008473789319396019
0.061455417424440384 0.23328498005867004 0.16320259869098663
0.099647030234336853 0.2388165295124054 0.16754283010959625
0.15579643845558167 0.23863805830478668 0.16734026372432709
0.25449195504188538 0.25554665923118591 0.15952478349208832
0.38763684034347534 0.27300986647605896 0.13900020718574524
0.52613192796707153 0.27715641260147095 0.11035840213298798
0.64143961668014526 0.27012160420417786 0.076069101691246033
0.72985744476318359 0.26308891177177429 0.053718313574790955
0.79579997062683105 0.25897157192230225 0.040025599300861359
0.85563105344772339 0.258962482213974 0.026262888684868813
0.90725457668304443 0.26393014192581177 0.020102916285395622
0.95490634441375732 0.26744425296783447 0.010125253349542618
0.98910796642303467 0.27577129006385803 0.008160669356584549
0.012725455686450005 0.35259026288986206 0.192482590675354
0.041074492037296295 0.35709023475646973 0.19252720475196838
0.12220367789268494 0.354463130235672 0.19266568124294281
