luts/negative_old/kodak_portra_400_vc_+.cube
# Created by: G'MIC (https://gmic.eu)
TITLE "kodak_portra_400_vc_+"
# LUT size
LUT_3D_SIZE 7
# Data domain
DOMAIN_MIN 0.0 0.0 0.0
DOMAIN_MAX 1.0 1.0 1.0
# LUT data points
0.071352086961269379 0.097510427236557007 0.11380034685134888
0.15924368798732758 0.096821941435337067 0.10727923363447189
0.32318425178527832 0.10701616853475571 0.10009113699197769
0.53240126371383667 0.11484220623970032 0.079463198781013489
0.7256128191947937 0.12632541358470917 0.045431129634380341
0.85933250188827515 0.15192142128944397 0.016835950314998627
0.97157847881317139 0.18912422657012939 0.0010695962700992823
0.046076111495494843 0.17359510064125061 0.12658901512622833
0.14045606553554535 0.18337590992450714 0.1181083545088768
0.35094639658927917 0.20559528470039368 0.091229923069477081
0.57212311029434204 0.21733216941356659 0.056736547499895096
0.74822771549224854 0.22107192873954773 0.021977636963129044
0.87240862846374512 0.22865307331085205 0.0080575533211231232
0.97736430168151855 0.25262343883514404 0.0020359412301331758
0.0075138318352401257 0.32616502046585083 0.16739696264266968
0.066581860184669495 0.33709564805030823 0.16171061992645264
0.31339752674102783 0.37855526804924011 0.12098711729049683
0.59682762622833252 0.40680855512619019 0.023867469280958176
0.7720375657081604 0.37328812479972839 0.0075761983171105385
0.89004158973693848 0.36020353436470032 0.0045678382739424706
0.98609131574630737 0.35944256186485291 0.0021802415139973164
0.0010435365838930011 0.5040287971496582 0.21708856523036957
0.0098637603223323822 0.50869256258010864 0.224103182554245
0.24470920860767365 0.52707505226135254 0.20603209733963013
0.50280296802520752 0.55507558584213257 0.14457525312900543
0.74531376361846924 0.56992936134338379 0.028678145259618759
0.8874887228012085 0.52239793539047241 0.0054666409268975258
0.98702627420425415 0.49025070667266846 0.0016164592234417796
0.012824488803744316 0.64456015825271606 0.31095999479293823
0.090260647237300873 0.64238256216049194 0.31531330943107605
0.27134793996810913 0.63725787401199341 0.31424608826637268
0.45298773050308228 0.65383023023605347 0.29120105504989624
0.65345168113708496 0.67702478170394897 0.24131637811660767
0.85094881057739258 0.69244170188903809 0.16260442137718201
0.97411137819290161 0.66105949878692627 0.04820314422249794
0.32328245043754578 0.75154542922973633 0.45118549466133118
0.36407190561294556 0.74873936176300049 0.4545041024684906
0.42379075288772583 0.74413669109344482 0.45340338349342346
0.51746684312820435 0.75279474258422852 0.44941467046737671
0.63849413394927979 0.76575976610183716 0.42680120468139648
0.78751236200332642 0.78170043230056763 0.39501258730888367
0.9292176365852356 0.80406153202056885 0.36446401476860046
0.58816158771514893 0.85757797956466675 0.62900042533874512
0.60497033596038818 0.85674834251403809 0.63100707530975342
0.63144183158874512 0.85523289442062378 0.63483822345733643
0.67388421297073364 0.85648781061172485 0.63990920782089233
0.73199653625488281 0.86663007736206055 0.63180571794509888
0.80636566877365112 0.87897664308547974 0.61947911977767944
0.89372289180755615 0.89368915557861328 0.60138112306594849
0.047418691217899323 0.10424511134624481 0.19409109652042389
0.15426275134086609 0.10071354359388351 0.18587182462215424
0.32795330882072449 0.080948278307914734 0.17751674354076385
0.54126495122909546 0.04993685707449913 0.16511908173561096
0.72060352563858032 0.095184192061424255 0.1582285463809967
0.85325640439987183 0.13819514214992523 0.13072147965431213
0.96825277805328369 0.18620599806308746 0.095125012099742889
0.044960875064134598 0.19229967892169952 0.21019445359706879
0.16450300812721252 0.19866597652435303 0.21108856797218323
0.35947954654693604 0.19422629475593567 0.19289699196815491
0.57255101203918457 0.20219017565250397 0.17586414515972137
0.73907256126403809 0.21283893287181854 0.154993936419487
0.86424130201339722 0.22325114905834198 0.12556254863739014
0.97382825613021851 0.25197872519493103 0.084254398941993713
0.02240174263715744 0.36395981907844543 0.25156548619270325
0.14453111588954926 0.36550179123878479 0.25200054049491882
0.35270774364471436 0.38962191343307495 0.23105034232139587
0.60421890020370483 0.39394098520278931 0.18356609344482422
0.76702463626861572 0.36859622597694397 0.13986578583717346
0.8841748833656311 0.35349410772323608 0.09973597526550293
0.98450231552124023 0.35745793581008911 0.072089731693267822
0.011193878017365932 0.53250950574874878 0.29931867122650146
0.10268562287092209 0.53195571899414062 0.30550244450569153
0.30333459377288818 0.53073835372924805 0.2976422905921936
0.52541613578796387 0.55699974298477173 0.25573834776878357
0.7468377947807312 0.55584967136383057 0.18755888938903809
0.88946616649627686 0.51109606027603149 0.10768970847129822
0.98737251758575439 0.48849785327911377 0.061166442930698395
0.1414177268743515 0.65472590923309326 0.3730008602142334
0.22388498485088348 0.64866763353347778 0.37779122591018677
0.33645907044410706 0.64353877305984497 0.37864643335342407
0.47855594754219055 0.65597295761108398 0.35975188016891479
0.66234838962554932 0.6738092303276062 0.32657644152641296
0.85119587182998657 0.69106084108352661 0.2760167121887207
0.9713013768196106 0.65826070308685303 0.18413886427879333
0.37563717365264893 0.75520807504653931 0.48329272866249084
0.40429744124412537 0.75158441066741943 0.48557350039482117
0.45894429087638855 0.74803972244262695 0.4888700544834137
0.53772616386413574 0.75095707178115845 0.48224526643753052
0.65138721466064453 0.76385605335235596 0.46964994072914124
0.78881341218948364 0.77923321723937988 0.4431215226650238
0.9294058084487915 0.80316722393035889 0.41773673892021179
0.60495674610137939 0.85860580205917358 0.64560979604721069
0.61225634813308716 0.85643845796585083 0.64306384325027466
0.63971114158630371 0.85472142696380615 0.64669167995452881
0.6834297776222229 0.85401421785354614 0.6533513069152832
0.73694097995758057 0.86408358812332153 0.64874601364135742
0.81241476535797119 0.87955808639526367 0.63903290033340454
0.89188158512115479 0.89303684234619141 0.6238858699798584
0.0064612594433128834 0.1145550012588501 0.35212633013725281
0.14191016554832458 0.1158168837428093 0.35843396186828613
0.34291455149650574 0.1063617616891861 0.36075612902641296
0.57616382837295532 0.042054284363985062 0.34735435247421265
0.75305020809173584 0.0058070612139999866 0.29810836911201477
0.87220859527587891 0.020633025094866753 0.26051044464111328
0.96896588802337646 0.16189670562744141 0.25876152515411377
0.0088002374395728111 0.21337339282035828 0.37232762575149536
0.13267304003238678 0.21484954655170441 0.37536376714706421
0.37356418371200562 0.22044388949871063 0.38198003172874451
0.5943683385848999 0.18986882269382477 0.35717299580574036
0.75274109840393066 0.148686483502388 0.3103085458278656
0.86473602056503296 0.20438407361507416 0.28812700510025024
0.96988749504089355 0.25932663679122925 0.27185195684432983
0.005101312417536974 0.40128389000892639 0.39932557940483093
0.16470131278038025 0.4062829315662384 0.40691044926643372
0.40854641795158386 0.41320642828941345 0.41087627410888672
0.60498058795928955 0.39832493662834167 0.3800261914730072
0.75072586536407471 0.37891289591789246 0.34114304184913635
0.86783868074417114 0.37601065635681152 0.30492416024208069
0.96937769651412964 0.37760829925537109 0.27635836601257324
0.21551066637039185 0.56890869140625 0.44683590531349182
0.31223466992378235 0.56512624025344849 0.45242160558700562
0.41798406839370728 0.55457979440689087 0.44721776247024536
0.57376289367675781 0.56614804267883301 0.42233574390411377
0.7516363263130188 0.55202263593673706 0.38031527400016785
0.88275140523910522 0.51772403717041016 0.32839468121528625
0.97902989387512207 0.5000879168510437 0.28845664858818054
0.37307623028755188 0.67097592353820801 0.50172573328018188
0.39769509434700012 0.66716378927230835 0.49680420756340027
0.44930139183998108 0.66122221946716309 0.4886874258518219
0.53979682922363281 0.66058152914047241 0.47960019111633301
0.69834715127944946 0.68084031343460083 0.46138179302215576
0.85170841217041016 0.6854519248008728 0.42401629686355591
0.96672940254211426 0.65136700868606567 0.35440504550933838
0.4668307900428772 0.76229679584503174 0.55667918920516968
0.48675698041915894 0.75896918773651123 0.55681324005126953
0.52204024791717529 0.75501590967178345 0.55682998895645142
0.59092497825622559 0.75424504280090332 0.56024610996246338
0.67976969480514526 0.76497459411621094 0.5510292649269104
0.79531729221343994 0.78053289651870728 0.53132468461990356
0.9269254207611084 0.79866725206375122 0.50801712274551392
0.62920421361923218 0.86070507764816284 0.67561626434326172
0.64052349328994751 0.85949510335922241 0.67687690258026123
0.66236364841461182 0.85618466138839722 0.67823076248168945
0.69897747039794922 0.85673487186431885 0.68462604284286499
0.75171077251434326 0.86551749706268311 0.68409961462020874
0.81464630365371704 0.87835371494293213 0.67466753721237183
0.89620792865753174 0.89369434118270874 0.66086530685424805
0.00076407636515796185 0.13805432617664337 0.53907996416091919
0.083647318184375763 0.1393023282289505 0.5461011528968811
0.35481160879135132 0.14936539530754089 0.54927992820739746
0.58682453632354736 0.12672156095504761 0.55929923057556152
0.7567756175994873 0.12317899614572525 0.52148151397705078
0.88974320888519287 0.16410313546657562 0.47297674417495728
0.9852287769317627 0.12467034906148911 0.41958573460578918
0.0035403980873525143 0.24072453379631042 0.54974669218063354
0.086057551205158234 0.23845860362052917 0.56325429677963257
0.37387701869010925 0.25601506233215332 0.56389766931533813
0.59811210632324219 0.25980702042579651 0.56918275356292725
0.75741910934448242 0.26810583472251892 0.53084272146224976
0.88239574432373047 0.26801666617393494 0.48101985454559326
0.97744959592819214 0.24089305102825165 0.4295465350151062
0.0048076855018734932 0.41733857989311218 0.56317418813705444
0.14122188091278076 0.41849806904792786 0.56827044486999512
0.40308383107185364 0.42393550276756287 0.57370024919509888
0.60236448049545288 0.43474936485290527 0.57169103622436523
0.75030100345611572 0.43160554766654968 0.54261398315429688
0.86822742223739624 0.4021020233631134 0.4912286102771759
0.96349644660949707 0.38902494311332703 0.45134222507476807
0.15840277075767517 0.57591110467910767 0.5721626877784729
0.30198609828948975 0.57499128580093384 0.57958137989044189
0.46529901027679443 0.57646101713180542 0.58637875318527222
0.60546326637268066 0.57752406597137451 0.58160138130187988
0.73949921131134033 0.56675463914871216 0.55473095178604126
0.85619497299194336 0.54233396053314209 0.51226145029067993
0.95820838212966919 0.52257102727890015 0.47316402196884155
0.42882761359214783 0.69154459238052368 0.60735410451889038
0.46978205442428589 0.68770992755889893 0.60877472162246704
0.54343658685684204 0.68212646245956421 0.60971212387084961
0.61208319664001465 0.67627239227294922 0.60430324077606201
0.72012102603912354 0.68695664405822754 0.59350192546844482
0.85053497552871704 0.67650562524795532 0.55838489532470703
0.96054351329803467 0.65568286180496216 0.5124659538269043
0.56870311498641968 0.77308589220046997 0.65654581785202026
0.58807486295700073 0.77300554513931274 0.65632319450378418
0.61219334602355957 0.77007699012756348 0.65062648057937622
0.64566546678543091 0.76162827014923096 0.64186012744903564
0.70800960063934326 0.76341426372528076 0.63429868221282959
0.81133472919464111 0.78442901372909546 0.62594509124755859
0.93013644218444824 0.79233324527740479 0.60681837797164917
0.67316693067550659 0.86527353525161743 0.72658032178878784
0.67661100625991821 0.86458683013916016 0.7225380539894104
0.69005882740020752 0.86467254161834717 0.71970343589782715
0.72157377004623413 0.86388605833053589 0.72352516651153564
0.76561474800109863 0.86520087718963623 0.72339671850204468
0.82416069507598877 0.87093287706375122 0.71378064155578613
0.9052659273147583 0.89646649360656738 0.71052217483520508
0.0010604559211060405 0.18370558321475983 0.68759530782699585
0.054679002612829208 0.18604300916194916 0.69515657424926758
0.3462979793548584 0.20362327992916107 0.69420361518859863
0.56724798679351807 0.23449403047561646 0.69424021244049072
0.7462623119354248 0.24592836201190948 0.69456124305725098
0.86779779195785522 0.28222331404685974 0.66138374805450439
0.96859872341156006 0.37917688488960266 0.63641935586929321
0.002823743736371398 0.27490678429603577 0.69282430410385132
0.10211733728647232 0.27870422601699829 0.70144301652908325
0.36626699566841125 0.29868403077125549 0.69483059644699097
0.57358574867248535 0.32573500275611877 0.69538420438766479
0.74740636348724365 0.34673005342483521 0.69557499885559082
0.86414206027984619 0.36569404602050781 0.66696089506149292
0.96559721231460571 0.43513348698616028 0.64509660005569458
0.083038568496704102 0.4352327287197113 0.69463276863098145
0.23488064110279083 0.43625026941299438 0.6961815357208252
0.40457513928413391 0.43619874119758606 0.69662773609161377
0.59002131223678589 0.45525318384170532 0.69513368606567383
0.74863737821578979 0.47674936056137085 0.69695842266082764
0.86178702116012573 0.48717215657234192 0.67291975021362305
0.94934362173080444 0.50816923379898071 0.64899963140487671
0.16736036539077759 0.56602883338928223 0.68482726812362671
0.28867432475090027 0.56781387329101562 0.6853453516960144
0.43781960010528564 0.57073038816452026 0.68777996301651001
0.60303962230682373 0.58151412010192871 0.69434982538223267
0.74378138780593872 0.59514093399047852 0.69949352741241455
0.85167455673217773 0.59923219680786133 0.68286740779876709
0.94548147916793823 0.57065176963806152 0.63884395360946655
0.40384331345558167 0.6890714168548584 0.69756400585174561
0.4561258852481842 0.6934320330619812 0.69903713464736938
0.53395777940750122 0.68944180011749268 0.70139044523239136
0.64141732454299927 0.69180238246917725 0.70679086446762085
0.7441554069519043 0.69619506597518921 0.70870316028594971
0.84041941165924072 0.68286353349685669 0.68450897932052612
0.94096904993057251 0.66713184118270874 0.65289527177810669
0.58641088008880615 0.79132276773452759 0.73223203420639038
0.60584831237792969 0.78977537155151367 0.73046994209289551
0.64855784177780151 0.78945779800415039 0.7350882887840271
0.70094013214111328 0.78338783979415894 0.73473191261291504
0.74682289361953735 0.77694827318191528 0.72636455297470093
0.83561068773269653 0.78996056318283081 0.72083067893981934
0.93455159664154053 0.78821957111358643 0.70072406530380249
0.69582915306091309 0.8776543140411377 0.78246259689331055
0.70564007759094238 0.87651908397674561 0.78266280889511108
0.72679561376571655 0.8744465708732605 0.7815859317779541
0.75677764415740967 0.8721240758895874 0.78044182062149048
0.7847866415977478 0.87137961387634277 0.77881485223770142
0.83738040924072266 0.87816399335861206 0.77050715684890747
0.90880680084228516 0.8992767333984375 0.77073407173156738
0.015441191382706165 0.2660975456237793 0.80798089504241943
0.17051000893115997 0.27668491005897522 0.80851173400878906
0.38334086537361145 0.29692932963371277 0.80399185419082642
0.56668919324874878 0.32624411582946777 0.80196970701217651
0.72987216711044312 0.38277649879455566 0.80013716220855713
0.86295020580291748 0.40936499834060669 0.79843264818191528
0.95049339532852173 0.43566051125526428 0.77783834934234619
0.087875574827194214 0.34055313467979431 0.80731171369552612
0.22871406376361847 0.3502623438835144 0.80462658405303955
0.40756073594093323 0.36897900700569153 0.80351275205612183
0.57686543464660645 0.39656510949134827 0.79987549781799316
0.73020201921463013 0.43584468960762024 0.80017560720443726
0.85972142219543457 0.46122521162033081 0.7963181734085083
0.94492912292480469 0.48348164558410645 0.78233963251113892
0.25389426946640015 0.46676540374755859 0.80048191547393799
0.32321307063102722 0.46550923585891724 0.80059891939163208
0.45170918107032776 0.47695934772491455 0.80009263753890991
0.60618394613265991 0.50216448307037354 0.79725402593612671
0.74409550428390503 0.52543312311172485 0.79871964454650879
0.85472577810287476 0.54220151901245117 0.7975127100944519
0.93512547016143799 0.55510145425796509 0.78222477436065674
0.28378435969352722 0.58031487464904785 0.78382951021194458
0.36846005916595459 0.58606636524200439 0.78618556261062622
0.47812727093696594 0.58663666248321533 0.79053539037704468
0.60986840724945068 0.59804987907409668 0.79457622766494751
0.74353283643722534 0.61982065439224243 0.79736495018005371
0.84991717338562012 0.62685716152191162 0.79632568359375
0.92988544702529907 0.63863778114318848 0.7870977520942688
0.39110767841339111 0.68523329496383667 0.78298944234848022
0.43993273377418518 0.69057768583297729 0.78788465261459351
0.51114004850387573 0.68876421451568604 0.78726702928543091
0.61346453428268433 0.68888962268829346 0.78741127252578735
0.73798942565917969 0.70215153694152832 0.79531538486480713
0.84657442569732666 0.71759665012359619 0.80021774768829346
0.92882668972015381 0.71702700853347778 0.79203885793685913
0.55445194244384766 0.7898675799369812 0.8003121018409729
0.57659280300140381 0.79290890693664551 0.80255329608917236
0.62390559911727905 0.79457896947860718 0.80705016851425171
0.69201028347015381 0.79396754503250122 0.8120197057723999
0.76683050394058228 0.79192489385604858 0.80923330783843994
0.84760606288909912 0.79784554243087769 0.80986601114273071
0.92818140983581543 0.78728216886520386 0.79047751426696777
0.69200193881988525 0.88740509748458862 0.83442431688308716
0.70635801553726196 0.89021521806716919 0.8368951678276062
0.72586464881896973 0.88909196853637695 0.83915591239929199
0.76532506942749023 0.88778853416442871 0.84269732236862183
0.81022387742996216 0.88693195581436157 0.84135991334915161
0.8532833456993103 0.88621658086776733 0.83648759126663208
0.92473423480987549 0.90064144134521484 0.83308631181716919
0.36468583345413208 0.42856055498123169 0.89974051713943481
0.42071947455406189 0.43490061163902283 0.89950913190841675
0.51795345544815063 0.44949632883071899 0.89604556560516357
0.64201253652572632 0.47646096348762512 0.89458459615707397
0.75780457258224487 0.51045078039169312 0.89184677600860596
0.8616330623626709 0.55282378196716309 0.88965368270874023
0.95118552446365356 0.57237756252288818 0.8893083930015564
0.40427038073539734 0.48096111416816711 0.89945334196090698
0.44981876015663147 0.48434022068977356 0.89871162176132202
0.53691935539245605 0.49421983957290649 0.89649808406829834
0.65009921789169312 0.51422786712646484 0.89251852035522461
0.76649671792984009 0.54858148097991943 0.89208334684371948
0.86296021938323975 0.58151406049728394 0.888233482837677
0.94852983951568604 0.59742277860641479 0.89120042324066162
0.45352333784103394 0.55059927701950073 0.89469963312149048
0.48384973406791687 0.55156946182250977 0.89570087194442749
0.55869919061660767 0.56000930070877075 0.89241296052932739
0.66232192516326904 0.57479500770568848 0.89326804876327515
0.76990151405334473 0.59788590669631958 0.89070785045623779
0.8648267388343811 0.62643623352050781 0.8880963921546936
0.93800449371337891 0.64065808057785034 0.88732928037643433
0.49634847044944763 0.64217770099639893 0.89137715101242065
0.52558994293212891 0.64076638221740723 0.89039498567581177
0.57859319448471069 0.63799136877059937 0.89126002788543701
0.66233175992965698 0.63844853639602661 0.89110696315765381
0.76852214336395264 0.65781772136688232 0.88992279767990112
0.86334520578384399 0.67871004343032837 0.89045041799545288
0.93809968233108521 0.69265806674957275 0.89138960838317871
0.47194367647171021 0.71735197305679321 0.88708209991455078
0.50091272592544556 0.71711081266403198 0.8870464563369751
0.56362062692642212 0.71600019931793213 0.88656938076019287
0.65288937091827393 0.71419680118560791 0.88939124345779419
0.75682944059371948 0.72155982255935669 0.89240461587905884
0.85569560527801514 0.74354523420333862 0.89121425151824951
0.9374547004699707 0.75669354200363159 0.8958544135093689
0.57211321592330933 0.81433379650115967 0.89283215999603271
0.58746659755706787 0.81154954433441162 0.89328795671463013
0.62124848365783691 0.81081211566925049 0.89350599050521851
0.67405164241790771 0.80609118938446045 0.89295047521591187
0.7505071759223938 0.80084657669067383 0.89220535755157471
0.84336233139038086 0.80897414684295654 0.90013021230697632
0.93831139802932739 0.82555383443832397 0.90330964326858521
0.67050337791442871 0.903342604637146 0.90649831295013428
0.67748939990997314 0.90174967050552368 0.9061659574508667
0.70386767387390137 0.90578275918960571 0.91149026155471802
0.74347692728042603 0.90566360950469971 0.91174840927124023
0.79694777727127075 0.90423893928527832 0.91193658113479614
0.85773509740829468 0.9040951132774353 0.91421079635620117
0.937641441822052 0.91148018836975098 0.91864264011383057
