luts/negative_old/kodak_portra_400_vc_++.cube
# Created by: G'MIC (https://gmic.eu)
TITLE "kodak_portra_400_vc_++"
# LUT size
LUT_3D_SIZE 7
# Data domain
DOMAIN_MIN 0.0 0.0 0.0
DOMAIN_MAX 1.0 1.0 1.0
# LUT data points
0.083080247044563293 0.094660200178623199 0.075386270880699158
0.15305434167385101 0.094611436128616333 0.075623743236064911
0.30765825510025024 0.091782577335834503 0.061733171343803406
0.55373352766036987 0.07403748482465744 0.026218084618449211
0.75942999124526978 0.0617026686668396 0.0046485001221299171
0.89556682109832764 0.11139460653066635 0.00069928634911775589
0.98267477750778198 0.17019571363925934 0.00020303165365476161
0.076366886496543884 0.14476124942302704 0.080174736678600311
0.14981226623058319 0.15045027434825897 0.076289311051368713
0.34010565280914307 0.17997981607913971 0.041310537606477737
0.6039920449256897 0.19734501838684082 0.010112942196428776
0.77789098024368286 0.19356800615787506 0.0076906690374016762
0.90009087324142456 0.19752927124500275 0.0052396738901734352
0.98463171720504761 0.24489918351173401 0.0026298672892153263
0.0058079441078007221 0.30737784504890442 0.087376266717910767
0.072225816547870636 0.31554487347602844 0.084169097244739532
0.31992343068122864 0.37891557812690735 0.018651895225048065
0.63089859485626221 0.41480964422225952 0.00091045605950057507
0.80424684286117554 0.38074168562889099 0.0030777426436543465
0.91533005237579346 0.35470062494277954 0.0035656648688018322
0.99316287040710449 0.35023671388626099 0.0015715355984866619
0 0.53289538621902466 0.12481848150491714
0.0044213836081326008 0.53713524341583252 0.13300308585166931
0.22907519340515137 0.55110186338424683 0.087043747305870056
0.53520661592483521 0.58498328924179077 0.013697455637156963
0.77250939607620239 0.58197546005249023 0.00056162814144045115
0.90709793567657471 0.52934557199478149 0.0033358854707330465
0.99261701107025146 0.49118554592132568 0
0.011827925220131874 0.67045062780380249 0.28093260526657104
0.063164308667182922 0.6690247654914856 0.28438887000083923
0.27351251244544983 0.66742867231369019 0.28470709919929504
0.46608880162239075 0.6795036792755127 0.24873258173465729
0.67308932542800903 0.6962851881980896 0.17212769389152527
0.86771750450134277 0.70644122362136841 0.069817453622817993
0.97401636838912964 0.66766500473022461 0.0066071455366909504
0.37781479954719543 0.76598638296127319 0.47574225068092346
0.40340349078178406 0.76207929849624634 0.47673475742340088
0.46810781955718994 0.75892078876495361 0.48753759264945984
0.54404014348983765 0.76135891675949097 0.47202792763710022
0.65669965744018555 0.77299737930297852 0.45017126202583313
0.7935071587562561 0.78705883026123047 0.42026159167289734
0.93499839305877686 0.80635243654251099 0.38262581825256348
0.62094151973724365 0.85854101181030273 0.64915376901626587
0.62988895177841187 0.85525381565093994 0.6502692699432373
0.65899962186813354 0.85837453603744507 0.6592901349067688
0.69585502147674561 0.855674147605896 0.6548534631729126
0.74796384572982788 0.86468291282653809 0.64709484577178955
0.81614786386489868 0.88012677431106567 0.64271301031112671
0.90103185176849365 0.89348584413528442 0.62367016077041626
0.078926160931587219 0.09512145072221756 0.13569460809230804
0.14883862435817719 0.093455187976360321 0.13799761235713959
0.31366437673568726 0.056972309947013855 0.12862575054168701
0.56965941190719604 0.0080425934866070747 0.10425657033920288
0.76671743392944336 0.0072783078067004681 0.072829887270927429
0.89379161596298218 0.044177394360303879 0.031441707164049149
0.98316699266433716 0.13144931197166443 0.0051171248778700829
0.080272912979125977 0.159515380859375 0.14819703996181488
0.16296687722206116 0.16429975628852844 0.15313820540904999
0.36321750283241272 0.15876272320747375 0.1332770437002182
0.60772502422332764 0.15359035134315491 0.10284844040870667
0.78281116485595703 0.16110830008983612 0.06119830533862114
0.89976543188095093 0.18172457814216614 0.028932085260748863
0.98574149608612061 0.21651427447795868 0.008473789319396019
0.012725455686450005 0.35259026288986206 0.192482590675354
0.12220367789268494 0.354463130235672 0.19266568124294281
0.3669707179069519 0.39058315753936768 0.15759676694869995
0.64828240871429443 0.40043038129806519 0.060487546026706696
0.80729585886001587 0.36077243089675903 0.022446740418672562
0.91562211513519287 0.34513705968856812 0.012993457727134228
0.9899100661277771 0.34336578845977783 0.0083628036081790924
0.0022272146306931973 0.55948531627655029 0.25242489576339722
0.041320726275444031 0.55991464853286743 0.25598615407943726
0.29623505473136902 0.55884653329849243 0.24587605893611908
0.55645263195037842 0.58557182550430298 0.17900106310844421
0.78203463554382324 0.58147138357162476 0.069329112768173218
0.9109540581703186 0.52567017078399658 0.013372324407100677
0.99032753705978394 0.49059483408927917 0.0063870297744870186
0.13894516229629517 0.67987227439880371 0.36782088875770569
0.22086212038993835 0.6741098165512085 0.37143674492835999
0.35077106952667236 0.66772615909576416 0.37436705827713013
0.5049206018447876 0.68119245767593384 0.35590595006942749
0.69123989343643188 0.69854247570037842 0.31031009554862976
0.86812049150466919 0.70421409606933594 0.23610781133174896
0.97892594337463379 0.66335916519165039 0.095147587358951569
0.42969611287117004 0.76886540651321411 0.51954478025436401
0.45841804146766663 0.76682442426681519 0.52515339851379395
0.5102461576461792 0.76040208339691162 0.52518671751022339
0.57194739580154419 0.76187431812286377 0.51346206665039062
0.67671734094619751 0.77355045080184937 0.49664580821990967
0.79914778470993042 0.78655320405960083 0.47535985708236694
0.93019938468933105 0.80640721321105957 0.45227417349815369
0.63725459575653076 0.86004179716110229 0.66910219192504883
0.64906924962997437 0.85820728540420532 0.67069774866104126
0.66967564821243286 0.85465341806411743 0.67115849256515503
0.70273244380950928 0.85545557737350464 0.67045170068740845
0.75426274538040161 0.86582070589065552 0.66693514585494995
0.82202339172363281 0.87696748971939087 0.65667206048965454
0.89541894197463989 0.89231783151626587 0.64655357599258423
0.010898291133344173 0.098752520978450775 0.32106587290763855
0.13837714493274689 0.094860196113586426 0.33641088008880615
0.34898030757904053 0.047810185700654984 0.33873003721237183
0.6057623028755188 0.0038916794583201408 0.32494270801544189
0.79586738348007202 0.0039043501019477844 0.26090046763420105
0.90960896015167236 0.004482523538172245 0.20710262656211853
0.98763811588287354 0.084495037794113159 0.20007812976837158
0.0077758491970598698 0.18798708915710449 0.34490776062011719
0.1171020045876503 0.18108415603637695 0.35978046059608459
0.39152112603187561 0.1753954291343689 0.37009772658348083
0.64028972387313843 0.11619808524847031 0.34184750914573669
0.80161333084106445 0.055424440652132034 0.27061682939529419
0.90157073736190796 0.14277172088623047 0.24234844744205475
0.98335504531860352 0.22937670350074768 0.2156071811914444
0.0045025842264294624 0.40099701285362244 0.38904222846031189
0.12096774578094482 0.40833902359008789 0.40545499324798584
0.41411697864532471 0.41194999217987061 0.41233605146408081
0.64700716733932495 0.38957205414772034 0.36574777960777283
0.78519648313522339 0.38144063949584961 0.31446382403373718
0.89485436677932739 0.37053892016410828 0.26945185661315918
0.97986125946044922 0.36879584193229675 0.2281298041343689
0.1795792281627655 0.59611040353775024 0.45525529980659485
0.32035830616950989 0.59444940090179443 0.46757334470748901
0.44670403003692627 0.58365130424499512 0.45917582511901855
0.60289067029953003 0.59218764305114746 0.43157222867012024
0.77328914403915405 0.57782942056655884 0.37636303901672363
0.89307606220245361 0.53647160530090332 0.3032442033290863
0.97530144453048706 0.51490014791488647 0.25139862298965454
0.40821215510368347 0.6908257007598877 0.52284759283065796
0.43297424912452698 0.68877243995666504 0.52071475982666016
0.48851573467254639 0.67927521467208862 0.51196581125259399
0.57062941789627075 0.68019723892211914 0.5002027153968811
0.71425318717956543 0.69794851541519165 0.48680809140205383
0.85996115207672119 0.69695889949798584 0.44412875175476074
0.9702070951461792 0.66142594814300537 0.35681480169296265
0.51279145479202271 0.77107387781143188 0.58797150850296021
0.53369396924972534 0.7695995569229126 0.59138375520706177
0.57041943073272705 0.7642521858215332 0.58852589130401611
0.61521804332733154 0.76303344964981079 0.58204060792922974
0.70145195722579956 0.77333903312683105 0.57468163967132568
0.80866426229476929 0.78601568937301636 0.56282705068588257
0.92949551343917847 0.8044402003288269 0.54428791999816895
0.65595585107803345 0.8607671856880188 0.69168984889984131
0.66811966896057129 0.86185592412948608 0.6953502893447876
0.68763965368270874 0.85895299911499023 0.69624930620193481
0.72235703468322754 0.85882842540740967 0.6985241174697876
0.76499384641647339 0.86475169658660889 0.69985568523406982
0.8274071216583252 0.87834519147872925 0.68960899114608765
0.89491522312164307 0.89408338069915771 0.68331623077392578
0.0014964683214202523 0.10935433954000473 0.5680161714553833
0.057231634855270386 0.094847843050956726 0.57470738887786865
0.36287224292755127 0.055572062730789185 0.58356332778930664
0.61965692043304443 0.018441786989569664 0.59024178981781006
0.79549223184585571 0.013402078300714493 0.5421563982963562
0.91835635900497437 0.11228363960981369 0.4757944643497467
0.99310493469238281 0.10773494839668274 0.41392228007316589
0.001452711527235806 0.20521086454391479 0.5767635703086853
0.044065766036510468 0.1977512538433075 0.59207022190093994
0.38065490126609802 0.2151225209236145 0.595142662525177
0.63169223070144653 0.21242174506187439 0.59577566385269165
0.79927819967269897 0.23639377951622009 0.54628175497055054
0.90852779150009155 0.26374223828315735 0.49098312854766846
0.98786777257919312 0.24966426193714142 0.43267357349395752
0.0058611552231013775 0.42119607329368591 0.58654129505157471
0.084060177206993103 0.42195796966552734 0.59957104921340942
0.41958126425743103 0.43614101409912109 0.60202646255493164
0.62974625825881958 0.4481862485408783 0.5983930230140686
0.77769428491592407 0.45331507921218872 0.56341731548309326
0.88346016407012939 0.42965784668922424 0.51222020387649536
0.97166645526885986 0.42177510261535645 0.47104614973068237
0.13274990022182465 0.6038593053817749 0.60248386859893799
0.3144746720790863 0.60267460346221924 0.60643631219863892
0.4958956241607666 0.60075324773788452 0.60839194059371948
0.62577742338180542 0.59157437086105347 0.60691201686859131
0.75869190692901611 0.59801554679870605 0.58708244562149048
0.86768633127212524 0.57315117120742798 0.53711366653442383
0.95969915390014648 0.5522531270980835 0.49444118142127991
0.46793758869171143 0.70719122886657715 0.63172620534896851
0.51387757062911987 0.70717769861221313 0.634502112865448
0.58436065912246704 0.69848489761352539 0.63472902774810791
0.6464771032333374 0.69247204065322876 0.62865877151489258
0.74262070655822754 0.70182538032531738 0.61222141981124878
0.85179036855697632 0.69898611307144165 0.58843541145324707
0.95871877670288086 0.66847890615463257 0.53717964887619019
0.60378885269165039 0.78337579965591431 0.67930638790130615
0.62066948413848877 0.78172451257705688 0.67848497629165649
0.64415132999420166 0.77746570110321045 0.67314010858535767
0.67818200588226318 0.77282440662384033 0.66222536563873291
0.73296844959259033 0.774486243724823 0.65817707777023315
0.82071369886398315 0.78919726610183716 0.65284281969070435
0.93124306201934814 0.80404293537139893 0.63488435745239258
0.68572783470153809 0.86490917205810547 0.73414713144302368
0.70061910152435303 0.866455078125 0.73783606290817261
0.71285700798034668 0.86607867479324341 0.73499971628189087
0.73857277631759644 0.86285918951034546 0.73246461153030396
0.77592486143112183 0.86270344257354736 0.73807823657989502
0.83339899778366089 0.87109613418579102 0.72733521461486816
0.90857237577438354 0.89742827415466309 0.72696232795715332
0.0016112084267660975 0.14499543607234955 0.71442258358001709
0.024462068453431129 0.13905179500579834 0.71966344118118286
0.33653596043586731 0.15036258101463318 0.71920251846313477
0.5822100043296814 0.1861816942691803 0.71900326013565063
0.7722058892250061 0.21489298343658447 0.71769404411315918
0.887870192527771 0.27894285321235657 0.67926925420761108
0.97105753421783447 0.40620315074920654 0.6511913537979126
0.0013296089600771666 0.24188552796840668 0.71737104654312134
0.065152682363986969 0.24769538640975952 0.72437989711761475
0.36972180008888245 0.27799999713897705 0.71609628200531006
0.59686815738677979 0.31325060129165649 0.71598881483078003
0.7708507776260376 0.3487497866153717 0.71657800674438477
0.88574004173278809 0.39478406310081482 0.68631941080093384
0.96265953779220581 0.46954184770584106 0.66090387105941772
0.071545347571372986 0.44037169218063354 0.71693384647369385
0.24625861644744873 0.44648334383964539 0.71778947114944458
0.43189331889152527 0.45498159527778625 0.7167930006980896
0.61646729707717896 0.48353114724159241 0.71467334032058716
0.7618633508682251 0.5066409707069397 0.71358025074005127
0.87068790197372437 0.52265745401382446 0.69433474540710449
0.95271837711334229 0.5418505072593689 0.6682778000831604
0.19559468328952789 0.58577382564544678 0.705852210521698
0.31835788488388062 0.58544784784317017 0.7052924633026123
0.4778713583946228 0.59457921981811523 0.70589268207550049
0.62716066837310791 0.6019904613494873 0.71418613195419312
0.7531135082244873 0.61232692003250122 0.71209037303924561
0.85528057813644409 0.6249353289604187 0.70085525512695312
0.94242769479751587 0.60121649503707886 0.66434186697006226
0.46304434537887573 0.70838642120361328 0.71647685766220093
0.51016175746917725 0.70857447385787964 0.71593213081359863
0.58088904619216919 0.70362293720245361 0.72104406356811523
0.66360944509506226 0.70311307907104492 0.72197079658508301
0.76082855463027954 0.71005475521087646 0.72327131032943726
0.84682989120483398 0.70502704381942749 0.70664554834365845
0.93607890605926514 0.68285948038101196 0.67456638813018799
0.60663402080535889 0.79652827978134155 0.7472304105758667
0.63405817747116089 0.79289501905441284 0.74421697854995728
0.67601734399795532 0.79208064079284668 0.74757081270217896
0.72276610136032104 0.79015010595321655 0.74839389324188232
0.76333034038543701 0.78525876998901367 0.74186372756958008
0.8355671763420105 0.79201662540435791 0.73215204477310181
0.93529564142227173 0.791007399559021 0.71122658252716064
0.70483088493347168 0.87551724910736084 0.79128408432006836
0.71923309564590454 0.8739439845085144 0.78933066129684448
0.74252128601074219 0.87732744216918945 0.79091227054595947
0.7646859884262085 0.87085378170013428 0.78790462017059326
0.79087370634078979 0.87004286050796509 0.78501510620117188
0.84080523252487183 0.88042742013931274 0.78107047080993652
0.91463607549667358 0.89568084478378296 0.77396774291992188
0.015061621554195881 0.23887066543102264 0.81696748733520508
0.15086221694946289 0.24507890641689301 0.81702512502670288
0.39290851354598999 0.27768233418464661 0.81322288513183594
0.57748758792877197 0.32499030232429504 0.8131633996963501
0.73811924457550049 0.40221893787384033 0.8102843165397644
0.87100040912628174 0.43717083334922791 0.80568850040435791
0.95162391662597656 0.47519490122795105 0.78656429052352905
0.095205597579479218 0.32847356796264648 0.8177720308303833
0.24538013339042664 0.34288454055786133 0.81493544578552246
0.42873448133468628 0.36870229244232178 0.81217390298843384
0.60037469863891602 0.41297516226768494 0.8081318736076355
0.75346142053604126 0.46776154637336731 0.80889785289764404
0.86616975069046021 0.49501910805702209 0.80183380842208862
0.94404304027557373 0.52620935440063477 0.7869793176651001
0.28673917055130005 0.47903653979301453 0.807830810546875
0.36360090970993042 0.48942425847053528 0.80886638164520264
0.48626342415809631 0.5058290958404541 0.80637842416763306
0.62181097269058228 0.53463047742843628 0.80240446329116821
0.75876718759536743 0.55538630485534668 0.80632388591766357
0.86272728443145752 0.57323670387268066 0.80144447088241577
0.93863201141357422 0.60396105051040649 0.79056447744369507
0.33872106671333313 0.60311901569366455 0.79564565420150757
0.42229101061820984 0.60801374912261963 0.79523497819900513
0.52106356620788574 0.61099016666412354 0.79942452907562256
0.62595164775848389 0.62159878015518188 0.80097228288650513
0.75626689195632935 0.64317864179611206 0.80515694618225098
0.86240106821060181 0.65549242496490479 0.79877138137817383
0.93613100051879883 0.66885030269622803 0.79432576894760132
0.44787630438804626 0.70297986268997192 0.79520529508590698
0.49513703584671021 0.70398789644241333 0.79264330863952637
0.56727015972137451 0.70481806993484497 0.79982644319534302
0.64880204200744629 0.7039152979850769 0.79887217283248901
0.75101298093795776 0.71582126617431641 0.80374133586883545
0.85385286808013916 0.72894847393035889 0.80671614408493042
0.9319496750831604 0.730460524559021 0.8005836009979248
0.59789067506790161 0.79898178577423096 0.81760865449905396
0.62362211942672729 0.79729819297790527 0.8132622241973877
0.65988701581954956 0.80009943246841431 0.81911152601242065
0.71530264616012573 0.80138993263244629 0.82100981473922729
0.77806949615478516 0.80043786764144897 0.81826162338256836
0.85569781064987183 0.80381995439529419 0.81572562456130981
0.9328274130821228 0.79561454057693481 0.7991025447845459
0.70417219400405884 0.88506168127059937 0.83852899074554443
0.71787130832672119 0.88633108139038086 0.83949029445648193
0.73479384183883667 0.88658612966537476 0.8476027250289917
0.77017420530319214 0.88661640882492065 0.8454587459564209
0.81022125482559204 0.88617956638336182 0.84162437915802002
0.85809707641601562 0.8897707462310791 0.84181815385818481
0.92290008068084717 0.89692747592926025 0.84066379070281982
0.38971415162086487 0.44528752565383911 0.9021296501159668
0.44542521238327026 0.45448124408721924 0.9018900990486145
0.54817694425582886 0.47320500016212463 0.89821326732635498
0.66221219301223755 0.50531458854675293 0.89767938852310181
0.77687424421310425 0.54815292358398438 0.89380830526351929
0.86952430009841919 0.58272534608840942 0.89021962881088257
0.9474714994430542 0.59913837909698486 0.88898009061813354
0.43824121356010437 0.50150352716445923 0.90233016014099121
0.4929351806640625 0.51027399301528931 0.90098470449447632
0.57196080684661865 0.52244853973388672 0.8994329571723938
0.67275065183639526 0.54338091611862183 0.89501172304153442
0.77762103080749512 0.57442402839660645 0.89236044883728027
0.86711138486862183 0.60149216651916504 0.88663136959075928
0.94544851779937744 0.62295991182327271 0.89098137617111206
0.49368166923522949 0.57741427421569824 0.89786076545715332
0.53020596504211426 0.57935023307800293 0.89737850427627563
0.60176539421081543 0.59241324663162231 0.89613610506057739
0.68240070343017578 0.60615301132202148 0.89010322093963623
0.77892440557479858 0.62793081998825073 0.89016753435134888
0.86719870567321777 0.63880771398544312 0.88627821207046509
0.94218909740447998 0.65929722785949707 0.89052754640579224
0.54207003116607666 0.66428935527801514 0.89269369840621948
0.56824666261672974 0.6631196141242981 0.89232814311981201
0.61749553680419922 0.66252952814102173 0.89139837026596069
0.68903368711471558 0.66934484243392944 0.88964462280273438
0.7758069634437561 0.67868572473526001 0.8901364803314209
0.86900073289871216 0.69259119033813477 0.88848859071731567
0.94066888093948364 0.70889341831207275 0.88985884189605713
0.52732372283935547 0.72936737537384033 0.8878287672996521
0.5538482666015625 0.72784566879272461 0.88629722595214844
0.60649019479751587 0.72884392738342285 0.88876628875732422
0.682525634765625 0.73149955272674561 0.8910333514213562
0.77331161499023438 0.74149137735366821 0.89361429214477539
0.8650362491607666 0.75238078832626343 0.89592379331588745
0.94156980514526367 0.76315879821777344 0.89879137277603149
0.60956865549087524 0.81802213191986084 0.89833438396453857
0.62468373775482178 0.8201022744178772 0.89893418550491333
0.6572338342666626 0.81649518013000488 0.89548486471176147
0.69975548982620239 0.81375586986541748 0.90037757158279419
0.76075398921966553 0.80833357572555542 0.89883625507354736
0.84976571798324585 0.81546527147293091 0.90406906604766846
0.93926358222961426 0.8268696665763855 0.90665727853775024
0.6880108118057251 0.90090715885162354 0.90975326299667358
0.6966404914855957 0.9054909348487854 0.91131371259689331
0.71909654140472412 0.90276491641998291 0.91116023063659668
0.7559778094291687 0.90557873249053955 0.91168713569641113
0.80232024192810059 0.90271502733230591 0.91017115116119385
0.85797810554504395 0.90485197305679321 0.91736221313476562
0.93329429626464844 0.90914064645767212 0.92088204622268677
