luts/negative_old/kodak_portra_160_nc_++.cube
# Created by: G'MIC (https://gmic.eu)
TITLE "kodak_portra_160_nc_++"
# LUT size
LUT_3D_SIZE 7
# Data domain
DOMAIN_MIN 0.0 0.0 0.0
DOMAIN_MAX 1.0 1.0 1.0
# LUT data points
0.067408151924610138 0.071399539709091187 0.056897033005952835
0.15568390488624573 0.076838597655296326 0.058730375021696091
0.32542815804481506 0.064118482172489166 0.053047794848680496
0.51981061697006226 0.049112655222415924 0.042377576231956482
0.69362270832061768 0.067875608801841736 0.029853940010070801
0.84126609563827515 0.13745115697383881 0.019887601956725121
0.9672580361366272 0.22422313690185547 0.026800597086548805
0.053222715854644775 0.14781753718852997 0.076293334364891052
0.15436270833015442 0.16601315140724182 0.062111515551805496
0.36372488737106323 0.17942161858081818 0.03209540992975235
0.55086266994476318 0.17774495482444763 0.024861952289938927
0.70994985103607178 0.19296005368232727 0.017461050301790237
0.85047358274459839 0.23070324957370758 0.010770536027848721
0.97167938947677612 0.29114565253257751 0.024436308071017265
0.003927313257008791 0.31819626688957214 0.12952461838722229
0.065489046275615692 0.33240750432014465 0.12098171561956406
0.32627829909324646 0.38419380784034729 0.039817135781049728
0.57520139217376709 0.3975367546081543 0.0041096857748925686
0.73558080196380615 0.36704742908477783 0.0050499411299824715
0.86389511823654175 0.37337687611579895 0.0085537778213620186
0.97593152523040771 0.40165188908576965 0.014724521897733212
8.1858917837962508e-05 0.49362152814865112 0.21958144009113312
0.0096046151593327522 0.4957088828086853 0.22021858394145966
0.21723175048828125 0.52073442935943604 0.18793259561061859
0.48519349098205566 0.56439721584320068 0.074198178946971893
0.73441189527511597 0.58182752132415771 0.0025677101220935583
0.86941301822662354 0.5414617657661438 0.0047691944055259228
0.97891330718994141 0.52982044219970703 0.012038616463541985
0.0035216088872402906 0.63790285587310791 0.32415992021560669
0.02903117798268795 0.63943487405776978 0.32779252529144287
0.21631504595279694 0.64292854070663452 0.32479259371757507
0.40482267737388611 0.66976773738861084 0.28209647536277771
0.63509052991867065 0.70190197229385376 0.18965248763561249
0.85607987642288208 0.72395521402359009 0.050968363881111145
0.97108596563339233 0.69459074735641479 0.096455022692680359
0.21761533617973328 0.76979809999465942 0.46489837765693665
0.25542363524436951 0.76502972841262817 0.46200352907180786
0.33321192860603333 0.76334989070892334 0.46602034568786621
0.43663150072097778 0.77487027645111084 0.45181348919868469
0.58238857984542847 0.79632627964019775 0.41445338726043701
0.76444190740585327 0.81952089071273804 0.35829755663871765
0.95196974277496338 0.84870004653930664 0.27920198440551758
0.52945005893707275 0.89368581771850586 0.66262525320053101
0.54388761520385742 0.89401739835739136 0.66454434394836426
0.56897866725921631 0.89206796884536743 0.66569674015045166
0.6144670844078064 0.89523571729660034 0.67005586624145508
0.67480528354644775 0.90861785411834717 0.65447336435317993
0.76899009943008423 0.92485404014587402 0.62882024049758911
0.88470864295959473 0.94103288650512695 0.58850210905075073
0.074651606380939484 0.0763358473777771 0.1435275673866272
0.17079378664493561 0.07472393661737442 0.14429777860641479
0.33819341659545898 0.05494251474738121 0.14370955526828766
0.52525144815444946 0.047801658511161804 0.14736150205135345
0.68955409526824951 0.12029866129159927 0.16293798387050629
0.83298283815383911 0.18066595494747162 0.1617971658706665
0.95971333980560303 0.25582611560821533 0.17409844696521759
0.090426228940486908 0.16770021617412567 0.16736185550689697
0.19352063536643982 0.17628079652786255 0.17440460622310638
0.37329679727554321 0.18516388535499573 0.16427268087863922
0.54970473051071167 0.19774866104125977 0.16228553652763367
0.70305365324020386 0.22208048403263092 0.16820043325424194
0.84284955263137817 0.25965002179145813 0.16598764061927795
0.96503365039825439 0.31231892108917236 0.17714183032512665
0.13551764190196991 0.34725865721702576 0.23797120153903961
0.18572857975959778 0.35173359513282776 0.22999411821365356
0.35752654075622559 0.3878093957901001 0.19474786520004272
0.57923269271850586 0.3883233368396759 0.16049692034721375
0.73014885187149048 0.37644550204277039 0.15743210911750793
0.85481911897659302 0.38941216468811035 0.15990136563777924
0.97041857242584229 0.42102041840553284 0.17841200530529022
0.10604723542928696 0.51342737674713135 0.30871611833572388
0.15509204566478729 0.51227164268493652 0.30352777242660522
0.2852802574634552 0.52426707744598389 0.28827568888664246
0.50725209712982178 0.56594574451446533 0.22477856278419495
0.73318958282470703 0.57720965147018433 0.16150951385498047
0.86364078521728516 0.53950619697570801 0.15603861212730408
0.97060245275497437 0.53921622037887573 0.18194025754928589
0.11682230979204178 0.6494985818862915 0.38460898399353027
0.17633162438869476 0.6487581729888916 0.38564509153366089
0.28404751420021057 0.64694720506668091 0.38332560658454895
0.43576952815055847 0.67021530866622925 0.35654282569885254
0.6456979513168335 0.70062530040740967 0.29303234815597534
0.85167688131332397 0.71794599294662476 0.22784392535686493
0.96583461761474609 0.69052618741989136 0.24064177274703979
0.28637275099754333 0.76942139863967896 0.49894207715988159
0.3183552622795105 0.76811152696609497 0.49902349710464478
0.37996092438697815 0.76655620336532593 0.50313007831573486
0.46443444490432739 0.77401518821716309 0.49260756373405457
0.59757512807846069 0.79611700773239136 0.4614805281162262
0.76995337009429932 0.81968456506729126 0.40795949101448059
0.95133107900619507 0.84780657291412354 0.35402041673660278
0.54680800437927246 0.89329022169113159 0.67643553018569946
0.55472856760025024 0.89235281944274902 0.67647308111190796
0.58563965559005737 0.89085584878921509 0.68147099018096924
0.62707555294036865 0.89373064041137695 0.68557530641555786
0.6845930814743042 0.90830820798873901 0.672493577003479
0.77376812696456909 0.92380768060684204 0.6492612361907959
0.88836127519607544 0.94041150808334351 0.61355781555175781
0.056775800883769989 0.086019285023212433 0.33298125863075256
0.20724093914031982 0.089289657771587372 0.33591035008430481
0.37258782982826233 0.086572013795375824 0.33934313058853149
0.54540055990219116 0.094380564987659454 0.31986239552497864
0.70878922939300537 0.080547720193862915 0.30021873116493225
0.8422168493270874 0.15779693424701691 0.30151486396789551
0.95183408260345459 0.2843930721282959 0.33187481760978699
0.047983236610889435 0.19515492022037506 0.35100698471069336
0.21127200126647949 0.20772258937358856 0.35887619853019714
0.39221495389938354 0.2241351306438446 0.36093467473983765
0.55862480401992798 0.22516036033630371 0.34590202569961548
0.71110796928405762 0.23139482736587524 0.32672214508056641
0.83716124296188354 0.28832194209098816 0.33474257588386536
0.95144003629684448 0.35423558950424194 0.3506740927696228
0.12297070026397705 0.37140995264053345 0.37517556548118591
0.24454338848590851 0.38384503126144409 0.38805606961250305
0.40916535258293152 0.40257573127746582 0.39575478434562683
0.57368600368499756 0.40284526348114014 0.3766116201877594
0.71229982376098633 0.40143385529518127 0.36215060949325562
0.84109330177307129 0.41538769006729126 0.350361168384552
0.95660024881362915 0.44730141758918762 0.36083433032035828
0.27750962972640991 0.54003822803497314 0.44293665885925293
0.32605418562889099 0.53904008865356445 0.44205629825592041
0.39600542187690735 0.54397767782211304 0.43642517924308777
0.54364651441574097 0.56965243816375732 0.40742138028144836
0.72835814952850342 0.56556731462478638 0.38260689377784729
0.85334116220474243 0.54474884271621704 0.36269277334213257
0.9638059139251709 0.55469781160354614 0.36448541283607483
0.35965132713317871 0.66787588596343994 0.51399475336074829
0.36899366974830627 0.66602063179016113 0.50635439157485962
0.39792367815971375 0.66374176740646362 0.48872619867324829
0.48711112141609192 0.67184364795684814 0.47412276268005371
0.66750848293304443 0.702597975730896 0.44023007154464722
0.85019814968109131 0.71343457698822021 0.40611925721168518
0.96503549814224243 0.68986731767654419 0.40015658736228943
0.42996478080749512 0.77529066801071167 0.58467692136764526
0.43790534138679504 0.77352124452590942 0.58046859502792358
0.46061310172080994 0.77357703447341919 0.57115143537521362
0.52175694704055786 0.7748253345489502 0.56793749332427979
0.627227783203125 0.79399555921554565 0.55008339881896973
0.78405028581619263 0.81898170709609985 0.51278376579284668
0.95031988620758057 0.84570437669754028 0.47799474000930786
0.59050625562667847 0.89388614892959595 0.71265745162963867
0.59752315282821655 0.89408928155899048 0.71178114414215088
0.61386096477508545 0.89489036798477173 0.71156448125839233
0.65146195888519287 0.89640325307846069 0.71601903438568115
0.70126086473464966 0.90385693311691284 0.70634543895721436
0.78431326150894165 0.92397147417068481 0.69267547130584717
0.89467674493789673 0.94122672080993652 0.66199398040771484
0.048687070608139038 0.11294770985841751 0.53477245569229126
0.22572766244411469 0.12088754773139954 0.53858965635299683
0.41260090470314026 0.15164169669151306 0.54553884267807007
0.59253346920013428 0.18247948586940765 0.54845678806304932
0.71270096302032471 0.21018251776695251 0.50893568992614746
0.85052084922790527 0.25981566309928894 0.48578998446464539
0.96661818027496338 0.28939920663833618 0.46901813149452209
0.09378458559513092 0.23039895296096802 0.54549968242645264
0.24881844222545624 0.24566689133644104 0.55023539066314697
0.42839187383651733 0.27270764112472534 0.55388724803924561
0.5928083062171936 0.29469221830368042 0.55740940570831299
0.71590924263000488 0.3074309229850769 0.52593225240707397
0.84732133150100708 0.33301815390586853 0.50020986795425415
0.96389532089233398 0.34586206078529358 0.47937703132629395
0.076389864087104797 0.39552214741706848 0.55326896905899048
0.23867183923721313 0.40575709939002991 0.559734046459198
0.41955974698066711 0.42155554890632629 0.56575280427932739
0.58845371007919312 0.44567683339118958 0.57135742902755737
0.71417582035064697 0.43744367361068726 0.54156225919723511
0.8391258716583252 0.43580365180969238 0.51716572046279907
0.95006078481674194 0.45468747615814209 0.50719338655471802
0.24616824090480804 0.55393582582473755 0.56065958738327026
0.32360672950744629 0.56049042940139771 0.56615889072418213
0.4420236349105835 0.56471824645996094 0.57923930883407593
0.58675920963287354 0.58002573251724243 0.58116573095321655
0.71753215789794922 0.58245831727981567 0.56077969074249268
0.83743488788604736 0.56572133302688599 0.53782325983047485
0.94162583351135254 0.57000720500946045 0.52744871377944946
0.4117356538772583 0.6812434196472168 0.6081041693687439
0.45380216836929321 0.68275099992752075 0.61434900760650635
0.52553302049636841 0.68470335006713867 0.62189221382141113
0.57907193899154663 0.68311041593551636 0.61164480447769165
0.69948619604110718 0.70609396696090698 0.59304273128509521
0.84276193380355835 0.70406562089920044 0.56756353378295898
0.95537269115447998 0.68650275468826294 0.54966539144515991
0.54532086849212646 0.78794562816619873 0.68448024988174438
0.5606682300567627 0.78646528720855713 0.68346041440963745
0.57908296585083008 0.78530800342559814 0.67436623573303223
0.59822708368301392 0.78373485803604126 0.65755510330200195
0.66558641195297241 0.79384142160415649 0.65192681550979614
0.79968822002410889 0.81867444515228271 0.62957561016082764
0.94646292924880981 0.83522254228591919 0.60744005441665649
0.65742200613021851 0.89662498235702515 0.76899492740631104
0.66144746541976929 0.89749538898468018 0.7683178186416626
0.66729927062988281 0.89854294061660767 0.76234656572341919
0.68598681688308716 0.89860957860946655 0.75633996725082397
0.72752207517623901 0.903617262840271 0.75767183303833008
0.7988399863243103 0.92283171415328979 0.74527525901794434
0.90174943208694458 0.94098418951034546 0.72287458181381226
0.16620554029941559 0.17518138885498047 0.70333898067474365
0.28895401954650879 0.18925951421260834 0.7087821364402771
0.45511618256568909 0.2215752899646759 0.70977312326431274
0.62238425016403198 0.28148302435874939 0.71074521541595459
0.7592279314994812 0.3139631450176239 0.70772546529769897
0.84642672538757324 0.33895748853683472 0.66840773820877075
0.95707893371582031 0.41658422350883484 0.65739762783050537
0.20635472238063812 0.28403860330581665 0.7075764536857605
0.31278997659683228 0.2970467209815979 0.71205556392669678
0.46471354365348816 0.31905332207679749 0.71163886785507202
0.62374752759933472 0.3635438084602356 0.71662884950637817
0.75948065519332886 0.39083778858184814 0.71392554044723511
0.84399265050888062 0.40575256943702698 0.67747491598129272
0.95353507995605469 0.46641653776168823 0.66893923282623291
0.20775796473026276 0.42757502198219299 0.70680379867553711
0.30734756588935852 0.43638485670089722 0.70772242546081543
0.45267957448959351 0.45140799880027771 0.70878976583480835
0.61637353897094727 0.48296505212783813 0.71575802564620972
0.74707639217376709 0.50749915838241577 0.71574485301971436
0.83783453702926636 0.51249462366104126 0.68851113319396973
0.94437307119369507 0.538094162940979 0.67702287435531616
0.2185627669095993 0.56476002931594849 0.69392639398574829
0.30483409762382507 0.56872737407684326 0.70140546560287476
0.43404307961463928 0.57496953010559082 0.70492959022521973
0.59968501329421997 0.59679484367370605 0.71407735347747803
0.73677748441696167 0.61584615707397461 0.71695762872695923
0.83406895399093628 0.61250859498977661 0.69644838571548462
0.93862396478652954 0.60583454370498657 0.67958253622055054
0.38963791728019714 0.69299483299255371 0.70312595367431641
0.44125804305076599 0.69658857583999634 0.71000778675079346
0.51812803745269775 0.6942589282989502 0.71159696578979492
0.62162595987319946 0.69912099838256836 0.72152143716812134
0.72545182704925537 0.71125733852386475 0.72510480880737305
0.83050644397735596 0.70700854063034058 0.70529991388320923
0.93563508987426758 0.70021218061447144 0.68998169898986816
0.56594681739807129 0.8015822172164917 0.74870908260345459
0.5846858024597168 0.80197763442993164 0.75112283229827881
0.62808358669281006 0.80097603797912598 0.75382035970687866
0.67993813753128052 0.80240887403488159 0.75557219982147217
0.72552782297134399 0.80009251832962036 0.74896705150604248
0.82461875677108765 0.82242095470428467 0.74092984199523926
0.94506841897964478 0.82677215337753296 0.72702890634536743
0.68982034921646118 0.90573060512542725 0.82006537914276123
0.69838893413543701 0.90547221899032593 0.8202061653137207
0.72026139497756958 0.90527671575546265 0.82193368673324585
0.74083739519119263 0.90685468912124634 0.81842756271362305
0.76178455352783203 0.90810096263885498 0.80915927886962891
0.81972372531890869 0.92010015249252319 0.80621820688247681
0.91727054119110107 0.94366854429244995 0.79160618782043457
0.3304009735584259 0.28598880767822266 0.83426767587661743
0.39691174030303955 0.2960873544216156 0.83679771423339844
0.51678931713104248 0.32848206162452698 0.83349037170410156
0.65038728713989258 0.37147694826126099 0.83063030242919922
0.78072464466094971 0.43872144818305969 0.82888180017471313
0.88254022598266602 0.46312800049781799 0.82569295167922974
0.94500440359115601 0.48410320281982422 0.79886209964752197
0.3504289984703064 0.36473211646080017 0.83622032403945923
0.41136744618415833 0.37675368785858154 0.83356004953384399
0.52191245555877686 0.39746373891830444 0.82994848489761353
0.65334683656692505 0.43445587158203125 0.83166569471359253
0.77945029735565186 0.49007353186607361 0.83098292350769043
0.87868994474411011 0.51109951734542847 0.82952821254730225
0.93987524509429932 0.52586215734481812 0.80199867486953735
0.3545931875705719 0.47420307993888855 0.83032083511352539
0.41617631912231445 0.48574733734130859 0.83004975318908691
0.5226738452911377 0.49909678101539612 0.82622224092483521
0.65673607587814331 0.53172171115875244 0.82534980773925781
0.77739822864532471 0.5741569995880127 0.83015322685241699
0.86764067411422729 0.58793157339096069 0.82903462648391724
0.93613165616989136 0.59755235910415649 0.80740392208099365
0.30849876999855042 0.58520090579986572 0.81722015142440796
0.37917542457580566 0.59252488613128662 0.82048064470291138
0.5036432147026062 0.60108619928359985 0.82158732414245605
0.63396883010864258 0.62499737739562988 0.82157033681869507
0.76534360647201538 0.653644859790802 0.83057576417922974
0.85842114686965942 0.66674280166625977 0.83294564485549927
0.92886930704116821 0.67341107130050659 0.81766378879547119
0.39303085207939148 0.7021142840385437 0.81400668621063232
0.4327702522277832 0.70207273960113525 0.81571769714355469
0.50716936588287354 0.70205974578857422 0.81753265857696533
0.60698741674423218 0.70643740892410278 0.81887328624725342
0.73746132850646973 0.72700196504592896 0.82692444324493408
0.85121804475784302 0.74618172645568848 0.8339465856552124
0.93063342571258545 0.74849462509155273 0.82219570875167847
0.53559279441833496 0.80885481834411621 0.82356184720993042
0.56416100263595581 0.81122797727584839 0.82448089122772217
0.60714989900588989 0.80780684947967529 0.82381701469421387
0.67851752042770386 0.81255167722702026 0.83181315660476685
0.75631982088088989 0.81679677963256836 0.84070217609405518
0.84727317094802856 0.83346438407897949 0.84627580642700195
0.93980652093887329 0.82886171340942383 0.83275431394577026
0.69153046607971191 0.91374623775482178 0.86724483966827393
0.70742964744567871 0.91456204652786255 0.86795365810394287
0.72697335481643677 0.91349750757217407 0.87019586563110352
0.7646254301071167 0.91546916961669922 0.87343513965606689
0.81347858905792236 0.92072683572769165 0.88228952884674072
0.85364705324172974 0.92342549562454224 0.87494444847106934
0.93202722072601318 0.94397956132888794 0.87000566720962524
0.50562906265258789 0.44890394806861877 0.93665856122970581
0.5461651086807251 0.45929315686225891 0.93771934509277344
0.6162305474281311 0.47733888030052185 0.93533188104629517
0.71189451217651367 0.5103951096534729 0.9308885931968689
0.80900466442108154 0.55696988105773926 0.92760825157165527
0.90137666463851929 0.61162668466567993 0.92591291666030884
0.97632211446762085 0.62909907102584839 0.92550778388977051
0.51933777332305908 0.49639195203781128 0.93800640106201172
0.55409020185470581 0.5054594874382019 0.93729954957962036
0.62521708011627197 0.52401721477508545 0.93441581726074219
0.71451741456985474 0.54842209815979004 0.93059343099594116
0.8064543604850769 0.58553409576416016 0.92435365915298462
0.89943742752075195 0.63338035345077515 0.92724686861038208
0.97106260061264038 0.65054130554199219 0.92481505870819092
0.52761536836624146 0.57052093744277954 0.9334142804145813
0.56055086851119995 0.57824587821960449 0.93411600589752197
0.62642699480056763 0.58786791563034058 0.93045896291732788
0.71840846538543701 0.61290717124938965 0.92843014001846313
0.81048411130905151 0.64390122890472412 0.92626196146011353
0.89521300792694092 0.67731928825378418 0.92614680528640747
0.96887922286987305 0.68999713659286499 0.92557865381240845
0.5094449520111084 0.64736825227737427 0.93055820465087891
0.54597336053848267 0.65343135595321655 0.93181270360946655
0.61204242706298828 0.66067403554916382 0.9316825270652771
0.70541483163833618 0.67752856016159058 0.92711442708969116
0.80531632900238037 0.70166569948196411 0.92846399545669556
0.89150899648666382 0.73169004917144775 0.93088048696517944
0.96073436737060547 0.74573135375976562 0.92845243215560913
0.47227627038955688 0.73167538642883301 0.9272570013999939
0.50615578889846802 0.73244494199752808 0.92755341529846191
0.56880098581314087 0.73457002639770508 0.92791438102722168
0.66731560230255127 0.74169009923934937 0.92561101913452148
0.7804902195930481 0.76032286882400513 0.93086856603622437
0.87776702642440796 0.78772515058517456 0.93064588308334351
0.95665675401687622 0.80528980493545532 0.93129545450210571
0.57146859169006348 0.83642828464508057 0.92628967761993408
0.58687108755111694 0.83462244272232056 0.92429405450820923
0.62143158912658691 0.83348405361175537 0.9285847544670105
0.67433011531829834 0.83236122131347656 0.92998743057250977
0.7513471245765686 0.83344638347625732 0.93335789442062378
0.86403954029083252 0.852752685546875 0.93897408246994019
0.95567691326141357 0.87094104290008545 0.93926459550857544
0.67953217029571533 0.93110901117324829 0.93632018566131592
0.6946403980255127 0.93339484930038452 0.93885630369186401
0.71526610851287842 0.92940604686737061 0.93503481149673462
0.75810819864273071 0.93314856290817261 0.94142246246337891
0.81189292669296265 0.93658119440078735 0.94709908962249756
0.87516260147094727 0.93796455860137939 0.95123761892318726
0.9535897970199585 0.95118981599807739 0.95345228910446167
