luts/negative_old/kodak_portra_400_nc_-.cube
# Created by: G'MIC (https://gmic.eu)
TITLE "kodak_portra_400_nc_-"
# LUT size
LUT_3D_SIZE 5
# Data domain
DOMAIN_MIN 0.0 0.0 0.0
DOMAIN_MAX 1.0 1.0 1.0
# LUT data points
0.0078003229573369026 0.0092874709516763687 0.0090443780645728111
0.19706457853317261 0.028670592233538628 0.0043477527797222137
0.57205939292907715 0.013249790295958519 0.0019494000589475036
0.83038890361785889 0.021857108920812607 0.00081727269571274519
0.99140036106109619 0.13875234127044678 0.0029886732809245586
0.0025900448672473431 0.21695950627326965 0.049425926059484482
0.22216998040676117 0.26430898904800415 0.0084738936275243759
0.64889931678771973 0.29996141791343689 0.001177365193143487
0.85024923086166382 0.28060486912727356 0.0045439326204359531
0.99483317136764526 0.30305102467536926 0.0040116105228662491
0.06226818636059761 0.54663640260696411 0.23646701872348785
0.27966070175170898 0.5467073917388916 0.22677476704120636
0.55581170320510864 0.58694994449615479 0.056470431387424469
0.8340994119644165 0.5844414234161377 0.0038829878903925419
0.99544107913970947 0.53589034080505371 0.0003209731075912714
0.39869323372840881 0.7375836968421936 0.44295379519462585
0.45716527104377747 0.73724478483200073 0.44275179505348206
0.55783170461654663 0.74898892641067505 0.41058105230331421
0.7442326545715332 0.77632021903991699 0.29070764780044556
0.97280234098434448 0.78896701335906982 0.18154151737689972
0.67234444618225098 0.90753018856048584 0.69401144981384277
0.68988704681396484 0.90549927949905396 0.69509130716323853
0.7362130880355835 0.90888303518295288 0.69874304533004761
0.80132925510406494 0.92676210403442383 0.66764849424362183
0.92307472229003906 0.95147824287414551 0.60884040594100952
0.0077567305415868759 0.014134605415165424 0.23245438933372498
0.24096186459064484 0.00858306884765625 0.24796335399150848
0.61004149913787842 0.00064698763890191913 0.22875992953777313
0.82760334014892578 0.0066499300301074982 0.21384719014167786
0.98090171813964844 0.16372574865818024 0.22059933841228485
0.0039118449203670025 0.27772310376167297 0.28840646147727966
0.29040062427520752 0.29290151596069336 0.30816671252250671
0.63859927654266357 0.29266908764839172 0.28104501962661743
0.83532989025115967 0.2968689501285553 0.2492460310459137
0.98902386426925659 0.32509323954582214 0.23616178333759308
0.30488154292106628 0.58343952894210815 0.42061266303062439
0.4020879864692688 0.57298237085342407 0.41403380036354065
0.58964353799819946 0.59697890281677246 0.34736955165863037
0.83517801761627197 0.58079522848129272 0.27917563915252686
0.99201041460037231 0.55145978927612305 0.26343497633934021
0.47791200876235962 0.75354224443435669 0.53831297159194946
0.51120495796203613 0.75173938274383545 0.53092831373214722
0.59703034162521362 0.75423145294189453 0.51105690002441406
0.75740092992782593 0.77897650003433228 0.43167340755462646
0.96469545364379883 0.78361296653747559 0.37146446108818054
0.68931543827056885 0.90936058759689331 0.72383546829223633
0.70306122303009033 0.90706068277359009 0.72026664018630981
0.74283117055892944 0.90588784217834473 0.72213107347488403
0.80933815240859985 0.92582166194915771 0.69807660579681396
0.92785811424255371 0.95045757293701172 0.64840805530548096
0.0017044665291905403 0.044692154973745346 0.57000929117202759
0.29327276349067688 0.031351439654827118 0.57820135354995728
0.64812809228897095 0.057372614741325378 0.58465826511383057
0.84695994853973389 0.20144996047019958 0.5276380181312561
0.99230813980102539 0.25279960036277771 0.48583295941352844
0.0047909156419336796 0.3336179256439209 0.5939752459526062
0.33493152260780334 0.33514416217803955 0.59655171632766724
0.64801913499832153 0.37124556303024292 0.59586960077285767
0.83647447824478149 0.39837431907653809 0.55149972438812256
0.98348844051361084 0.38353753089904785 0.50541800260543823
0.32344475388526917 0.6130603551864624 0.61159539222717285
0.46232029795646667 0.613525390625 0.61979669332504272
0.63490217924118042 0.61735063791275024 0.61203396320343018
0.81362569332122803 0.59838354587554932 0.57443559169769287
0.97347426414489746 0.58142602443695068 0.54442411661148071
0.57353764772415161 0.78447669744491577 0.67944574356079102
0.60384511947631836 0.78116166591644287 0.67751848697662354
0.66251993179321289 0.7691425085067749 0.66153144836425781
0.7820085883140564 0.78408265113830566 0.62556666135787964
0.96845787763595581 0.77922683954238892 0.58660972118377686
0.7227897047996521 0.92112857103347778 0.78345668315887451
0.73441630601882935 0.91608452796936035 0.7833365797996521
0.76887434720993042 0.91418683528900146 0.78082388639450073
0.83053237199783325 0.92672282457351685 0.77285522222518921
0.93145418167114258 0.95114284753799438 0.73014551401138306
0.059975359588861465 0.17946721613407135 0.78750348091125488
0.36430203914642334 0.20283736288547516 0.7874334454536438
0.6434054970741272 0.27410250902175903 0.78403425216674805
0.85171878337860107 0.35838893055915833 0.78134638071060181
0.97591710090637207 0.46238014101982117 0.7454068660736084
0.20454543828964233 0.37972161173820496 0.78464764356613159
0.40853559970855713 0.3978503942489624 0.78573775291442871
0.64219611883163452 0.44122883677482605 0.78259623050689697
0.84013766050338745 0.49068939685821533 0.78568673133850098
0.96839505434036255 0.54825884103775024 0.75398820638656616
0.2957189679145813 0.60634374618530273 0.77019786834716797
0.43078711628913879 0.61211329698562622 0.77295219898223877
0.63084918260574341 0.62686336040496826 0.78202950954437256
0.82142019271850586 0.66567808389663696 0.78639858961105347
0.96002781391143799 0.6801837682723999 0.77077251672744751
0.54810249805450439 0.79422187805175781 0.79571223258972168
0.59641587734222412 0.79462766647338867 0.79940718412399292
0.69398987293243408 0.79371780157089233 0.80299937725067139
0.81734007596969604 0.80119556188583374 0.8033897876739502
0.95439052581787109 0.77935248613357544 0.77342075109481812
0.75766879320144653 0.93699151277542114 0.86696308851242065
0.7722858190536499 0.93555188179016113 0.86758482456207275
0.80382800102233887 0.93183773756027222 0.8661990761756897
0.85760509967803955 0.93451994657516479 0.86109381914138794
0.94892114400863647 0.95247691869735718 0.83981239795684814
0.46062430739402771 0.44590497016906738 0.94751310348510742
0.54303961992263794 0.45629128813743591 0.94546258449554443
0.68918085098266602 0.49677583575248718 0.94071036577224731
0.85125136375427246 0.56747746467590332 0.93813478946685791
0.98518836498260498 0.61896073818206787 0.93602699041366577
0.49133101105690002 0.53701186180114746 0.94738459587097168
0.5554928183555603 0.54314213991165161 0.94292706251144409
0.69234102964401245 0.57429033517837524 0.93927782773971558
0.85009825229644775 0.62770241498947144 0.93804866075515747
0.98223781585693359 0.66878360509872437 0.93805176019668579
0.5068131685256958 0.68142354488372803 0.93945807218551636
0.55435758829116821 0.67713481187820435 0.93854796886444092
0.68057864904403687 0.68348193168640137 0.93433928489685059
0.83670836687088013 0.71775621175765991 0.93421393632888794
0.97734618186950684 0.7462843656539917 0.93994611501693726
0.53836357593536377 0.81523436307907104 0.93749320507049561
0.5705491304397583 0.81115984916687012 0.9361838698387146
0.65386945009231567 0.80512768030166626 0.93543636798858643
0.82043945789337158 0.81950539350509644 0.94520968198776245
0.96891367435455322 0.8384433388710022 0.94509613513946533
0.7324405312538147 0.95741206407546997 0.95774304866790771
0.74924904108047485 0.9562842845916748 0.95738494396209717
0.79759150743484497 0.95726954936981201 0.96572279930114746
0.87485170364379883 0.95949721336364746 0.96857213973999023
0.97337353229522705 0.96758753061294556 0.96811860799789429
