luts/negative_old/kodak_portra_160_nc_-.cube
# Created by: G'MIC (https://gmic.eu)
TITLE "kodak_portra_160_nc_-"
# LUT size
LUT_3D_SIZE 5
# Data domain
DOMAIN_MIN 0.0 0.0 0.0
DOMAIN_MAX 1.0 1.0 1.0
# LUT data points
0.0095336465165019035 0.018988799303770065 0.016542697325348854
0.2042260468006134 0.040521778166294098 0.010771089233458042
0.51311266422271729 0.054665971547365189 0.0082826055586338043
0.76572948694229126 0.10901308059692383 0.0052926307544112206
0.96715641021728516 0.22301755845546722 0.023880947381258011
0.0011950923362746835 0.23134750127792358 0.067884929478168488
0.18439099192619324 0.2825620174407959 0.014156640507280827
0.56912410259246826 0.27878358960151672 0.0023552838247269392
0.79218941926956177 0.28408658504486084 0.0055222604423761368
0.97762465476989746 0.33979988098144531 0.032860342413187027
0 0.4906153678894043 0.22977955639362335
0.049522191286087036 0.50301212072372437 0.23140905797481537
0.47956925630569458 0.56145906448364258 0.10436772555112839
0.80937069654464722 0.55704206228256226 0.0077099967747926712
0.98445624113082886 0.53224760293960571 0.060284290462732315
0.034728899598121643 0.70801883935928345 0.39314174652099609
0.19552046060562134 0.70514947175979614 0.39855518937110901
0.41415071487426758 0.72456657886505127 0.37160554528236389
0.70657902956008911 0.76657265424728394 0.28706845641136169
0.97176176309585571 0.78945082426071167 0.22075410187244415
0.53262311220169067 0.90936315059661865 0.66982740163803101
0.55215346813201904 0.9060930609703064 0.67092889547348022
0.61756622791290283 0.90976113080978394 0.67532414197921753
0.73014986515045166 0.93350678682327271 0.65152943134307861
0.90100347995758057 0.96062922477722168 0.59958422183990479
0.0058530322276055813 0.029341993853449821 0.23394343256950378
0.235712930560112 0.045644663274288177 0.23756527900695801
0.53319734334945679 0.042611889541149139 0.220441535115242
0.75855457782745361 0.17216229438781738 0.24499703943729401
0.95471435785293579 0.28910940885543823 0.27183371782302856
0.0047321096062660217 0.27514150738716125 0.26917362213134766
0.27253040671348572 0.29699060320854187 0.29144403338432312
0.55113869905471802 0.3116697371006012 0.27690207958221436
0.77243995666503906 0.33585157990455627 0.2660861611366272
0.96812427043914795 0.3824455738067627 0.28434112668037415
0.23399166762828827 0.52746337652206421 0.39143529534339905
0.28296723961830139 0.52745151519775391 0.37663507461547852
0.52382999658584595 0.56548559665679932 0.33350464701652527
0.8015407919883728 0.55571436882019043 0.28998103737831116
0.97443115711212158 0.54605108499526978 0.2942902147769928
0.28369715809822083 0.71744167804718018 0.48365548253059387
0.32685723900794983 0.7174333930015564 0.47888234257698059
0.45925748348236084 0.72538012266159058 0.4664057195186615
0.72194802761077881 0.76882445812225342 0.4062131941318512
0.97108966112136841 0.78554314374923706 0.36602199077606201
0.56411731243133545 0.90940767526626587 0.69868975877761841
0.58400988578796387 0.9085075855255127 0.7004401683807373
0.64068847894668579 0.91032415628433228 0.70732587575912476
0.74158167839050293 0.9327385425567627 0.68977320194244385
0.90475589036941528 0.95953822135925293 0.64439785480499268
0.0029238234274089336 0.1059640496969223 0.53156322240829468
0.29178726673126221 0.14098228514194489 0.5339168906211853
0.58175456523895264 0.20673505961894989 0.54329019784927368
0.78455525636672974 0.26351234316825867 0.49947133660316467
0.97213596105575562 0.29112741351127625 0.4720282256603241
0.030410213395953178 0.32404404878616333 0.54965382814407349
0.32495272159576416 0.34546232223510742 0.55356353521347046
0.58621996641159058 0.3779028058052063 0.55754417181015015
0.78105771541595459 0.37808772921562195 0.51860171556472778
0.96737504005432129 0.39070653915405273 0.49063774943351746
0.24694985151290894 0.55195075273513794 0.5529981255531311
0.37803992629051208 0.56167042255401611 0.56883209943771362
0.58590567111968994 0.57320713996887207 0.58046597242355347
0.78448665142059326 0.56584149599075317 0.54834151268005371
0.95801949501037598 0.57512003183364868 0.53219616413116455
0.47910821437835693 0.73915702104568481 0.64771455526351929
0.5327906608581543 0.7415771484375 0.65011763572692871
0.58387404680252075 0.73738020658493042 0.63072270154953003
0.75019341707229614 0.77062129974365234 0.60434579849243164
0.96699565649032593 0.77425289154052734 0.5780872106552124
0.65808695554733276 0.91475456953048706 0.78056985139846802
0.66408020257949829 0.91447550058364868 0.77442216873168945
0.68815988302230835 0.91635549068450928 0.76568281650543213
0.76551932096481323 0.92932558059692383 0.76218622922897339
0.91605067253112793 0.96023893356323242 0.7345845103263855
0.20766051113605499 0.24067991971969604 0.77781879901885986
0.39333680272102356 0.26783698797225952 0.77861768007278442
0.63056856393814087 0.33129414916038513 0.77906626462936401
0.83110105991363525 0.384645015001297 0.77561080455780029
0.95802515745162964 0.44470024108886719 0.73745441436767578
0.26510453224182129 0.3926490843296051 0.77677291631698608
0.41477605700492859 0.40371578931808472 0.77527511119842529
0.63571935892105103 0.44827347993850708 0.77663815021514893
0.82666051387786865 0.48833248019218445 0.78231114149093628
0.95110279321670532 0.5282663106918335 0.74849635362625122
0.23496164381504059 0.57086795568466187 0.7641749382019043
0.38239187002182007 0.57579034566879272 0.76821994781494141
0.61522781848907471 0.60788995027542114 0.77569061517715454
0.8107418417930603 0.64306765794754028 0.78264790773391724
0.94619458913803101 0.64896851778030396 0.76192724704742432
0.45844510197639465 0.75574815273284912 0.76978248357772827
0.52319526672363281 0.76027435064315796 0.77345806360244751
0.65004736185073853 0.76351433992385864 0.78634488582611084
0.79562985897064209 0.78093218803405762 0.79546338319778442
0.94755750894546509 0.77351135015487671 0.77260869741439819
0.69664907455444336 0.92529487609863281 0.85493898391723633
0.71671730279922485 0.92590880393981934 0.85743498802185059
0.76718151569366455 0.92917978763580322 0.86228257417678833
0.81911647319793701 0.93274462223052979 0.85628187656402588
0.94131314754486084 0.96354997158050537 0.84284830093383789
0.50188153982162476 0.44555819034576416 0.95134913921356201
0.57845020294189453 0.46256834268569946 0.95091193914413452
0.71706122159957886 0.5030055046081543 0.94610476493835449
0.8683965802192688 0.58142399787902832 0.94059878587722778
0.98682487010955811 0.63087481260299683 0.94095170497894287
0.5159456729888916 0.52369028329849243 0.95034366846084595
0.58884543180465698 0.53894257545471191 0.94845849275588989
0.72444993257522583 0.57862609624862671 0.94569748640060425
0.86807513236999512 0.63536769151687622 0.94107896089553833
0.98469609022140503 0.67236006259918213 0.9417802095413208
0.50195056200027466 0.65073072910308838 0.94636040925979614
0.56912600994110107 0.65471184253692627 0.94360357522964478
0.70678317546844482 0.67761224508285522 0.94630968570709229
0.8572237491607666 0.72221249341964722 0.94492983818054199
0.97831755876541138 0.75089001655578613 0.94449043273925781
0.5061984658241272 0.79478013515472412 0.94344866275787354
0.54995530843734741 0.79318505525588989 0.94350898265838623
0.65144026279449463 0.79077553749084473 0.9447178840637207
0.82727682590484619 0.8150143027305603 0.94965356588363647
0.97225230932235718 0.85207146406173706 0.95171862840652466
0.68369495868682861 0.95098912715911865 0.95330643653869629
0.70707988739013672 0.95020896196365356 0.95414859056472778
0.76350259780883789 0.95373106002807617 0.95819687843322754
0.8522876501083374 0.95598006248474121 0.96763139963150024
0.97148102521896362 0.97069478034973145 0.97057986259460449
