luts/negative_old/kodak_portra_400_nc_++.cube
# Created by: G'MIC (https://gmic.eu)
TITLE "kodak_portra_400_nc_++"
# LUT size
LUT_3D_SIZE 5
# Data domain
DOMAIN_MIN 0.0 0.0 0.0
DOMAIN_MAX 1.0 1.0 1.0
# LUT data points
0.14737065136432648 0.10058467835187912 0.11854027956724167
0.20588414371013641 0.098507672548294067 0.10850024968385696
0.5029442310333252 0.10229964554309845 0.085434749722480774
0.82774984836578369 0.11369990557432175 0.020510235801339149
0.98875981569290161 0.19140467047691345 0.0025310739874839783
0.12158143520355225 0.19236205518245697 0.12496791034936905
0.20527991652488708 0.2208615243434906 0.10492809861898422
0.60589689016342163 0.30245468020439148 0.017816072329878807
0.85093319416046143 0.29939782619476318 0.0039843539707362652
0.99259519577026367 0.31528535485267639 0.003884229576215148
0.001898537389934063 0.52574503421783447 0.16198231279850006
0.19201508164405823 0.52455127239227295 0.14901529252529144
0.54759985208511353 0.58122086524963379 0.0086340364068746567
0.84662854671478271 0.57749229669570923 0.00028339462005533278
0.99908477067947388 0.53507387638092041 0.0023854125756770372
0.35479509830474854 0.75236201286315918 0.40826618671417236
0.42429280281066895 0.74280732870101929 0.40672498941421509
0.55589133501052856 0.75371021032333374 0.34743431210517883
0.75583058595657349 0.78159123659133911 0.17423392832279205
0.98342448472976685 0.78391814231872559 0.028212049975991249
0.6892082691192627 0.90406197309494019 0.70869863033294678
0.70973712205886841 0.90224385261535645 0.71156424283981323
0.74749916791915894 0.90340083837509155 0.70755040645599365
0.80673503875732422 0.91848832368850708 0.67804747819900513
0.91575801372528076 0.93965518474578857 0.62094289064407349
0.12973737716674805 0.09403768926858902 0.20663166046142578
0.2154729962348938 0.092402994632720947 0.21367968618869781
0.54869663715362549 0.0041000368073582649 0.2194906622171402
0.84118777513504028 0.0057515911757946014 0.1742413341999054
0.99483013153076172 0.063389107584953308 0.16017787158489227
0.063180722296237946 0.22885693609714508 0.23839361965656281
0.24040739238262177 0.25040283799171448 0.25909298658370972
0.61870622634887695 0.23094899952411652 0.22313693165779114
0.85248184204101562 0.23004214465618134 0.18298578262329102
0.99293982982635498 0.29112958908081055 0.16527029871940613
0.14389924705028534 0.5788649320602417 0.36898618936538696
0.33095553517341614 0.56773048639297485 0.36464202404022217
0.58579069375991821 0.59096211194992065 0.26928627490997314
0.86017096042633057 0.5639883279800415 0.19430702924728394
0.99489384889602661 0.53593593835830688 0.19943888485431671
0.44826912879943848 0.76210248470306396 0.51741355657577515
0.49913635849952698 0.75878870487213135 0.51663118600845337
0.59928059577941895 0.76002722978591919 0.48523446917533875
0.76861816644668579 0.78286665678024292 0.38314670324325562
0.97523027658462524 0.78174459934234619 0.33380529284477234
0.70330864191055298 0.90405011177062988 0.73306810855865479
0.72185713052749634 0.90413349866867065 0.736652672290802
0.76004362106323242 0.90369617938995361 0.73676472902297974
0.81745100021362305 0.91811221837997437 0.71238201856613159
0.92155033349990845 0.93794649839401245 0.66446042060852051
0.0056992475874722004 0.096443712711334229 0.54971212148666382
0.28305831551551819 0.048173192888498306 0.56115841865539551
0.64307010173797607 0.0029104494024068117 0.57921022176742554
0.87845814228057861 0.016238164156675339 0.51707339286804199
0.9998738169670105 0.099998891353607178 0.45620337128639221
0.0035666222684085369 0.290018230676651 0.58317190408706665
0.22887784242630005 0.28364205360412598 0.595936119556427
0.65298748016357422 0.30390027165412903 0.59248733520507812
0.86923801898956299 0.34538754820823669 0.54342150688171387
0.99443590641021729 0.32315850257873535 0.47716936469078064
0.17240321636199951 0.61289185285568237 0.61412161588668823
0.40851375460624695 0.61127299070358276 0.6209067702293396
0.64613854885101318 0.61570030450820923 0.62188506126403809
0.83609545230865479 0.58978629112243652 0.5751572847366333
0.98159801959991455 0.56672400236129761 0.5286065936088562
0.57980310916900635 0.7880740761756897 0.69222098588943481
0.60624772310256958 0.78878819942474365 0.68937140703201294
0.67661643028259277 0.77933073043823242 0.66981464624404907
0.80058401823043823 0.78987520933151245 0.62981939315795898
0.96834790706634521 0.77990829944610596 0.60188454389572144
0.74751371145248413 0.90953773260116577 0.79823964834213257
0.75400316715240479 0.91057789325714111 0.79422849416732788
0.786357581615448 0.91116005182266235 0.79184591770172119
0.83501189947128296 0.91381394863128662 0.77984118461608887
0.9290960431098938 0.94061338901519775 0.75197058916091919
0.0037526597734540701 0.13374830782413483 0.80065858364105225
0.31951519846916199 0.12666481733322144 0.79908853769302368
0.64188498258590698 0.15877415239810944 0.79847949743270874
0.87598580121994019 0.28389579057693481 0.79964464902877808
0.9852871298789978 0.43671527504920959 0.75304132699966431
0.013492344878613949 0.32521915435791016 0.80497854948043823
0.33494281768798828 0.34962692856788635 0.80230057239532471
0.64766782522201538 0.40301278233528137 0.79723125696182251
0.86163544654846191 0.46329817175865173 0.80042451620101929
0.98088186979293823 0.55121827125549316 0.76546746492385864
0.1627630740404129 0.59917980432510376 0.78735023736953735
0.39361843466758728 0.6042664647102356 0.78790473937988281
0.64166039228439331 0.62900328636169434 0.79345035552978516
0.83604294061660767 0.65665692090988159 0.80102956295013428
0.96054142713546753 0.68569755554199219 0.78248059749603271
0.56337565183639526 0.79625195264816284 0.81112980842590332
0.616291344165802 0.79975736141204834 0.81089287996292114
0.7153170108795166 0.79793375730514526 0.81596565246582031
0.83177375793457031 0.79870623350143433 0.81274491548538208
0.9483262300491333 0.78540462255477905 0.78675132989883423
0.77690708637237549 0.92606884241104126 0.86926615238189697
0.78974848985671997 0.92475217580795288 0.86966639757156372
0.81277245283126831 0.91940885782241821 0.86925810575485229
0.86364150047302246 0.9259830117225647 0.86250859498977661
0.9396708607673645 0.94230103492736816 0.84501689672470093
0.417621910572052 0.40239748358726501 0.94532525539398193
0.51969414949417114 0.42371746897697449 0.94371026754379272
0.68809574842453003 0.47921058535575867 0.93692708015441895
0.85329639911651611 0.56533193588256836 0.93428951501846313
0.98553037643432617 0.62481153011322021 0.93073618412017822
0.4715067446231842 0.51996743679046631 0.94168758392333984
0.55586057901382446 0.53433704376220703 0.93919312953948975
0.70123434066772461 0.57428854703903198 0.93374776840209961
0.85141098499298096 0.63206595182418823 0.92860722541809082
0.97723287343978882 0.67391961812973022 0.93033617734909058
0.52335399389266968 0.6746639609336853 0.93420165777206421
0.58525604009628296 0.67920267581939697 0.93393224477767944
0.69952058792114258 0.69245892763137817 0.92901861667633057
0.84178847074508667 0.72508734464645386 0.92829084396362305
0.96671956777572632 0.75659531354904175 0.93107247352600098
0.57686352729797363 0.80991172790527344 0.93128585815429688
0.61288630962371826 0.80795246362686157 0.93130570650100708
0.68952494859695435 0.80670791864395142 0.93183547258377075
0.83167159557342529 0.82083863019943237 0.93362259864807129
0.95343708992004395 0.84107846021652222 0.92836600542068481
0.76325637102127075 0.94181901216506958 0.94901323318481445
0.77596259117126465 0.94268536567687988 0.94775384664535522
0.8193930983543396 0.93563461303710938 0.94616055488586426
0.8761017918586731 0.94030845165252686 0.95043236017227173
0.958781898021698 0.95097029209136963 0.95140659809112549
