luts/negative_old/kodak_portra_400_uc_-.cube
# Created by: G'MIC (https://gmic.eu)
TITLE "kodak_portra_400_uc_-"
# LUT size
LUT_3D_SIZE 7
# Data domain
DOMAIN_MIN 0.0 0.0 0.0
DOMAIN_MAX 1.0 1.0 1.0
# LUT data points
0.011429790407419205 0.016360457986593246 0.017534876242280006
0.13997103273868561 0.036244262009859085 0.017640581354498863
0.35162138938903809 0.028745792806148529 0.0074970172718167305
0.59646999835968018 0.0094190407544374466 0.0088826948776841164
0.795920729637146 0.0069925496354699135 0.0079661048948764801
0.93736684322357178 0.026849798858165741 0.00043254179763607681
0.99312317371368408 0.1728205531835556 0.0023441838566213846
0.0032992493361234665 0.13694204390048981 0.039962738752365112
0.098245240747928619 0.1599501371383667 0.021703518927097321
0.3674241304397583 0.1849684864282608 0.010949946008622646
0.62050700187683105 0.17256459593772888 0.0096889417618513107
0.79739958047866821 0.16538381576538086 0.0059774662367999554
0.9363703727722168 0.19972379505634308 0.0044786040671169758
0.99976646900177002 0.25685760378837585 0.002541770227253437
0.0021189821418374777 0.33107081055641174 0.084745354950428009
0.0066102421842515469 0.34637713432312012 0.08165866881608963
0.28082233667373657 0.38693884015083313 0.035996261984109879
0.60843956470489502 0.39781573414802551 0.0032339657191187143
0.80712407827377319 0.36595699191093445 0.003278006799519062
0.9388841986656189 0.36687541007995605 0.0032115413341671228
0.99733704328536987 0.37492680549621582 0.0044611012563109398
0.00025221880059689283 0.51416289806365967 0.17423932254314423
0.0050130356103181839 0.52321368455886841 0.18544773757457733
0.11089293658733368 0.5361291766166687 0.16916009783744812
0.48898574709892273 0.56439793109893799 0.1061473935842514
0.75719404220581055 0.5813029408454895 0.015083507634699345
0.91773825883865356 0.54885232448577881 0.0049806931056082249
0.99379962682723999 0.52982091903686523 0.0038655598182231188
0.00074462889460846782 0.66448318958282471 0.27154797315597534
0.0082985525950789452 0.66765516996383667 0.28683629631996155
0.0549800805747509 0.67015570402145386 0.28056055307388306
0.39542627334594727 0.68730700016021729 0.26264509558677673
0.64941716194152832 0.71162819862365723 0.22142578661441803
0.86338144540786743 0.73748481273651123 0.1418614387512207
0.98376667499542236 0.72463339567184448 0.023015175014734268
0.014152227900922298 0.80517059564590454 0.39406302571296692
0.0383770652115345 0.80463653802871704 0.39656665921211243
0.2181001603603363 0.80276334285736084 0.40896689891815186
0.42491179704666138 0.80630296468734741 0.4142613410949707
0.60933709144592285 0.81800740957260132 0.39619973301887512
0.78602409362792969 0.83147507905960083 0.37742501497268677
0.94880896806716919 0.8569495677947998 0.35550948977470398
0.46188366413116455 0.92590856552124023 0.60965251922607422
0.47915482521057129 0.92430931329727173 0.61515432596206665
0.52440178394317627 0.92144352197647095 0.6246069073677063
0.59550011157989502 0.92023825645446777 0.62723422050476074
0.69032973051071167 0.9287835955619812 0.63125407695770264
0.79490393400192261 0.93812119960784912 0.62697499990463257
0.90770852565765381 0.94946771860122681 0.62185269594192505
0.01044883020222187 0.02627410925924778 0.14836509525775909
0.13501507043838501 0.021719450131058693 0.15439409017562866
0.34965726733207703 0.0085924630984663963 0.14090242981910706
0.59478610754013062 0.0078497640788555145 0.13305042684078217
0.79144489765167236 0.030596714466810226 0.13880681991577148
0.92883265018463135 0.10190851241350174 0.11575869470834732
0.99654513597488403 0.20647132396697998 0.093968227505683899
0.0027879003901034594 0.16536104679107666 0.17435939610004425
0.14116626977920532 0.17848743498325348 0.17983153462409973
0.38441559672355652 0.18742966651916504 0.16044190526008606
0.62208086252212524 0.18735587596893311 0.1428629606962204
0.79837888479232788 0.19831365346908569 0.1245778426527977
0.9342084527015686 0.22681538760662079 0.10549799352884293
0.99761146306991577 0.28476384282112122 0.084002569317817688
0.0057721007615327835 0.37123909592628479 0.23506699502468109
0.06163565069437027 0.37466824054718018 0.22718243300914764
0.33690297603607178 0.394513338804245 0.20739012956619263
0.62542551755905151 0.39170831441879272 0.14354756474494934
0.80679214000701904 0.37024930119514465 0.085908390581607819
0.93697726726531982 0.3763173520565033 0.06963125616312027
0.99894922971725464 0.39734405279159546 0.059243805706501007
0.0074605457484722137 0.53914052248001099 0.28826352953910828
0.01178430300205946 0.5416683554649353 0.28495600819587708
0.23640650510787964 0.54514265060424805 0.28167873620986938
0.5244947075843811 0.56890785694122314 0.25005993247032166
0.76281893253326416 0.57743126153945923 0.16818103194236755
0.92101222276687622 0.54939162731170654 0.05401134118437767
0.99723368883132935 0.53900569677352905 0.018044624477624893
0.0045399684458971024 0.67628294229507446 0.34429845213890076
0.010702140629291534 0.67845207452774048 0.34502622485160828
0.19309566915035248 0.67569124698638916 0.34828618168830872
0.43639364838600159 0.68948066234588623 0.34614327549934387
0.66877144575119019 0.71003693342208862 0.31108871102333069
0.86355984210968018 0.72924423217773438 0.25518897175788879
0.98766422271728516 0.72091180086135864 0.1336355060338974
0.062705248594284058 0.808338463306427 0.43377929925918579
0.15389056503772736 0.80824786424636841 0.43976888060569763
0.29720157384872437 0.80207908153533936 0.45867839455604553
0.45503532886505127 0.80723112821578979 0.46039581298828125
0.63489997386932373 0.81993281841278076 0.45570456981658936
0.79627424478530884 0.83465492725372314 0.43263331055641174
0.94692879915237427 0.85932832956314087 0.41930544376373291
0.46830072999000549 0.92328792810440063 0.62925052642822266
0.50087308883666992 0.92433434724807739 0.63414448499679565
0.5423351526260376 0.9209786057472229 0.63899481296539307
0.61414378881454468 0.92319542169570923 0.65649378299713135
0.69596379995346069 0.92630249261856079 0.64971399307250977
0.79808181524276733 0.93649864196777344 0.65125495195388794
0.90493977069854736 0.9482383131980896 0.64405304193496704
0.0015208973782137036 0.037585314363241196 0.343719482421875
0.12083765864372253 0.036449134349822998 0.35618889331817627
0.36672195792198181 0.023753596469759941 0.36175996065139771
0.57763636112213135 0.011392181739211082 0.34275227785110474
0.77142488956451416 0.0059509128332138062 0.31092476844787598
0.92733561992645264 0.043803900480270386 0.2995276153087616
0.99974155426025391 0.25078263878822327 0.32566383481025696
0.0041563296690583229 0.18178601562976837 0.35636675357818604
0.11034549027681351 0.19515152275562286 0.36988568305969238
0.39878085255622864 0.21957811713218689 0.38481181859970093
0.60850077867507935 0.20375891029834747 0.35905656218528748
0.78945463895797729 0.18442261219024658 0.33440271019935608
0.9262382984161377 0.25872892141342163 0.33306226134300232
0.99337905645370483 0.34643760323524475 0.33737906813621521
0.004197737667709589 0.38680979609489441 0.37443074584007263
0.14481844007968903 0.3986051082611084 0.39333826303482056
0.42383608222007751 0.41567561030387878 0.40832525491714478
0.62995785474777222 0.41717827320098877 0.38362202048301697
0.79111337661743164 0.4113556444644928 0.36099126935005188
0.92097491025924683 0.42103248834609985 0.33279305696487427
0.99186962842941284 0.44394853711128235 0.31459012627601624
0.164187952876091 0.56241357326507568 0.42250359058380127
0.28763797879219055 0.56560564041137695 0.43650251626968384
0.41170570254325867 0.56834155321121216 0.43824464082717896
0.58381462097167969 0.58300811052322388 0.41912123560905457
0.77562856674194336 0.57591527700424194 0.37933269143104553
0.91189587116241455 0.56073415279388428 0.31835290789604187
0.99097239971160889 0.56496977806091309 0.2989991307258606
0.29234576225280762 0.6938023567199707 0.47856074571609497
0.31548652052879333 0.6927788257598877 0.4748443067073822
0.3718559741973877 0.6901736855506897 0.4680059552192688
0.51678466796875 0.69490569829940796 0.46810370683670044
0.70378023386001587 0.72101962566375732 0.45212295651435852
0.86801004409790039 0.73267167806625366 0.41711822152137756
0.98211240768432617 0.70894593000411987 0.33971187472343445
0.35126730799674988 0.810272216796875 0.54487645626068115
0.36834865808486938 0.80984270572662354 0.54243069887161255
0.42972069978713989 0.80774003267288208 0.54587680101394653
0.53599768877029419 0.81035894155502319 0.54707509279251099
0.6620057225227356 0.82062888145446777 0.54674160480499268
0.81352061033248901 0.84116965532302856 0.53960251808166504
0.9492831826210022 0.85933107137680054 0.52496135234832764
0.53845971822738647 0.92418354749679565 0.67825126647949219
0.54916739463806152 0.92383956909179688 0.67614632844924927
0.57867968082427979 0.9216846227645874 0.67877256870269775
0.63791388273239136 0.92135965824127197 0.68807685375213623
0.71430939435958862 0.92695480585098267 0.69787615537643433
0.80796140432357788 0.93331104516983032 0.69163960218429565
0.90539157390594482 0.94976639747619629 0.69238436222076416
0.0018910575890913606 0.075449220836162567 0.51858693361282349
0.051751364022493362 0.081154137849807739 0.53499001264572144
0.36743369698524475 0.10983394831418991 0.55813652276992798
0.62004023790359497 0.10148473829030991 0.56468206644058228
0.75832641124725342 0.11926928907632828 0.52085858583450317
0.89805251359939575 0.15624426305294037 0.48753684759140015
0.99548852443695068 0.19906388223171234 0.4683263897895813
0.0033410165924578905 0.20671765506267548 0.5244293212890625
0.06788201630115509 0.21579010784626007 0.54458004236221313
0.38714829087257385 0.25060984492301941 0.56294482946395874
0.62998425960540771 0.27095246315002441 0.56895238161087036
0.76613819599151611 0.2596161961555481 0.53090399503707886
0.90887093544006348 0.26825046539306641 0.50393432378768921
0.98713982105255127 0.29925984144210815 0.47730627655982971
0.0033366184215992689 0.37799692153930664 0.52296680212020874
0.078845202922821045 0.39277538657188416 0.53991174697875977
0.40227779746055603 0.41526663303375244 0.56551402807235718
0.63256537914276123 0.44470825791358948 0.57944369316101074
0.78120285272598267 0.43067270517349243 0.54451555013656616
0.90591263771057129 0.43350666761398315 0.52502769231796265
0.99202752113342285 0.45491182804107666 0.51139312982559204
0.057912789285182953 0.55974465608596802 0.54171240329742432
0.23407258093357086 0.56332689523696899 0.55233669281005859
0.44167739152908325 0.57551491260528564 0.57079118490219116
0.62003916501998901 0.59713435173034668 0.58702045679092407
0.77776741981506348 0.59446269273757935 0.55959993600845337
0.89491468667984009 0.59075075387954712 0.53589022159576416
0.98392379283905029 0.60141408443450928 0.52212196588516235
0.33002063632011414 0.70208334922790527 0.58263039588928223
0.3950645923614502 0.70554149150848389 0.59189021587371826
0.50947082042694092 0.70969969034194946 0.60570549964904785
0.60877561569213867 0.71243083477020264 0.60617160797119141
0.73797106742858887 0.73121100664138794 0.59916859865188599
0.87174409627914429 0.72813147306442261 0.56446379423141479
0.97761178016662598 0.71566838026046753 0.50698012113571167
0.48183101415634155 0.81694489717483521 0.65415298938751221
0.50434595346450806 0.81417858600616455 0.65513330698013306
0.55801939964294434 0.81748944520950317 0.65602397918701172
0.60309886932373047 0.81784164905548096 0.646126389503479
0.69160252809524536 0.82238626480102539 0.64939016103744507
0.82957154512405396 0.84146839380264282 0.65267974138259888
0.95258575677871704 0.85814136266708374 0.62900882959365845
0.6140933632850647 0.92304086685180664 0.74997943639755249
0.62290096282958984 0.92310035228729248 0.74724924564361572
0.63606125116348267 0.92151719331741333 0.73774915933609009
0.66929113864898682 0.92567718029022217 0.73826807737350464
0.73055344820022583 0.92139124870300293 0.74161738157272339
0.82147383689880371 0.93658125400543213 0.75309926271438599
0.92110246419906616 0.95144522190093994 0.75259459018707275
0.0067075989209115505 0.14106947183609009 0.6785881519317627
0.0309727992862463 0.14655986428260803 0.69544661045074463
0.34769698977470398 0.17844386398792267 0.70462435483932495
0.61638647317886353 0.22103196382522583 0.72564762830734253
0.78991341590881348 0.24202750623226166 0.7234610915184021
0.89998883008956909 0.2554832398891449 0.68601280450820923
0.98088234663009644 0.33421733975410461 0.66052281856536865
0.0042629316449165344 0.2453753650188446 0.6817132830619812
0.057047989219427109 0.24891999363899231 0.70076441764831543
0.36407795548439026 0.27660971879959106 0.71042042970657349
0.61782854795455933 0.31653741002082825 0.72635102272033691
0.79030263423919678 0.3413386344909668 0.72797292470932007
0.8924180269241333 0.34361633658409119 0.69067776203155518
0.97501766681671143 0.39791002869606018 0.66742861270904541
0.006130861584097147 0.39407467842102051 0.67863082885742188
0.11820694804191589 0.39740362763404846 0.69058459997177124
0.38805776834487915 0.41682884097099304 0.70246392488479614
0.61098629236221313 0.45499077439308167 0.71532219648361206
0.77906721830368042 0.48214209079742432 0.72585314512252808
0.88759124279022217 0.47614619135856628 0.69541394710540771
0.98229587078094482 0.49951884150505066 0.67803502082824707
0.0067390589974820614 0.53525400161743164 0.66323518753051758
0.081303298473358154 0.53870528936386108 0.66825675964355469
0.36300358176231384 0.55023658275604248 0.6810600757598877
0.58576607704162598 0.58914840221405029 0.70689022541046143
0.76884680986404419 0.62108969688415527 0.72752481698989868
0.8756747841835022 0.61346435546875 0.70090621709823608
0.98067498207092285 0.60706239938735962 0.6831895112991333
0.19704297184944153 0.6932445764541626 0.68318569660186768
0.29296156764030457 0.69323515892028809 0.69182908535003662
0.44361189007759094 0.70382976531982422 0.70275980234146118
0.6048271656036377 0.71588194370269775 0.71648716926574707
0.75924587249755859 0.74112784862518311 0.73786711692810059
0.86763668060302734 0.74701225757598877 0.72473591566085815
0.96918654441833496 0.74058574438095093 0.70327192544937134
0.43976360559463501 0.82206696271896362 0.72763776779174805
0.4760073721408844 0.82140982151031494 0.73531728982925415
0.56064707040786743 0.82417148351669312 0.74310874938964844
0.66731685400009155 0.82874554395675659 0.75484853982925415
0.7450716495513916 0.83090722560882568 0.7579958438873291
0.84776908159255981 0.84779608249664307 0.75901234149932861
0.95880544185638428 0.84927183389663696 0.73686575889587402
0.61939960718154907 0.92637127637863159 0.80589783191680908
0.6378253698348999 0.92569321393966675 0.81043064594268799
0.68141943216323853 0.9290282130241394 0.81443107128143311
0.72410547733306885 0.92991238832473755 0.81081265211105347
0.76896637678146362 0.9285004734992981 0.81338828802108765
0.83637320995330811 0.93940544128417969 0.81321090459823608
0.93200987577438354 0.95308995246887207 0.81220561265945435
0.013479030691087246 0.23375377058982849 0.83158987760543823
0.15279978513717651 0.2396596223115921 0.83713728189468384
0.40904206037521362 0.26633039116859436 0.83419668674468994
0.62062281370162964 0.29876226186752319 0.84068864583969116
0.79275810718536377 0.36807930469512939 0.84972912073135376
0.90676391124725342 0.39358231425285339 0.84396970272064209
0.98186486959457397 0.41105008125305176 0.82118600606918335
0.02470906637609005 0.30391338467597961 0.83122736215591431
0.18663154542446136 0.31415769457817078 0.8342665433883667
0.42478173971176147 0.33143708109855652 0.83395969867706299
0.62523180246353149 0.37214201688766479 0.84002029895782471
0.78918123245239258 0.4344877302646637 0.8499721884727478
0.89811772108078003 0.46577262878417969 0.84401547908782959
0.9780082106590271 0.46689829230308533 0.82326918840408325
0.028119450435042381 0.4164239764213562 0.82378625869750977
0.18431133031845093 0.42007231712341309 0.82352364063262939
0.41130831837654114 0.44197973608970642 0.82515066862106323
0.6166766881942749 0.48638620972633362 0.83397364616394043
0.77722597122192383 0.5299866795539856 0.84461748600006104
0.89339131116867065 0.55605888366699219 0.84249615669250488
0.96980881690979004 0.56030607223510742 0.83097493648529053
0.0087940292432904243 0.53992563486099243 0.79689586162567139
0.095662988722324371 0.54129660129547119 0.80219370126724243
0.36789342761039734 0.55507749319076538 0.81125259399414062
0.58296781778335571 0.59203958511352539 0.82503676414489746
0.7613033652305603 0.638153076171875 0.84101885557174683
0.87996548414230347 0.66476541757583618 0.84163302183151245
0.95806324481964111 0.65628135204315186 0.82520514726638794
0.011807146482169628 0.68261009454727173 0.79468518495559692
0.07247123122215271 0.67755568027496338 0.79565238952636719
0.3006320595741272 0.67577636241912842 0.80076467990875244
0.51427531242370605 0.68629962205886841 0.8057129979133606
0.72426193952560425 0.72323465347290039 0.83241772651672363
0.86725276708602905 0.76742517948150635 0.85044938325881958
0.95063024759292603 0.75970309972763062 0.83445024490356445
0.3044888973236084 0.81954562664031982 0.81228059530258179
0.35591369867324829 0.81680595874786377 0.81730854511260986
0.4722941517829895 0.82031345367431641 0.82505470514297485
0.60782599449157715 0.81923085451126099 0.82745170593261719
0.72820460796356201 0.82461094856262207 0.83895587921142578
0.85918110609054565 0.8564257025718689 0.86043721437454224
0.95662981271743774 0.85928469896316528 0.84956532716751099
0.58200937509536743 0.93538945913314819 0.8589775562286377
0.59651440382003784 0.93215274810791016 0.85927194356918335
0.63941651582717896 0.93166083097457886 0.86240571737289429
0.71415930986404419 0.93642681837081909 0.8681914210319519
0.79189729690551758 0.93502414226531982 0.87675744295120239
0.86447370052337646 0.94756299257278442 0.88612860441207886
0.94774264097213745 0.95695805549621582 0.88593745231628418
0.37795022130012512 0.40003648400306702 0.95064610242843628
0.44003623723983765 0.40754568576812744 0.95021706819534302
0.55505263805389404 0.41830343008041382 0.94807547330856323
0.68449872732162476 0.44809558987617493 0.94084608554840088
0.81190109252929688 0.50103014707565308 0.94766902923583984
0.91252237558364868 0.56808209419250488 0.94394564628601074
0.98790335655212402 0.59363031387329102 0.94269871711730957
0.39223003387451172 0.44974762201309204 0.95123183727264404
0.44989535212516785 0.45576974749565125 0.94929796457290649
0.55914032459259033 0.46274790167808533 0.94654911756515503
0.6853783130645752 0.48983374238014221 0.9466063380241394
0.81092697381973267 0.53813165426254272 0.94755232334136963
0.90881145000457764 0.60119825601577759 0.9446481466293335
0.98665118217468262 0.62459176778793335 0.9439123272895813
0.37252017855644226 0.51584362983703613 0.94581812620162964
0.43698406219482422 0.52561801671981812 0.94489681720733643
0.54893249273300171 0.53574073314666748 0.94251716136932373
0.6711544394493103 0.56174015998840332 0.93993359804153442
0.8012574315071106 0.60070908069610596 0.94491952657699585
0.90691238641738892 0.65365654230117798 0.94557690620422363
0.97559541463851929 0.67647683620452881 0.94523406028747559
0.33897837996482849 0.62164938449859619 0.93732732534408569
0.39987918734550476 0.61995238065719604 0.93750429153442383
0.50589156150817871 0.61723834276199341 0.93629086017608643
0.64341264963150024 0.63625359535217285 0.94099390506744385
0.78690344095230103 0.68126749992370605 0.94251495599746704
0.89593303203582764 0.72346013784408569 0.94399309158325195
0.97464889287948608 0.73791956901550293 0.94497352838516235
0.073231056332588196 0.71832698583602905 0.92787516117095947
0.15150536596775055 0.71413117647171021 0.92698276042938232
0.36633089184761047 0.71373665332794189 0.92784100770950317
0.56802833080291748 0.71946674585342407 0.93125778436660767
0.73507404327392578 0.74612170457839966 0.93593329191207886
0.87683570384979248 0.78672665357589722 0.94527238607406616
0.97068077325820923 0.81299793720245361 0.94848048686981201
0.29430818557739258 0.84263646602630615 0.92963731288909912
0.345672607421875 0.84043610095977783 0.92928540706634521
0.43590176105499268 0.83741068840026855 0.93183821439743042
0.54605609178543091 0.83278399705886841 0.93034309148788452
0.67685818672180176 0.82639521360397339 0.93428659439086914
0.84399813413619995 0.85394918918609619 0.94963771104812622
0.96366065740585327 0.87973713874816895 0.95450031757354736
0.52785032987594604 0.95470476150512695 0.94838666915893555
0.5483705997467041 0.95165103673934937 0.94898992776870728
0.59681516885757446 0.95588743686676025 0.94889813661575317
0.66488349437713623 0.9494699239730835 0.94455111026763916
0.75203883647918701 0.94529783725738525 0.94795137643814087
0.84012413024902344 0.95491701364517212 0.96341121196746826
0.96130287647247314 0.96651560068130493 0.96835935115814209
