luts/negative_old/kodak_portra_400_nc.cube
# Created by: G'MIC (https://gmic.eu)
TITLE "kodak_portra_400_nc"
# LUT size
LUT_3D_SIZE 7
# Data domain
DOMAIN_MIN 0.0 0.0 0.0
DOMAIN_MAX 1.0 1.0 1.0
# LUT data points
0.049032337963581085 0.067753210663795471 0.060001641511917114
0.10610538721084595 0.05979195237159729 0.052605003118515015
0.27779173851013184 0.0705132856965065 0.047256752848625183
0.51273542642593384 0.061671357601881027 0.02670968696475029
0.71472269296646118 0.057746138423681259 0.0088204480707645416
0.84721881151199341 0.11855082958936691 0.013579140417277813
0.96897274255752563 0.1911013126373291 0.019467027857899666
0.030094161629676819 0.12949241697788239 0.071820035576820374
0.11924324929714203 0.1452520489692688 0.05503985658288002
0.33019104599952698 0.17580288648605347 0.020587531849741936
0.57628411054611206 0.18678922951221466 0.0064469282515347004
0.7427484393119812 0.19188296794891357 0.0095048043876886368
0.86782222986221313 0.22138004004955292 0.0083826100453734398
0.97556591033935547 0.253713458776474 0.010206050239503384
0.0053471135906875134 0.31217634677886963 0.12425993382930756
0.10706501454114914 0.32268652319908142 0.11363905668258667
0.33607524633407593 0.37043359875679016 0.027390139177441597
0.61226910352706909 0.40535470843315125 0.00061510870000347495
0.78150981664657593 0.37767332792282104 0.0027076571714133024
0.89149695634841919 0.36471879482269287 0.0046042348258197308
0.98526614904403687 0.37872475385665894 0.0060572754591703415
0.017173841595649719 0.52233988046646118 0.21075239777565002
0.16400574147701263 0.52176487445831299 0.21241326630115509
0.33853313326835632 0.53389590978622437 0.16857555508613586
0.53760749101638794 0.56868958473205566 0.041775975376367569
0.74475979804992676 0.5843818187713623 0.00099268893245607615
0.88926821947097778 0.54984694719314575 0.00096806546207517385
0.99259215593338013 0.52578473091125488 0.0022603652905672789
0.26669496297836304 0.66598975658416748 0.34879472851753235
0.33206701278686523 0.66223323345184326 0.35453328490257263
0.40355947613716125 0.65954309701919556 0.33654671907424927
0.51540040969848633 0.68092143535614014 0.28267225623130798
0.66586005687713623 0.70435720682144165 0.16663059592247009
0.846061110496521 0.72340011596679688 0.017740959301590919
0.974578857421875 0.69713056087493896 0.020874995738267899
0.46632948517799377 0.78156256675720215 0.50042861700057983
0.48708346486091614 0.78089189529418945 0.49957066774368286
0.53845936059951782 0.77965760231018066 0.50012165307998657
0.58734214305877686 0.78426003456115723 0.48276925086975098
0.66705882549285889 0.79864799976348877 0.43824166059494019
0.78704577684402466 0.81501704454421997 0.37061131000518799
0.93894374370574951 0.83462345600128174 0.2912578284740448
0.65922367572784424 0.88729166984558105 0.67826133966445923
0.66983157396316528 0.88781023025512695 0.68004763126373291
0.69544637203216553 0.88833236694335938 0.68672925233840942
0.71961557865142822 0.88702994585037231 0.6823306679725647
0.76121008396148682 0.89859366416931152 0.66723287105560303
0.81915754079818726 0.91168659925460815 0.63998103141784668
0.90676242113113403 0.92799723148345947 0.60457754135131836
0.025640510022640228 0.056956510990858078 0.13655509054660797
0.12160242348909378 0.05329957976937294 0.13736902177333832
0.28864967823028564 0.027090258896350861 0.13872680068016052
0.51886522769927979 0.01198947336524725 0.14123693108558655
0.70932149887084961 0.032511048018932343 0.1509166806936264
0.84075713157653809 0.11626343429088593 0.15842095017433167
0.9625362753868103 0.19551628828048706 0.16893553733825684
0.020447645336389542 0.15264225006103516 0.16381919384002686
0.13406220078468323 0.16061146557331085 0.16759680211544037
0.33244523406028748 0.16612611711025238 0.16067494451999664
0.56906956434249878 0.17140485346317291 0.15513861179351807
0.73534029722213745 0.1862245500087738 0.14675647020339966
0.85962408781051636 0.22521451115608215 0.14298301935195923
0.96925085783004761 0.26717549562454224 0.1646886020898819
0.022450316697359085 0.35088500380516052 0.2294599711894989
0.16723011434078217 0.35217535495758057 0.23177719116210938
0.37134385108947754 0.38352000713348389 0.18850710988044739
0.62701582908630371 0.39370268583297729 0.12708331644535065
0.77694833278656006 0.36811518669128418 0.11828414350748062
0.88285678625106812 0.36713612079620361 0.12811870872974396
0.97661614418029785 0.38434317708015442 0.15175454318523407
0.14125707745552063 0.545390784740448 0.30886361002922058
0.25216424465179443 0.53765785694122314 0.3102591335773468
0.37348484992980957 0.5425107479095459 0.28932195901870728
0.55767142772674561 0.57345759868621826 0.20627957582473755
0.75088894367218018 0.58095282316207886 0.11071375012397766
0.88940203189849854 0.54510325193405151 0.096406050026416779
0.98480004072189331 0.52993965148925781 0.12352307140827179
0.33521673083305359 0.67579370737075806 0.41423282027244568
0.38137549161911011 0.67371898889541626 0.4172745943069458
0.44904276728630066 0.6691398024559021 0.40544304251670837
0.54171836376190186 0.68303704261779785 0.36115625500679016
0.68400412797927856 0.70744770765304565 0.27735450863838196
0.84767335653305054 0.72118496894836426 0.19909559190273285
0.97120815515518188 0.69361752271652222 0.20281456410884857
0.49061515927314758 0.7859504222869873 0.53473114967346191
0.5110357403755188 0.78555160760879517 0.53649842739105225
0.55135774612426758 0.78225791454315186 0.53548967838287354
0.60491615533828735 0.78497672080993652 0.52426069974899292
0.68443840742111206 0.79943203926086426 0.48151600360870361
0.79234468936920166 0.81585216522216797 0.42510351538658142
0.93670541048049927 0.83288168907165527 0.36765545606613159
0.66815561056137085 0.88777798414230347 0.69290471076965332
0.67774242162704468 0.8873412013053894 0.69441860914230347
0.70112788677215576 0.88898348808288574 0.69919127225875854
0.7307126522064209 0.88848757743835449 0.69875657558441162
0.76825308799743652 0.89870154857635498 0.68402963876724243
0.82624202966690063 0.91469216346740723 0.66134881973266602
0.90702962875366211 0.92780143022537231 0.62611633539199829
0.0043111615814268589 0.058435942977666855 0.32505086064338684
0.14957992732524872 0.05780068039894104 0.33511596918106079
0.345968097448349 0.027797264978289604 0.34057453274726868
0.58438658714294434 0.0016874425346031785 0.33729144930839539
0.75008678436279297 0.0020215651020407677 0.31034910678863525
0.85775494575500488 0.038076795637607574 0.30028548836708069
0.94978499412536621 0.2336253821849823 0.33730870485305786
0.0039350623264908791 0.17849753797054291 0.3566373884677887
0.10700191557407379 0.17406786978244781 0.36311823129653931
0.38351652026176453 0.18113553524017334 0.37306565046310425
0.61068999767303467 0.16657617688179016 0.36087208986282349
0.74511682987213135 0.16754314303398132 0.33513721823692322
0.85020828247070312 0.2376677542924881 0.33717867732048035
0.94733381271362305 0.31643050909042358 0.35487359762191772
0.010094212368130684 0.39082419872283936 0.3993588387966156
0.17442376911640167 0.40051287412643433 0.41356092691421509
0.42497393488883972 0.40640151500701904 0.41485875844955444
0.61691027879714966 0.3990136981010437 0.39402049779891968
0.74461525678634644 0.39326441287994385 0.37053915858268738
0.86046737432479858 0.40022456645965576 0.35397356748580933
0.95722126960754395 0.42690032720565796 0.36193439364433289
0.29604336619377136 0.57976138591766357 0.47007590532302856
0.37985879182815552 0.58154362440109253 0.47463363409042358
0.47124636173248291 0.57590657472610474 0.45980864763259888
0.58597159385681152 0.58352375030517578 0.4289206862449646
0.74811774492263794 0.57959467172622681 0.38013589382171631
0.87606132030487061 0.55608993768692017 0.36563146114349365
0.97295141220092773 0.54938966035842896 0.36906588077545166
0.44383847713470459 0.69866424798965454 0.52933716773986816
0.46926996111869812 0.69746929407119751 0.52945894002914429
0.51755601167678833 0.69079649448394775 0.52214568853378296
0.57917219400405884 0.69141590595245361 0.4977799654006958
0.69420552253723145 0.71245419979095459 0.4545186460018158
0.84507453441619873 0.71675282716751099 0.40977269411087036
0.966941237449646 0.69471657276153564 0.39828705787658691
0.5437207818031311 0.7949870228767395 0.6022334098815918
0.56592780351638794 0.79678934812545776 0.60846638679504395
0.5922238826751709 0.79290127754211426 0.60427397489547729
0.62795758247375488 0.78702455759048462 0.59265536069869995
0.7006232738494873 0.79963654279708862 0.560832679271698
0.80321824550628662 0.81563901901245117 0.52392971515655518
0.93813633918762207 0.83225381374359131 0.48306536674499512
0.68529242277145386 0.88989478349685669 0.72274339199066162
0.69582480192184448 0.89044827222824097 0.72593355178833008
0.71272462606430054 0.89103466272354126 0.7251509428024292
0.74216961860656738 0.89003074169158936 0.72714900970458984
0.77911621332168579 0.89748764038085938 0.71719104051589966
0.82795876264572144 0.91205024719238281 0.69821125268936157
0.91147679090499878 0.92900890111923218 0.66726839542388916
0.0024634865112602711 0.073197714984416962 0.54044729471206665
0.1335054486989975 0.061961304396390915 0.5458407998085022
0.40352672338485718 0.04266643151640892 0.55413311719894409
0.62552076578140259 0.021601328626275063 0.56626784801483154
0.76380318403244019 0.066851086914539337 0.52448588609695435
0.882435142993927 0.18863727152347565 0.49621957540512085
0.97177636623382568 0.27392542362213135 0.48307153582572937
0.0025147381238639355 0.20012861490249634 0.55660098791122437
0.10540246218442917 0.19893863797187805 0.56790333986282349
0.41921940445899963 0.21345199644565582 0.57337868213653564
0.6320003867149353 0.22256611287593842 0.57617783546447754
0.76628714799880981 0.26266539096832275 0.54050290584564209
0.87854683399200439 0.31650707125663757 0.51401138305664062
0.96522611379623413 0.35266470909118652 0.50050395727157593
0.0016997692873701453 0.41117554903030396 0.5740852952003479
0.1323835700750351 0.41153967380523682 0.58048504590988159
0.42780885100364685 0.42070150375366211 0.58381390571594238
0.62773561477661133 0.43641796708106995 0.58267831802368164
0.7504158616065979 0.44996246695518494 0.5643119215965271
0.85124331712722778 0.45195856690406799 0.53765159845352173
0.94382095336914062 0.46231770515441895 0.52280586957931519
0.26687520742416382 0.59360861778259277 0.59286785125732422
0.36938714981079102 0.59529745578765869 0.60084575414657593
0.49936366081237793 0.59634357690811157 0.6011388897895813
0.62582063674926758 0.60181766748428345 0.59663128852844238
0.73625904321670532 0.59526932239532471 0.57458281517028809
0.83884793519973755 0.58256822824478149 0.55120635032653809
0.94109439849853516 0.57896560430526733 0.537586510181427
0.49962937831878662 0.72563916444778442 0.64033317565917969
0.52792346477508545 0.72337847948074341 0.63989830017089844
0.57828378677368164 0.71979677677154541 0.63986998796463013
0.63250696659088135 0.71328592300415039 0.62972003221511841
0.71510696411132812 0.71778923273086548 0.60077309608459473
0.84578245878219604 0.71659159660339355 0.57607519626617432
0.9561152458190918 0.70116454362869263 0.56156045198440552
0.60420697927474976 0.81333965063095093 0.69348239898681641
0.62331271171569824 0.81184661388397217 0.69391220808029175
0.64351570606231689 0.80803018808364868 0.6907343864440918
0.67136061191558838 0.80112749338150024 0.6761900782585144
0.72072172164916992 0.80311065912246704 0.65907078981399536
0.82012814283370972 0.82035666704177856 0.63260513544082642
0.93764603137969971 0.82921147346496582 0.60410410165786743
0.71039170026779175 0.89677959680557251 0.76834827661514282
0.71828073263168335 0.8968193531036377 0.76921242475509644
0.7327040433883667 0.89823198318481445 0.76792454719543457
0.75960582494735718 0.89686727523803711 0.76797580718994141
0.79520517587661743 0.9005504846572876 0.76546704769134521
0.84228134155273438 0.91258245706558228 0.74647927284240723
0.91465431451797485 0.92981654405593872 0.72130841016769409
0.0013030407717451453 0.12165706604719162 0.69876724481582642
0.16703575849533081 0.12175879627466202 0.70464599132537842
0.41897991299629211 0.13176435232162476 0.70569902658462524
0.62109047174453735 0.17141082882881165 0.70920544862747192
0.78008633852005005 0.21472935378551483 0.70890778303146362
0.87235575914382935 0.28746673464775085 0.66985619068145752
0.97265201807022095 0.4102340042591095 0.65679740905761719
0.0046108318492770195 0.23698641359806061 0.70716923475265503
0.1854238361120224 0.24610856175422668 0.71260398626327515
0.4318176805973053 0.2636515200138092 0.71278780698776245
0.62889105081558228 0.30291116237640381 0.71319329738616943
0.77752280235290527 0.34172016382217407 0.71204215288162231
0.86654084920883179 0.38683253526687622 0.67797291278839111
0.96564501523971558 0.46684640645980835 0.66781651973724365
0.10162586718797684 0.4254375696182251 0.70865887403488159
0.26736736297607422 0.42633941769599915 0.71235573291778564
0.45518931746482849 0.4344848096370697 0.71039485931396484
0.63095378875732422 0.46431213617324829 0.70893323421478271
0.7637253999710083 0.49980556964874268 0.71268784999847412
0.85589379072189331 0.51537132263183594 0.69185549020767212
0.95212572813034058 0.55651450157165527 0.68076127767562866
0.23544251918792725 0.58804041147232056 0.70372384786605835
0.33679640293121338 0.5892338752746582 0.70591533184051514
0.46017858386039734 0.59269356727600098 0.707805335521698
0.61864763498306274 0.61096316576004028 0.71095222234725952
0.74782657623291016 0.63039392232894897 0.71600234508514404
0.84595012664794922 0.63700008392333984 0.70593726634979248
0.93390285968780518 0.62882363796234131 0.68497556447982788
0.46026045083999634 0.72504383325576782 0.71879589557647705
0.49922794103622437 0.72758108377456665 0.72124338150024414
0.56713336706161499 0.73096936941146851 0.7264869213104248
0.65269887447357178 0.7293245792388916 0.72920858860015869
0.74173271656036377 0.7302708625793457 0.72760689258575439
0.83957010507583618 0.7279132604598999 0.71340537071228027
0.92749589681625366 0.71723794937133789 0.69514518976211548
0.63774800300598145 0.82833844423294067 0.77054715156555176
0.65080279111862183 0.82750409841537476 0.77005136013031006
0.67842793464660645 0.82659965753555298 0.77167659997940063
0.71890085935592651 0.82244676351547241 0.76745283603668213
0.76491236686706543 0.8185039758682251 0.75629466772079468
0.82914113998413086 0.81788438558578491 0.73697823286056519
0.940498948097229 0.82433062791824341 0.72091895341873169
0.73785585165023804 0.90921986103057861 0.82716208696365356
0.74594533443450928 0.9099089503288269 0.82479041814804077
0.76134127378463745 0.91100424528121948 0.82553553581237793
0.78082138299942017 0.90691536664962769 0.81941336393356323
0.81200158596038818 0.90729600191116333 0.81842571496963501
0.85513824224472046 0.91351771354675293 0.80641341209411621
0.9276842474937439 0.93273133039474487 0.7857787013053894
0.15179471671581268 0.21713648736476898 0.82653212547302246
0.2922528088092804 0.22983969748020172 0.82503277063369751
0.46110695600509644 0.25663089752197266 0.82456260919570923
0.62415677309036255 0.29487049579620361 0.82053446769714355
0.77195018529891968 0.37096136808395386 0.81954377889633179
0.88593775033950806 0.41284891963005066 0.81834059953689575
0.96349859237670898 0.47127273678779602 0.79402428865432739
0.2000296413898468 0.31250157952308655 0.82552546262741089
0.3242480456829071 0.3262346088886261 0.82420378923416138
0.47562319040298462 0.3432985246181488 0.82441943883895874
0.63195019960403442 0.38659507036209106 0.82065796852111816
0.77276790142059326 0.44683220982551575 0.81915771961212158
0.87765508890151978 0.47911018133163452 0.81749540567398071
0.95168834924697876 0.51446735858917236 0.7977302074432373
0.29724466800689697 0.46278896927833557 0.82015007734298706
0.36658164858818054 0.4625418484210968 0.82066988945007324
0.49230024218559265 0.47809016704559326 0.81942546367645264
0.63463735580444336 0.50689637660980225 0.81961578130722046
0.76652294397354126 0.55375903844833374 0.82140332460403442
0.86957359313964844 0.57337570190429688 0.82344949245452881
0.94029587507247925 0.5985182523727417 0.80199366807937622
0.31577685475349426 0.59683120250701904 0.80735641717910767
0.38868916034698486 0.60320460796356201 0.81106412410736084
0.49029865860939026 0.60824507474899292 0.81399053335189819
0.62535941600799561 0.62231957912445068 0.81438905000686646
0.75196331739425659 0.64869362115859985 0.82178288698196411
0.85124307870864868 0.66657394170761108 0.81735599040985107
0.93280839920043945 0.68403089046478271 0.81251817941665649
0.42570793628692627 0.72019308805465698 0.80882847309112549
0.46531093120574951 0.72101336717605591 0.8128349781036377
0.52518826723098755 0.72230356931686401 0.81199496984481812
0.61209309101104736 0.72441214323043823 0.81031304597854614
0.73347169160842896 0.73776042461395264 0.8205140233039856
0.841666579246521 0.75603759288787842 0.82603788375854492
0.93175143003463745 0.76262480020523071 0.82309836149215698
0.60175949335098267 0.83163547515869141 0.83328139781951904
0.61615926027297974 0.83022505044937134 0.83188658952713013
0.6598125696182251 0.83120918273925781 0.83834993839263916
0.71941590309143066 0.83006209135055542 0.839091956615448
0.77910709381103516 0.83103758096694946 0.84292560815811157
0.85340732336044312 0.83582395315170288 0.84234511852264404
0.93855452537536621 0.83882176876068115 0.83178412914276123
0.74973118305206299 0.92120397090911865 0.87778609991073608
0.7607007622718811 0.92153680324554443 0.87849324941635132
0.77495872974395752 0.91950696706771851 0.87821656465530396
0.80300915241241455 0.92099136114120483 0.88065779209136963
0.83722823858261108 0.92191570997238159 0.88059800863265991
0.87643778324127197 0.9234468936920166 0.87424194812774658
0.94023150205612183 0.93758362531661987 0.86015397310256958
0.42465850710868835 0.4077509343624115 0.92796880006790161
0.47789567708969116 0.42035737633705139 0.92579972743988037
0.56361055374145508 0.43735021352767944 0.92478340864181519
0.67362761497497559 0.47591114044189453 0.92033940553665161
0.78171879053115845 0.52151703834533691 0.9187512993812561
0.88145750761032104 0.57387763261795044 0.91386079788208008
0.97205841541290283 0.6068386435508728 0.91687726974487305
0.44941365718841553 0.46969568729400635 0.92711412906646729
0.49416622519493103 0.47584825754165649 0.92660748958587646
0.57708513736724854 0.49399864673614502 0.92454379796981812
0.67547774314880371 0.51939022541046143 0.92069607973098755
0.78281748294830322 0.55950653553009033 0.91722649335861206
0.88196879625320435 0.60649168491363525 0.91409361362457275
0.96666383743286133 0.63384205102920532 0.91551738977432251
0.47624775767326355 0.56145387887954712 0.92511016130447388
0.50630003213882446 0.56099659204483032 0.92213433980941772
0.58177995681762695 0.57281708717346191 0.92167139053344727
0.68053156137466431 0.59545475244522095 0.92165595293045044
0.78229784965515137 0.62798047065734863 0.91608238220214844
0.87808710336685181 0.65771269798278809 0.91453766822814941
0.96146273612976074 0.68032354116439819 0.91941624879837036
0.48922041058540344 0.65845662355422974 0.91831344366073608
0.51719909906387329 0.65825474262237549 0.91893839836120605
0.57571184635162354 0.65890896320343018 0.91860169172286987
0.66768568754196167 0.67156338691711426 0.9192887544631958
0.77415531873703003 0.69354665279388428 0.91807019710540771
0.87188875675201416 0.71692782640457153 0.91665518283843994
0.95699334144592285 0.73495489358901978 0.92084109783172607
0.47068282961845398 0.74894678592681885 0.91425210237503052
0.49155986309051514 0.74601733684539795 0.91355860233306885
0.55250543355941772 0.74730056524276733 0.91301572322845459
0.64701402187347412 0.74707424640655518 0.91630971431732178
0.75402504205703735 0.75533652305603027 0.92130720615386963
0.86005485057830811 0.77926528453826904 0.92166662216186523
0.95398849248886108 0.79552960395812988 0.92519360780715942
0.60154616832733154 0.84886634349822998 0.922291100025177
0.61061733961105347 0.8448868989944458 0.92118126153945923
0.63960492610931396 0.84594947099685669 0.92299133539199829
0.68315798044204712 0.84128093719482422 0.92538893222808838
0.75017273426055908 0.83764874935150146 0.92561906576156616
0.85096949338912964 0.84395760297775269 0.93079566955566406
0.95085668563842773 0.86124151945114136 0.93674784898757935
0.72377169132232666 0.93597400188446045 0.93997454643249512
0.73109477758407593 0.93530774116516113 0.93944144248962402
0.75362974405288696 0.93254441022872925 0.93848121166229248
0.78464645147323608 0.93427866697311401 0.94389992952346802
0.83235174417495728 0.93638455867767334 0.94508057832717896
0.88851869106292725 0.93840432167053223 0.94831103086471558
0.95482301712036133 0.94417023658752441 0.94811564683914185
