luts/negative_old/kodak_portra_160_vc_+.cube
# Created by: G'MIC (https://gmic.eu)
TITLE "kodak_portra_160_vc_+"
# LUT size
LUT_3D_SIZE 5
# Data domain
DOMAIN_MIN 0.0 0.0 0.0
DOMAIN_MAX 1.0 1.0 1.0
# LUT data points
0.017599113285541534 0.073418214917182922 0.099128648638725281
0.2053791880607605 0.079229272902011871 0.091105788946151733
0.57617837190628052 0.048400115221738815 0.067213185131549835
0.87566882371902466 0.082139000296592712 0.02273242361843586
0.99909299612045288 0.20466563105583191 0.0065070656128227711
0.00022421444009523839 0.23613633215427399 0.12487028539180756
0.17444844543933868 0.26386305689811707 0.097076922655105591
0.60303032398223877 0.27575460076332092 0.020873544737696648
0.87301737070083618 0.27953055500984192 0.0063535054214298725
0.99673247337341309 0.32586967945098877 0.0061769373714923859
0.0015264324611052871 0.52878034114837646 0.22838063538074493
0.15091702342033386 0.52977824211120605 0.22082814574241638
0.53519344329833984 0.55566668510437012 0.10043688118457794
0.83839452266693115 0.5370137095451355 0.0030613469425588846
0.99540251493453979 0.50578433275222778 0.0012938256841152906
0.28584113717079163 0.74134624004364014 0.3948882520198822
0.37200042605400085 0.73208159208297729 0.40559977293014526
0.53495240211486816 0.74330639839172363 0.37107580900192261
0.76519191265106201 0.75930005311965942 0.26355853676795959
0.98563688993453979 0.76475924253463745 0.095513634383678436
0.6315123438835144 0.90962255001068115 0.66889488697052002
0.65675067901611328 0.90811985731124878 0.67259836196899414
0.71251535415649414 0.90861409902572632 0.68033123016357422
0.79695379734039307 0.92110127210617065 0.64583790302276611
0.92717456817626953 0.93796193599700928 0.57891839742660522
0.00055015413090586662 0.08872675895690918 0.26477876305580139
0.21680331230163574 0.093143641948699951 0.25636962056159973
0.59055966138839722 0.0051307380199432373 0.23948091268539429
0.87558138370513916 0.096969768404960632 0.25359535217285156
0.99827033281326294 0.27784627676010132 0.27198067307472229
0.0026243021711707115 0.28259947896003723 0.28128039836883545
0.25918251276016235 0.29105344414710999 0.2909073531627655
0.61741966009140015 0.29418250918388367 0.27351081371307373
0.86513465642929077 0.32476189732551575 0.26318919658660889
0.99654853343963623 0.37273290753364563 0.25635573267936707
0.20779584348201752 0.55719482898712158 0.37277659773826599
0.32758393883705139 0.55093681812286377 0.36588859558105469
0.57656019926071167 0.5606081485748291 0.31266772747039795
0.84168773889541626 0.53682851791381836 0.22526873648166656
0.99513715505599976 0.52495712041854858 0.19603751599788666
0.39848944544792175 0.74711215496063232 0.48073026537895203
0.46005752682685852 0.74447119235992432 0.48820170760154724
0.58175557851791382 0.74281406402587891 0.47913089394569397
0.77754694223403931 0.76108574867248535 0.39840322732925415
0.98214644193649292 0.76388019323348999 0.30031272768974304
0.65595442056655884 0.91219079494476318 0.70014345645904541
0.67890894412994385 0.91211885213851929 0.70453542470932007
0.72729480266571045 0.9088255763053894 0.71072041988372803
0.80568969249725342 0.92197507619857788 0.68792122602462769
0.92827290296554565 0.9392198920249939 0.63462048768997192
0.0024737040512263775 0.17199957370758057 0.58931118249893188
0.3312317430973053 0.19384558498859406 0.58371007442474365
0.65358984470367432 0.21873490512371063 0.56995922327041626
0.85845565795898438 0.090390853583812714 0.48924297094345093
0.99738562107086182 0.21938090026378632 0.46421903371810913
0.019311612471938133 0.38977909088134766 0.60516893863677979
0.35494810342788696 0.38421803712844849 0.59944385290145874
0.64911365509033203 0.39455485343933105 0.57578063011169434
0.85514509677886963 0.33631303906440735 0.51254367828369141
0.9979063868522644 0.39443710446357727 0.50320231914520264
0.21557086706161499 0.59564495086669922 0.58121073246002197
0.40699595212936401 0.5921250581741333 0.58501601219177246
0.62642914056777954 0.57847636938095093 0.57138442993164062
0.83604234457015991 0.57280725240707397 0.54858553409576416
0.98803353309631348 0.59470796585083008 0.54271584749221802
0.5372849702835083 0.76569175720214844 0.65347754955291748
0.59035187959671021 0.76186257600784302 0.6540292501449585
0.66238242387771606 0.75278705358505249 0.64109188318252563
0.79494643211364746 0.76030510663986206 0.60461735725402832
0.97787314653396606 0.75446873903274536 0.53283345699310303
0.70741868019104004 0.91848641633987427 0.77038466930389404
0.71536552906036377 0.91584950685501099 0.76569283008575439
0.75650691986083984 0.91395658254623413 0.76740819215774536
0.82658445835113525 0.91962891817092896 0.7654188871383667
0.93652158975601196 0.93896663188934326 0.7289237380027771
0.2290341854095459 0.33181869983673096 0.82754158973693848
0.45614403486251831 0.36110001802444458 0.82024765014648438
0.70447790622711182 0.4259345531463623 0.80663180351257324
0.87716150283813477 0.46200668811798096 0.79558378458023071
0.98970776796340942 0.41630405187606812 0.73268646001815796
0.34045711159706116 0.47535097599029541 0.82206380367279053
0.49347695708274841 0.48822543025016785 0.81599420309066772
0.71012961864471436 0.5339089035987854 0.8030846118927002
0.86845988035202026 0.55389457941055298 0.79614335298538208
0.98377758264541626 0.5146293044090271 0.74472689628601074
0.37897887825965881 0.65280967950820923 0.7998235821723938
0.50936371088027954 0.65462982654571533 0.80051261186599731
0.69037526845932007 0.65762460231781006 0.79393178224563599
0.84750968217849731 0.67581713199615479 0.78931707143783569
0.97781211137771606 0.6347772479057312 0.75440341234207153
0.53860175609588623 0.7891961932182312 0.79149937629699707
0.59140044450759888 0.79150497913360596 0.79505342245101929
0.69946420192718506 0.78429245948791504 0.79665440320968628
0.82363647222518921 0.78292357921600342 0.79451102018356323
0.96800482273101807 0.78423237800598145 0.77588707208633423
0.72120946645736694 0.93106377124786377 0.84897822141647339
0.74320662021636963 0.92982023954391479 0.85550332069396973
0.79685831069946289 0.9267762303352356 0.85884660482406616
0.85736387968063354 0.92783945798873901 0.85471439361572266
0.94712388515472412 0.9406733512878418 0.83653706312179565
0.58175802230834961 0.56401056051254272 0.95466774702072144
0.64851874113082886 0.57734817266464233 0.9519774317741394
0.77454298734664917 0.61844223737716675 0.94172900915145874
0.89708459377288818 0.68099009990692139 0.93272757530212402
0.9839586615562439 0.70121318101882935 0.9301791787147522
0.61168867349624634 0.63107520341873169 0.95330297946929932
0.67234212160110474 0.64428150653839111 0.94805741310119629
0.78551745414733887 0.67481112480163574 0.94467246532440186
0.89521658420562744 0.71844267845153809 0.93672674894332886
0.98697459697723389 0.7311474084854126 0.93546789884567261
0.6448701024055481 0.74387097358703613 0.94774407148361206
0.68641108274459839 0.74127846956253052 0.94581031799316406
0.77828186750411987 0.74818414449691772 0.94319140911102295
0.88771903514862061 0.77531760931015015 0.93586760759353638
0.97542238235473633 0.78867924213409424 0.93324857950210571
0.63720077276229858 0.84547924995422363 0.94354075193405151
0.66891878843307495 0.84520995616912842 0.94610762596130371
0.74516487121582031 0.84223258495330811 0.94470721483230591
0.86753565073013306 0.85097324848175049 0.94310146570205688
0.96999257802963257 0.86994773149490356 0.93817788362503052
0.72248005867004395 0.95381921529769897 0.94830930233001709
0.74783933162689209 0.95435130596160889 0.95063751935958862
0.79925578832626343 0.94916409254074097 0.95003294944763184
0.8758513331413269 0.95152956247329712 0.95535802841186523
0.96508067846298218 0.9568641185760498 0.95468544960021973
