luts/negative_old/kodak_portra_160_nc_++.cube
# Created by: G'MIC (https://gmic.eu)
TITLE "kodak_portra_160_nc_++"
# LUT size
LUT_3D_SIZE 5
# Data domain
DOMAIN_MIN 0.0 0.0 0.0
DOMAIN_MAX 1.0 1.0 1.0
# LUT data points
0.067408151924610138 0.071399539709091187 0.056897033005952835
0.23672285676002502 0.07178930938243866 0.05533948540687561
0.51981061697006226 0.049112655222415924 0.042377576231956482
0.77006763219833374 0.10052141547203064 0.025906087830662727
0.9672580361366272 0.22422313690185547 0.026800597086548805
0.020834291353821754 0.22305776178836823 0.095955207943916321
0.23489873111248016 0.26926565170288086 0.044697750359773636
0.57236027717590332 0.27355760335922241 0.010375916957855225
0.79225218296051025 0.28368076682090759 0.0086111929267644882
0.97327530384063721 0.34335130453109741 0.018045507371425629
8.1858917837962508e-05 0.49362152814865112 0.21958144009113312
0.089125782251358032 0.50471174716949463 0.21152924001216888
0.48519349098205566 0.56439721584320068 0.074198178946971893
0.80591040849685669 0.55898392200469971 0.0042415694333612919
0.97891330718994141 0.52982044219970703 0.012038616463541985
0.041324406862258911 0.70643746852874756 0.38606256246566772
0.19282242655754089 0.70217299461364746 0.39083114266395569
0.40670925378799438 0.72273629903793335 0.36589273810386658
0.70400553941726685 0.76156491041183472 0.26601561903953552
0.96362477540969849 0.77726078033447266 0.18534764647483826
0.52945005893707275 0.89368581771850586 0.66262525320053101
0.55338221788406372 0.89303606748580933 0.66418957710266113
0.6144670844078064 0.89523571729660034 0.67005586624145508
0.71900171041488647 0.91806226968765259 0.64491182565689087
0.88470864295959473 0.94103288650512695 0.58850210905075073
0.070744112133979797 0.080907993018627167 0.22982549667358398
0.26543417572975159 0.078895628452301025 0.23252429068088531
0.5385366678237915 0.035656813532114029 0.21783776581287384
0.76384454965591431 0.14567777514457703 0.23081611096858978
0.95269423723220825 0.27957817912101746 0.25735336542129517
0.10207313299179077 0.26228082180023193 0.26307874917984009
0.29476207494735718 0.28819954395294189 0.28038382530212402
0.56251263618469238 0.29882392287254333 0.26732349395751953
0.77657324075698853 0.32493218779563904 0.26135686039924622
0.96075057983398438 0.3789277970790863 0.26980164647102356
0.23862682282924652 0.52895134687423706 0.38409516215324402
0.28822559118270874 0.52472424507141113 0.36528488993644714
0.52266943454742432 0.56767672300338745 0.31764331459999084
0.79521745443344116 0.55242586135864258 0.27739888429641724
0.96651506423950195 0.54736059904098511 0.27667105197906494
0.28691333532333374 0.71522051095962524 0.48727208375930786
0.32907992601394653 0.71356749534606934 0.4773261547088623
0.46066033840179443 0.72067165374755859 0.46382302045822144
0.71704548597335815 0.75986230373382568 0.40220946073532104
0.96081197261810303 0.77326244115829468 0.35882860422134399
0.56499296426773071 0.89386427402496338 0.69138777256011963
0.58417326211929321 0.89291030168533325 0.69318503141403198
0.63728064298629761 0.89435911178588867 0.69857496023178101
0.73590445518493652 0.91613620519638062 0.68103086948394775
0.89304536581039429 0.94087880849838257 0.63490670919418335
0.048687070608139038 0.11294770985841751 0.53477245569229126
0.31838366389274597 0.13133165240287781 0.54027086496353149
0.59253346920013428 0.18247948586940765 0.54845678806304932
0.78303676843643188 0.23471452295780182 0.4966728687286377
0.96661818027496338 0.28939920663833618 0.46901813149452209
0.086776137351989746 0.31156635284423828 0.55211746692657471
0.33384281396865845 0.33534917235374451 0.56013518571853638
0.59017789363861084 0.37202551960945129 0.56515300273895264
0.78443354368209839 0.38190406560897827 0.52278178930282593
0.95859754085540771 0.39359202980995178 0.49115848541259766
0.24616824090480804 0.55393582582473755 0.56065958738327026
0.38279306888580322 0.56149053573608398 0.57233357429504395
0.58675920963287354 0.58002573251724243 0.58116573095321655
0.78204047679901123 0.57387512922286987 0.54774355888366699
0.94162583351135254 0.57000720500946045 0.52744871377944946
0.47891044616699219 0.73487913608551025 0.64554792642593384
0.53245657682418823 0.7358548641204834 0.64896464347839355
0.58666056394577026 0.73274672031402588 0.63376152515411377
0.74910634756088257 0.76359301805496216 0.60702800750732422
0.95402461290359497 0.76180791854858398 0.57332402467727661
0.65742200613021851 0.89662498235702515 0.76899492740631104
0.66474121809005737 0.89806544780731201 0.76566916704177856
0.68598681688308716 0.89860957860946655 0.75633996725082397
0.76025426387786865 0.9109758734703064 0.75212198495864868
0.90174943208694458 0.94098418951034546 0.72287458181381226
0.24921664595603943 0.22528345882892609 0.77405369281768799
0.40846660733222961 0.25009310245513916 0.77805835008621216
0.63337117433547974 0.31994915008544922 0.77582806348800659
0.82568740844726562 0.38565942645072937 0.7700766921043396
0.94851648807525635 0.45007771253585815 0.73071563243865967
0.28271490335464478 0.38159826397895813 0.77470588684082031
0.41888973116874695 0.4020635187625885 0.77333670854568481
0.63404440879821777 0.44841313362121582 0.77393347024917603
0.81907898187637329 0.49499189853668213 0.77451664209365845
0.94152426719665527 0.53153878450393677 0.74102485179901123
0.24348370730876923 0.57182085514068604 0.75765663385391235
0.3844744861125946 0.57942777872085571 0.76396733522415161
0.61263418197631836 0.60878980159759521 0.76861828565597534
0.80168575048446655 0.63925421237945557 0.77494281530380249
0.93214702606201172 0.64816451072692871 0.75779539346694946
0.46501290798187256 0.75232976675033569 0.76500344276428223
0.52986055612564087 0.75225400924682617 0.77052700519561768
0.64948743581771851 0.75678592920303345 0.77633172273635864
0.78711557388305664 0.77082294225692749 0.78502798080444336
0.93366712331771851 0.76310843229293823 0.76412683725357056
0.69090425968170166 0.90779119729995728 0.84127181768417358
0.71299636363983154 0.90869599580764771 0.84444314241409302
0.76020133495330811 0.9110102653503418 0.84884971380233765
0.81096714735031128 0.91591542959213257 0.84361213445663452
0.92020761966705322 0.94228225946426392 0.83030706644058228
0.50562906265258789 0.44890394806861877 0.93665856122970581
0.57846003770828247 0.46901783347129822 0.93611395359039307
0.71189451217651367 0.5103951096534729 0.9308885931968689
0.85650861263275146 0.5845147967338562 0.92631816864013672
0.97632211446762085 0.62909907102584839 0.92550778388977051
0.52649593353271484 0.53491836786270142 0.93698662519454956
0.5877196192741394 0.54517823457717896 0.9331325888633728
0.71514332294464111 0.57720774412155151 0.92927747964859009
0.85667890310287476 0.63506358861923218 0.92729806900024414
0.97115200757980347 0.66852986812591553 0.92596089839935303
0.5094449520111084 0.64736825227737427 0.93055820465087891
0.57400780916213989 0.65547603368759155 0.93080359697341919
0.70541483163833618 0.67752856016159058 0.92711442708969116
0.84910494089126587 0.716594398021698 0.92944282293319702
0.96073436737060547 0.74573135375976562 0.92845243215560913
0.51435226202011108 0.78298056125640869 0.92383664846420288
0.55633282661437988 0.78250646591186523 0.92683553695678711
0.65014457702636719 0.77894091606140137 0.92756897211074829
0.81894713640213013 0.80592936277389526 0.93402296304702759
0.95723599195480347 0.83858686685562134 0.93409860134124756
0.67953217029571533 0.93110901117324829 0.93632018566131592
0.70361912250518799 0.9331817626953125 0.93855953216552734
0.75810819864273071 0.93314856290817261 0.94142246246337891
0.84224498271942139 0.93644076585769653 0.94863122701644897
0.9535897970199585 0.95118981599807739 0.95345228910446167
