luts/negative_old/kodak_portra_400_uc.cube
# Created by: G'MIC (https://gmic.eu)
TITLE "kodak_portra_400_uc"
# LUT size
LUT_3D_SIZE 13
# Data domain
DOMAIN_MIN 0.0 0.0 0.0
DOMAIN_MAX 1.0 1.0 1.0
# LUT data points
0.039784286171197891 0.053031653165817261 0.053404863923788071
0.070205092430114746 0.056495577096939087 0.055808961391448975
0.13158738613128662 0.06463044136762619 0.049253113567829132
0.21441633999347687 0.069358676671981812 0.042023900896310806
0.32451656460762024 0.071730263531208038 0.035724040120840073
0.4443591833114624 0.068660423159599304 0.022927168756723404
0.57740646600723267 0.046515684574842453 0.011587703600525856
0.70137500762939453 0.025142161175608635 0.0077719893306493759
0.79836535453796387 0.022196212783455849 0.0040110270492732525
0.8770143985748291 0.037572883069515228 0.003433287376537919
0.94447028636932373 0.082326881587505341 0.0037414401303976774
0.99107670783996582 0.13318005204200745 0.002650092588737607
0.99859702587127686 0.18158099055290222 0.0018027661135420203
0.024573067203164101 0.084602713584899902 0.056038934737443924
0.060029633343219757 0.094349145889282227 0.055675193667411804
0.1294867992401123 0.10472786426544189 0.046085759997367859
0.22385060787200928 0.11418575048446655 0.037630569189786911
0.33922088146209717 0.12174756079912186 0.030731754377484322
0.45611333847045898 0.11918433755636215 0.017121139913797379
0.58714663982391357 0.10932114720344543 0.0089909723028540611
0.71290367841720581 0.10020884871482849 0.0057577844709157944
0.80107474327087402 0.096610680222511292 0.0048203561455011368
0.87422269582748413 0.11608923971652985 0.0067698610946536064
0.94184297323226929 0.14497460424900055 0.0071421307511627674
0.98765277862548828 0.17923155426979065 0.0039137895219027996
0.99770677089691162 0.21677534282207489 0.0039091221988201141
0.007876317948102951 0.14278912544250488 0.06659042090177536
0.029707696288824081 0.14766871929168701 0.06425844132900238
0.096042454242706299 0.16025330126285553 0.053498242050409317
0.21348768472671509 0.17883756756782532 0.038436517119407654
0.34902480244636536 0.18669448792934418 0.021049020811915398
0.47341999411582947 0.1889701783657074 0.0097531192004680634
0.60174739360809326 0.19164671003818512 0.0063691381365060806
0.71961808204650879 0.1888338178396225 0.003826081519946456
0.80249369144439697 0.19177833199501038 0.0061151240952312946
0.87388092279434204 0.20065762102603912 0.0079647740349173546
0.93979203701019287 0.2134438157081604 0.0076640858314931393
0.9863436222076416 0.23383943736553192 0.0040226955898106098
0.99769490957260132 0.26055037975311279 0.0039215688593685627
0.0032238380517810583 0.22223012149333954 0.082670904695987701
0.0098441774025559425 0.22567085921764374 0.082291640341281891
0.04173756018280983 0.23514214158058167 0.071717582643032074
0.15781933069229126 0.26067504286766052 0.054663326591253281
0.32728290557861328 0.28096848726272583 0.025077162310481071
0.47825884819030762 0.2888912558555603 0.0072692274115979671
0.6100885272026062 0.28768479824066162 0.0063350903801620007
0.72126811742782593 0.28440997004508972 0.003767544636502862
0.80855339765548706 0.28385978937149048 0.0037854812107980251
0.87581968307495117 0.28501191735267639 0.0056255413219332695
0.93667483329772949 0.2884276807308197 0.007895241491496563
0.98324102163314819 0.3001096248626709 0.0049769831821322441
0.99686574935913086 0.31728675961494446 0.0039215688593685627
0.0029184678569436073 0.31991463899612427 0.10844609886407852
0.0072478801012039185 0.32317659258842468 0.10793629288673401
0.013188979588449001 0.33119747042655945 0.095817938446998596
0.080192968249320984 0.34746548533439636 0.078805364668369293
0.26879361271858215 0.37462261319160461 0.047690358012914658
0.45597589015960693 0.39582669734954834 0.013153180480003357
0.59952300786972046 0.39774248003959656 0.0058534960262477398
0.71453535556793213 0.3874950110912323 0.004285760223865509
0.81011223793029785 0.37440270185470581 0.0029802659992128611
0.87339949607849121 0.37045556306838989 0.0051033021882176399
0.93380284309387207 0.36816328763961792 0.0064119524322450161
0.98052722215652466 0.37671312689781189 0.0039153452962636948
0.99471771717071533 0.38891839981079102 0.0021010902710258961
0.0031086641829460859 0.41843807697296143 0.13028575479984283
0.0073808110319077969 0.42536580562591553 0.12763921916484833
0.011865070089697838 0.43304097652435303 0.12192219495773315
0.02069721557199955 0.44071558117866516 0.10985144972801208
0.17164069414138794 0.4567018449306488 0.083984658122062683
0.38243168592453003 0.47781768441200256 0.037221692502498627
0.56448030471801758 0.50021547079086304 0.0080589894205331802
0.69066148996353149 0.4976312518119812 0.0034512986894696951
0.78348278999328613 0.4808214008808136 0.0050540999509394169
0.85944229364395142 0.4679330587387085 0.0048212837427854538
0.92773383855819702 0.45585063099861145 0.0040669906884431839
0.98044639825820923 0.45482572913169861 0.002214768435806036
0.99292254447937012 0.46263980865478516 1.077091019396903e-05
0.0023472954053431749 0.51309716701507568 0.14881476759910583
0.0068277693353593349 0.52031683921813965 0.15421351790428162
0.0099851572886109352 0.52384847402572632 0.15519522130489349
0.0094841150566935539 0.52714627981185913 0.14667342603206635
0.070983439683914185 0.53609025478363037 0.1324678510427475
0.29389014840126038 0.5513419508934021 0.096861816942691803
0.48178470134735107 0.56662744283676147 0.047193266451358795
0.64385926723480225 0.58401763439178467 0.014045774936676025
0.75796759128570557 0.58434146642684937 0.0069413878954946995
0.8385847806930542 0.56989341974258423 0.0075163599103689194
0.91277468204498291 0.55339556932449341 0.0055584176443517208
0.97774827480316162 0.53810161352157593 0.0015264025423675776
0.99212992191314697 0.54345202445983887 0
0.00031690410105511546 0.59716427326202393 0.18189658224582672
0.0030453999061137438 0.60226821899414062 0.19301469624042511
0.0048169903457164764 0.60340815782546997 0.19633711874485016
0.0043737376108765602 0.60594749450683594 0.19205471873283386
0.024273920804262161 0.60902601480484009 0.18688963353633881
0.21926389634609222 0.61971402168273926 0.16685870289802551
0.40641593933105469 0.63097065687179565 0.12902748584747314
0.5720221996307373 0.64377135038375854 0.090487852692604065
0.7120206356048584 0.66077470779418945 0.046393614262342453
0.81731677055358887 0.66744011640548706 0.01912262849509716
0.89237707853317261 0.65473860502243042 0.010700405575335026
0.95690685510635376 0.63988882303237915 0.0050610112957656384
0.9922747015953064 0.63538414239883423 0.00021166334045119584
0 0.67276400327682495 0.23452204465866089
1.7113779904320836e-05 0.67677640914916992 0.24054217338562012
0.0023091484326869249 0.67849999666213989 0.24655024707317352
0.0053395740687847137 0.67864644527435303 0.25099492073059082
0.014613552019000053 0.67991876602172852 0.24764531850814819
0.17715384066104889 0.68622803688049316 0.23801757395267487
0.37146270275115967 0.69466513395309448 0.21793827414512634
0.52380537986755371 0.70282018184661865 0.19713997840881348
0.65307652950286865 0.71380168199539185 0.16926634311676025
0.77192121744155884 0.73238915205001831 0.1305859237909317
0.86848443746566772 0.74136984348297119 0.081459507346153259
0.93656748533248901 0.73240220546722412 0.030671227723360062
0.98550200462341309 0.7224125862121582 0.0083473203703761101
0.00032734591513872147 0.74378448724746704 0.29717066884040833
0.00035165523877367377 0.74326187372207642 0.30709865689277649
0.0036421832628548145 0.74442160129547119 0.31351205706596375
0.0072730421088635921 0.74573677778244019 0.31816580891609192
0.030785325914621353 0.74524426460266113 0.31693857908248901
0.20214453339576721 0.74890953302383423 0.31602165102958679
0.36786013841629028 0.75353574752807617 0.31118631362915039
0.50081497430801392 0.76048755645751953 0.30092120170593262
0.61904639005661011 0.76751768589019775 0.28008878231048584
0.72889387607574463 0.77837592363357544 0.25850951671600342
0.82970941066741943 0.79357808828353882 0.24062268435955048
0.9105873703956604 0.80147665739059448 0.20983852446079254
0.96804243326187134 0.79680150747299194 0.14588178694248199
0.0089105945080518723 0.80972158908843994 0.38496118783950806
0.017436772584915161 0.80905413627624512 0.3850615918636322
0.030662776902318001 0.80862724781036377 0.38635319471359253
0.074211180210113525 0.80959182977676392 0.39139115810394287
0.18265683948993683 0.80822044610977173 0.40040293335914612
0.29833921790122986 0.80662214756011963 0.40701985359191895
0.40127748250961304 0.80858838558197021 0.40902093052864075
0.51413643360137939 0.81375610828399658 0.40432301163673401
0.60889822244644165 0.81975305080413818 0.38822251558303833
0.70100122690200806 0.82574021816253662 0.37320214509963989
0.79055655002593994 0.83317238092422485 0.36239588260650635
0.87146317958831787 0.84348201751708984 0.35773631930351257
0.94199866056442261 0.85304915904998779 0.34994819760322571
0.22668188810348511 0.86665838956832886 0.49113565683364868
0.25136479735374451 0.86635464429855347 0.49336919188499451
0.28461629152297974 0.8663601279258728 0.49806278944015503
0.32625702023506165 0.86492383480072021 0.50352281332015991
0.37831223011016846 0.86304271221160889 0.50965464115142822
0.43257182836532593 0.86223971843719482 0.5134088397026062
0.49132391810417175 0.86287271976470947 0.51686292886734009
0.56285268068313599 0.86700147390365601 0.51623094081878662
0.63538855314254761 0.87030833959579468 0.50836670398712158
0.70522844791412354 0.87328493595123291 0.50267380475997925
0.78264987468719482 0.87869346141815186 0.49631392955780029
0.85353022813796997 0.88453596830368042 0.48752567172050476
0.91220629215240479 0.8942101001739502 0.49210229516029358
0.47980251908302307 0.91642600297927856 0.61915373802185059
0.48944050073623657 0.91645383834838867 0.62110435962677002
0.50284856557846069 0.91629451513290405 0.62269043922424316
0.51574450731277466 0.91467756032943726 0.62627804279327393
0.53709334135055542 0.91348069906234741 0.63085687160491943
0.57061660289764404 0.91339743137359619 0.63601529598236084
0.6089242696762085 0.91390413045883179 0.64228945970535278
0.65173625946044922 0.91689169406890869 0.64309400320053101
0.69444006681442261 0.91840970516204834 0.63813316822052002
0.73973363637924194 0.92042309045791626 0.63166987895965576
0.79319894313812256 0.92717933654785156 0.63442140817642212
0.85171562433242798 0.93172657489776611 0.62907809019088745
0.8996545672416687 0.93773549795150757 0.63165628910064697
0.033819027245044708 0.055082716047763824 0.085920073091983795
0.069958768784999847 0.059755109250545502 0.089535236358642578
0.13503772020339966 0.058157362043857574 0.088807962834835052
0.21707941591739655 0.04681256040930748 0.081226661801338196
0.32275682687759399 0.044914588332176208 0.078215189278125763
0.44700416922569275 0.042439211159944534 0.071890495717525482
0.5827033519744873 0.026594871655106544 0.057922903448343277
0.70204883813858032 0.015917818993330002 0.039919160306453705
0.79962044954299927 0.016749856993556023 0.027424920350313187
0.87613457441329956 0.036736641079187393 0.021912489086389542
0.94254046678543091 0.075810357928276062 0.015085511840879917
0.99078965187072754 0.13267426192760468 0.0080411126837134361
0.99980646371841431 0.18063627183437347 0.0052357395179569721
0.025194877758622169 0.096735812723636627 0.094385333359241486
0.066558212041854858 0.10514555126428604 0.095880962908267975
0.13788594305515289 0.10579279065132141 0.08843790739774704
0.22826240956783295 0.10389525443315506 0.082374542951583862
0.3385874330997467 0.10958244651556015 0.07926863431930542
0.45795056223869324 0.1085231676697731 0.067654795944690704
0.59241783618927002 0.099034868180751801 0.052364066243171692
0.713295578956604 0.092879444360733032 0.035507515072822571
0.80131858587265015 0.094106130301952362 0.025134846568107605
0.87490236759185791 0.11355719715356827 0.020108764991164207
0.94298171997070312 0.14138655364513397 0.013492434285581112
0.98938226699829102 0.17558380961418152 0.0060005937702953815
0.99855256080627441 0.21390487253665924 0.0057198470458388329
0.0084824506193399429 0.15753154456615448 0.11058510839939117
0.040571518242359161 0.16251100599765778 0.10840301215648651
0.11393169313669205 0.16824375092983246 0.098863162100315094
0.22649911046028137 0.17687141895294189 0.085540950298309326
0.35158026218414307 0.18256071209907532 0.067415975034236908
0.47966876626014709 0.18540717661380768 0.050647512078285217
0.61149108409881592 0.18606053292751312 0.034974146634340286
0.72096890211105347 0.18476967513561249 0.022550590336322784
0.8061983585357666 0.18756900727748871 0.015475718304514885
0.87636405229568481 0.19777974486351013 0.014444837346673012
0.94132035970687866 0.21068195998668671 0.012127251364290714
0.98878610134124756 0.23208852112293243 0.0045434539206326008
0.99857693910598755 0.26123219728469849 0.0045068627223372459
0.0039786994457244873 0.2365337610244751 0.12793992459774017
0.011725900694727898 0.23776304721832275 0.12640750408172607
0.05713939294219017 0.24220019578933716 0.11816497147083282
0.18921390175819397 0.26362794637680054 0.10297833383083344
0.34358423948287964 0.28047528862953186 0.072723954916000366
0.49286514520645142 0.28521832823753357 0.040318313986063004
0.62755459547042847 0.28075957298278809 0.018092824146151543
0.72440838813781738 0.28167432546615601 0.015050850808620453
0.8083794116973877 0.2795957624912262 0.010558184236288071
0.8774229884147644 0.27871650457382202 0.012575127184391022
0.93915438652038574 0.28595545887947083 0.011826368980109692
0.98661303520202637 0.29896849393844604 0.0044007995165884495
0.99808347225189209 0.31917241215705872 0.0035346385557204485
0.0023733549751341343 0.33069238066673279 0.14967572689056396
0.0063191731460392475 0.33340421319007874 0.15114079415798187
0.019346363842487335 0.33741092681884766 0.14382095634937286
0.10183084756135941 0.35417342185974121 0.13054604828357697
0.28516161441802979 0.37762913107872009 0.10239477455615997
0.46878400444984436 0.39537596702575684 0.055410467088222504
0.61401641368865967 0.39225757122039795 0.023031482473015785
0.72294741868972778 0.38374727964401245 0.010528863407671452
0.80987763404846191 0.37210008502006531 0.0072593241930007935
0.87710607051849365 0.36586740612983704 0.010566831566393375
0.93716853857040405 0.36510744690895081 0.010171987116336823
0.98299127817153931 0.37573117017745972 0.0047590965405106544
0.99502104520797729 0.39035186171531677 0.0023542216513305902
0.0030229007825255394 0.42971181869506836 0.1713615357875824
0.0073293647728860378 0.43596497178077698 0.17651931941509247
0.011857904493808746 0.43829634785652161 0.17098639905452728
0.032801683992147446 0.44531518220901489 0.1598135381937027
0.19806279242038727 0.4626319408416748 0.13926587998867035
0.40231737494468689 0.48523595929145813 0.094514839351177216
0.57623934745788574 0.50021690130233765 0.047857470810413361
0.69922786951065063 0.4970957338809967 0.014401528984308243
0.79328626394271851 0.48017331957817078 0.0092294877395033836
0.86767077445983887 0.46466052532196045 0.0093780513852834702
0.9324834942817688 0.45527878403663635 0.0066602220758795738
0.98150259256362915 0.4548206627368927 0.0037785249296575785
0.99443429708480835 0.46610677242279053 0.0033040214329957962
0.0021617815364152193 0.52257347106933594 0.18622080981731415
0.0049561592750251293 0.52785968780517578 0.1965067982673645
0.0078354477882385254 0.52999997138977051 0.19810321927070618
0.0091905780136585236 0.53212440013885498 0.19262602925300598
0.10076859593391418 0.54028159379959106 0.17942002415657043
0.32085129618644714 0.55641233921051025 0.14791736006736755
0.49969092011451721 0.56976771354675293 0.11220188438892365
0.6525338888168335 0.5853075385093689 0.067157715559005737
0.76663851737976074 0.58755677938461304 0.024559648707509041
0.84727901220321655 0.5711294412612915 0.011350908316671848
0.91830044984817505 0.55559360980987549 0.0078101512044668198
0.97306293249130249 0.54478234052658081 0.0037179684732109308
0.99279701709747314 0.54942375421524048 0.0014606700278818607
2.1287507479428314e-05 0.60415631532669067 0.21758529543876648
0.0012047861237078905 0.60977965593338013 0.22710508108139038
0.0032509597949683666 0.60991400480270386 0.23131859302520752
0.0040736328810453415 0.60833209753036499 0.23109264671802521
0.044759608805179596 0.61159223318099976 0.22487081587314606
0.25106343626976013 0.62191104888916016 0.20976096391677856
0.42815390229225159 0.63088309764862061 0.18653658032417297
0.58832049369812012 0.64644151926040649 0.1533256322145462
0.72196763753890991 0.66510212421417236 0.11059918999671936
0.82331216335296631 0.66981703042984009 0.056307714432477951
0.89666223526000977 0.65691536664962769 0.017170490697026253
0.95656448602676392 0.64321041107177734 0.0096341753378510475
0.99232953786849976 0.63554894924163818 0.0021000730339437723
0.00021812588965985924 0.67775285243988037 0.26357075572013855
0.0016740985447540879 0.68073815107345581 0.26992741227149963
0.0029917699284851551 0.68143218755722046 0.2728026807308197
0.0062869503162801266 0.68101584911346436 0.27700531482696533
0.027220362797379494 0.68084323406219482 0.27665740251541138
0.21164146065711975 0.68686968088150024 0.27114540338516235
0.38282778859138489 0.69462692737579346 0.26119917631149292
0.53552871942520142 0.70395147800445557 0.23992776870727539
0.66788375377655029 0.71885371208190918 0.2119230180978775
0.78198873996734619 0.73680669069290161 0.18199741840362549
0.86938536167144775 0.74100333452224731 0.13268133997917175
0.93718153238296509 0.73161107301712036 0.06459471583366394
0.9865344762802124 0.72041726112365723 0.021106166765093803
0.0011924444697797298 0.74468088150024414 0.3270781934261322
0.0032388425897806883 0.74602001905441284 0.3302149772644043
0.0058103674091398716 0.7464640736579895 0.33123186230659485
0.0082795536145567894 0.74717205762863159 0.33391118049621582
0.066985279321670532 0.74703586101531982 0.33827659487724304
0.23798589408397675 0.74889576435089111 0.34121906757354736
0.38667458295822144 0.75531649589538574 0.33525362610816956
0.50961935520172119 0.76167947053909302 0.32249334454536438
0.62225997447967529 0.77029949426651001 0.30666542053222656
0.73091459274291992 0.78169029951095581 0.29186311364173889
0.83013665676116943 0.79487735033035278 0.27867013216018677
0.91011935472488403 0.80069583654403687 0.25204271078109741
0.96996766328811646 0.79701310396194458 0.19779706001281738
0.020017810165882111 0.81037330627441406 0.40020909905433655
0.030054952949285507 0.8091093897819519 0.40085208415985107
0.051082536578178406 0.80948799848556519 0.40304842591285706
0.11770849674940109 0.80988419055938721 0.40883475542068481
0.22657139599323273 0.80698597431182861 0.41989609599113464
0.32825383543968201 0.80651766061782837 0.42676302790641785
0.42832866311073303 0.81038999557495117 0.42449060082435608
0.53039151430130005 0.81514978408813477 0.41891291737556458
0.61827874183654785 0.81924271583557129 0.41002771258354187
0.70461428165435791 0.82481396198272705 0.39800384640693665
0.78930985927581787 0.83309638500213623 0.38823756575584412
0.87479907274246216 0.84520596265792847 0.38722681999206543
0.94354671239852905 0.85347294807434082 0.37713974714279175
0.25735881924629211 0.86676377058029175 0.50330609083175659
0.27694126963615417 0.86674040555953979 0.50674706697463989
0.30875813961029053 0.86675834655761719 0.51057547330856323
0.35013851523399353 0.86481213569641113 0.5163646936416626
0.39754214882850647 0.86243683099746704 0.52232909202575684
0.4537622332572937 0.8618277907371521 0.53029382228851318
0.51680421829223633 0.86368924379348755 0.531727135181427
0.57845354080200195 0.86715513467788696 0.52894043922424316
0.64477521181106567 0.87035584449768066 0.52521771192550659
0.71778023242950439 0.87376803159713745 0.51860952377319336
0.78497922420501709 0.87854164838790894 0.51436734199523926
0.84970730543136597 0.88502281904220581 0.50867390632629395
0.90955322980880737 0.89311903715133667 0.50651639699935913
0.48577186465263367 0.91636031866073608 0.62623018026351929
0.49490195512771606 0.91596591472625732 0.62673074007034302
0.50985229015350342 0.9160228967666626 0.62962043285369873
0.52790158987045288 0.9156070351600647 0.63402605056762695
0.54918819665908813 0.9134596586227417 0.63818717002868652
0.58227646350860596 0.91353803873062134 0.64592587947845459
0.61916577816009521 0.91355746984481812 0.64647877216339111
0.65433961153030396 0.91676312685012817 0.64920538663864136
0.69972401857376099 0.91973650455474854 0.65027260780334473
0.74602007865905762 0.92182666063308716 0.64428550004959106
0.79757881164550781 0.92735505104064941 0.64556390047073364
0.8499566912651062 0.9316709041595459 0.64052677154541016
0.89848077297210693 0.93714147806167603 0.63856202363967896
0.021591097116470337 0.057807877659797668 0.14727698266506195
0.073329180479049683 0.063556388020515442 0.15950219333171844
0.1386810839176178 0.062232207506895065 0.16455988585948944
0.22084848582744598 0.051320724189281464 0.15620656311511993
0.31450456380844116 0.0348484106361866 0.14668790996074677
0.44617098569869995 0.015843439847230911 0.141890749335289
0.58814597129821777 0.0088722081854939461 0.13878953456878662
0.70417028665542603 0.0097885727882385254 0.12283091992139816
0.79744791984558105 0.020129021257162094 0.12287844717502594
0.87523055076599121 0.041357226669788361 0.11548080295324326
0.9381110668182373 0.093014240264892578 0.099741272628307343
0.9871748685836792 0.14655761420726776 0.086219653487205505
0.9986501932144165 0.19512474536895752 0.079890534281730652
0.013834875077009201 0.10616565495729446 0.15349572896957397
0.062155060470104218 0.11253247410058975 0.16073542833328247
0.13642776012420654 0.11355108767747879 0.16578513383865356
0.22232121229171753 0.10872349143028259 0.16119851171970367
0.3256392776966095 0.100693479180336 0.15216556191444397
0.45916679501533508 0.079842813313007355 0.14622491598129272
0.59720182418823242 0.068746082484722137 0.14077730476856232
0.71284246444702148 0.074785776436328888 0.13222126662731171
0.80167365074157715 0.095895387232303619 0.12395245581865311
0.87495094537734985 0.11853471398353577 0.10823054611682892
0.94019973278045654 0.15199802815914154 0.09220617264509201
0.98602372407913208 0.18737173080444336 0.078733824193477631
0.99763661623001099 0.22429977357387543 0.0673857182264328
0.0045080147683620453 0.16771870851516724 0.16305015981197357
0.043688531965017319 0.17301276326179504 0.16668480634689331
0.12351355701684952 0.18024519085884094 0.17213878035545349
0.22164368629455566 0.18065662682056427 0.16891923546791077
0.34664642810821533 0.18406423926353455 0.16009192168712616
0.48518908023834229 0.18624819815158844 0.15090097486972809
0.61662012338638306 0.18248151242733002 0.13520921766757965
0.72043460607528687 0.18296867609024048 0.1223427876830101
0.80570733547210693 0.18906326591968536 0.1080586165189743
0.87716448307037354 0.20054024457931519 0.094268873333930969
0.94046443700790405 0.21695020794868469 0.08002365380525589
0.98702216148376465 0.24252447485923767 0.064815819263458252
0.99792569875717163 0.27183961868286133 0.054137915372848511
0.0036745856050401926 0.25234410166740417 0.18454395234584808
0.021328555420041084 0.25281885266304016 0.18290938436985016
0.10210198909044266 0.26002615690231323 0.18688495457172394
0.21388497948646545 0.26758003234863281 0.18092209100723267
0.36288091540336609 0.28365665674209595 0.16988393664360046
0.50779038667678833 0.28664815425872803 0.14434272050857544
0.63304471969604492 0.27940088510513306 0.11535101383924484
0.72679817676544189 0.28129887580871582 0.1001666784286499
0.80875265598297119 0.28034919500350952 0.088252231478691101
0.87975931167602539 0.280557781457901 0.074391007423400879
0.94004666805267334 0.29000338912010193 0.063352771103382111
0.98821425437927246 0.30474483966827393 0.054150570183992386
0.9981568455696106 0.32737916707992554 0.043931938707828522
0.00592015590518713 0.35002106428146362 0.21508722007274628
0.0098137501627206802 0.35426428914070129 0.2145359069108963
