luts/negative_old/kodak_portra_400_vc_++.cube
# Created by: G'MIC (https://gmic.eu)
TITLE "kodak_portra_400_vc_++"
# LUT size
LUT_3D_SIZE 5
# Data domain
DOMAIN_MIN 0.0 0.0 0.0
DOMAIN_MAX 1.0 1.0 1.0
# LUT data points
0.083080247044563293 0.094660200178623199 0.075386270880699158
0.21458517014980316 0.093129895627498627 0.069656401872634888
0.55373352766036987 0.07403748482465744 0.026218084618449211
0.83784323930740356 0.084056958556175232 0.0032136207446455956
0.98267477750778198 0.17019571363925934 0.00020303165365476161
0.044869888573884964 0.20655339956283569 0.085891902446746826
0.21009765565395355 0.23552064597606659 0.06309846043586731
0.63423210382461548 0.29381006956100464 0.0034902684856206179
0.85262840986251831 0.27541905641555786 0.0059217712841928005
0.99004971981048584 0.29082819819450378 0.0022191365715116262
0 0.53289538621902466 0.12481848150491714
0.047591608017683029 0.53807342052459717 0.12263086438179016
0.53520661592483521 0.58498328924179077 0.013697455637156963
0.84443068504333496 0.55554711818695068 0.0016902849311009049
0.99261701107025146 0.49118554592132568 0
0.19190992414951324 0.72311025857925415 0.37939733266830444
0.30105087161064148 0.7153441309928894 0.38447415828704834
0.49468880891799927 0.72104734182357788 0.36678645014762878
0.73692077398300171 0.74243271350860596 0.3034624457359314
0.96206086874008179 0.74574226140975952 0.1661846935749054
0.62094151973724365 0.85854101181030273 0.64915376901626587
0.64360666275024414 0.85682457685470581 0.65481352806091309
0.69585502147674561 0.855674147605896 0.6548534631729126
0.77951270341873169 0.87339252233505249 0.64880472421646118
0.90103185176849365 0.89348584413528442 0.62367016077041626
0.052749693393707275 0.097490184009075165 0.21320842206478119
0.22892537713050842 0.08565627783536911 0.21330341696739197
0.59207016229629517 0.0021376516669988632 0.18688277900218964
0.8411184549331665 0.0045890957117080688 0.13320076465606689
0.9838135838508606 0.11714160442352295 0.083873838186264038
0.018769672140479088 0.25210803747177124 0.24072009325027466
0.27097043395042419 0.26828649640083313 0.25954699516296387
0.64031720161437988 0.25636535882949829 0.20822867751121521
0.85070633888244629 0.25633904337882996 0.13913492858409882
0.98854899406433105 0.28017625212669373 0.072487175464630127
0.10594723373651505 0.58127546310424805 0.36485913395881653
0.28017270565032959 0.57008618116378784 0.3596150279045105
0.57639765739440918 0.58864080905914307 0.31275814771652222
0.84980195760726929 0.55091840028762817 0.18267562985420227
0.98860234022140503 0.49321210384368896 0.073643311858177185
0.37880578637123108 0.72676080465316772 0.49482235312461853
0.44703158736228943 0.72039186954498291 0.49526330828666687
0.55517244338989258 0.7207798957824707 0.48672592639923096
0.7514188289642334 0.74199032783508301 0.45683455467224121
0.95382046699523926 0.74463176727294922 0.3813721239566803
0.64485585689544678 0.85937368869781494 0.67895960807800293
0.66525846719741821 0.85534429550170898 0.68008565902709961
0.71173959970474243 0.85775542259216309 0.68092530965805054
0.78676897287368774 0.87012135982513428 0.67427980899810791
0.89781028032302856 0.89369726181030273 0.66389572620391846
0.0014964683214202523 0.10935433954000473 0.5680161714553833
0.22414243221282959 0.079654023051261902 0.57906877994537354
0.61965692043304443 0.018441786989569664 0.59024178981781006
0.86513125896453857 0.068490259349346161 0.50712782144546509
0.99310493469238281 0.10773494839668274 0.41392228007316589
0.004108040127903223 0.31350070238113403 0.58210855722427368
0.2474125474691391 0.31206992268562317 0.60065251588821411
0.63230103254318237 0.34091809391975403 0.59739309549331665
0.84707313776016235 0.35941430926322937 0.5306166410446167
0.98180437088012695 0.33620411157608032 0.45036867260932922
0.13274990022182465 0.6038593053817749 0.60248386859893799
0.4120367169380188 0.60230839252471924 0.60719567537307739
0.62577742338180542 0.59157437086105347 0.60691201686859131
0.81487399339675903 0.59076219797134399 0.56946533918380737
0.95969915390014648 0.5522531270980835 0.49444118142127991
0.54619425535202026 0.74466001987457275 0.65591484308242798
0.59466248750686646 0.74208039045333862 0.65353220701217651
0.658702552318573 0.73194402456283569 0.6418832540512085
0.78189688920974731 0.74605458974838257 0.63367193937301636
0.94705581665039062 0.73710530996322632 0.58244520425796509
0.68572783470153809 0.86490917205810547 0.73414713144302368
0.70695656538009644 0.86620122194290161 0.73698407411575317
0.73857277631759644 0.86285918951034546 0.73246461153030396
0.80246692895889282 0.86679261922836304 0.73367899656295776
0.90857237577438354 0.89742827415466309 0.72696232795715332
0.0040435041300952435 0.18574114143848419 0.76992690563201904
0.2140214592218399 0.19605638086795807 0.77213484048843384
0.56834685802459717 0.25373995304107666 0.76756197214126587
0.82309550046920776 0.33809497952461243 0.76213020086288452
0.95771104097366333 0.43796035647392273 0.72060668468475342
0.04504719004034996 0.35808801651000977 0.77000576257705688
0.32131162285804749 0.38416317105293274 0.76659327745437622
0.60049402713775635 0.4326835572719574 0.76211047172546387
0.8209221363067627 0.48153972625732422 0.76334315538406372
0.94723188877105713 0.54338419437408447 0.73330718278884888
0.25086274743080139 0.58650714159011841 0.74918460845947266
0.42578327655792236 0.59734511375427246 0.75024211406707764
0.61677002906799316 0.60593080520629883 0.75646603107452393
0.80986768007278442 0.63337892293930054 0.75881767272949219
0.93838751316070557 0.64326655864715576 0.73856359720230103
0.54186713695526123 0.75435417890548706 0.76603871583938599
0.59187144041061401 0.7514985203742981 0.76696109771728516
0.6922258734703064 0.75132900476455688 0.77115762233734131
0.80760639905929565 0.75617915391921997 0.76996243000030518
0.93280774354934692 0.74393337965011597 0.74266225099563599
0.70304214954376221 0.87834781408309937 0.81324964761734009
0.73073160648345947 0.88069206476211548 0.8145328164100647
0.76832765340805054 0.8778148889541626 0.81692028045654297
0.82307332754135132 0.88092058897018433 0.80922573804855347
0.91877800226211548 0.89791017770767212 0.80536389350891113
0.38971415162086487 0.44528752565383911 0.9021296501159668
0.49161466956138611 0.4599546492099762 0.90032267570495605
0.66221219301223755 0.50531458854675293 0.89767938852310181
0.82557475566864014 0.56776201725006104 0.8910556435585022
0.9474714994430542 0.59913837909698486 0.88898009061813354
0.47167572379112244 0.54140561819076538 0.90121740102767944
0.54179137945175171 0.54472905397415161 0.8975226879119873
0.67802101373672485 0.57064533233642578 0.89166790246963501
0.82744556665420532 0.61053544282913208 0.89133661985397339
0.94194585084915161 0.63933390378952026 0.88943940401077271
0.54207003116607666 0.66428935527801514 0.89269369840621948
0.59286433458328247 0.66309309005737305 0.89174175262451172
0.68903368711471558 0.66934484243392944 0.88964462280273438
0.82682996988296509 0.68502026796340942 0.89019650220870972
0.94066888093948364 0.70889341831207275 0.88985884189605713
0.56236857175827026 0.77176129817962646 0.89055252075195312
0.59997814893722534 0.77103656530380249 0.88956034183502197
0.67681503295898438 0.76789915561676025 0.89216476678848267
0.80874955654144287 0.77614843845367432 0.89781790971755981
0.94068020582199097 0.7942500114440918 0.90205985307693481
0.6880108118057251 0.90090715885162354 0.90975326299667358
0.70343732833862305 0.9054189920425415 0.9129260778427124
0.7559778094291687 0.90557873249053955 0.91168713569641113
0.83062756061553955 0.90555769205093384 0.91405737400054932
0.93329429626464844 0.90914064645767212 0.92088204622268677
