luts/negative_old/kodak_portra_400_vc.cube
# Created by: G'MIC (https://gmic.eu)
TITLE "kodak_portra_400_vc"
# LUT size
LUT_3D_SIZE 13
# Data domain
DOMAIN_MIN 0.0 0.0 0.0
DOMAIN_MAX 1.0 1.0 1.0
# LUT data points
0.031072638928890228 0.055320229381322861 0.058923445641994476
0.061563946306705475 0.056530613452196121 0.058879297226667404
0.1353437751531601 0.062617450952529907 0.053974151611328125
0.21562553942203522 0.067634671926498413 0.047657415270805359
0.31327909231185913 0.076823107898235321 0.040132127702236176
0.43040171265602112 0.074845321476459503 0.031917273998260498
0.54981297254562378 0.0647239089012146 0.018860252574086189
0.65729713439941406 0.056342225521802902 0.0057544931769371033
0.74199694395065308 0.066872403025627136 0.007062066812068224
0.81371182203292847 0.096062108874320984 0.0044867121614515781
0.87522232532501221 0.12710143625736237 0.0056341434828937054
0.93497639894485474 0.16201822459697723 0.0037949355319142342
0.98517876863479614 0.20098720490932465 0.0003735710633918643
0.023101851344108582 0.087664298713207245 0.066036790609359741
0.055250998586416245 0.092853635549545288 0.06413625180721283
0.1315118819475174 0.10207678377628326 0.056909028440713882
0.22519916296005249 0.10939379036426544 0.045579560101032257
0.33129578828811646 0.12084416300058365 0.032647509127855301
0.44603145122528076 0.12075590342283249 0.018560238182544708
0.56791430711746216 0.1215345486998558 0.010846440680325031
0.67135059833526611 0.12055976688861847 0.0079092290252447128
0.75167477130889893 0.12682858109474182 0.0067808562889695168
0.82209402322769165 0.14073629677295685 0.0039968304336071014
0.88078606128692627 0.16439774632453918 0.0047373604029417038
0.93906891345977783 0.1921699196100235 0.0035203970037400723
0.98961007595062256 0.21616180241107941 0.00085684086661785841
0.0074016195721924305 0.15325282514095306 0.083758153021335602
0.026973290368914604 0.15259547531604767 0.079503662884235382
0.10401126742362976 0.16681462526321411 0.067687541246414185
0.21768948435783386 0.18099202215671539 0.046290528029203415
0.34652766585350037 0.1907312273979187 0.024123381823301315
0.47242528200149536 0.19287014007568359 0.0095287095755338669
0.59336650371551514 0.19949930906295776 0.005343717522919178
0.68938922882080078 0.2013837993144989 0.0049393298104405403
0.76220226287841797 0.20683468878269196 0.0057779350318014622
0.82831966876983643 0.21149763464927673 0.0049156788736581802
0.8859131932258606 0.22132021188735962 0.0045884824357926846
0.94208461046218872 0.24031616747379303 0.0026779025793075562
0.98779100179672241 0.26037809252738953 0.00076057581463828683
0.0040330025367438793 0.23685824871063232 0.10849727690219879
0.01057903841137886 0.23592135310173035 0.10507521033287048
0.050457164645195007 0.24125947058200836 0.093877591192722321
0.17644675076007843 0.26317939162254333 0.068524725735187531
0.33962187170982361 0.29342123866081238 0.02786591462790966
0.49209490418434143 0.29917758703231812 0.0077320770360529423
0.6197894811630249 0.29709848761558533 0.0033432904165238142
0.71030312776565552 0.29159396886825562 0.003999627660959959
0.77686917781829834 0.29237821698188782 0.0052811265923082829
0.83728140592575073 0.28978267312049866 0.006720823235809803
0.89469337463378906 0.29187020659446716 0.0068820132873952389
0.94796240329742432 0.29846838116645813 0.0031922883354127407
0.98999941349029541 0.31125900149345398 0.00077574484748765826
0.0015701742377132177 0.3294159471988678 0.13489818572998047
0.0046558305621147156 0.331348717212677 0.13579529523849487
0.011262811720371246 0.33691474795341492 0.13056635856628418
0.1166035383939743 0.35846415162086487 0.11036431044340134
0.29746302962303162 0.38825631141662598 0.07238895446062088
0.47631090879440308 0.41532611846923828 0.01744588278234005
0.61343538761138916 0.4150356650352478 0.0046548284590244293
0.71370047330856323 0.39577701687812805 0.0031448663212358952
0.78665763139724731 0.37784665822982788 0.0032446617260575294
0.84683370590209961 0.36815735697746277 0.0047331717796623707
0.90303760766983032 0.3669256865978241 0.0039087631739675999
0.95487546920776367 0.36858922243118286 0.0013327953638508916
0.99258995056152344 0.37100252509117126 0.00089211558224633336
1.077091019396903e-05 0.43220680952072144 0.17081323266029358
0.00067198509350419044 0.43504029512405396 0.17493650317192078
0.0032499574590474367 0.43861603736877441 0.17346470057964325
0.066975116729736328 0.44841009378433228 0.16004632413387299
0.2490556538105011 0.46792116761207581 0.13100625574588776
0.41802307963371277 0.49010756611824036 0.084320113062858582
0.57652091979980469 0.51114672422409058 0.023909669369459152
0.69157588481903076 0.50866067409515381 0.0030959185678511858
0.77132713794708252 0.48636522889137268 0.0037093367427587509
0.84741467237472534 0.45988911390304565 0.0030120101291686296
0.90844762325286865 0.44523966312408447 0.0012035444378852844
0.95827114582061768 0.44233414530754089 5.5829215853009373e-05
0.99188882112503052 0.44205734133720398 0.00049007637426257133
0 0.52160978317260742 0.210527703166008
0.00054472382180392742 0.5227055549621582 0.21887956559658051
0.0045801051892340183 0.52277505397796631 0.2190462052822113
0.042861398309469223 0.52501821517944336 0.21059814095497131
0.2208884209394455 0.53755003213882446 0.19091182947158813
0.37953177094459534 0.55327516794204712 0.16087262332439423
0.51801955699920654 0.57166206836700439 0.11177169531583786
0.65262508392333984 0.59206140041351318 0.049666654318571091
0.75274085998535156 0.58930325508117676 0.010121364146471024
0.82901012897491455 0.56432700157165527 0.0064077936112880707
0.89623987674713135 0.54136967658996582 0.0044414745643734932
0.95798748731613159 0.52326756715774536 0.0016458099707961082
0.99360436201095581 0.5148966908454895 0.00025087245739996433
0.0002381119120400399 0.59774488210678101 0.25612008571624756
7.0519541623070836e-05 0.59766656160354614 0.2648327648639679
0.0025881598703563213 0.59580045938491821 0.26434147357940674
0.065285131335258484 0.59482228755950928 0.26124173402786255
0.22248347103595734 0.6010972261428833 0.25300171971321106
0.35615700483322144 0.61275666952133179 0.23379474878311157
0.47789168357849121 0.62614220380783081 0.20705774426460266
0.59649962186813354 0.641548752784729 0.16452880203723907
0.71107786893844604 0.65753078460693359 0.10568289458751678
0.80727487802505493 0.66006523370742798 0.045870449393987656
0.87928003072738647 0.6426929235458374 0.016789829358458519
0.94346410036087036 0.62006992101669312 0.0055071511305868626
0.98630267381668091 0.60443425178527832 0.0036388919688761234
0.0051182913593947887 0.66713392734527588 0.30986705422401428
0.01469096727669239 0.66741675138473511 0.31509044766426086
0.061068203300237656 0.66525131464004517 0.31516414880752563
0.15858983993530273 0.66057252883911133 0.31713363528251648
0.26640200614929199 0.66064143180847168 0.31417852640151978
0.36758434772491455 0.66800075769424438 0.30541142821311951
0.46304884552955627 0.67814207077026367 0.29202646017074585
0.56320053339004517 0.69100356101989746 0.26591688394546509
0.66860431432723999 0.70622932910919189 0.22857484221458435
0.77002853155136108 0.72192341089248657 0.18842099606990814
0.85802304744720459 0.7254941463470459 0.13396193087100983
0.92621040344238281 0.71130675077438354 0.072041019797325134
0.98024046421051025 0.69457650184631348 0.028392521664500237
0.13826324045658112 0.72887241840362549 0.37808236479759216
0.16915836930274963 0.72800076007843018 0.3798624575138092
0.21628458797931671 0.72554749250411987 0.38466981053352356
0.2696165144443512 0.72097569704055786 0.38573867082595825
0.33431240916252136 0.71842420101165771 0.38505452871322632
0.40514233708381653 0.72295337915420532 0.3787568211555481
0.47508987784385681 0.73086965084075928 0.37013256549835205
0.55283302068710327 0.74136179685592651 0.35821887850761414
0.6359291672706604 0.7527344822883606 0.33679428696632385
0.72136712074279785 0.76214301586151123 0.31060323119163513
0.81189823150634766 0.77439534664154053 0.28364482522010803
0.89942753314971924 0.78125244379043579 0.249676913022995
0.96603101491928101 0.77529138326644897 0.20375895500183105
0.3243737518787384 0.78598207235336304 0.46035891771316528
0.32510882616043091 0.7827526330947876 0.46141248941421509
0.35251298546791077 0.78129810094833374 0.46597591042518616
0.38631299138069153 0.77730059623718262 0.46411269903182983
0.41972309350967407 0.77477359771728516 0.46084120869636536
0.46604806184768677 0.77642565965652466 0.46057558059692383
0.51628392934799194 0.78155404329299927 0.45651203393936157
0.57015758752822876 0.78915536403656006 0.44734922051429749
0.63456141948699951 0.79761016368865967 0.43780714273452759
0.70752054452896118 0.8067314624786377 0.42302361130714417
0.77944052219390869 0.81465655565261841 0.40421929955482483
0.86443477869033813 0.82767462730407715 0.38493621349334717
0.94233435392379761 0.8373979926109314 0.36853620409965515
0.45615077018737793 0.83990496397018433 0.55138516426086426
0.45902559161186218 0.83752989768981934 0.54895031452178955
0.47525724768638611 0.83658087253570557 0.55194008350372314
0.49855867028236389 0.83465123176574707 0.55562573671340942
0.51854199171066284 0.8325229287147522 0.55618512630462646
0.54418092966079712 0.83111929893493652 0.55811750888824463
0.58225059509277344 0.83421272039413452 0.55402547121047974
0.62062615156173706 0.83916407823562622 0.54752635955810547
0.66721206903457642 0.84585922956466675 0.54028671979904175
0.71912574768066406 0.85477006435394287 0.53407478332519531
0.77745366096496582 0.86144161224365234 0.52166926860809326
0.84068179130554199 0.86921334266662598 0.5087512731552124
0.91184395551681519 0.88086313009262085 0.49527445435523987
0.57537037134170532 0.89278364181518555 0.65107488632202148
0.58082693815231323 0.89318054914474487 0.65076816082000732
0.5898594856262207 0.89241588115692139 0.65163135528564453
0.60506027936935425 0.89210861921310425 0.65718847513198853
0.62013763189315796 0.89007949829101562 0.65930557250976562
0.63868856430053711 0.8896515965461731 0.66168403625488281
0.66467779874801636 0.89121687412261963 0.66302132606506348
0.69136393070220947 0.89264345169067383 0.65545547008514404
0.72164303064346313 0.8973657488822937 0.65090090036392212
0.75971925258636475 0.90536987781524658 0.64884001016616821
0.80393064022064209 0.9133872389793396 0.64282166957855225
0.85152602195739746 0.9207770824432373 0.63548403978347778
0.90369302034378052 0.92872327566146851 0.62495952844619751
0.026061054319143295 0.053289525210857391 0.094889543950557709
0.061992347240447998 0.053841084241867065 0.099340938031673431
0.132475346326828 0.05205700546503067 0.096424177289009094
0.21515612304210663 0.045323628932237625 0.085516460239887238
0.31449794769287109 0.053726721554994583 0.08459821343421936
0.42823559045791626 0.050185006111860275 0.080740131437778473
0.54416084289550781 0.046397324651479721 0.070137828588485718
0.65591979026794434 0.04538441076874733 0.050628062337636948
0.74486565589904785 0.060009017586708069 0.03268064558506012
0.81346404552459717 0.091450199484825134 0.023907769471406937
0.8764769434928894 0.12230560928583145 0.013356047682464123
0.93494188785552979 0.15548484027385712 0.0064745135605335236
0.98193204402923584 0.19045741856098175 0.0035246156621724367
0.021129908040165901 0.097944058477878571 0.11002873629331589
0.056213423609733582 0.09714304655790329 0.11260190606117249
0.13302576541900635 0.10032913833856583 0.10746102780103683
0.22578631341457367 0.10105668753385544 0.095445849001407623
0.33359375596046448 0.10992548614740372 0.089042633771896362
0.44579461216926575 0.11225160956382751 0.078154787421226501
0.56289815902709961 0.11175183951854706 0.063302390277385712
0.66881173849105835 0.11192972213029861 0.045100610703229904
0.75324267148971558 0.12179970741271973 0.028103547170758247
0.82203298807144165 0.13805915415287018 0.015832280740141869
0.88236373662948608 0.16060912609100342 0.0098158149048686028
0.93859463930130005 0.18786606192588806 0.0071882209740579128
0.98619240522384644 0.21258851885795593 0.004312432836741209
0.009443843737244606 0.16515497863292694 0.12937304377555847
0.033944282680749893 0.16241505742073059 0.12760621309280396
0.11328762024641037 0.16821646690368652 0.12115959078073502
0.22821664810180664 0.17851045727729797 0.10456518828868866
0.35496211051940918 0.18601901829242706 0.086121760308742523
0.47657200694084167 0.1888125091791153 0.066187299787998199
0.59461057186126709 0.19243374466896057 0.048744350671768188
0.68645292520523071 0.19522438943386078 0.038228727877140045
0.76182758808135986 0.20075511932373047 0.028745733201503754
0.82878577709197998 0.2095809131860733 0.018608497455716133
0.88783639669418335 0.22052286565303802 0.0075620315037667751
0.93903911113739014 0.2367694079875946 0.0056162066757678986
0.98381370306015015 0.25753587484359741 0.0046648210845887661
0.0035883286036550999 0.24411669373512268 0.14822407066822052
0.011880433186888695 0.24258884787559509 0.14899568259716034
0.072541899979114532 0.24882413446903229 0.14627331495285034
0.19999523460865021 0.27089023590087891 0.13152106106281281
0.35623714327812195 0.2918965220451355 0.099312379956245422
0.49964034557342529 0.29529702663421631 0.059966113418340683
0.62040627002716064 0.29286837577819824 0.03393719345331192
0.70709902048110962 0.28697845339775085 0.025012895464897156
0.77665102481842041 0.28382325172424316 0.019311029464006424
0.8387606143951416 0.28551825881004333 0.014291247352957726
0.89636248350143433 0.29015913605690002 0.009195694699883461
0.94538778066635132 0.29841536283493042 0.0052796159870922565
0.98393744230270386 0.30976375937461853 0.0043819802813231945
0.0019293691730126739 0.34326481819152832 0.17907348275184631
0.0053022047504782677 0.34607040882110596 0.18360742926597595
0.027955088764429092 0.34899356961250305 0.17945998907089233
0.14673344790935516 0.36613860726356506 0.16882461309432983
0.31496131420135498 0.39307180047035217 0.13882909715175629
0.48654186725616455 0.41577723622322083 0.084826692938804626
0.61871641874313354 0.4116356372833252 0.038375195115804672
0.71683543920516968 0.3899652361869812 0.016222590580582619
0.78897988796234131 0.37220028042793274 0.0093092229217290878
0.84823554754257202 0.36451262235641479 0.0087713655084371567
0.90269452333450317 0.36398592591285706 0.0059086219407618046
0.95175457000732422 0.36699146032333374 0.0036824245471507311
0.98673385381698608 0.36980128288269043 0.0041165519505739212
0.00054909201571717858 0.44554060697555542 0.21010930836200714
0.0023669523652642965 0.44951745867729187 0.21793265640735626
0.0058094998821616173 0.4460633397102356 0.21390837430953979
0.095722705125808716 0.45429918169975281 0.20542925596237183
0.26677736639976501 0.47576186060905457 0.18719589710235596
0.43416321277618408 0.49664455652236938 0.14877055585384369
0.58672338724136353 0.51454901695251465 0.087185382843017578
0.69823718070983887 0.50660169124603271 0.035279411822557449
0.77962613105773926 0.48196077346801758 0.013877375051379204
0.84836238622665405 0.45797201991081238 0.0079886345192790031
0.90607422590255737 0.44756007194519043 0.0046076755970716476
0.95651412010192871 0.4438534677028656 0.0034060908947139978
0.98965972661972046 0.44125828146934509 0.0039011337794363499
0.00071660958928987384 0.5317455530166626 0.24332047998905182
0.0034612319432199001 0.53279048204421997 0.25233301520347595
0.0075990715995430946 0.53024345636367798 0.25163036584854126
0.081596389412879944 0.53252369165420532 0.246503084897995
0.24215558171272278 0.54621744155883789 0.23203738033771515
0.39113080501556396 0.55968558788299561 0.20971910655498505
0.53061777353286743 0.57535171508789062 0.17216837406158447
0.65723073482513428 0.59215497970581055 0.11960972845554352
0.75555789470672607 0.58760786056518555 0.05511060357093811
0.83332949876785278 0.56502676010131836 0.018170090392231941
0.90041953325271606 0.54233962297439575 0.0059754466637969017
0.95675057172775269 0.52652597427368164 0.0035072925966233015
0.99021100997924805 0.51754331588745117 0.0040812175720930099
0.0018804662395268679 0.60429906845092773 0.2828427255153656
0.0047789178788661957 0.60465037822723389 0.29068189859390259
0.02016245573759079 0.60250353813171387 0.28966894745826721
0.12046776711940765 0.59960037469863892 0.29109418392181396
0.24647440016269684 0.6045723557472229 0.28669935464859009
0.36905387043952942 0.61528635025024414 0.27343875169754028
0.49021020531654358 0.62755906581878662 0.24802139401435852
0.60225933790206909 0.64180934429168701 0.2149696946144104
0.71563899517059326 0.65824717283248901 0.16694122552871704
0.80911934375762939 0.65808558464050293 0.10914892703294754
0.88286560773849487 0.64178586006164551 0.052011646330356598
0.94647908210754395 0.62000095844268799 0.016208259388804436
0.98869854211807251 0.6015201210975647 0.0054771723225712776
0.024570614099502563 0.67098009586334229 0.33351984620094299
0.048912152647972107 0.6714777946472168 0.3375360369682312
0.11985299736261368 0.66881495714187622 0.3393653929233551
0.20895645022392273 0.66400593519210815 0.34250324964523315
0.2951386570930481 0.66230088472366333 0.34350875020027161
0.38704714179039001 0.66891932487487793 0.33422648906707764
0.47502341866493225 0.67965453863143921 0.3217678964138031
0.57432377338409424 0.69100964069366455 0.30252110958099365
0.67620813846588135 0.70686227083206177 0.26664111018180847
0.7693360447883606 0.7176397442817688 0.22981986403465271
0.8585970401763916 0.72352910041809082 0.19133992493152618
0.92708826065063477 0.70933824777603149 0.12859119474887848
0.98284292221069336 0.69212943315505981 0.064337320625782013
0.18741007149219513 0.73147052526473999 0.39750301837921143
0.21544988453388214 0.73030304908752441 0.40011486411094666
0.25733408331871033 0.72776156663894653 0.40238353610038757
0.30833268165588379 0.72354400157928467 0.40361344814300537
0.3615264892578125 0.72065728902816772 0.40532368421554565
0.42042088508605957 0.72302180528640747 0.40163549780845642
0.4874403178691864 0.73115408420562744 0.39406418800354004
0.56202304363250732 0.74143826961517334 0.38127678632736206
0.64148181676864624 0.75213390588760376 0.36158919334411621
0.72496378421783447 0.76252931356430054 0.34007087349891663
0.81686049699783325 0.77617430686950684 0.31656709313392639
0.90170234441757202 0.78146004676818848 0.28460913896560669
0.96503669023513794 0.77315646409988403 0.24267968535423279
0.34214764833450317 0.78489154577255249 0.47308990359306335
0.34918674826622009 0.7841719388961792 0.47228977084159851
0.37521752715110779 0.78295660018920898 0.47695264220237732
0.40368011593818665 0.77966493368148804 0.47854050993919373
0.43506190180778503 0.77540284395217896 0.47717693448066711
0.47530707716941833 0.77615165710449219 0.47649040818214417
0.52473121881484985 0.78135824203491211 0.47507616877555847
0.58165687322616577 0.78922063112258911 0.4657171368598938
0.64184296131134033 0.79817336797714233 0.45709216594696045
0.70975232124328613 0.80748307704925537 0.44450351595878601
0.78090518712997437 0.81522107124328613 0.42439451813697815
0.86316341161727905 0.82651418447494507 0.40582036972045898
0.94168591499328613 0.83700966835021973 0.39119765162467957
0.46162372827529907 0.83780544996261597 0.56035393476486206
0.46863746643066406 0.83812028169631958 0.56020838022232056
0.48526328802108765 0.83780175447463989 0.56604850292205811
0.50752371549606323 0.83602046966552734 0.56993383169174194
0.52948319911956787 0.83279365301132202 0.56786173582077026
0.55027824640274048 0.83106261491775513 0.56725871562957764
0.58429920673370361 0.8338627815246582 0.56639420986175537
0.62445008754730225 0.83907169103622437 0.56175392866134644
0.67436456680297852 0.8473924994468689 0.55664867162704468
0.7232590913772583 0.85559618473052979 0.54903364181518555
0.77910697460174561 0.86294794082641602 0.53803491592407227
0.84522718191146851 0.86972576379776001 0.52203947305679321
0.91348063945770264 0.88026267290115356 0.50958752632141113
0.58034664392471313 0.89319026470184326 0.65777719020843506
0.58412706851959229 0.89202582836151123 0.6563069224357605
0.59524726867675781 0.89219319820404053 0.6596682071685791
0.60930299758911133 0.8915858268737793 0.66227394342422485
0.62310540676116943 0.88860279321670532 0.66202020645141602
0.64270341396331787 0.88910090923309326 0.66740232706069946
0.6662859320640564 0.89066821336746216 0.66984093189239502
0.69363725185394287 0.89416372776031494 0.66688567399978638
0.72737956047058105 0.90096396207809448 0.66412180662155151
0.7638208270072937 0.90565788745880127 0.65711849927902222
0.80527645349502563 0.91330993175506592 0.65173196792602539
0.85427749156951904 0.92028695344924927 0.6420973539352417
0.90512198209762573 0.92841184139251709 0.63322776556015015
0.011954737827181816 0.05665506049990654 0.16584207117557526
0.05214303731918335 0.056885827332735062 0.16985432803630829
0.1193140372633934 0.058916278183460236 0.1702386885881424
0.20897318422794342 0.049909241497516632 0.16342328488826752
0.31813108921051025 0.026542484760284424 0.15198227763175964
0.43558311462402344 0.013397680595517159 0.14398539066314697
0.55253016948699951 0.014538544230163097 0.13640376925468445
0.65929359197616577 0.020272662863135338 0.13262873888015747
0.74347978830337524 0.042853500694036484 0.12403914332389832
0.81027507781982422 0.07891845703125 0.10869234800338745
0.87308168411254883 0.11523594707250595 0.085749410092830658
0.93093055486679077 0.15088726580142975 0.066444233059883118
0.97971707582473755 0.18563072383403778 0.043427098542451859
0.0091185029596090317 0.10562518239021301 0.17961707711219788
0.040953032672405243 0.10516532510519028 0.18057172000408173
0.12376703321933746 0.10791187733411789 0.1828971803188324
0.22289790213108063 0.10290246456861496 0.17442144453525543
0.33348321914672852 0.091175496578216553 0.16271883249282837
0.44761180877685547 0.081403322517871857 0.15229727327823639
0.56413275003433228 0.085765749216079712 0.14684800803661346
0.66660374402999878 0.093604594469070435 0.137833371758461
0.7482750415802002 0.11273975670337677 0.12323164194822311
0.81644421815872192 0.13395567238330841 0.10508546978235245
0.87936806678771973 0.15833793580532074 0.080577731132507324
0.9360586404800415 0.18515214323997498 0.061991073191165924
0.98544281721115112 0.20982055366039276 0.040209900587797165
0.0047441069036722183 0.175278440117836 0.19038744270801544
0.028124835342168808 0.17532166838645935 0.19340504705905914
0.11942937225103378 0.17954213917255402 0.19494359195232391
0.22857435047626495 0.18106821179389954 0.18704885244369507
0.35253342986106873 0.17766423523426056 0.17270313203334808
0.47454693913459778 0.18490543961524963 0.16160853207111359
0.58953893184661865 0.1892123818397522 0.14865531027317047
0.68103063106536865 0.19043198227882385 0.1365075409412384
0.75621598958969116 0.19549956917762756 0.11899133026599884
0.82411259412765503 0.20637011528015137 0.10014078766107559
0.88610643148422241 0.22175395488739014 0.073393940925598145
0.93745726346969604 0.23852749168872833 0.060500230640172958
0.98366427421569824 0.25622144341468811 0.041863325983285904
0.0025679345708340406 0.26136702299118042 0.21066242456436157
0.021736444905400276 0.26442310214042664 0.213685542345047
0.10765922069549561 0.26914140582084656 0.21394796669483185
0.2200617790222168 0.27667722105979919 0.20830202102661133
0.36979830265045166 0.28851792216300964 0.19115777313709259
0.50721466541290283 0.29283392429351807 0.16726773977279663
0.61710047721862793 0.29160928726196289 0.14563682675361633
0.69902294874191284 0.28534659743309021 0.12509898841381073
0.77055293321609497 0.28023070096969604 0.10548976808786392
0.83535969257354736 0.28317320346832275 0.091882683336734772
0.89476859569549561 0.29119756817817688 0.064187966287136078
0.94421172142028809 0.30091708898544312 0.049225661903619766
0.98458749055862427 0.31098487973213196 0.036566071212291718
0.002367550740018487 0.36930873990058899 0.24886420369148254
0.014827683568000793 0.37125620245933533 0.2475266307592392
0.069891311228275299 0.37144237756729126 0.24394850432872772
