luts/negative_old/kodak_portra_160_vc_++.cube
# Created by: G'MIC (https://gmic.eu)
TITLE "kodak_portra_160_vc_++"
# LUT size
LUT_3D_SIZE 7
# Data domain
DOMAIN_MIN 0.0 0.0 0.0
DOMAIN_MAX 1.0 1.0 1.0
# LUT data points
0.13098756968975067 0.10366318374872208 0.063285335898399353
0.1919076144695282 0.1021665558218956 0.061286762356758118
0.34573125839233398 0.095923297107219696 0.042919863015413284
0.5664556622505188 0.078759871423244476 0.01629689522087574
0.78417468070983887 0.080457188189029694 0.0027106939814984798
0.93637222051620483 0.13600583374500275 0.00099472340662032366
1 0.21693658828735352 0.0023840512149035931
0.12554986774921417 0.1614043116569519 0.065322905778884888
0.18781442940235138 0.17060907185077667 0.052005454897880554
0.35680437088012695 0.18477009236812592 0.020642584189772606
0.57596027851104736 0.19188567996025085 0.0080839423462748528
0.78445988893508911 0.20539736747741699 0.0036469404585659504
0.92778557538986206 0.23812857270240784 0.0022782569285482168
1 0.28760933876037598 0.0014499590033665299
0.045233152806758881 0.32805457711219788 0.091320320963859558
0.15222698450088501 0.33269929885864258 0.089249297976493835
0.33650800585746765 0.36801561713218689 0.016447717323899269
0.58245784044265747 0.37968820333480835 0.0038644229061901569
0.77369028329849243 0.35805216431617737 0.0027979831211268902
0.92510062456130981 0.3663889467716217 0.00057358085177838802
0.99955958127975464 0.39274707436561584 0.0014490165049210191
0.002344662556424737 0.52331221103668213 0.16948190331459045
0.073230668902397156 0.5268673300743103 0.18218402564525604
0.29488205909729004 0.53752738237380981 0.13925550878047943
0.520729660987854 0.55900967121124268 0.024122964590787888
0.74952095746994019 0.55541390180587769 0.00037312228232622147
0.89819341897964478 0.52600926160812378 0
0.99188697338104248 0.51088649034500122 0
0.061815973371267319 0.67805695533752441 0.3058072030544281
0.18456590175628662 0.67535150051116943 0.31500524282455444
0.3270728588104248 0.67395401000976562 0.31229585409164429
0.48792263865470886 0.6826128363609314 0.25399953126907349
0.68359196186065674 0.69562292098999023 0.12909916043281555
0.8793904185295105 0.70240366458892822 0.0077698351815342903
0.98206633329391479 0.67624574899673462 0.004654604010283947
0.37081202864646912 0.7979544997215271 0.48002862930297852
0.40794378519058228 0.79412746429443359 0.48428064584732056
0.47290655970573425 0.79071462154388428 0.48959821462631226
0.56397563219070435 0.79401040077209473 0.47210231423377991
0.67704576253890991 0.80357646942138672 0.41960382461547852
0.82115411758422852 0.81551724672317505 0.34083518385887146
0.96731323003768921 0.83296620845794678 0.23114894330501556
0.63076788187026978 0.91008931398391724 0.66901838779449463
0.64205390214920044 0.90811055898666382 0.67065656185150146
0.6699378490447998 0.90811806917190552 0.67671501636505127
0.71011728048324585 0.9049537181854248 0.67985004186630249
0.75655484199523926 0.91519975662231445 0.65714699029922485
0.82826608419418335 0.92589497566223145 0.62661200761795044
0.91682124137878418 0.93710619211196899 0.58293294906616211
0.12989558279514313 0.1048029288649559 0.13382405042648315
0.19595208764076233 0.10055570304393768 0.1291661411523819
0.35207131505012512 0.071800142526626587 0.12347907572984695
0.57625937461853027 0.031915761530399323 0.1191333532333374
0.78582656383514404 0.089297711849212646 0.12433259189128876
0.93331021070480347 0.15978133678436279 0.10250609368085861
0.99827760457992554 0.24319067597389221 0.09057268500328064
0.13020443916320801 0.18050141632556915 0.14728286862373352
0.20981201529502869 0.18271182477474213 0.14624965190887451
0.37362292408943176 0.18158015608787537 0.13429950177669525
0.58996331691741943 0.19258373975753784 0.12675854563713074
0.78885811567306519 0.21376293897628784 0.10723577439785004
0.93350601196289062 0.24818843603134155 0.081779122352600098
0.99866098165512085 0.30112576484680176 0.076054483652114868
0.12700223922729492 0.35235178470611572 0.20284944772720337
0.20312249660491943 0.35657665133476257 0.20019866526126862
0.3667779266834259 0.37673851847648621 0.16437828540802002
0.59454351663589478 0.3777908980846405 0.088312722742557526
0.7820320725440979 0.36147254705429077 0.049958713352680206
0.92690765857696533 0.37275674939155579 0.04011242464184761
0.99919480085372925 0.40181931853294373 0.038285661488771439
0.052767913788557053 0.54174870252609253 0.27264696359634399
0.18494231998920441 0.54237431287765503 0.28055179119110107
0.33317476511001587 0.5416603684425354 0.26479211449623108
0.53925132751464844 0.56115400791168213 0.1777631938457489
0.75908923149108887 0.56050902605056763 0.058668684214353561
0.90806156396865845 0.52415460348129272 0.011123567819595337
0.995086669921875 0.51852905750274658 0.0034121943172067404
0.18770438432693481 0.68097090721130371 0.37705710530281067
0.27070444822311401 0.6803773045539856 0.38586971163749695
0.37777462601661682 0.67764067649841309 0.38671359419822693
0.50999528169631958 0.68356424570083618 0.34595644474029541
0.69519591331481934 0.69735217094421387 0.25954481959342957
0.8809780478477478 0.70252996683120728 0.14325301349163055
0.99086707830429077 0.67846614122390747 0.037216875702142715
0.4197976291179657 0.79962456226348877 0.52207547426223755
0.44758328795433044 0.79729902744293213 0.52247828245162964
0.50641131401062012 0.79436123371124268 0.52808487415313721
0.58346289396286011 0.79561275243759155 0.51674962043762207
0.68517297506332397 0.80331563949584961 0.47721445560455322
0.82350283861160278 0.81437623500823975 0.40747007727622986
0.96539831161499023 0.83253669738769531 0.33025884628295898
0.6437755823135376 0.91009026765823364 0.68797588348388672
0.65106678009033203 0.90785765647888184 0.68548250198364258
0.67649787664413452 0.90787088871002197 0.68995761871337891
0.71958231925964355 0.90824490785598755 0.69712156057357788
0.75957185029983521 0.91341936588287354 0.67754095792770386
0.82904052734375 0.92464625835418701 0.64999657869338989
0.92385625839233398 0.93984949588775635 0.60977894067764282
0.068917609751224518 0.12169945240020752 0.3497808575630188
0.22435644268989563 0.13169053196907043 0.3491816520690918
0.38317874073982239 0.12888810038566589 0.33338209986686707
0.5737307071685791 0.03060455247759819 0.3075844943523407
0.78501403331756592 0.0026772890705615282 0.28068050742149353
0.94122713804244995 0.059099309146404266 0.28343397378921509
0.99972516298294067 0.29431930184364319 0.3411308228969574
0.049634538590908051 0.22625008225440979 0.3615691065788269
0.21245969831943512 0.22130365669727325 0.36199837923049927
0.3959108293056488 0.22849081456661224 0.35282143950462341
0.59519106149673462 0.18549984693527222 0.32679533958435059
0.79093408584594727 0.16535849869251251 0.31080183386802673
0.93302649259567261 0.2735876739025116 0.33381718397140503
0.99546176195144653 0.37328657507896423 0.35648670792579651
0.036673378199338913 0.3953300416469574 0.37848174571990967
0.21687987446784973 0.39817160367965698 0.38480398058891296
0.40154293179512024 0.39864000678062439 0.38427957892417908
0.60479366779327393 0.38846534490585327 0.3572026789188385
0.77819961309432983 0.40140470862388611 0.34666210412979126
0.92047345638275146 0.41763788461685181 0.33623033761978149
0.9935600757598877 0.45609310269355774 0.33430486917495728
0.22168633341789246 0.56885057687759399 0.43887874484062195
0.31357482075691223 0.56821393966674805 0.44489184021949768
0.41806352138519287 0.55987298488616943 0.43477639555931091
0.56807857751846313 0.56282281875610352 0.3944123387336731
0.76109844446182251 0.54716348648071289 0.33843517303466797
0.90461957454681396 0.53394812345504761 0.29908990859985352
0.99292254447937012 0.54301047325134277 0.29348820447921753
0.37183091044425964 0.69576984643936157 0.51145809888839722
0.3951704204082489 0.69606506824493408 0.50443416833877563
0.46346142888069153 0.68823236227035522 0.50427389144897461
0.55998104810714722 0.68708312511444092 0.48585596680641174
0.71356737613677979 0.69883233308792114 0.43878358602523804
0.87921261787414551 0.69734644889831543 0.37435552477836609
0.98558670282363892 0.67220437526702881 0.29794234037399292
0.49720722436904907 0.80221885442733765 0.59371119737625122
0.52201741933822632 0.80262070894241333 0.59695696830749512
0.56672400236129761 0.80035334825515747 0.60141807794570923
0.62911802530288696 0.79822134971618652 0.60227447748184204
0.7161552906036377 0.80587798357009888 0.56823229789733887
0.83408612012863159 0.81606471538543701 0.51973283290863037
0.96180260181427002 0.83120548725128174 0.46613037586212158
0.66154009103775024 0.91245937347412109 0.71656382083892822
0.67161351442337036 0.91186040639877319 0.71645838022232056
0.69673824310302734 0.90821260213851929 0.7202383279800415
0.73191750049591064 0.90840643644332886 0.72847086191177368
0.77567911148071289 0.91384762525558472 0.71612691879272461
0.83858221769332886 0.92478561401367188 0.69393354654312134
0.92325460910797119 0.93849849700927734 0.65939587354660034
0.0044549978338181973 0.16738110780715942 0.59632283449172974
0.21611811220645905 0.17674078047275543 0.59495753049850464
0.44774410128593445 0.20728236436843872 0.58649992942810059
0.63185340166091919 0.21577447652816772 0.57694274187088013
0.77023255825042725 0.1103433221578598 0.52018451690673828
0.9259868860244751 0.076798520982265472 0.47394168376922607
0.99981892108917236 0.19464060664176941 0.45932617783546448
0.0082201492041349411 0.27946180105209351 0.60470998287200928
0.21903912723064423 0.28794309496879578 0.60617554187774658
0.45660999417304993 0.317445307970047 0.60183209180831909
0.63534653186798096 0.32064300775527954 0.58364778757095337
0.77318066358566284 0.256908118724823 0.52942639589309692
0.92038059234619141 0.25326478481292725 0.49354681372642517
0.99729686975479126 0.31465381383895874 0.48762068152427673
0.0061093945987522602 0.46552643179893494 0.60671472549438477
0.19933265447616577 0.46213993430137634 0.60714924335479736
0.44048804044723511 0.46165740489959717 0.60125237703323364
0.62500679492950439 0.45941001176834106 0.5827907919883728
0.76869374513626099 0.42134040594100952 0.54260414838790894
0.91132551431655884 0.42671465873718262 0.5264286994934082
0.99119061231613159 0.48136988282203674 0.54296219348907471
0.1464887410402298 0.59734243154525757 0.59190726280212402
0.29144927859306335 0.59746736288070679 0.59584730863571167
0.44776219129562378 0.58962196111679077 0.59385150671005249
0.60289281606674194 0.57977068424224854 0.58482211828231812
0.75852316617965698 0.57039743661880493 0.55936640501022339
0.8872559666633606 0.58063948154449463 0.55664938688278198
0.98168253898620605 0.5965573787689209 0.54706466197967529
0.41621997952461243 0.71524477005004883 0.62793457508087158
0.46897748112678528 0.71039003133773804 0.6287035346031189
0.55109620094299316 0.70427018404006958 0.63195008039474487
0.62949252128601074 0.69784772396087646 0.61473184823989868
0.73844337463378906 0.69967782497406006 0.59291273355484009
0.87424302101135254 0.68964135646820068 0.55119770765304565
0.98267561197280884 0.67552387714385986 0.5065428614616394
0.59270739555358887 0.81345438957214355 0.68954837322235107
0.60830092430114746 0.81100541353225708 0.68677151203155518
0.6393132209777832 0.80962753295898438 0.68314778804779053
0.67990642786026001 0.80446368455886841 0.67767953872680664
0.74284207820892334 0.80711650848388672 0.66588914394378662
0.84143990278244019 0.81486386060714722 0.63162016868591309
0.96199411153793335 0.82859593629837036 0.59444510936737061
0.7004544734954834 0.91440021991729736 0.76727628707885742
0.70744615793228149 0.91595113277435303 0.76483112573623657
0.72492748498916626 0.91226756572723389 0.76327192783355713
0.75328415632247925 0.91230589151382446 0.76591825485229492
0.79462289810180664 0.91586709022521973 0.76394426822662354
0.84905165433883667 0.92331159114837646 0.74805837869644165
0.92899852991104126 0.93828314542770386 0.72337406873703003
0.059635251760482788 0.25324845314025879 0.76117300987243652
0.28028914332389832 0.27288678288459778 0.76091533899307251
0.49052667617797852 0.31260687112808228 0.75281685590744019
0.67770719528198242 0.37001505494117737 0.74460124969482422
0.81482422351837158 0.36738362908363342 0.73397946357727051
0.90593355894088745 0.3135676383972168 0.68302971124649048
0.99442899227142334 0.31631419062614441 0.64633101224899292
0.15064877271652222 0.36060270667076111 0.76694768667221069
0.31300079822540283 0.37316462397575378 0.76143544912338257
0.50006109476089478 0.39585733413696289 0.75339460372924805
0.6771814227104187 0.43816858530044556 0.74789488315582275
0.81139659881591797 0.44189637899398804 0.73652940988540649
0.90193235874176025 0.39100822806358337 0.68440264463424683
0.99217098951339722 0.38915416598320007 0.65381705760955811
0.25002115964889526 0.5217248797416687 0.7576872706413269
0.3542267382144928 0.51420688629150391 0.75603306293487549
0.50661015510559082 0.51479887962341309 0.74985677003860474
0.67568975687026978 0.54040235280990601 0.73679399490356445
0.79749214649200439 0.54493540525436401 0.73388981819152832
0.89001560211181641 0.5005338191986084 0.691436767578125
0.98933923244476318 0.49091958999633789 0.66424936056137085
0.25454029440879822 0.63536220788955688 0.74012273550033569
0.34983214735984802 0.63387835025787354 0.73926383256912231
0.49549886584281921 0.6319279670715332 0.73688006401062012
0.65638256072998047 0.63366436958312988 0.73178958892822266
0.77895098924636841 0.63509100675582886 0.72683441638946533
0.87854278087615967 0.60566157102584839 0.70121276378631592
0.98166251182556152 0.60746544599533081 0.69067859649658203
0.4131695032119751 0.73132401704788208 0.72819739580154419
0.4729667603969574 0.73131394386291504 0.73347532749176025
0.55371212959289551 0.72476410865783691 0.72982108592987061
0.66028130054473877 0.71972358226776123 0.72948497533798218
0.76251041889190674 0.71847301721572876 0.7300262451171875
0.87104380130767822 0.71009635925292969 0.70785212516784668
0.96872705221176147 0.72299253940582275 0.70796144008636475
0.59513157606124878 0.82705676555633545 0.76064836978912354
0.6143072247505188 0.82732927799224854 0.76300328969955444
0.66260826587677002 0.82444465160369873 0.76994544267654419
0.72717505693435669 0.82122105360031128 0.76965349912643433
0.78373950719833374 0.81827497482299805 0.76140505075454712
0.85489314794540405 0.81521648168563843 0.73958271741867065
0.9624791145324707 0.82181233167648315 0.71374201774597168
0.7178153395652771 0.92226302623748779 0.82143908739089966
0.72504299879074097 0.9229055643081665 0.82360821962356567
0.75061947107315063 0.92078578472137451 0.82498639822006226
0.7812875509262085 0.92078900337219238 0.82361185550689697
0.81349831819534302 0.91948848962783813 0.81688672304153442
0.86146754026412964 0.92369073629379272 0.81067943572998047
0.93351346254348755 0.93981623649597168 0.79330289363861084
0.33257359266281128 0.39579567313194275 0.87021762132644653
0.42025816440582275 0.40514829754829407 0.86796849966049194
0.56341266632080078 0.43805807828903198 0.86481726169586182
0.70645123720169067 0.48543852567672729 0.85550349950790405
0.83056646585464478 0.53857290744781494 0.8454279899597168
0.91977792978286743 0.53912234306335449 0.84065073728561401
0.98553216457366943 0.50854051113128662 0.81321018934249878
0.37270644307136536 0.46857467293739319 0.86715012788772583
0.45488879084587097 0.48088487982749939 0.86541229486465454
0.57885968685150146 0.50300246477127075 0.86223846673965454
0.7138785719871521 0.53655236959457397 0.85420316457748413
0.83179038763046265 0.58738458156585693 0.84648257493972778
0.91573858261108398 0.58291268348693848 0.84319770336151123
0.97740656137466431 0.54507780075073242 0.81336104869842529
0.4486653208732605 0.58059310913085938 0.8626629114151001
0.49691936373710632 0.58032006025314331 0.8640751838684082
0.59949952363967896 0.59298181533813477 0.85665339231491089
0.71954798698425293 0.6162293553352356 0.84897726774215698
0.83043044805526733 0.6506885290145874 0.84803920984268188
0.90412765741348267 0.64105618000030518 0.84097051620483398
0.97040647268295288 0.60915464162826538 0.8186345100402832
0.4396895170211792 0.67767775058746338 0.85114580392837524
0.508686363697052 0.68179619312286377 0.85166782140731812
0.61147487163543701 0.68098568916320801 0.85179239511489868
0.71449428796768188 0.68633204698562622 0.84781259298324585
0.81826412677764893 0.70783954858779907 0.84692114591598511
0.89287912845611572 0.71338462829589844 0.83695751428604126
0.96445322036743164 0.6781114935874939 0.81998336315155029
0.50229746103286743 0.76195436716079712 0.83945542573928833
0.54613292217254639 0.76399224996566772 0.84376901388168335
0.60753536224365234 0.76007241010665894 0.84493249654769897
0.69438624382019043 0.7568550705909729 0.84350109100341797
0.79153680801391602 0.76755422353744507 0.84369629621505737
0.88186490535736084 0.76976317167282104 0.8382076621055603
0.96516573429107666 0.74987542629241943 0.82350844144821167
0.59321874380111694 0.84387290477752686 0.84406769275665283
0.62410318851470947 0.84479546546936035 0.84903758764266968
0.66786873340606689 0.84328144788742065 0.84760981798171997
0.72924172878265381 0.83824265003204346 0.84450423717498779
0.79508513212203979 0.83618956804275513 0.84621930122375488
0.86589747667312622 0.84109503030776978 0.84783780574798584
0.96190208196640015 0.83321475982666016 0.83257132768630981
0.7110028862953186 0.93354135751724243 0.87775593996047974
0.72213828563690186 0.93569362163543701 0.87662136554718018
0.74593424797058105 0.93399840593338013 0.87839555740356445
0.7883879542350769 0.93317562341690063 0.88240343332290649
0.83692765235900879 0.93170702457427979 0.88635373115539551
0.88107240200042725 0.93405818939208984 0.88281363248825073
0.94704699516296387 0.9446253776550293 0.87005966901779175
0.55825239419937134 0.55934005975723267 0.95186638832092285
0.60314929485321045 0.5676959753036499 0.95227611064910889
0.68160450458526611 0.5876079797744751 0.94669359922409058
0.76909768581390381 0.617645263671875 0.94059371948242188
0.85044676065444946 0.65436667203903198 0.93491774797439575
0.92545956373214722 0.69677573442459106 0.9315185546875
0.98490637540817261 0.69455474615097046 0.93201059103012085
0.5871623158454895 0.60156667232513428 0.95314681529998779
0.62137442827224731 0.60749751329421997 0.9485163688659668
0.69285207986831665 0.62305116653442383 0.94879740476608276
0.77456837892532349 0.64632540941238403 0.94047504663467407
0.85685807466506958 0.68100154399871826 0.93568122386932373
0.92262452840805054 0.71358954906463623 0.9324568510055542
0.98269462585449219 0.71300935745239258 0.93146896362304688
0.61428236961364746 0.66405332088470459 0.94889581203460693
0.64669102430343628 0.66970640420913696 0.94893139600753784
0.69894248247146606 0.67605936527252197 0.94445466995239258
0.77865135669708252 0.69421535730361938 0.93983322381973267
0.855063796043396 0.71869653463363647 0.93587398529052734
0.91915237903594971 0.74663257598876953 0.93270397186279297
0.97765457630157471 0.74250525236129761 0.93061190843582153
0.6412891149520874 0.73986750841140747 0.94636589288711548
0.66381418704986572 0.73924940824508667 0.94438618421554565
0.70769226551055908 0.73921829462051392 0.94300943613052368
0.76934385299682617 0.73923075199127197 0.94320237636566162
0.84354054927825928 0.76218605041503906 0.93732261657714844
0.91398066282272339 0.78671824932098389 0.93685394525527954
0.97451525926589966 0.78657668828964233 0.93538564443588257
0.6009981632232666 0.80297034978866577 0.9430115818977356
0.62693411111831665 0.80303585529327393 0.94207346439361572
0.68222963809967041 0.8043397068977356 0.94260436296463013
0.75621122121810913 0.80177730321884155 0.94184672832489014
0.83043080568313599 0.81532579660415649 0.93955767154693604
0.90389668941497803 0.83338266611099243 0.94061338901519775
0.96795862913131714 0.83664017915725708 0.93827718496322632
0.65267962217330933 0.87677216529846191 0.94149571657180786
0.67179042100906372 0.87671577930450439 0.94157320261001587
0.70284771919250488 0.87669938802719116 0.94478446245193481
0.75197082757949829 0.87658584117889404 0.94287073612213135
0.80906462669372559 0.87431472539901733 0.9418644905090332
0.88718891143798828 0.88467103242874146 0.94469857215881348
0.96459019184112549 0.89237880706787109 0.9457663893699646
0.71654015779495239 0.95101284980773926 0.94882744550704956
0.72179675102233887 0.9477379322052002 0.94689935445785522
0.7474103569984436 0.951377272605896 0.95043498277664185
0.78860211372375488 0.94703119993209839 0.94728541374206543
0.83852535486221313 0.94793665409088135 0.95072180032730103
0.89586442708969116 0.95149648189544678 0.95655554533004761
0.96245801448822021 0.95033299922943115 0.95166003704071045
