luts/negative_old/kodak_portra_160_vc_++.cube
# Created by: G'MIC (https://gmic.eu)
TITLE "kodak_portra_160_vc_++"
# LUT size
LUT_3D_SIZE 13
# Data domain
DOMAIN_MIN 0.0 0.0 0.0
DOMAIN_MAX 1.0 1.0 1.0
# LUT data points
0.13098756968975067 0.10366318374872208 0.063285335898399353
0.14782267808914185 0.10469623655080795 0.065207526087760925
0.1919076144695282 0.1021665558218956 0.061286762356758118
0.25431430339813232 0.10022585839033127 0.051601812243461609
0.34573125839233398 0.095923297107219696 0.042919863015413284
0.45299389958381653 0.089801996946334839 0.031659383326768875
0.5664556622505188 0.078759871423244476 0.01629689522087574
0.67849540710449219 0.073918409645557404 0.0056679518893361092
0.78417468070983887 0.080457188189029694 0.0027106939814984798
0.86863249540328979 0.10398723930120468 0.0023262922186404467
0.93637222051620483 0.13600583374500275 0.00099472340662032366
0.98990058898925781 0.17282086610794067 0.0013338874559849501
1 0.21693658828735352 0.0023840512149035931
0.12801931798458099 0.11677643656730652 0.060116369277238846
0.14632557332515717 0.12075694650411606 0.059418845921754837
0.19282731413841248 0.12330832332372665 0.05446937307715416
0.26188203692436218 0.12605124711990356 0.045819748193025589
0.35327759385108948 0.13344548642635345 0.036630518734455109
0.4600120484828949 0.13071209192276001 0.024040775373578072
0.57040655612945557 0.12813600897789001 0.015015965327620506
0.67921185493469238 0.13252773880958557 0.0072434069588780403
0.78194236755371094 0.14154830574989319 0.0033214942086488008
0.86255306005477905 0.1595996767282486 0.0035192002542316914
0.93129652738571167 0.18042606115341187 0.0028612923342734575
0.98905092477798462 0.20745484530925751 0.0012578178429976106
1 0.24404937028884888 0.0014185138279572129
0.12554986774921417 0.1614043116569519 0.065322905778884888
0.14365039765834808 0.16287805140018463 0.061404656618833542
0.18781442940235138 0.17060907185077667 0.052005454897880554
0.25952133536338806 0.17909938097000122 0.036852564662694931
0.35680437088012695 0.18477009236812592 0.020642584189772606
0.46581655740737915 0.18734422326087952 0.0092926919460296631
0.57596027851104736 0.19188567996025085 0.0080839423462748528
0.68528151512145996 0.19673226773738861 0.0052544386126101017
0.78445988893508911 0.20539736747741699 0.0036469404585659504
0.8595510721206665 0.21986693143844604 0.0024456996470689774
0.92778557538986206 0.23812857270240784 0.0022782569285482168
0.98614227771759033 0.25808852910995483 0.0020956750959157944
1 0.28760933876037598 0.0014499590033665299
0.10851351916790009 0.22815690934658051 0.07424578070640564
0.13243043422698975 0.231620192527771 0.073075853288173676
0.17545728385448456 0.2400565892457962 0.061633706092834473
0.24882860481739044 0.25440272688865662 0.034479044377803802
0.35635271668434143 0.27393898367881775 0.0094549739733338356
0.47057807445526123 0.27838444709777832 0.0046366672031581402
0.58374565839767456 0.2725527286529541 0.006213468499481678
0.6876450777053833 0.27514302730560303 0.0045410157181322575
0.77892851829528809 0.27900287508964539 0.0035013386514037848
0.85621774196624756 0.28670203685760498 0.0010558034991845489
0.92730271816253662 0.30020537972450256 0.00145658606197685
0.98400759696960449 0.31612569093704224 0.0021314283367246389
1 0.3385864794254303 0.00077691173646599054
0.045233152806758881 0.32805457711219788 0.091320320963859558
0.08807818591594696 0.32995891571044922 0.095283493399620056
0.15222698450088501 0.33269929885864258 0.089249297976493835
0.23238542675971985 0.34813377261161804 0.057200770825147629
0.33650800585746765 0.36801561713218689 0.016447717323899269
0.46593442559242249 0.38543263077735901 0.0043083489872515202
0.58245784044265747 0.37968820333480835 0.0038644229061901569
0.68337923288345337 0.36816775798797607 0.0039314869791269302
0.77369028329849243 0.35805216431617737 0.0027979831211268902
0.85331517457962036 0.35881119966506958 0.00063267129007726908
0.92510062456130981 0.3663889467716217 0.00057358085177838802
0.98385542631149292 0.37684062123298645 0.0013266470050439239
0.99955958127975464 0.39274707436561584 0.0014490165049210191
0.0045959171839058399 0.43220075964927673 0.12204353511333466
0.020506691187620163 0.43487486243247986 0.12879562377929688
0.10750557482242584 0.4343399703502655 0.13198606669902802
0.20905198156833649 0.44274303317070007 0.10870648920536041
0.30852630734443665 0.45640113949775696 0.055291224271059036
0.42935827374458313 0.47164514660835266 0.014590200036764145
0.56619441509246826 0.48532518744468689 0.0028928120154887438
0.67435503005981445 0.47822096943855286 0.00072901108069345355
0.76287758350372314 0.45651832222938538 0.00049045041669160128
0.84234470129013062 0.44162291288375854 4.2006548028439283e-05
0.91258156299591064 0.44229024648666382 0
0.97374314069747925 0.44244742393493652 2.6568244720692746e-05
0.99542933702468872 0.45109713077545166 0.00017646340711507946
0.002344662556424737 0.52331221103668213 0.16948190331459045
0.0058491574600338936 0.52770674228668213 0.17792129516601562
0.073230668902397156 0.5268673300743103 0.18218402564525604
0.19331343472003937 0.52862423658370972 0.17389760911464691
0.29488205909729004 0.53752738237380981 0.13925550878047943
0.39837989211082458 0.54802244901657104 0.083983324468135834
0.520729660987854 0.55900967121124268 0.024122964590787888
0.64994233846664429 0.56850981712341309 0.0032452601008117199
0.74952095746994019 0.55541390180587769 0.00037312228232622147
0.827659010887146 0.53719902038574219 0
0.89819341897964478 0.52600926160812378 0
0.96374660730361938 0.51479285955429077 0
0.99188697338104248 0.51088649034500122 0
0.0050832559354603291 0.6047711968421936 0.23243007063865662
0.015703149139881134 0.60844427347183228 0.23937882483005524
0.098802141845226288 0.60636383295059204 0.24344214797019958
0.20732201635837555 0.60581463575363159 0.24235694110393524
0.29337647557258606 0.60987985134124756 0.22619843482971191
0.38564679026603699 0.61668509244918823 0.18933771550655365
0.49028855562210083 0.62276762723922729 0.12904578447341919
0.60324925184249878 0.62908995151519775 0.0559348464012146
0.72136014699935913 0.63520854711532593 0.0098911207169294357
0.81962090730667114 0.63283222913742065 0.00019166235870216042
0.88764733076095581 0.61579889059066772 0.00031664979178458452
0.95191502571105957 0.59946835041046143 0.0026993844658136368
0.98812365531921387 0.58942502737045288 0.0015834883088245988
0.061815973371267319 0.67805695533752441 0.3058072030544281
0.11315374821424484 0.67915844917297363 0.31256246566772461
0.18456590175628662 0.67535150051116943 0.31500524282455444
0.25682312250137329 0.67299497127532959 0.31673547625541687
0.3270728588104248 0.67395401000976562 0.31229585409164429
0.39810636639595032 0.67779165506362915 0.29091796278953552
0.48792263865470886 0.6826128363609314 0.25399953126907349
0.58288812637329102 0.68788772821426392 0.20364771783351898
0.68359196186065674 0.69562292098999023 0.12909916043281555
0.79166716337203979 0.70349729061126709 0.045940939337015152
0.8793904185295105 0.70240366458892822 0.0077698351815342903
0.93976885080337524 0.68791103363037109 0.0045251734554767609
0.98206633329391479 0.67624574899673462 0.004654604010283947
0.22704431414604187 0.7408299446105957 0.38984972238540649
0.25435426831245422 0.73917758464813232 0.39534616470336914
0.29180887341499329 0.73657727241516113 0.39649492502212524
0.33717778325080872 0.73405331373214722 0.39857518672943115
0.38901737332344055 0.7334778904914856 0.39803662896156311
0.44410830736160278 0.7363584041595459 0.38750180602073669
0.50781691074371338 0.7397531270980835 0.36442163586616516
0.58583617210388184 0.74401015043258667 0.33058011531829834
0.67096239328384399 0.75071722269058228 0.28889420628547668
0.7582097053527832 0.75640302896499634 0.23167888820171356
0.84995615482330322 0.7651028037071228 0.15070290863513947
0.92637181282043457 0.76863783597946167 0.077789992094039917
0.98138636350631714 0.76136314868927002 0.034051362425088882
0.37081202864646912 0.7979544997215271 0.48002862930297852
0.38333171606063843 0.79459011554718018 0.4809112548828125
0.40794378519058228 0.79412746429443359 0.48428064584732056
0.4415070116519928 0.79196697473526001 0.48860815167427063
0.47290655970573425 0.79071462154388428 0.48959821462631226
0.5150454044342041 0.79153811931610107 0.48696964979171753
0.56397563219070435 0.79401040077209473 0.47210231423377991
0.61570179462432861 0.79857730865478516 0.44764098525047302
0.67704576253890991 0.80357646942138672 0.41960382461547852
0.74802333116531372 0.80965584516525269 0.38661894202232361
0.82115411758422852 0.81551724672317505 0.34083518385887146
0.89618450403213501 0.82421612739562988 0.28483349084854126
0.96731323003768921 0.83296620845794678 0.23114894330501556
0.51197713613510132 0.85601836442947388 0.57827931642532349
0.51682156324386597 0.85283523797988892 0.57703256607055664
0.53051674365997314 0.85226714611053467 0.58058053255081177
0.55690032243728638 0.85226714611053467 0.58585131168365479
0.57470434904098511 0.85164713859558105 0.58579421043395996
0.60494488477706909 0.84898781776428223 0.58946329355239868
0.64049029350280762 0.85049867630004883 0.58122503757476807
0.67344504594802856 0.8540758490562439 0.55802357196807861
0.70867699384689331 0.85899728536605835 0.54038029909133911
0.7630540132522583 0.86489039659500122 0.51713407039642334
0.814231276512146 0.87028211355209351 0.49111533164978027
0.87279814481735229 0.8764500617980957 0.45752179622650146
0.93880248069763184 0.88706159591674805 0.41897079348564148
0.63076788187026978 0.91008931398391724 0.66901838779449463
0.63461589813232422 0.90962904691696167 0.66953212022781372
0.64205390214920044 0.90811055898666382 0.67065656185150146
0.65548527240753174 0.9087526798248291 0.67547661066055298
0.6699378490447998 0.90811806917190552 0.67671501636505127
0.68919563293457031 0.90497332811355591 0.67999827861785889
0.71011728048324585 0.9049537181854248 0.67985004186630249
0.73069679737091064 0.90814757347106934 0.66531342267990112
0.75655484199523926 0.91519975662231445 0.65714699029922485
0.79136848449707031 0.92091113328933716 0.64220136404037476
0.82826608419418335 0.92589497566223145 0.62661200761795044
0.8705134391784668 0.9310305118560791 0.60707253217697144
0.91682124137878418 0.93710619211196899 0.58293294906616211
0.13122852146625519 0.10250803828239441 0.07904999703168869
0.14787915349006653 0.10246233642101288 0.080940485000610352
0.1888449639081955 0.097134746611118317 0.077618904411792755
0.25707009434700012 0.089398749172687531 0.073340229690074921
0.34922438859939575 0.081760868430137634 0.071015208959579468
0.45742380619049072 0.078533351421356201 0.069364704191684723
0.56966286897659302 0.073770470917224884 0.061735235154628754
0.68323862552642822 0.070509053766727448 0.046740960329771042
0.7831655740737915 0.081911273300647736 0.029235120862722397
0.86645728349685669 0.105551578104496 0.017361002042889595
0.93590182065963745 0.13992851972579956 0.0094500072300434113
0.98832839727401733 0.17678964138031006 0.0070025124587118626
0.9993743896484375 0.22128887474536896 0.011863214895129204
0.12984688580036163 0.12182369083166122 0.083363719284534454
0.15077543258666992 0.12406624853610992 0.085567906498908997
0.1970665454864502 0.1241949051618576 0.080976970493793488
0.26535129547119141 0.12194892764091492 0.074438251554965973
0.35756263136863708 0.12549260258674622 0.074192076921463013
0.46420124173164368 0.1260913610458374 0.064692281186580658
0.57661294937133789 0.12485812604427338 0.053063679486513138
0.68667340278625488 0.1290985494852066 0.037433624267578125
0.78424865007400513 0.13717111945152283 0.022089865058660507
0.86503159999847412 0.15514753758907318 0.01480967178940773
0.93339014053344727 0.18012993037700653 0.0096535328775644302
0.98711377382278442 0.20973071455955505 0.0053797103464603424
0.99990016222000122 0.24673895537853241 0.0084456652402877808
0.13185837864875793 0.1687193363904953 0.093177720904350281
0.15238939225673676 0.16912569105625153 0.093569271266460419
0.20079042017459869 0.17354418337345123 0.087207034230232239
0.27125003933906555 0.17857159674167633 0.075432255864143372
0.36542651057243347 0.18346621096134186 0.062128521502017975
0.47285103797912598 0.18836566805839539 0.0479099340736866
0.58423203229904175 0.19070591032505035 0.036413289606571198
0.69164234399795532 0.19607269763946533 0.024499751627445221
0.78694808483123779 0.20447972416877747 0.015902381390333176
0.8636244535446167 0.2177981436252594 0.010593967512249947
0.93142795562744141 0.23659610748291016 0.0087411468848586082
0.98607820272445679 0.2594340443611145 0.0055318796075880527
0.99985659122467041 0.2875920832157135 0.0047438079491257668
0.12491007894277573 0.23991857469081879 0.1112569198012352
0.14735002815723419 0.241154745221138 0.10955081880092621
0.19139564037322998 0.24672771990299225 0.10242227464914322
0.26224836707115173 0.25879454612731934 0.083703316748142242
0.37105870246887207 0.27758249640464783 0.048721000552177429
0.48382201790809631 0.27638125419616699 0.025704940780997276
0.5911555290222168 0.27339783310890198 0.017966536805033684
0.69218271970748901 0.27456244826316833 0.013602986000478268
0.78433197736740112 0.27881750464439392 0.007853788323700428
0.86082476377487183 0.2865997850894928 0.0048010433092713356
0.93034297227859497 0.30140459537506104 0.0063424804247915745
0.98510473966598511 0.31798425316810608 0.0056739510037004948
0.99972802400588989 0.34080487489700317 0.0031872019171714783
0.069397948682308197 0.33799567818641663 0.13362407684326172
0.11274726688861847 0.34032329916954041 0.13674022257328033
0.17376478016376495 0.34149491786956787 0.13421441614627838
0.24536788463592529 0.35234475135803223 0.11327100545167923
0.35076546669006348 0.37363418936729431 0.068578191101551056
0.47639280557632446 0.38797175884246826 0.021807083860039711
0.58879387378692627 0.37932831048965454 0.0075580822303891182
0.68830913305282593 0.36510404944419861 0.0078612687066197395
0.77877134084701538 0.35777395963668823 0.0062276353128254414
0.85669821500778198 0.35995155572891235 0.0040668263100087643
0.92601907253265381 0.36914855241775513 0.0038420285563915968
0.98217296600341797 0.38033097982406616 0.0044545489363372326
0.99925076961517334 0.39570018649101257 0.0071019791066646576
0.011060124263167381 0.44018939137458801 0.16392767429351807
0.049170505255460739 0.44350570440292358 0.17142954468727112
0.13632884621620178 0.44026550650596619 0.17518782615661621
0.22911280393600464 0.44527074694633484 0.16430623829364777
0.32223942875862122 0.45930427312850952 0.12416921555995941
0.43911552429199219 0.47461199760437012 0.060593023896217346
0.56848704814910889 0.48651280999183655 0.013734989799559116
0.67664647102355957 0.47690555453300476 0.0046408260241150856
0.76635849475860596 0.45749130845069885 0.0042649810202419758
0.8453788161277771 0.44425654411315918 0.0022237889934331179
0.91499751806259155 0.44334763288497925 0.00084982480620965362
0.97235405445098877 0.44623070955276489 0.0019952212460339069
0.99579769372940063 0.45473203063011169 0.0034715989604592323
0.0063320980407297611 0.53052866458892822 0.20969969034194946
0.022884175181388855 0.53443223237991333 0.2146826833486557
0.11590231955051422 0.53298485279083252 0.2201782763004303
0.21618880331516266 0.533069908618927 0.21889045834541321
0.3075312077999115 0.53910881280899048 0.19277538359165192
0.40796878933906555 0.54868400096893311 0.14697341620922089
0.52579218149185181 0.55945891141891479 0.07493109256029129
0.65348762273788452 0.56968772411346436 0.01827157661318779
0.75376039743423462 0.56075882911682129 0.0017854877514764667
0.83132851123809814 0.54208201169967651 0.0030166476499289274
0.90296292304992676 0.52846646308898926 0.003008479718118906
0.96181803941726685 0.51845681667327881 0.001281304401345551
0.99151992797851562 0.51635956764221191 0
0.013803684152662754 0.60927659273147583 0.26440033316612244
0.058041442185640335 0.61297374963760376 0.2721937894821167
0.1487339586019516 0.61016559600830078 0.27652528882026672
0.23539718985557556 0.60955071449279785 0.27588066458702087
0.31231993436813354 0.61037516593933105 0.26497077941894531
0.39802989363670349 0.61638575792312622 0.23576517403125763
0.49899369478225708 0.62324362993240356 0.18555589020252228
0.60926079750061035 0.63185989856719971 0.11853999644517899
0.72597187757492065 0.63870334625244141 0.038275878876447678
0.82339859008789062 0.63488620519638062 0.0050735771656036377
0.8933834433555603 0.61957430839538574 0.0033108131028711796
0.95210236310958862 0.60329830646514893 0.0029224022291600704
0.98744684457778931 0.59311109781265259 0.0022939045447856188
0.11153483390808105 0.68011212348937988 0.33191642165184021
0.16181376576423645 0.6808130145072937 0.33933991193771362
0.22095772624015808 0.67655819654464722 0.34331017732620239
0.28338563442230225 0.67475664615631104 0.34576943516731262
0.34755536913871765 0.67534303665161133 0.3407098650932312
0.41262713074684143 0.67837017774581909 0.32316297292709351
0.49767634272575378 0.68228757381439209 0.29035469889640808
0.59077936410903931 0.68830806016921997 0.24244010448455811
0.68844765424728394 0.69566231966018677 0.18270339071750641
0.7968478798866272 0.70559954643249512 0.095149248838424683
0.88119053840637207 0.70354688167572021 0.037834271788597107
0.94195538759231567 0.69006985425949097 0.016330284997820854
0.98674821853637695 0.67927855253219604 0.0045394296757876873
0.25515970587730408 0.74170529842376709 0.40938138961791992
0.28201115131378174 0.74029433727264404 0.41612428426742554
0.31503978371620178 0.7384001612663269 0.41712501645088196
0.35667592287063599 0.73642528057098389 0.41891402006149292
0.40494361519813538 0.73643296957015991 0.4194851815700531
0.45854905247688293 0.73656421899795532 0.41229638457298279
0.51595807075500488 0.74011701345443726 0.38892030715942383
0.5925215482711792 0.74495196342468262 0.35977804660797119
0.67431116104125977 0.75096678733825684 0.32155314087867737
0.76198762655258179 0.75646758079528809 0.26836547255516052
0.85012471675872803 0.76490694284439087 0.20690618455410004
0.9273717999458313 0.76814013719558716 0.13884179294109344
0.98285955190658569 0.76226150989532471 0.08299727737903595
0.38961425423622131 0.79892373085021973 0.49466511607170105
0.402596116065979 0.79583960771560669 0.4972689151763916
0.42615798115730286 0.79504215717315674 0.50224798917770386
0.45597466826438904 0.7943805456161499 0.50534749031066895
0.48941633105278015 0.79331690073013306 0.50621294975280762
0.52522557973861694 0.79164743423461914 0.50208765268325806
0.56598734855651855 0.79366034269332886 0.48840287327766418
0.6212964653968811 0.79864943027496338 0.46923094987869263
0.68036365509033203 0.80438017845153809 0.44584080576896667
0.74950516223907471 0.80837160348892212 0.40852472186088562
0.82298195362091064 0.8139348030090332 0.36488121747970581
0.90025633573532104 0.82504123449325562 0.31538385152816772
0.96669268608093262 0.8317980170249939 0.27155721187591553
0.5238645076751709 0.85647130012512207 0.58783680200576782
0.52504628896713257 0.85302561521530151 0.58714586496353149
0.54040789604187012 0.85226714611053467 0.59200525283813477
0.56275910139083862 0.85226714611053467 0.59620803594589233
0.58446013927459717 0.85176283121109009 0.59576910734176636
0.61063194274902344 0.84867197275161743 0.59637326002120972
0.64361578226089478 0.8495451807975769 0.59133738279342651
0.67530542612075806 0.85413146018981934 0.5763435959815979
0.71293562650680542 0.85901063680648804 0.56083637475967407
0.76241731643676758 0.86304384469985962 0.53541868925094604
0.81524783372879028 0.86808854341506958 0.50511813163757324
0.8744087815284729 0.8771635890007019 0.47428622841835022
0.93900829553604126 0.88658440113067627 0.43593522906303406
0.63352000713348389 0.90933918952941895 0.67471754550933838
0.63606268167495728 0.90830540657043457 0.67413556575775146
0.64420604705810547 0.90839970111846924 0.67635560035705566
0.65698325634002686 0.90846443176269531 0.67907077074050903
0.67041802406311035 0.9069526195526123 0.68013221025466919
0.69112658500671387 0.90733927488327026 0.68676519393920898
0.71422356367111206 0.90654021501541138 0.68777298927307129
0.73372781276702881 0.90877431631088257 0.67443513870239258
0.75679677724838257 0.9141579270362854 0.66628766059875488
0.79049199819564819 0.91940170526504517 0.65284633636474609
0.82679396867752075 0.92438912391662598 0.63600093126296997
0.87214630842208862 0.93201220035552979 0.61511015892028809
0.91942399740219116 0.93744403123855591 0.58996081352233887
0.12989558279514313 0.1048029288649559 0.13382405042648315
0.15567804872989655 0.10346610844135284 0.13130199909210205
0.19595208764076233 0.10055570304393768 0.1291661411523819
0.25555098056793213 0.092516101896762848 0.1251530647277832
0.35207131505012512 0.071800142526626587 0.12347907572984695
0.46139219403266907 0.033533193171024323 0.11655464768409729
0.57625937461853027 0.031915761530399323 0.1191333532333374
0.6903069019317627 0.052155900746583939 0.12556327879428864
0.78582656383514404 0.089297711849212646 0.12433259189128876
0.86597299575805664 0.12455973774194717 0.1152350902557373
0.93331021070480347 0.15978133678436279 0.10250609368085861
0.985035240650177 0.19977477192878723 0.093233786523342133
0.99827760457992554 0.24319067597389221 0.09057268500328064
0.1275458037853241 0.13259078562259674 0.14035522937774658
0.15748946368694305 0.13297130167484283 0.13849256932735443
0.20344243943691254 0.13300971686840057 0.13691528141498566
0.26600569486618042 0.12759412825107574 0.13268688321113586
0.36068964004516602 0.11450015753507614 0.12909899652004242
0.46920078992843628 0.10099183768033981 0.12652082741260529
0.58509153127670288 0.10486996173858643 0.12778080999851227
0.69415915012359619 0.12593656778335571 0.12821638584136963
0.78759765625 0.14568115770816803 0.11941011995077133
0.86589092016220093 0.16818928718566895 0.10817822068929672
0.93367737531661987 0.19613091647624969 0.096756875514984131
0.98426365852355957 0.22943213582038879 0.090820491313934326
0.99828314781188965 0.26585572957992554 0.087111636996269226
0.13020443916320801 0.18050141632556915 0.14728286862373352
0.15874446928501129 0.18046604096889496 0.14701375365257263
0.20981201529502869 0.18271182477474213 0.14624965190887451
0.27751365303993225 0.18291850388050079 0.14185607433319092
0.37362292408943176 0.18158015608787537 0.13429950177669525
0.48004594445228577 0.18526282906532288 0.12846231460571289
0.58996331691741943 0.19258373975753784 0.12675854563713074
0.69542032480239868 0.20331519842147827 0.12063232064247131
0.78885811567306519 0.21376293897628784 0.10723577439785004
0.86563706398010254 0.22918619215488434 0.093531467020511627
0.93350601196289062 0.24818843603134155 0.081779122352600098
0.98740005493164062 0.27030956745147705 0.077490039169788361
0.99866098165512085 0.30112576484680176 0.076054483652114868
0.13559556007385254 0.25134813785552979 0.16477371752262115
0.1602410227060318 0.25645822286605835 0.1667981892824173
0.20785701274871826 0.25778508186340332 0.16557911038398743
0.27814263105392456 0.26389464735984802 0.15844975411891937
0.38244760036468506 0.27576732635498047 0.13865166902542114
0.49119192361831665 0.2803407609462738 0.12234483659267426
0.59577399492263794 0.27956268191337585 0.1081472635269165
0.69490200281143188 0.28122797608375549 0.093669891357421875
0.78693908452987671 0.28581759333610535 0.081391490995883942
0.8630792498588562 0.29633715748786926 0.072578802704811096
0.93169385194778442 0.3099290132522583 0.061761640012264252
0.98613244295120239 0.32469102740287781 0.055990464985370636
0.99932843446731567 0.34837314486503601 0.05875091627240181
0.12700223922729492 0.35235178470611572 0.20284944772720337
0.15594169497489929 0.35445117950439453 0.20296578109264374
0.20312249660491943 0.35657665133476257 0.20019866526126862
0.26930025219917297 0.36230552196502686 0.19248156249523163
0.3667779266834259 0.37673851847648621 0.16437828540802002
0.48531961441040039 0.38781845569610596 0.12258698791265488
