luts/negative_old/kodak_portra_160_vc_+.cube
# Created by: G'MIC (https://gmic.eu)
TITLE "kodak_portra_160_vc_+"
# LUT size
LUT_3D_SIZE 13
# Data domain
DOMAIN_MIN 0.0 0.0 0.0
DOMAIN_MAX 1.0 1.0 1.0
# LUT data points
0.017599113285541534 0.073418214917182922 0.099128648638725281
0.041079800575971603 0.072294481098651886 0.095230206847190857
0.10871061682701111 0.077302388846874237 0.093694634735584259
0.2053791880607605 0.079229272902011871 0.091105788946151733
0.32283547520637512 0.080634281039237976 0.088831864297389984
0.44753938913345337 0.070425264537334442 0.081102482974529266
0.57617837190628052 0.048400115221738815 0.067213185131549835
0.69820183515548706 0.037935234606266022 0.047843515872955322
0.80034142732620239 0.047014497220516205 0.030578223988413811
0.87566882371902466 0.082139000296592712 0.02273242361843586
0.93916791677474976 0.1219012662768364 0.013246424496173859
0.98786747455596924 0.16545301675796509 0.011615857481956482
0.99909299612045288 0.20466563105583191 0.0065070656128227711
0.0042841294780373573 0.096849344670772552 0.099942825734615326
0.03459969162940979 0.10250707715749741 0.097642503678798676
0.11154478788375854 0.11204607784748077 0.092938773334026337
0.21332965791225433 0.1166832447052002 0.088804490864276886
0.33175724744796753 0.12069697678089142 0.082486137747764587
0.45947396755218506 0.11962240189313889 0.07240816205739975
0.58742356300354004 0.11916306614875793 0.055895023047924042
0.70293122529983521 0.11701524257659912 0.038458835333585739
0.80079811811447144 0.12449218332767487 0.024343917146325111
0.87510561943054199 0.14004264771938324 0.017325067892670631
0.93703716993331909 0.16850331425666809 0.010700075887143612
0.98407167196273804 0.20102077722549438 0.0077606947161257267
0.99891245365142822 0.23798844218254089 0.0067733614705502987
0.00060305127408355474 0.15578678250312805 0.10837492346763611
0.0095781059935688972 0.15705074369907379 0.10627017915248871
0.081703126430511475 0.16916035115718842 0.097060002386569977
0.20790491998195648 0.1822817325592041 0.08700205385684967
0.33819133043289185 0.18719837069511414 0.07321186363697052
0.47518932819366455 0.18912053108215332 0.054510407149791718
0.60045844316482544 0.1921439915895462 0.038481138646602631
0.71000725030899048 0.19289186596870422 0.023569637909531593
0.80128198862075806 0.19666096568107605 0.015211217105388641
0.87450134754180908 0.21013805270195007 0.012767956592142582
0.93745023012161255 0.23074392974376678 0.0078475652262568474
0.98415720462799072 0.25046691298484802 0.0068342769518494606
0.99848997592926025 0.27725237607955933 0.0052083930931985378
0.00022421444009523839 0.23613633215427399 0.12487028539180756
0.0036327436100691557 0.23754870891571045 0.12618865072727203
0.034296836704015732 0.2447562962770462 0.11613853275775909
0.17444844543933868 0.26386305689811707 0.097076922655105591
0.34008213877677917 0.28414821624755859 0.06420859694480896
0.48391669988632202 0.28520593047142029 0.034168917685747147
0.60303032398223877 0.27575460076332092 0.020873544737696648
0.70941424369812012 0.27066290378570557 0.014525005593895912
0.79819715023040771 0.27105051279067993 0.010054973885416985
0.87301737070083618 0.27953055500984192 0.0063535054214298725
0.93559449911117554 0.29644098877906799 0.0067534949630498886
0.98366516828536987 0.3121330738067627 0.0049686655402183533
0.99673247337341309 0.32586967945098877 0.0061769373714923859
0.00047858743346296251 0.33578187227249146 0.15168409049510956
0.0039920881390571594 0.33978787064552307 0.15500164031982422
0.012779625132679939 0.34402716159820557 0.14827215671539307
0.13309741020202637 0.35870105028152466 0.12701679766178131
0.30987253785133362 0.3774668276309967 0.087853826582431793
0.47632524371147156 0.39237251877784729 0.030376657843589783
0.59971171617507935 0.38314968347549438 0.010871827602386475
0.70307517051696777 0.36378881335258484 0.010836313478648663
0.78853738307952881 0.35295408964157104 0.0083181643858551979
0.86349141597747803 0.35237365961074829 0.0039487350732088089
0.9276268482208252 0.36150595545768738 0.0035378700122237206
0.9810187816619873 0.37039375305175781 0.0022045508958399296
0.99317306280136108 0.37831613421440125 0.0027053235098719597
0.0002583372697699815 0.43906232714653015 0.18513478338718414
0.0032670712098479271 0.44036900997161865 0.19130665063858032
0.010248146951198578 0.44104743003845215 0.18932545185089111
0.11918521672487259 0.4482598602771759 0.17225651443004608
0.28216922283172607 0.46085676550865173 0.14107890427112579
0.43384015560150146 0.47358429431915283 0.087079666554927826
0.58072108030319214 0.48554328083992004 0.024128109216690063
0.69163453578948975 0.47566103935241699 0.007802118081599474
0.77532815933227539 0.45497933030128479 0.0070338528603315353
0.85192614793777466 0.43692955374717712 0.0031897001899778843
0.91749149560928345 0.43050482869148254 0.001996268518269062
0.9735526442527771 0.43450319766998291 0.0023284314665943384
0.99288678169250488 0.43992003798484802 0.0026570938061922789
0.0015264324611052871 0.52878034114837646 0.22838063538074493
0.0019793491810560226 0.53063726425170898 0.23118007183074951
0.024025322869420052 0.52865517139434814 0.22939762473106384
0.15091702342033386 0.52977824211120605 0.22082814574241638
0.28104844689369202 0.536659836769104 0.19955222308635712
0.40700975060462952 0.5451350212097168 0.16308842599391937
0.53519344329833984 0.55566668510437012 0.10043688118457794
0.66688168048858643 0.56816387176513672 0.02733956091105938
0.76382195949554443 0.55868971347808838 0.0049204658716917038
0.83839452266693115 0.5370137095451355 0.0030613469425588846
0.90565317869186401 0.52029913663864136 0.0014038983499631286
0.96767091751098633 0.50952130556106567 0.0014715755823999643
0.99540251493453979 0.50578433275222778 0.0012938256841152906
0.0053889257833361626 0.60904783010482788 0.27251544594764709
0.023393323644995689 0.60997700691223145 0.27342787384986877
0.10181494057178497 0.6067579984664917 0.27645576000213623
0.21222035586833954 0.6035846471786499 0.27623289823532104
0.30524906516075134 0.60320925712585449 0.26002675294876099
0.40764430165290833 0.61034327745437622 0.2356516420841217
0.50982028245925903 0.6209031343460083 0.19737108051776886
0.62187212705612183 0.62988495826721191 0.12907135486602783
0.73535937070846558 0.63940227031707764 0.053942721337080002
0.82763528823852539 0.63529431819915771 0.0081905890256166458
0.89456063508987427 0.61894887685775757 0.0047971839085221291
0.95562529563903809 0.60176301002502441 0.0042944066226482391
0.99235600233078003 0.59040719270706177 0.0010743384482339025
0.11495278775691986 0.67856156826019287 0.32526251673698425
0.15973423421382904 0.6773039698600769 0.32910355925559998
0.22035250067710876 0.67397654056549072 0.33246055245399475
0.28495118021965027 0.66839301586151123 0.33883795142173767
0.35531413555145264 0.66875368356704712 0.32967039942741394
0.43105050921440125 0.67491728067398071 0.31081190705299377
0.51373308897018433 0.6837429404258728 0.28244921565055847
0.60482358932495117 0.69111514091491699 0.2444540411233902
0.69805973768234253 0.69768589735031128 0.1933179646730423
0.79668277502059937 0.70603454113006592 0.1133556142449379
0.88076233863830566 0.70513975620269775 0.046886969357728958
0.94564014673233032 0.69395333528518677 0.016534512862563133
0.99005043506622314 0.68187296390533447 0.0053691640496253967
0.28584113717079163 0.74134624004364014 0.3948882520198822
0.30281180143356323 0.73731207847595215 0.39856359362602234
0.32821908593177795 0.73451584577560425 0.40152078866958618
0.37200042605400085 0.73208159208297729 0.40559977293014526
0.42693912982940674 0.7321210503578186 0.40369892120361328
0.48095050454139709 0.73729360103607178 0.3896976113319397
0.53495240211486816 0.74330639839172363 0.37107580900192261
0.60826671123504639 0.74940389394760132 0.34806191921234131
0.6845242977142334 0.75448089838027954 0.31314253807067871
0.76519191265106201 0.75930005311965942 0.26355853676795959
0.85223066806793213 0.76785391569137573 0.20511159300804138
0.92916244268417358 0.76964938640594482 0.14576949179172516
0.98563688993453979 0.76475924253463745 0.095513634383678436
0.41038691997528076 0.79834723472595215 0.47866767644882202
0.42220309376716614 0.79476457834243774 0.47988986968994141
0.4421536922454834 0.79335951805114746 0.48158749938011169
0.4676070511341095 0.79215586185455322 0.4805244505405426
0.50248581171035767 0.79405122995376587 0.48078179359436035
0.53990757465362549 0.79455113410949707 0.47545531392097473
0.57960563898086548 0.79843008518218994 0.46660718321800232
0.63328325748443604 0.80341297388076782 0.44893446564674377
0.68845677375793457 0.80819118022918701 0.42231962084770203
0.75407892465591431 0.81292593479156494 0.39081376791000366
0.82476955652236938 0.81875455379486084 0.3533484935760498
0.90303856134414673 0.82895171642303467 0.30349469184875488
0.97325170040130615 0.83512157201766968 0.25968813896179199
0.52275526523590088 0.85339879989624023 0.57362669706344604
0.53247249126434326 0.85226714611053467 0.57429534196853638
0.54627001285552979 0.85222434997558594 0.57468730211257935
0.56401365995407104 0.85155147314071655 0.57422274351119995
0.58516508340835571 0.85130643844604492 0.57535701990127563
0.61430090665817261 0.85225450992584229 0.57338488101959229
0.64069467782974243 0.8533940315246582 0.57115453481674194
0.67630678415298462 0.85791182518005371 0.56006449460983276
0.71781826019287109 0.86217129230499268 0.54126137495040894
0.76728296279907227 0.8676411509513855 0.52049738168716431
0.81982123851776123 0.87320560216903687 0.49464511871337891
0.88010001182556152 0.88012522459030151 0.45734331011772156
0.94449275732040405 0.88750624656677246 0.41329622268676758
0.6315123438835144 0.90962255001068115 0.66889488697052002
0.6348535418510437 0.90866398811340332 0.66793382167816162
0.64476227760314941 0.9085579514503479 0.66980397701263428
0.65675067901611328 0.90811985731124878 0.67259836196899414
0.67129194736480713 0.90766578912734985 0.67465829849243164
0.69174844026565552 0.90772950649261475 0.67770582437515259
0.71251535415649414 0.90861409902572632 0.68033123016357422
0.73565942049026489 0.91240161657333374 0.67242717742919922
0.76007825136184692 0.91489911079406738 0.65732014179229736
0.79695379734039307 0.92110127210617065 0.64583790302276611
0.83508086204528809 0.92745649814605713 0.63180446624755859
0.87733250856399536 0.93424725532531738 0.60976475477218628
0.92717456817626953 0.93796193599700928 0.57891839742660522
0.011784182861447334 0.073349088430404663 0.12365294992923737
0.0401139035820961 0.073574230074882507 0.12181535363197327
0.10620682686567307 0.07250048965215683 0.11833579838275909
0.20396827161312103 0.061791736632585526 0.11609680950641632
0.32267993688583374 0.05899341031908989 0.11762429028749466
0.45057955384254456 0.054223887622356415 0.12022610753774643
0.57938855886459351 0.040599778294563293 0.11651419848203659
0.70090305805206299 0.038913890719413757 0.10891105979681015
0.79812395572662354 0.055516574531793594 0.10029266774654388
0.87412619590759277 0.090564802289009094 0.091636911034584045
0.9362189769744873 0.13310350477695465 0.086079448461532593
0.98847144842147827 0.17429319024085999 0.073041640222072601
0.99950039386749268 0.21660742163658142 0.06819877028465271
0.0046208999119699001 0.10289806127548218 0.12740030884742737
0.034074895083904266 0.107377789914608 0.12827190756797791
0.11121724545955658 0.11377288401126862 0.1278250515460968
0.21329948306083679 0.11221127957105637 0.12217402458190918
0.33581340312957764 0.1069982498884201 0.11949479579925537
0.46540281176567078 0.11291227489709854 0.12031152844429016
0.59224766492843628 0.11277886480093002 0.11337299644947052
0.70797723531723022 0.11744651198387146 0.10479263961315155
0.8004876971244812 0.13267363607883453 0.095685027539730072
0.87392735481262207 0.14863167703151703 0.084190413355827332
0.93621540069580078 0.17589251697063446 0.07327677309513092
0.98429316282272339 0.20847392082214355 0.065017819404602051
0.99915152788162231 0.2471274733543396 0.064938850700855255
0.0026885985862463713 0.16813032329082489 0.14274641871452332
0.015890307724475861 0.16793853044509888 0.14074103534221649
0.091414116322994232 0.17335246503353119 0.1368141770362854
0.21573108434677124 0.1817169189453125 0.12933328747749329
0.34554246068000793 0.18105483055114746 0.11658268421888351
0.48060977458953857 0.1863095760345459 0.11113026738166809
0.60465162992477417 0.19044865667819977 0.10365522652864456
0.71282970905303955 0.19519683718681335 0.091689795255661011
0.8013075590133667 0.20480188727378845 0.081103622913360596
0.87467867136001587 0.2156679630279541 0.066713519394397736
0.93675011396408081 0.23464389145374298 0.054937191307544708
0.98500686883926392 0.25497686862945557 0.049147557467222214
0.99962031841278076 0.28193974494934082 0.051598582416772842
0.0024436800740659237 0.2485010176897049 0.1599622517824173
0.0062844967469573021 0.24820385873317719 0.16124540567398071
0.057157643139362335 0.25057327747344971 0.15717510879039764
0.196477010846138 0.26892849802970886 0.14295877516269684
0.34929743409156799 0.28201296925544739 0.11855661869049072
0.48847487568855286 0.27994543313980103 0.096773408353328705
0.60476326942443848 0.27494484186172485 0.078927807509899139
0.71079367399215698 0.2727210521697998 0.061316441744565964
0.79875665903091431 0.27654737234115601 0.053612083196640015
0.87213563919067383 0.2852441668510437 0.043321017175912857
0.93564873933792114 0.29708728194236755 0.035919219255447388
0.98602604866027832 0.31183457374572754 0.032735306769609451
0.99965041875839233 0.32729887962341309 0.03371104970574379
0.0020010105799883604 0.34639126062393188 0.18734017014503479
0.0052870954386889935 0.34861323237419128 0.19150768220424652
0.037847571074962616 0.349609375 0.18857097625732422
0.16945931315422058 0.36316850781440735 0.17374974489212036
0.32731321454048157 0.37997174263000488 0.14218664169311523
0.48103925585746765 0.39069831371307373 0.103559710085392
0.60159033536911011 0.37994518876075745 0.06575407087802887
0.70589184761047363 0.36381086707115173 0.036336593329906464
0.79174119234085083 0.35534188151359558 0.027825793251395226
0.86390513181686401 0.35625529289245605 0.021127767860889435
0.92918747663497925 0.36250966787338257 0.017853651195764542
0.98300576210021973 0.37111493945121765 0.01638997346162796
0.99821478128433228 0.38273364305496216 0.020607203245162964
0.0016362059395760298 0.44646313786506653 0.21844442188739777
0.0040430556982755661 0.44928130507469177 0.22261850535869598
0.038669764995574951 0.44786104559898376 0.22091113030910492
0.17033901810646057 0.4526183009147644 0.21040049195289612
0.30328318476676941 0.46302059292793274 0.18630470335483551
0.44262957572937012 0.4758913516998291 0.14806604385375977
0.58126568794250488 0.48197492957115173 0.090068027377128601
0.69428509473800659 0.47386503219604492 0.040472380816936493
0.77969014644622803 0.45389056205749512 0.019196828827261925
0.85431134700775146 0.43709436058998108 0.010038084350526333
0.91986382007598877 0.43296188116073608 0.0067836986854672432
0.97504168748855591 0.43628445267677307 0.0077486075460910797
0.99711066484451294 0.44514220952987671 0.008711586706340313
0.0014676561113446951 0.53351074457168579 0.25440710783004761
0.0081962589174509048 0.53669410943984985 0.25699517130851746
0.07196538895368576 0.53440254926681519 0.25746646523475647
0.19145116209983826 0.53383851051330566 0.25263768434524536
0.30470725893974304 0.53858280181884766 0.23472417891025543
0.4151187539100647 0.54610520601272583 0.2077973335981369
0.54124921560287476 0.55603456497192383 0.15775969624519348
0.66959249973297119 0.56765437126159668 0.085343800485134125
0.76583719253540039 0.55989885330200195 0.035412926226854324
0.84170371294021606 0.54042243957519531 0.012467343360185623
0.90932917594909668 0.52255648374557495 0.0053286831825971603
0.96804022789001465 0.51044857501983643 0.0060257706791162491
0.99520719051361084 0.51097756624221802 0.0049386266618967056
0.030098710209131241 0.61346954107284546 0.29520675539970398
0.073057986795902252 0.6136278510093689 0.29797422885894775
0.15594692528247833 0.60942554473876953 0.30179205536842346
0.23825277388095856 0.60539418458938599 0.30234915018081665
0.32330259680747986 0.60571873188018799 0.29050609469413757
0.41835159063339233 0.61229127645492554 0.26794111728668213
0.5175776481628418 0.62142467498779297 0.23574192821979523
0.62700790166854858 0.62996649742126465 0.18342408537864685
0.73553335666656494 0.63794457912445068 0.1146773099899292
0.82858192920684814 0.63567256927490234 0.055609907954931259
0.8977389931678772 0.62109911441802979 0.02138100378215313
0.95750784873962402 0.60377955436706543 0.0096566295251250267
0.99328398704528809 0.59182471036911011 0.0041472041048109531
0.1699783056974411 0.68073618412017822 0.34486818313598633
0.21128948032855988 0.68040436506271362 0.35173675417900085
0.2526032030582428 0.67715412378311157 0.3568117618560791
0.31197711825370789 0.67267358303070068 0.35710081458091736
0.37338906526565552 0.67214840650558472 0.35058301687240601
0.44017741084098816 0.67672866582870483 0.33509105443954468
0.51949608325958252 0.68445956707000732 0.31055864691734314
0.60607343912124634 0.69150608777999878 0.27771025896072388
0.70165175199508667 0.697154700756073 0.23033034801483154
0.79929876327514648 0.70568203926086426 0.17275798320770264
0.88385266065597534 0.70751833915710449 0.1113162487745285
0.94648450613021851 0.69469106197357178 0.061971805989742279
0.99272423982620239 0.68178057670593262 0.024453315883874893
0.30665120482444763 0.74050575494766235 0.40860015153884888
0.32673519849777222 0.74021440744400024 0.4177948534488678
0.35476326942443848 0.7386171817779541 0.41964152455329895
0.39374873042106628 0.73676890134811401 0.41932922601699829
0.44139382243156433 0.73655956983566284 0.41735351085662842
0.48673301935195923 0.73677653074264526 0.4087664783000946
0.54441636800765991 0.74212706089019775 0.39212650060653687
0.60886228084564209 0.74778479337692261 0.36723965406417847
0.68644541501998901 0.75406491756439209 0.33550551533699036
0.76881718635559082 0.76043605804443359 0.29328840970993042
0.85633546113967896 0.76985627412796021 0.24307769536972046
0.93019199371337891 0.77097004652023315 0.19494201242923737
0.98635971546173096 0.76547092199325562 0.15156067907810211
0.42400243878364563 0.79828393459320068 0.49111974239349365
0.43713057041168213 0.79796105623245239 0.49069729447364807
0.45555028319358826 0.7967563271522522 0.49196380376815796
0.48297098278999329 0.79584497213363647 0.49807104468345642
0.51683968305587769 0.79490447044372559 0.50013583898544312
0.55102020502090454 0.79436379671096802 0.4965268075466156
0.59123611450195312 0.79706054925918579 0.48513925075531006
0.63951599597930908 0.8025050163269043 0.46655142307281494
0.69182991981506348 0.80807721614837646 0.43917420506477356
0.75592148303985596 0.81287741661071777 0.40958619117736816
0.82758474349975586 0.81963229179382324 0.37274396419525146
0.90482479333877563 0.83046078681945801 0.32779815793037415
0.97278404235839844 0.83578920364379883 0.28916090726852417
0.5362098217010498 0.85517698526382446 0.58356267213821411
0.54071080684661865 0.85297340154647827 0.57986211776733398
0.55103188753128052 0.8526076078414917 0.58127719163894653
0.57266533374786377 0.85268676280975342 0.58787268400192261
0.59715014696121216 0.85230648517608643 0.59158116579055786
0.62349790334701538 0.85226714611053467 0.59145057201385498
0.64844554662704468 0.8529776930809021 0.58617806434631348
0.68613886833190918 0.85775274038314819 0.57224643230438232
0.7251887321472168 0.86186373233795166 0.55004948377609253
0.77054828405380249 0.86723047494888306 0.53010410070419312
0.8203088641166687 0.87386548519134521 0.50773966312408447
0.87909102439880371 0.88078135251998901 0.4739806056022644
0.94632631540298462 0.88868981599807739 0.43169572949409485
0.63742774724960327 0.90909790992736816 0.67357248067855835
0.63971984386444092 0.90875279903411865 0.67328500747680664
0.64764875173568726 0.90848761796951294 0.67539876699447632
0.66007429361343384 0.90753024816513062 0.67761826515197754
0.6773715615272522 0.908222496509552 0.682178795337677
0.69568735361099243 0.90686863660812378 0.68330198526382446
0.71347600221633911 0.90701746940612793 0.68329650163650513
0.73704862594604492 0.91164165735244751 0.67823725938796997
0.76712745428085327 0.916861891746521 0.66741877794265747
0.80036336183547974 0.9221426248550415 0.65328258275985718
0.83559972047805786 0.92793875932693481 0.63909721374511719
0.87692141532897949 0.93324571847915649 0.61800658702850342
0.92784023284912109 0.93800199031829834 0.58803606033325195
0.003974525723606348 0.078472480177879333 0.17988041043281555
0.035062603652477264 0.080497100949287415 0.18045935034751892
0.10819593071937561 0.080969236791133881 0.1753498762845993
0.20025858283042908 0.068106979131698608 0.17031461000442505
0.323589026927948 0.037747610360383987 0.16775567829608917
0.45516496896743774 0.014338324777781963 0.16758967936038971
0.58758741617202759 0.015884758904576302 0.17080104351043701
0.70658969879150391 0.037428028881549835 0.17997701466083527
0.79848015308380127 0.076522558927536011 0.18153031170368195
0.87170296907424927 0.12053132802248001 0.18033349514007568
0.93518990278244019 0.15929350256919861 0.17524881660938263
0.98137003183364868 0.19979199767112732 0.17235010862350464
0.99685269594192505 0.24112981557846069 0.17188084125518799
0.0035090278834104538 0.11617957055568695 0.18737125396728516
0.024602118879556656 0.11840777099132538 0.1883295476436615
0.10966629534959793 0.12231253832578659 0.18644864857196808
0.21141181886196136 0.11583000421524048 0.17982251942157745
0.33716303110122681 0.099239826202392578 0.17612485587596893
0.4697030782699585 0.083338961005210876 0.17637574672698975
0.59995335340499878 0.094032019376754761 0.18134242296218872
0.71201258897781372 0.11910117417573929 0.18484130501747131
0.79949492216110229 0.14650660753250122 0.18199263513088226
0.87263649702072144 0.16779425740242004 0.17476858198642731
0.9354240894317627 0.19516019523143768 0.16925472021102905
0.98273134231567383 0.22785495221614838 0.16716945171356201
0.99773162603378296 0.26712802052497864 0.16970813274383545
0.0019596472848206758 0.17682774364948273 0.19410149753093719
0.016041280701756477 0.17868436872959137 0.19561886787414551
0.10374317318201065 0.18255244195461273 0.19704532623291016
0.21972082555294037 0.18679247796535492 0.1928747147321701
0.35357674956321716 0.1845109760761261 0.18561051785945892
0.48706191778182983 0.18895654380321503 0.1865437924861908
0.60789215564727783 0.19534981250762939 0.18464761972427368
0.71497935056686401 0.20455308258533478 0.17948216199874878
0.7997666597366333 0.21732503175735474 0.17219331860542297
0.87164127826690674 0.23229467868804932 0.16593188047409058
0.93319594860076904 0.25087496638298035 0.16098098456859589
0.98611384630203247 0.26998645067214966 0.15689334273338318
0.99855351448059082 0.30023342370986938 0.16020973026752472
0.0029407874681055546 0.26163893938064575 0.21173578500747681
0.016254888847470284 0.26219582557678223 0.21366982161998749
0.10448259860277176 0.26355460286140442 0.21480715274810791
0.22386123239994049 0.2725338339805603 0.20784538984298706
0.36558490991592407 0.28061383962631226 0.19194182753562927
0.49722075462341309 0.27912089228630066 0.18012049794197083
0.60958969593048096 0.28075620532035828 0.17109596729278564
0.71255397796630859 0.28195825219154358 0.15951249003410339
0.79817849397659302 0.28979319334030151 0.15563707053661346
0.86801093816757202 0.30220970511436462 0.15205429494380951
0.93161803483963013 0.31055724620819092 0.14769493043422699
0.98503774404525757 0.32437068223953247 0.14369834959506989
0.99989205598831177 0.33886975049972534 0.14207224547863007
0.0065679661929607391 0.36569556593894958 0.24393573403358459
0.031499557197093964 0.36590337753295898 0.24427752196788788
0.11214400827884674 0.36537525057792664 0.24437618255615234
0.21887335181236267 0.36999773979187012 0.23713876307010651
