luts/negative_old/kodak_portra_400_nc.cube
# Created by: G'MIC (https://gmic.eu)
TITLE "kodak_portra_400_nc"
# LUT size
LUT_3D_SIZE 13
# Data domain
DOMAIN_MIN 0.0 0.0 0.0
DOMAIN_MAX 1.0 1.0 1.0
# LUT data points
0.049032337963581085 0.067753210663795471 0.060001641511917114
0.064872100949287415 0.061562884598970413 0.057572294026613235
0.10610538721084595 0.05979195237159729 0.052605003118515015
0.17900705337524414 0.064109846949577332 0.050892654806375504
0.27779173851013184 0.0705132856965065 0.047256752848625183
0.39627397060394287 0.071496911346912384 0.041124559938907623
0.51273542642593384 0.061671357601881027 0.02670968696475029
0.62265676259994507 0.051978360861539841 0.014670518226921558
0.71472269296646118 0.057746138423681259 0.0088204480707645416
0.78583991527557373 0.083448179066181183 0.0072822719812393188
0.84721881151199341 0.11855082958936691 0.013579140417277813
0.90908992290496826 0.15388858318328857 0.013684291392564774
0.96897274255752563 0.1911013126373291 0.019467027857899666
0.041238628327846527 0.078665308654308319 0.06209157407283783
0.061894182115793228 0.08060137927532196 0.05826900526881218
0.11551602184772491 0.091259106993675232 0.051916547119617462
0.20083975791931152 0.10322842746973038 0.045171249657869339
0.29725205898284912 0.10816220939159393 0.038851134479045868
0.41594329476356506 0.11274050176143646 0.029213475063443184
0.53654199838638306 0.11251243203878403 0.018370550125837326
0.64226812124252319 0.11059775203466415 0.010137774981558323
0.72247022390365601 0.11718132346868515 0.0073389089666306973
0.79277652502059937 0.13491068780422211 0.0062847211956977844
0.8546680212020874 0.1629149466753006 0.011145737953484058
0.91528213024139404 0.18676823377609253 0.011130927130579948
0.97197502851486206 0.21177734434604645 0.014784883707761765
0.030094161629676819 0.12949241697788239 0.071820035576820374
0.059201303869485855 0.13300971686840057 0.067880101501941681
0.11924324929714203 0.1452520489692688 0.05503985658288002
0.2100522369146347 0.16103078424930573 0.036697760224342346
0.33019104599952698 0.17580288648605347 0.020587531849741936
0.4559815526008606 0.18253022432327271 0.010952474549412727
0.57628411054611206 0.18678922951221466 0.0064469282515347004
0.66954368352890015 0.18922534584999084 0.0083239683881402016
0.7427484393119812 0.19188296794891357 0.0095048043876886368
0.8070065975189209 0.20239457488059998 0.0067384159192442894
0.86782222986221313 0.22138004004955292 0.0083826100453734398
0.92597967386245728 0.23566600680351257 0.0079447878524661064
0.97556591033935547 0.253713458776474 0.010206050239503384
0.013398712500929832 0.20638316869735718 0.089824795722961426
0.048833824694156647 0.20769861340522766 0.090645812451839447
0.11318899691104889 0.21946978569030762 0.076373770833015442
0.20397725701332092 0.24193742871284485 0.043166395276784897
0.3450959324836731 0.27457514405250549 0.0098036518320441246
0.49140769243240356 0.2890116274356842 0.0027242773212492466
0.61228805780410767 0.2884652316570282 0.0028895358555018902
0.69951581954956055 0.28481164574623108 0.0050802193582057953
0.76357752084732056 0.28056749701499939 0.0070960251614451408
0.82399314641952515 0.28150483965873718 0.0079880654811859131
0.87973874807357788 0.28548052906990051 0.0078011308796703815
0.93341046571731567 0.2967725396156311 0.0075225979089736938
0.98116946220397949 0.31172898411750793 0.0059213824570178986
0.0053471135906875134 0.31217634677886963 0.12425993382930756
0.028034389019012451 0.31443622708320618 0.1249503493309021
0.10706501454114914 0.32268652319908142 0.11363905668258667
0.21067135035991669 0.34156739711761475 0.085878156125545502
0.33607524633407593 0.37043359875679016 0.027390139177441597
0.48712244629859924 0.40314829349517822 0.0017052146140486002
0.61226910352706909 0.40535470843315125 0.00061510870000347495
0.70636558532714844 0.39173272252082825 0.001789152855053544
0.78150981664657593 0.37767332792282104 0.0027076571714133024
0.84114730358123779 0.36985492706298828 0.0037208856083452702
0.89149695634841919 0.36471879482269287 0.0046042348258197308
0.94107222557067871 0.36882713437080383 0.0063559440895915031
0.98526614904403687 0.37872475385665894 0.0060572754591703415
0.0045957975089550018 0.42461445927619934 0.16364063322544098
0.02421252615749836 0.42792752385139465 0.16467586159706116
0.11809659749269485 0.4314180314540863 0.15634161233901978
0.22010600566864014 0.4398045539855957 0.13669952750205994
0.32636982202529907 0.45793390274047852 0.09022974967956543
0.45322272181510925 0.48296710848808289 0.02401040680706501
0.58780854940414429 0.50658619403839111 0.0042206556536257267
0.68885213136672974 0.50334638357162476 0.00077432370744645596
0.76945436000823975 0.48402038216590881 0.0011068007443100214
0.8394278883934021 0.46779078245162964 0.0014287910889834166
0.90084803104400635 0.45514705777168274 0.001207882771268487
0.95046085119247437 0.45125967264175415 0.0037725111469626427
0.98768198490142822 0.45121112465858459 0.003988348413258791
0.017173841595649719 0.52233988046646118 0.21075239777565002
0.0683303102850914 0.52557462453842163 0.21429729461669922
0.16400574147701263 0.52176487445831299 0.21241326630115509
0.24848003685474396 0.52197188138961792 0.20358353853225708
0.33853313326835632 0.53389590978622437 0.16857555508613586
0.43077504634857178 0.55112850666046143 0.1165214404463768
0.53760749101638794 0.56868958473205566 0.041775975376367569
0.65265876054763794 0.58763301372528076 0.0066881966777145863
0.74475979804992676 0.5843818187713623 0.00099268893245607615
0.81813782453536987 0.56819719076156616 0.00081992056220769882
0.88926821947097778 0.54984694719314575 0.00096806546207517385
0.95041853189468384 0.53464412689208984 0.0012524174526333809
0.99259215593338013 0.52578473091125488 0.0022603652905672789
0.13443471491336823 0.5992581844329834 0.27399179339408875
0.18753045797348022 0.60037738084793091 0.28032642602920532
0.24329455196857452 0.59593349695205688 0.27892592549324036
0.29940566420555115 0.59209620952606201 0.27321538329124451
0.36747980117797852 0.59777945280075073 0.24864746630191803
0.43720179796218872 0.61101645231246948 0.2176252007484436
0.51348096132278442 0.62493818998336792 0.16680404543876648
0.60429626703262329 0.63896620273590088 0.087841644883155823
0.70629096031188965 0.65572130680084229 0.019025750458240509
0.79703402519226074 0.65808743238449097 0.0010520037030801177
0.86700057983398438 0.64202231168746948 0.0034641639795154333
0.93204891681671143 0.62595063447952271 0.0039596855640411377
0.98706471920013428 0.61091715097427368 0.0030750199221074581
0.26669496297836304 0.66598975658416748 0.34879472851753235
0.29825574159622192 0.66655099391937256 0.3581383228302002
0.33206701278686523 0.66223323345184326 0.35453328490257263
0.36362874507904053 0.65707576274871826 0.34467354416847229
0.40355947613716125 0.65954309701919556 0.33654671907424927
0.45504999160766602 0.66946446895599365 0.31479558348655701
0.51540040969848633 0.68092143535614014 0.28267225623130798
0.58780699968338013 0.69230246543884277 0.23495657742023468
0.66586005687713623 0.70435720682144165 0.16663059592247009
0.75826871395111084 0.71903842687606812 0.07541491836309433
0.846061110496521 0.72340011596679688 0.017740959301590919
0.91493749618530273 0.7111700177192688 0.015166413970291615
0.974578857421875 0.69713056087493896 0.020874995738267899
0.37590852379798889 0.72641462087631226 0.42833945155143738
0.39091187715530396 0.72531604766845703 0.43039914965629578
0.40997672080993652 0.72272366285324097 0.42625737190246582
0.43785297870635986 0.7191358208656311 0.4192938506603241
0.46825310587882996 0.72080087661743164 0.41633355617523193
0.4988657534122467 0.72637766599655151 0.40367284417152405
0.54136306047439575 0.73379963636398315 0.38262659311294556
0.59712421894073486 0.74261623620986938 0.35517644882202148
0.6562005877494812 0.75293701887130737 0.31900510191917419
0.72691792249679565 0.76162225008010864 0.2630353569984436
0.80839383602142334 0.77353113889694214 0.18992801010608673
0.8918798565864563 0.77844083309173584 0.13565373420715332
0.95764303207397461 0.77193260192871094 0.14998070895671844
0.46632948517799377 0.78156256675720215 0.50042861700057983
0.4743291437625885 0.78051811456680298 0.5000232458114624
0.48708346486091614 0.78089189529418945 0.49957066774368286
0.51096624135971069 0.77868187427520752 0.49994105100631714
0.53845936059951782 0.77965760231018066 0.50012165307998657
0.56209123134613037 0.78138673305511475 0.49612647294998169
0.58734214305877686 0.78426003456115723 0.48276925086975098
0.62236863374710083 0.7909778356552124 0.46237662434577942
0.66705882549285889 0.79864799976348877 0.43824166059494019
0.72485697269439697 0.80654293298721313 0.40504446625709534
0.78704577684402466 0.81501704454421997 0.37061131000518799
0.86173933744430542 0.82481628656387329 0.31888613104820251
0.93894374370574951 0.83462345600128174 0.2912578284740448
0.56117826700210571 0.83501517772674561 0.58652150630950928
0.56844919919967651 0.83532613515853882 0.58804112672805786
0.57604056596755981 0.8352426290512085 0.58763521909713745
0.59406876564025879 0.8351600170135498 0.59066534042358398
0.61504131555557251 0.83516663312911987 0.59425872564315796
0.63031661510467529 0.83324092626571655 0.59207403659820557
0.64741474390029907 0.83425402641296387 0.58289754390716553
0.67310440540313721 0.84041786193847656 0.56862747669219971
0.70564883947372437 0.84719210863113403 0.55097860097885132
0.74291151762008667 0.85406488180160522 0.53278982639312744
0.79208678007125854 0.86166739463806152 0.51202338933944702
0.84780764579772949 0.86851167678833008 0.48266533017158508
0.90918904542922974 0.87661194801330566 0.446706622838974
0.65922367572784424 0.88729166984558105 0.67826133966445923
0.66505402326583862 0.8886067271232605 0.6816171407699585
0.66983157396316528 0.88781023025512695 0.68004763126373291
0.6826927661895752 0.88871198892593384 0.68339633941650391
0.69544637203216553 0.88833236694335938 0.68672925233840942
0.70804685354232788 0.88779968023300171 0.68691748380661011
0.71961557865142822 0.88702994585037231 0.6823306679725647
0.73588472604751587 0.89068138599395752 0.67677181959152222
0.76121008396148682 0.89859366416931152 0.66723287105560303
0.78800433874130249 0.90594840049743652 0.65427905321121216
0.81915754079818726 0.91168659925460815 0.63998103141784668
0.8626747727394104 0.92128521203994751 0.62726294994354248
0.90676242113113403 0.92799723148345947 0.60457754135131836
0.04237983375787735 0.06237831711769104 0.082052446901798248
0.063403472304344177 0.05637027695775032 0.079254895448684692
0.11586526781320572 0.055372245609760284 0.079674877226352692
0.18595066666603088 0.047828450798988342 0.077457606792449951
0.27730879187583923 0.044882006943225861 0.078998327255249023
0.39160424470901489 0.047239281237125397 0.083632931113243103
0.50856983661651611 0.040625285357236862 0.081025965511798859
0.62084084749221802 0.032380495220422745 0.074417188763618469
0.71262675523757935 0.043299894779920578 0.070137321949005127
0.78255337476730347 0.072765350341796875 0.067716814577579498
0.84433609247207642 0.11124647408723831 0.0750245600938797
0.9061279296875 0.15254119038581848 0.076917000114917755
0.96628981828689575 0.19054253399372101 0.086884908378124237
0.033791769295930862 0.08113599568605423 0.085851617157459259
0.064223915338516235 0.083416730165481567 0.087059542536735535
0.12407389283180237 0.088757984340190887 0.084832705557346344
0.20531821250915527 0.092091642320156097 0.080918438732624054
0.29896992444992065 0.096360288560390472 0.081539973616600037
0.41247251629829407 0.099903032183647156 0.080453015863895416
0.53473299741744995 0.098259374499320984 0.073905646800994873
0.64078813791275024 0.09869740903377533 0.066320084035396576
0.721457839012146 0.11046367138624191 0.061490930616855621
0.79055297374725342 0.13344855606555939 0.059429317712783813
0.85300940275192261 0.16268929839134216 0.063836149871349335
0.91230535507202148 0.1871214359998703 0.06886608898639679
0.96917092800140381 0.21465291082859039 0.080946125090122223
0.026422044262290001 0.13886944949626923 0.10365954786539078
0.064460352063179016 0.14261475205421448 0.10391566157341003
0.12490038573741913 0.14920687675476074 0.09727071225643158
0.21667091548442841 0.16099028289318085 0.087744817137718201
0.33046013116836548 0.17006249725818634 0.07767052948474884
0.45799815654754639 0.17579132318496704 0.067232273519039154
0.57481557130813599 0.17884095013141632 0.058507326990365982
0.66770964860916138 0.18251241743564606 0.051087517291307449
0.7419394850730896 0.18837827444076538 0.046060733497142792
0.80568891763687134 0.20232492685317993 0.043307658284902573
0.86649441719055176 0.22289006412029266 0.045784413814544678
0.92263889312744141 0.23837490379810333 0.055478442460298538
0.97354346513748169 0.25945010781288147 0.070927321910858154
0.012725231237709522 0.22002699971199036 0.12907333672046661
0.056863822042942047 0.22092178463935852 0.13009960949420929
0.12375302612781525 0.22540706396102905 0.12138742208480835
0.21604336798191071 0.24664983153343201 0.098694823682308197
0.35679084062576294 0.27606064081192017 0.066040173172950745
0.4971109926700592 0.28461694717407227 0.04585946723818779
0.61499929428100586 0.28191700577735901 0.030788691714406013
0.69525778293609619 0.27987957000732422 0.031303048133850098
0.76325023174285889 0.27503213286399841 0.028612801805138588
0.82326352596282959 0.27720808982849121 0.028784045949578285
0.87835407257080078 0.28641578555107117 0.032864589244127274
0.93077605962753296 0.29911643266677856 0.041885718703269958
0.97825652360916138 0.3157791793346405 0.063379712402820587
0.0070115183480083942 0.32820561528205872 0.1674683690071106
0.041682403534650803 0.32717105746269226 0.16544525325298309
0.12698426842689514 0.33056077361106873 0.15947264432907104
0.22080628573894501 0.34678459167480469 0.13972584903240204
0.34917125105857849 0.37520033121109009 0.089935228228569031
0.49834463000297546 0.40392982959747314 0.029997013509273529
0.62071943283081055 0.40168198943138123 0.012725037522614002
0.71059906482696533 0.38516691327095032 0.011516062542796135
0.78085982799530029 0.37270408868789673 0.011165439151227474
0.83784711360931396 0.36674529314041138 0.016414791345596313
0.88978898525238037 0.36450552940368652 0.018243199214339256
0.93971389532089233 0.36835220456123352 0.027177264913916588
0.98426395654678345 0.37877985835075378 0.04395567998290062
0.0072163897566497326 0.44152191281318665 0.2062547504901886
0.048885643482208252 0.44048318266868591 0.20473708212375641
0.14724089205265045 0.43878018856048584 0.20259211957454681
0.23674127459526062 0.44296237826347351 0.18775869905948639
0.34265321493148804 0.46179205179214478 0.14916600286960602
0.46637576818466187 0.48621514439582825 0.077486075460910797
0.59289902448654175 0.50727647542953491 0.020681582391262054
0.6930050253868103 0.50006252527236938 0.0071412031538784504
0.77281773090362549 0.48184803128242493 0.0058789569884538651
0.84157317876815796 0.46377024054527283 0.0095687862485647202
0.89907228946685791 0.45251274108886719 0.011273462325334549
0.94929927587509155 0.44715622067451477 0.014738075435161591
0.98860126733779907 0.44985318183898926 0.023194601759314537
0.056972518563270569 0.53296846151351929 0.24813009798526764
0.12267171591520309 0.53397214412689209 0.25111061334609985
0.20260787010192871 0.52796584367752075 0.24911341071128845
0.27435937523841858 0.52525061368942261 0.2418350875377655
0.34828975796699524 0.5358273983001709 0.21850226819515228
0.44031587243080139 0.55322062969207764 0.17269103229045868
0.5466538667678833 0.56906783580780029 0.10013149678707123
0.6549917459487915 0.58673608303070068 0.029995517805218697
0.74733805656433105 0.58420723676681519 0.0062731723301112652
0.82196259498596191 0.56620335578918457 0.0094575472176074982
0.89166581630706787 0.54791933298110962 0.0099537568166851997
0.95128214359283447 0.53248566389083862 0.0070923748426139355
0.99049109220504761 0.52601033449172974 0.012260661460459232
0.185191810131073 0.60597389936447144 0.30705711245536804
0.22204782068729401 0.6047247052192688 0.31069573760032654
0.27552497386932373 0.5999443531036377 0.30796155333518982
0.3279101550579071 0.5972408652305603 0.30357187986373901
0.3788391649723053 0.60057812929153442 0.29032891988754272
0.44395571947097778 0.6122012734413147 0.26149284839630127
0.51999223232269287 0.62582814693450928 0.2158045768737793
0.60988229513168335 0.64078390598297119 0.14639915525913239
0.70973777770996094 0.65745621919631958 0.058911088854074478
0.79915952682495117 0.65934592485427856 0.014792692847549915
0.87024575471878052 0.64437055587768555 0.01596362516283989
0.93532609939575195 0.62669700384140015 0.013889088295400143
0.98737680912017822 0.61097294092178345 0.015358809381723404
0.29546162486076355 0.67116004228591919 0.37348252534866333
0.31624463200569153 0.67104494571685791 0.37524029612541199
0.34827709197998047 0.66771268844604492 0.37305399775505066
0.3846479058265686 0.66349560022354126 0.36866766214370728
0.42051339149475098 0.66352319717407227 0.36292183399200439
0.46914100646972656 0.67114311456680298 0.34109383821487427
0.52487510442733765 0.68204563856124878 0.30943471193313599
0.58944082260131836 0.6938478946685791 0.27240073680877686
0.67191720008850098 0.70545071363449097 0.21222499012947083
0.76126062870025635 0.71979469060897827 0.12766581773757935
0.84764492511749268 0.72402918338775635 0.074530370533466339
0.91589653491973877 0.71149218082427979 0.076359875500202179
0.97360575199127197 0.69634878635406494 0.085642747581005096
0.38946348428726196 0.72967833280563354 0.44289508461952209
0.40127244591712952 0.72805100679397583 0.44311907887458801
0.41915509104728699 0.72630620002746582 0.44175645709037781
0.44978243112564087 0.72382444143295288 0.43974077701568604
0.47861871123313904 0.72315096855163574 0.43747851252555847
0.51361632347106934 0.72751849889755249 0.42100116610527039
0.55265092849731445 0.73578369617462158 0.40128320455551147
0.5963287353515625 0.7441437840461731 0.37909612059593201
0.65978538990020752 0.75371873378753662 0.34453737735748291
0.7287442684173584 0.76234662532806396 0.29732361435890198
0.81076914072036743 0.77403819561004639 0.23743848502635956
0.89291477203369141 0.77887701988220215 0.195048987865448
0.95597326755523682 0.7710343599319458 0.20918086171150208
0.47540313005447388 0.78309118747711182 0.51417940855026245
0.48469269275665283 0.78224575519561768 0.51519238948822021
0.49692997336387634 0.78169417381286621 0.51540404558181763
0.52045643329620361 0.78030306100845337 0.5167199969291687
0.54569453001022339 0.77987843751907349 0.51791644096374512
0.57062375545501709 0.78224319219589233 0.5092473030090332
0.59823721647262573 0.78611236810684204 0.49699491262435913
0.63371962308883667 0.79187405109405518 0.47803348302841187
0.67840695381164551 0.80045139789581299 0.45454904437065125
0.72719210386276245 0.80809712409973145 0.42696964740753174
0.78783780336380005 0.81524658203125 0.39156535267829895
0.86081552505493164 0.82398730516433716 0.34870737791061401
0.93802285194396973 0.83325326442718506 0.32542365789413452
0.56857931613922119 0.83629471063613892 0.59786778688430786
0.57681703567504883 0.83664554357528687 0.59959375858306885
0.58501332998275757 0.83646661043167114 0.60036742687225342
0.60226732492446899 0.83630633354187012 0.60324990749359131
0.62041324377059937 0.83538758754730225 0.60471296310424805
0.63642841577529907 0.83478724956512451 0.60262149572372437
0.65270149707794189 0.83698362112045288 0.59387600421905518
0.67931109666824341 0.84151303768157959 0.58020627498626709
0.71591866016387939 0.84838426113128662 0.56310266256332397
0.7488943338394165 0.85532087087631226 0.54564833641052246
0.79351067543029785 0.86316955089569092 0.52603650093078613
0.85042089223861694 0.8693232536315918 0.4963320791721344
0.91021722555160522 0.87664330005645752 0.46271660923957825
0.66631221771240234 0.88902097940444946 0.68668007850646973
0.67134559154510498 0.88967841863632202 0.68881285190582275
0.67479848861694336 0.88782143592834473 0.68701159954071045
0.6855771541595459 0.88827300071716309 0.68895018100738525
0.69653820991516113 0.88750249147415161 0.68943643569946289
0.71092343330383301 0.88827884197235107 0.69249576330184937
0.72688823938369751 0.88999587297439575 0.69239681959152222
0.74297696352005005 0.8929290771484375 0.68600189685821533
0.76589953899383545 0.89980900287628174 0.67542129755020142
0.79089146852493286 0.90659528970718384 0.66083115339279175
0.82106751203536987 0.91285085678100586 0.64713352918624878
0.86470252275466919 0.92252963781356812 0.63471847772598267
0.90721827745437622 0.92817926406860352 0.61176389455795288
0.025640510022640228 0.056956510990858078 0.13655509054660797
0.067535325884819031 0.054675262421369553 0.14116093516349792
0.12160242348909378 0.05329957976937294 0.13736902177333832
0.19131071865558624 0.04619184136390686 0.13892742991447449
0.28864967823028564 0.027090258896350861 0.13872680068016052
0.40297886729240417 0.010935390368103981 0.13879035413265228
0.51886522769927979 0.01198947336524725 0.14123693108558655
0.62670660018920898 0.011573761701583862 0.14395773410797119
0.70932149887084961 0.032511048018932343 0.1509166806936264
0.77857983112335205 0.068906553089618683 0.15371380746364594
0.84075713157653809 0.11626343429088593 0.15842095017433167
0.90246713161468506 0.15721707046031952 0.15993461012840271
0.9625362753868103 0.19551628828048706 0.16893553733825684
0.018678193911910057 0.087718307971954346 0.146075040102005
0.057935167104005814 0.090139143168926239 0.15142486989498138
0.12489864975214005 0.093095995485782623 0.14891798794269562
0.20654398202896118 0.09230397641658783 0.14823518693447113
0.30621019005775452 0.083706527948379517 0.14845511317253113
0.41826441884040833 0.069912701845169067 0.14831838011741638
0.53719788789749146 0.06926129013299942 0.15068215131759644
0.63790702819824219 0.07854163646697998 0.15114498138427734
0.71634364128112793 0.10334270447492599 0.15337175130844116
0.78558909893035889 0.13283543288707733 0.15069662034511566
0.84907537698745728 0.16786576807498932 0.15207931399345398
0.9075005054473877 0.19223426282405853 0.1562921404838562
0.96624982357025146 0.22195470333099365 0.16735580563545227
0.020447645336389542 0.15264225006103516 0.16381919384002686
0.06486472487449646 0.15294858813285828 0.16457948088645935
0.13406220078468323 0.16061146557331085 0.16759680211544037
0.22128474712371826 0.16667117178440094 0.16447734832763672
0.33244523406028748 0.16612611711025238 0.16067494451999664
0.45441821217536926 0.17048783600330353 0.15847001969814301
0.56906956434249878 0.17140485346317291 0.15513861179351807
0.66079545021057129 0.1755024790763855 0.15023927390575409
0.73534029722213745 0.1862245500087738 0.14675647020339966
0.79945617914199829 0.20434035360813141 0.14333359897136688
0.85962408781051636 0.22521451115608215 0.14298301935195923
0.91513466835021973 0.24394665658473969 0.15121468901634216
0.96925085783004761 0.26717549562454224 0.1646886020898819
0.015943296253681183 0.23789535462856293 0.18978935480117798
0.071172557771205902 0.24056762456893921 0.1925809383392334
0.14373385906219482 0.2437797337770462 0.19206307828426361
0.23389928042888641 0.25828450918197632 0.18244509398937225
0.37346628308296204 0.27490198612213135 0.16763049364089966
0.50970268249511719 0.27807018160820007 0.15320782363414764
0.61383175849914551 0.27687251567840576 0.14282248914241791
0.69052207469940186 0.27354422211647034 0.13763682544231415
0.75706833600997925 0.27219921350479126 0.13719809055328369
0.81671273708343506 0.2777041494846344 0.13779084384441376
0.87162250280380249 0.28800579905509949 0.13892132043838501
0.92308592796325684 0.30256989598274231 0.14422458410263062
0.97196406126022339 0.32172122597694397 0.16094323992729187
0.022450316697359085 0.35088500380516052 0.2294599711894989
0.089111104607582092 0.35365802049636841 0.23385763168334961
0.16723011434078217 0.35217535495758057 0.23177719116210938
0.2481989860534668 0.35998654365539551 0.21842983365058899
