luts/negative_old/kodak_portra_160_nc_-.cube
# Created by: G'MIC (https://gmic.eu)
TITLE "kodak_portra_160_nc_-"
# LUT size
LUT_3D_SIZE 13
# Data domain
DOMAIN_MIN 0.0 0.0 0.0
DOMAIN_MAX 1.0 1.0 1.0
# LUT data points
0.0095336465165019035 0.018988799303770065 0.016542697325348854
0.043302826583385468 0.02124367468059063 0.01503804512321949
0.11233925819396973 0.028694137930870056 0.011390326544642448
0.2042260468006134 0.040521778166294098 0.010771089233458042
0.31147795915603638 0.049989692866802216 0.012813538312911987
0.41533359885215759 0.052289746701717377 0.0089243724942207336
0.51311266422271729 0.054665971547365189 0.0082826055586338043
0.60293388366699219 0.064073167741298676 0.0073445490561425686
0.68790924549102783 0.079997345805168152 0.0046583586372435093
0.76572948694229126 0.10901308059692383 0.0052926307544112206
0.83959615230560303 0.1412002295255661 0.0076490812934935093
0.9056738018989563 0.1812383234500885 0.01301968190819025
0.96715641021728516 0.22301755845546722 0.023880947381258011
0.0054301540367305279 0.056353922933340073 0.022643998265266418
0.039935555309057236 0.06712920218706131 0.019543860107660294
0.12162625044584274 0.084962747991085052 0.013640220277011395
0.22404900193214417 0.094968520104885101 0.010391818359494209
0.32961145043373108 0.10324878990650177 0.011659824289381504
0.4294598400592804 0.10723841190338135 0.0084825251251459122
0.52483493089675903 0.11354700475931168 0.0070677963085472584
0.61522030830383301 0.12164553254842758 0.0067759794183075428
0.69590771198272705 0.13402417302131653 0.0083787506446242332
0.77212494611740112 0.15237551927566528 0.0054130107164382935
0.84281057119369507 0.17988772690296173 0.008987845852971077
0.9094434380531311 0.21265335381031036 0.013427270576357841
0.97240090370178223 0.25004172325134277 0.028480306267738342
0.00052956974832341075 0.13674584031105042 0.043002933263778687
0.013110321946442127 0.1437118798494339 0.035185225307941437
0.09828929603099823 0.16710406541824341 0.018017876893281937
0.23314860463142395 0.18611931800842285 0.0049507142975926399
0.35130247473716736 0.18631471693515778 0.004367574118077755
0.45586037635803223 0.18466253578662872 0.004880568478256464
0.54802465438842773 0.18600191175937653 0.0033537023700773716
0.63248425722122192 0.19356013834476471 0.0068525425158441067
0.70891052484512329 0.2016148567199707 0.011039509437978268
0.78280544281005859 0.21250788867473602 0.0058850604109466076
0.85186213254928589 0.23302850127220154 0.0094357654452323914
0.91558867692947388 0.25843775272369385 0.01426512748003006
0.97407084703445435 0.28969529271125793 0.030079111456871033
0.0011950923362746835 0.23134750127792358 0.067884929478168488
0.0044276067055761814 0.23804779350757599 0.064048945903778076
0.02891509048640728 0.25170755386352539 0.046356935054063797
0.18439099192619324 0.2825620174407959 0.014156640507280827
0.35486903786659241 0.30360299348831177 0.0012838625116273761
0.47514191269874573 0.29489663243293762 0.0032298217993229628
0.56912410259246826 0.27878358960151672 0.0023552838247269392
0.64918774366378784 0.27377647161483765 0.0053017707541584969
0.7210814356803894 0.27614763379096985 0.0079471813514828682
0.79218941926956177 0.28408658504486084 0.0055222604423761368
0.85982769727706909 0.29607728123664856 0.0071713468059897423
0.92202913761138916 0.31387802958488464 0.012926962226629257
0.97762465476989746 0.33979988098144531 0.032860342413187027
0 0.32614025473594666 0.11297022551298141
0.0017068750457838178 0.33389097452163696 0.11815725266933441
0.0064810360781848431 0.34585106372833252 0.10795293748378754
0.099552497267723083 0.36657834053039551 0.071932591497898102
0.29598706960678101 0.39354124665260315 0.023873990401625633
0.46017593145370483 0.40940722823143005 0.0040305494330823421
0.57405346632003784 0.39591363072395325 0.0025279924739152193
0.65923976898193359 0.3747134804725647 0.0074654524214565754
0.7338186502456665 0.36093047261238098 0.0098006902262568474
0.80131959915161133 0.36157423257827759 0.0080766566097736359
0.86566382646560669 0.3657166063785553 0.0051565133035182953
0.92660015821456909 0.37799257040023804 0.010830688290297985
0.98053103685379028 0.39949160814285278 0.038082707673311234
0.00023570340999867767 0.41500601172447205 0.17176978290081024
0.0036397597286850214 0.41960892081260681 0.17945294082164764
0.0048670601099729538 0.42723509669303894 0.177956223487854
0.052169319242238998 0.43872296810150146 0.1597425639629364
0.23135145008563995 0.45901086926460266 0.12045931071043015
0.39427360892295837 0.48143485188484192 0.0594814233481884
0.55174297094345093 0.5015188455581665 0.011220850050449371
0.65980976819992065 0.49172663688659668 0.0060214921832084656
0.73882496356964111 0.46629500389099121 0.008350626565515995
0.80923211574554443 0.44926095008850098 0.0054604625329375267
0.87110865116119385 0.44380396604537964 0.0072277295403182507
0.93141829967498779 0.45001143217086792 0.012000124901533127
0.98170280456542969 0.4642491340637207 0.048327576369047165
0 0.4906153678894043 0.22977955639362335
0.0026267257053405046 0.49293345212936401 0.23825453221797943
0.0065148896537721157 0.49582976102828979 0.24024677276611328
0.049522191286087036 0.50301212072372437 0.23140905797481537
0.19628885388374329 0.5190313458442688 0.2079169750213623
0.33491820096969604 0.54073446989059448 0.17029197514057159
0.47956925630569458 0.56145906448364258 0.10436772555112839
0.63204914331436157 0.58423316478729248 0.029484378173947334
0.73716360330581665 0.57776427268981934 0.0052231880836188793
0.80937069654464722 0.55704206228256226 0.0077099967747926712
0.8749280571937561 0.54048937559127808 0.010248850099742413
0.93430274724960327 0.53293424844741821 0.021226052194833755
0.98445624113082886 0.53224760293960571 0.060284290462732315
0.00070387899177148938 0.56271481513977051 0.28551396727561951
0.0040747849270701408 0.56478714942932129 0.29066136479377747
0.012127715162932873 0.56599581241607666 0.29100701212882996
0.083602294325828552 0.56958812475204468 0.2888355553150177
0.20185799896717072 0.58077126741409302 0.27865749597549438
0.31237667798995972 0.59691733121871948 0.25353601574897766
0.43211933970451355 0.61578553915023804 0.21540634334087372
0.56357920169830322 0.63539731502532959 0.15925386548042297
0.70146793127059937 0.65716439485549927 0.074027180671691895
0.80466854572296143 0.66023546457290649 0.025277679786086082
0.87111556529998779 0.64149868488311768 0.036044895648956299
0.93087297677993774 0.62407982349395752 0.055699143558740616
0.98230499029159546 0.6134217381477356 0.097631089389324188
0.0038186914753168821 0.63499933481216431 0.33802002668380737
0.005183111410588026 0.63724249601364136 0.34006723761558533
0.033926375210285187 0.63735365867614746 0.34102171659469604
0.12879778444766998 0.63647043704986572 0.34318140149116516
0.22114846110343933 0.64228403568267822 0.33829441666603088
0.31414136290550232 0.65478014945983887 0.32141533493995667
0.41154348850250244 0.66963070631027222 0.29789435863494873
0.5225294828414917 0.68582296371459961 0.2645326554775238
0.63854223489761353 0.70210081338882446 0.22338801622390747
0.76156878471374512 0.72214412689208984 0.15557494759559631
0.86014837026596069 0.72735512256622314 0.11482904106378555
0.92364203929901123 0.71150505542755127 0.12712894380092621
0.9771883487701416 0.70339637994766235 0.15752410888671875
0.034728899598121643 0.70801883935928345 0.39314174652099609
0.064358897507190704 0.70889556407928467 0.39508134126663208
0.12666718661785126 0.70703625679016113 0.39692962169647217
0.19552046060562134 0.70514947175979614 0.39855518937110901
0.26089012622833252 0.70626896619796753 0.39632925391197205
0.32881057262420654 0.71236300468444824 0.38800108432769775
0.41415071487426758 0.72456657886505127 0.37160554528236389
0.50268715620040894 0.73786270618438721 0.35247284173965454
0.60020315647125244 0.75197643041610718 0.32380515336990356
0.70657902956008911 0.76657265424728394 0.28706845641136169
0.81773549318313599 0.78431451320648193 0.24001516401767731
0.91321200132369995 0.79423016309738159 0.20583014190196991
0.97176176309585571 0.78945082426071167 0.22075410187244415
0.20825137197971344 0.77532750368118286 0.46689045429229736
0.2236178070306778 0.77236950397491455 0.46583583950996399
0.2501721978187561 0.77208065986633301 0.46523389220237732
0.2898591160774231 0.77009189128875732 0.46778866648674011
0.33242031931877136 0.76947516202926636 0.46801319718360901
0.38330334424972534 0.77343428134918213 0.46171516180038452
0.44202828407287598 0.78217470645904541 0.453309565782547
0.51026159524917603 0.79254388809204102 0.43917334079742432
0.5894167423248291 0.80378496646881104 0.41927394270896912
0.68096786737442017 0.81664824485778809 0.39585044980049133
0.77641832828521729 0.83041131496429443 0.36553823947906494
0.87239938974380493 0.84416049718856812 0.32264912128448486
0.95965278148651123 0.86249566078186035 0.29741647839546204
0.3769189715385437 0.84222692251205444 0.56091225147247314
0.3790411651134491 0.83912837505340576 0.5617678165435791
0.39051669836044312 0.83814078569412231 0.56206822395324707
0.41631391644477844 0.83718401193618774 0.56413304805755615
0.44607105851173401 0.83631879091262817 0.5652230978012085
0.47778385877609253 0.83884239196777344 0.56357568502426147
0.51558142900466919 0.84424537420272827 0.55713355541229248
0.56158649921417236 0.85216325521469116 0.54840540885925293
0.62278866767883301 0.86200094223022461 0.53594303131103516
0.69042867422103882 0.87209063768386841 0.51698988676071167
0.76103371381759644 0.88353574275970459 0.49563249945640564
0.8413202166557312 0.89391815662384033 0.46664276719093323
0.92508387565612793 0.9102904200553894 0.43737870454788208
0.53262311220169067 0.90936315059661865 0.66982740163803101
0.53179913759231567 0.90779781341552734 0.669838547706604
0.53812015056610107 0.90672218799591064 0.6699337363243103
0.55215346813201904 0.9060930609703064 0.67092889547348022
0.5727730393409729 0.9065203070640564 0.67395317554473877
0.59465354681015015 0.90697962045669556 0.67672133445739746
0.61756622791290283 0.90976113080978394 0.67532414197921753
0.64375066757202148 0.9154050350189209 0.66891133785247803
0.68495869636535645 0.92441129684448242 0.6603008508682251
0.73014986515045166 0.93350678682327271 0.65152943134307861
0.78026968240737915 0.94330066442489624 0.63806402683258057
0.83935552835464478 0.95205181837081909 0.62064880132675171
0.90100347995758057 0.96062922477722168 0.59958422183990479
0.013287204317748547 0.01831430196762085 0.055868320167064667
0.051723852753639221 0.019574632868170738 0.055974699556827545
0.11557165533304214 0.02157103642821312 0.054702296853065491
0.2097504585981369 0.022736493498086929 0.054325956851243973
0.3163277804851532 0.028685325756669044 0.056710425764322281
0.41816818714141846 0.045401882380247116 0.063136383891105652
0.51338684558868408 0.060127526521682739 0.063737444579601288
0.60270035266876221 0.082011327147483826 0.063195876777172089
0.68428373336791992 0.10775644332170486 0.065472051501274109
0.76291722059249878 0.13346092402935028 0.06678752601146698
0.83624017238616943 0.16268543899059296 0.070779643952846527
0.90281707048416138 0.19958308339118958 0.082941554486751556
0.96573185920715332 0.24044004082679749 0.10260403156280518
0.009345589205622673 0.066867053508758545 0.066748179495334625
0.050479378551244736 0.074575386941432953 0.070110619068145752
0.13142764568328857 0.083118200302124023 0.066183365881443024
0.22832618653774261 0.087083287537097931 0.061459336429834366
0.33170077204704285 0.0972023606300354 0.06181112676858902
0.43044126033782959 0.10916972160339355 0.062533780932426453
0.52501249313354492 0.1205412894487381 0.062640249729156494
0.61388671398162842 0.13314735889434814 0.063483171164989471
0.69278514385223389 0.15065570175647736 0.066272363066673279
0.76754307746887207 0.17318002879619598 0.06876702606678009
0.84035730361938477 0.19628749787807465 0.072526939213275909
0.9057002067565918 0.22849825024604797 0.085276521742343903
0.96689563989639282 0.26517581939697266 0.10402891784906387
0.0035118700470775366 0.15099011361598969 0.094390049576759338
0.027806809172034264 0.15568050742149353 0.092757493257522583
0.11503101140260696 0.16685083508491516 0.083874814212322235
0.23978905379772186 0.18334148824214935 0.064553387463092804
0.35417759418487549 0.18718914687633514 0.059974085539579391
0.45427834987640381 0.1890275776386261 0.057606477290391922
0.5450701117515564 0.19537889957427979 0.060591753572225571
0.62645047903060913 0.20203803479671478 0.064046271145343781
0.70418322086334229 0.20804192125797272 0.063241355121135712
0.77681416273117065 0.22493517398834229 0.069099277257919312
0.84959977865219116 0.24335642158985138 0.072723805904388428
0.91194754838943481 0.27143040299415588 0.085966996848583221
0.96971422433853149 0.3039734959602356 0.10560735315084457
0.0018903844757005572 0.24603196978569031 0.1282472163438797
0.0082381600514054298 0.24780724942684174 0.12492078542709351
0.058431047946214676 0.25854164361953735 0.11552921682596207
0.20910745859146118 0.28605914115905762 0.081329628825187683
0.36455246806144714 0.30248156189918518 0.048338048160076141
0.47552168369293213 0.29066836833953857 0.047295946627855301
0.56634122133255005 0.28290626406669617 0.05074310302734375
0.64534991979598999 0.27934464812278748 0.056639444082975388
0.71844065189361572 0.28199270367622375 0.058911789208650589
0.78849285840988159 0.29424437880516052 0.063632503151893616
0.85615283250808716 0.30712500214576721 0.067737951874732971
0.91779881715774536 0.32506003975868225 0.083634361624717712
0.97385615110397339 0.35179868340492249 0.11000898480415344
0.0015890981303527951 0.34138807654380798 0.17154702544212341
0.0044250339269638062 0.34591299295425415 0.17400860786437988
0.025201775133609772 0.3515571653842926 0.16503965854644775
0.14228931069374084 0.37060055136680603 0.1448056697845459
0.31554076075553894 0.39575621485710144 0.096890419721603394
0.46902737021446228 0.40912434458732605 0.050541162490844727
0.57387626171112061 0.39608532190322876 0.044532403349876404
0.65794080495834351 0.3761749267578125 0.048538058996200562
0.73349487781524658 0.36606502532958984 0.050142925232648849
0.80022525787353516 0.37049835920333862 0.056063216179609299
0.8635527491569519 0.3750515878200531 0.063874430954456329
0.92248111963272095 0.3871033787727356 0.083044238388538361
0.97545236349105835 0.40967702865600586 0.11835156381130219
0.00075846654362976551 0.42595046758651733 0.21730518341064453
0.0040397793054580688 0.42854022979736328 0.22112284600734711
0.019331658259034157 0.43131110072135925 0.21909233927726746
0.10790689289569855 0.44175258278846741 0.21101818978786469
0.25596952438354492 0.45993873476982117 0.18049879372119904
0.40655750036239624 0.48326894640922546 0.12870340049266815
0.55904805660247803 0.50322866439819336 0.062329459935426712
0.6600843071937561 0.49203789234161377 0.045762423425912857
0.73930025100708008 0.46896475553512573 0.047408383339643478
0.80809837579727173 0.45384007692337036 0.054661784321069717
0.86986017227172852 0.45054572820663452 0.06437981128692627
0.92755824327468872 0.45690661668777466 0.084994450211524963
0.97526103258132935 0.47022801637649536 0.12129726260900497
0.0031974941957741976 0.50029468536376953 0.2654670774936676
0.0034318661782890558 0.50236231088638306 0.26755952835083008
0.029075263068079948 0.50316005945205688 0.26871636509895325
0.1179516538977623 0.50826138257980347 0.26409474015235901
0.23082983493804932 0.52017009258270264 0.24659743905067444
0.35228732228279114 0.54121708869934082 0.21742308139801025
0.49106457829475403 0.56252694129943848 0.16625775396823883
0.63620412349700928 0.5838196873664856 0.092303931713104248
0.73667818307876587 0.57872927188873291 0.064127735793590546
0.80562126636505127 0.55791842937469482 0.076022140681743622
0.87106263637542725 0.54006010293960571 0.08054661750793457
0.93065941333770752 0.53166621923446655 0.094845548272132874
0.97758179903030396 0.53580725193023682 0.13233073055744171
0.0052947998046875 0.57174926996231079 0.31150129437446594
0.0082853874191641808 0.5730171799659729 0.31336715817451477
0.052477952092885971 0.57234537601470947 0.31368041038513184
0.14476455748081207 0.57402044534683228 0.31320285797119141
0.23180565237998962 0.58204543590545654 0.30539005994796753
0.33127695322036743 0.59796762466430664 0.28604146838188171
0.44137164950370789 0.61598467826843262 0.25431260466575623
0.56974184513092041 0.63482427597045898 0.20719009637832642
0.69959503412246704 0.65572094917297363 0.14683307707309723
0.79973125457763672 0.65754026174545288 0.11821884661912918
0.86501240730285645 0.6374356746673584 0.12085180729627609
0.92685282230377197 0.6204267144203186 0.13300171494483948
0.97943109273910522 0.61234068870544434 0.16091693937778473
0.010711101815104485 0.64010053873062134 0.3559928834438324
0.033473115414381027 0.64290839433670044 0.35920509696006775
0.092539332807064056 0.64101499319076538 0.3604971170425415
0.16841942071914673 0.63934612274169922 0.36289668083190918
0.24511663615703583 0.64325070381164551 0.36037546396255493
0.32829302549362183 0.65488338470458984 0.34628003835678101
0.42000386118888855 0.67100119590759277 0.32419922947883606
0.52830749750137329 0.68622565269470215 0.2955767810344696
0.64227885007858276 0.70348501205444336 0.25856396555900574
0.76094228029251099 0.72146105766296387 0.20878162980079651
0.85832804441452026 0.72693854570388794 0.1789267361164093
0.92091149091720581 0.71111583709716797 0.1860036700963974
0.97624510526657104 0.701244056224823 0.20353901386260986
0.085374094545841217 0.71029782295227051 0.40888306498527527
0.12256105989217758 0.71150648593902588 0.41118317842483521
0.1710088849067688 0.7086142897605896 0.41343733668327332
0.2251352071762085 0.70635759830474854 0.41632676124572754
0.28057321906089783 0.70595872402191162 0.41437730193138123
0.34422770142555237 0.71407246589660645 0.40628379583358765
0.41920784115791321 0.72657102346420288 0.39180600643157959
0.50838375091552734 0.73916471004486084 0.37130731344223022
0.60769546031951904 0.75344324111938477 0.34672030806541443
0.71141302585601807 0.76636290550231934 0.31110730767250061
0.81896144151687622 0.78364443778991699 0.27084648609161377
0.91219240427017212 0.79456180334091187 0.24308387935161591
0.97360008955001831 0.78916209936141968 0.25484701991081238
0.23678271472454071 0.77555996179580688 0.47815456986427307
0.24992330372333527 0.77451014518737793 0.4766981303691864
0.27537786960601807 0.77299565076828003 0.47925630211830139
0.31184720993041992 0.77079445123672485 0.48254728317260742
0.34976136684417725 0.77122044563293457 0.48189827799797058
0.394357830286026 0.77467638254165649 0.47758534550666809
0.45056319236755371 0.78156942129135132 0.46989592909812927
0.51646405458450317 0.79340040683746338 0.45510420203208923
0.59573525190353394 0.80526632070541382 0.43473613262176514
0.68261450529098511 0.81685143709182739 0.41018939018249512
0.77927935123443604 0.82964390516281128 0.38390794396400452
0.87500548362731934 0.84556561708450317 0.34514495730400085
0.96384215354919434 0.86278074979782104 0.32371443510055542
0.38596513867378235 0.84124505519866943 0.5691109299659729
0.39095208048820496 0.83991521596908569 0.57049334049224854
0.40689781308174133 0.83968877792358398 0.57288467884063721
0.43276217579841614 0.83788955211639404 0.57546758651733398
0.45799872279167175 0.83762252330780029 0.57611382007598877
0.48510324954986572 0.83907616138458252 0.57506662607192993
0.52246749401092529 0.8432995080947876 0.57023441791534424
0.56687265634536743 0.85258650779724121 0.56073909997940063
0.62482142448425293 0.86338293552398682 0.54719215631484985
0.68966543674468994 0.87338590621948242 0.53061497211456299
0.76165807247161865 0.88312137126922607 0.50958847999572754
0.84077960252761841 0.89481222629547119 0.48279386758804321
0.92489802837371826 0.91025125980377197 0.45454174280166626
0.53222000598907471 0.90770584344863892 0.67281705141067505
0.5373033881187439 0.90737450122833252 0.67498219013214111
0.54455482959747314 0.9067920446395874 0.67505335807800293
0.56051349639892578 0.90679740905761719 0.67785823345184326
0.57820886373519897 0.90670841932296753 0.68051600456237793
0.59906131029129028 0.9078107476234436 0.68300694227218628
0.62230414152145386 0.91058027744293213 0.68343734741210938
0.64975541830062866 0.91670072078704834 0.67811566591262817
0.68874973058700562 0.92635881900787354 0.66913443803787231
0.73031055927276611 0.93365108966827393 0.65809828042984009
0.77883154153823853 0.94101071357727051 0.64431571960449219
0.83712446689605713 0.95060145854949951 0.62822496891021729
0.9017256498336792 0.96063429117202759 0.60857623815536499
0.015252655372023582 0.021343335509300232 0.13311830163002014
0.065426245331764221 0.029304010793566704 0.1386963278055191
0.12605506181716919 0.032558292150497437 0.135828897356987
0.21379400789737701 0.029518276453018188 0.13213635981082916
0.32212528586387634 0.019690943881869316 0.13147105276584625
0.42670980095863342 0.017769427970051765 0.13099068403244019
0.52138835191726685 0.042232975363731384 0.1374889463186264
0.60495078563690186 0.099744714796543121 0.1524447500705719
0.68151277303695679 0.14265917241573334 0.16208335757255554
0.75808906555175781 0.16688334941864014 0.16504573822021484
0.8303292989730835 0.19265693426132202 0.16929547488689423
0.89857620000839233 0.22396798431873322 0.17578437924385071
0.96338695287704468 0.2613065242767334 0.18690761923789978
0.0061124018393456936 0.081406340003013611 0.14923444390296936
0.053059536963701248 0.086603812873363495 0.15265636146068573
0.13723012804985046 0.094767160713672638 0.15063916146755219
0.23056615889072418 0.095366731286048889 0.14625537395477295
0.33513817191123962 0.093621425330638885 0.14469039440155029
0.43557080626487732 0.10224179923534393 0.14758729934692383
0.52802109718322754 0.13068394362926483 0.15580923855304718
0.61161512136459351 0.15782785415649414 0.16121242940425873
0.68852478265762329 0.179615318775177 0.16665783524513245
0.76083523035049438 0.20217081904411316 0.16953767836093903
0.8342972993850708 0.22281722724437714 0.1721026748418808
0.90118217468261719 0.24918554723262787 0.17791567742824554
0.96513825654983521 0.28313413262367249 0.18817822635173798
0.0020839765202254057 0.16589775681495667 0.16435700654983521
0.041644301265478134 0.16998884081840515 0.16825786232948303
0.14032177627086639 0.17828942835330963 0.17126187682151794
0.24301339685916901 0.18569923937320709 0.16411967575550079
0.3550410270690918 0.1907057911157608 0.15972845256328583
0.45305263996124268 0.20065829157829285 0.16235220432281494
0.54153752326965332 0.21527265012264252 0.16641548275947571
0.62069934606552124 0.22383256256580353 0.1681264340877533
0.69695204496383667 0.23187921941280365 0.16946794092655182
0.76871979236602783 0.24921970069408417 0.17246368527412415
0.84201580286026001 0.266256183385849 0.17512084543704987
0.90704941749572754 0.28985249996185303 0.18200896680355072
0.96815651655197144 0.3193780779838562 0.19339525699615479
0.0068968529812991619 0.25934872031211853 0.19333532452583313
0.059240765869617462 0.26444005966186523 0.19886794686317444
0.1323053240776062 0.27102911472320557 0.20008432865142822
0.2381359189748764 0.28501999378204346 0.18824069201946259
0.37153515219688416 0.29796287417411804 0.17375434935092926
0.47565203905105591 0.29512724280357361 0.16878916323184967
0.5599980354309082 0.29508042335510254 0.16878446936607361
0.63650971651077271 0.29393148422241211 0.17019490897655487
0.71182703971862793 0.29895547032356262 0.17002910375595093
0.78024739027023315 0.31481152772903442 0.17088095843791962
0.84849363565444946 0.32739338278770447 0.17331427335739136
0.91176539659500122 0.34049415588378906 0.18276846408843994
0.97171574831008911 0.36556452512741089 0.19894658029079437
0.049065355211496353 0.35942497849464417 0.2448592334985733
0.080072157084941864 0.36255475878715515 0.24448828399181366
0.13024868071079254 0.36593294143676758 0.24069814383983612
0.21496465802192688 0.3765907883644104 0.23037920892238617
