luts/negative_old/kodak_portra_160_vc_-.cube
# Created by: G'MIC (https://gmic.eu)
TITLE "kodak_portra_160_vc_-"
# LUT size
LUT_3D_SIZE 7
# Data domain
DOMAIN_MIN 0.0 0.0 0.0
DOMAIN_MAX 1.0 1.0 1.0
# LUT data points
0.0094543453305959702 0.011469089426100254 0.013609657995402813
0.11361918598413467 0.022456943988800049 0.0097500672563910484
0.33855745196342468 0.028678730130195618 0.003442038781940937
0.56759411096572876 0.0097458483651280403 0.0065624313428997993
0.76975125074386597 0.01521409023553133 0.0013688928447663784
0.91716712713241577 0.10381253063678741 0.0013186435680836439
0.99941408634185791 0.19707375764846802 0.00025473203277215362
0.0039995829574763775 0.13314259052276611 0.035887312144041061
0.097074247896671295 0.14571629464626312 0.01647898368537426
0.35635179281234741 0.1720578521490097 0.011274360120296478
0.58331400156021118 0.16215802729129791 0.0076398663222789764
0.76704627275466919 0.1804327666759491 0.00072073843330144882
0.91105139255523682 0.22193388640880585 0.0037370121572166681
0.99645459651947021 0.26741597056388855 0.0013918858021497726
0 0.33050087094306946 0.1232614740729332
0.017233680933713913 0.34561920166015625 0.11713164299726486
0.31734052300453186 0.37813910841941833 0.035288702696561813
0.57916814088821411 0.37895750999450684 0.0021126242354512215
0.75630652904510498 0.34899640083312988 0.001999769126996398
0.90140509605407715 0.35997965931892395 0.0038593218196183443
0.99492841958999634 0.37919312715530396 0.00067714619217440486
0.0043003009632229805 0.51711815595626831 0.24698947370052338
0.045926067978143692 0.52142131328582764 0.24333752691745758
0.27577066421508789 0.53081423044204712 0.2111118882894516
0.50911349058151245 0.55186361074447632 0.10609228163957596
0.72947585582733154 0.55748611688613892 0.003427168820053339
0.88395315408706665 0.52118343114852905 0.00066849950235337019
0.99285984039306641 0.51083213090896606 0.0013227126328274608
0.079256020486354828 0.67249035835266113 0.33892983198165894
0.19636534154415131 0.66837525367736816 0.3447728157043457
0.32815229892730713 0.6681511402130127 0.34202966094017029
0.47561979293823242 0.67857354879379272 0.30738970637321472
0.66182893514633179 0.69393032789230347 0.21557250618934631
0.85856878757476807 0.71185511350631714 0.082977965474128723
0.98684436082839966 0.69026750326156616 0.010435306467115879
0.34805041551589966 0.80643379688262939 0.4784848690032959
0.3838808536529541 0.80534303188323975 0.48071536421775818
0.4452286958694458 0.79808253049850464 0.48072752356529236
0.53311842679977417 0.80331248044967651 0.47002112865447998
0.65395677089691162 0.8155362606048584 0.43400716781616211
0.80504447221755981 0.82803219556808472 0.35963231325149536
0.96863782405853271 0.84715676307678223 0.27780300378799438
0.58081257343292236 0.92696261405944824 0.6655421257019043
0.59471654891967773 0.92463862895965576 0.66669440269470215
0.6302751898765564 0.92450487613677979 0.67153990268707275
0.68163985013961792 0.92553842067718506 0.6764521598815918
0.73868227005004883 0.93538624048233032 0.6607135534286499
0.82115024328231812 0.94473373889923096 0.62641340494155884
0.93400877714157104 0.9578700065612793 0.57886159420013428
0.0053695826791226864 0.018601555377244949 0.15151402354240417
0.11480338871479034 0.02096068486571312 0.14733627438545227
0.34207186102867126 0.0043560550548136234 0.13928481936454773
0.57948189973831177 0.0096530690789222717 0.14808852970600128
0.76811075210571289 0.08729216456413269 0.17024779319763184
0.9080040454864502 0.17188265919685364 0.1617387980222702
0.99940782785415649 0.24817574024200439 0.16796791553497314
0.0038305544294416904 0.16230978071689606 0.1771213710308075
0.12054968625307083 0.16926996409893036 0.18074455857276917
0.36756333708763123 0.16985785961151123 0.16466589272022247
0.58924871683120728 0.18963636457920074 0.16515156626701355
0.76755428314208984 0.21610274910926819 0.16217593848705292
0.90910226106643677 0.25614097714424133 0.15289396047592163
0.99618852138519287 0.31034529209136963 0.15958787500858307
0.01711120642721653 0.36606490612030029 0.2475864440202713
0.13982322812080383 0.3681909441947937 0.25043749809265137
0.35215535759925842 0.38245260715484619 0.21965795755386353
0.58881348371505737 0.37439298629760742 0.15518440306186676
0.75725865364074707 0.36118000745773315 0.11711817979812622
0.90148985385894775 0.37483552098274231 0.11567135900259018
0.99752593040466309 0.40500202775001526 0.12853015959262848
0.063407972455024719 0.53775560855865479 0.31680452823638916
0.18604493141174316 0.53687673807144165 0.32123905420303345
0.3309149444103241 0.53733986616134644 0.30996343493461609
0.52556568384170532 0.55319708585739136 0.24898344278335571
0.73072808980941772 0.5525745153427124 0.16529172658920288
0.88414269685745239 0.52273344993591309 0.085417263209819794
0.99434226751327515 0.52165132761001587 0.059125982224941254
0.20019151270389557 0.67674964666366577 0.39384835958480835
0.27192431688308716 0.67633247375488281 0.39823484420776367
0.37332803010940552 0.67151331901550293 0.39606371521949768
0.49823877215385437 0.68016332387924194 0.36847057938575745
0.67147374153137207 0.6994052529335022 0.30590784549713135
0.85730552673339844 0.708587646484375 0.22924456000328064
0.98723793029785156 0.68893510103225708 0.14281387627124786
0.39109742641448975 0.80651164054870605 0.51962029933929443
0.4221021831035614 0.805206298828125 0.51972216367721558
0.47793135046958923 0.80124098062515259 0.5209890604019165
0.55417698621749878 0.80492216348648071 0.5125354528427124
0.66516518592834473 0.81606614589691162 0.47783932089805603
0.8081287145614624 0.82836258411407471 0.41673073172569275
0.9720039963722229 0.8479994535446167 0.34508529305458069
0.59265106916427612 0.92695742845535278 0.68158626556396484
0.60943377017974854 0.9275328516960144 0.68425601720809937
0.63721734285354614 0.92141544818878174 0.68430542945861816
0.68692755699157715 0.92457067966461182 0.6936953067779541
0.74783694744110107 0.93547171354293823 0.67893421649932861
0.8298419713973999 0.9452817440032959 0.64758992195129395
0.93572485446929932 0.95841121673583984 0.6035570502281189
0.0018441892461851239 0.063780345022678375 0.37985378503799438
0.13981717824935913 0.080760464072227478 0.3778877854347229
0.37661328911781311 0.088167019188404083 0.36523720622062683
0.57158923149108887 0.015682728961110115 0.33766233921051025
0.76385009288787842 0.0068812649697065353 0.31544706225395203
0.91274541616439819 0.1116335391998291 0.32404044270515442
0.99904686212539673 0.31031247973442078 0.37182021141052246
0.002320652361959219 0.22293268144130707 0.38145345449447632
0.14176735281944275 0.22502134740352631 0.39021551609039307
0.38796594738960266 0.23793905973434448 0.38097736239433289
0.58504313230514526 0.20209901034832001 0.35603493452072144
0.76622670888900757 0.2123473733663559 0.34662684798240662
0.90471285581588745 0.29696169495582581 0.36377578973770142
0.99531644582748413 0.37922525405883789 0.38320466876029968
0.0088120102882385254 0.4027157723903656 0.39818951487541199
0.19308975338935852 0.4057319164276123 0.40878134965896606
0.39750212430953979 0.40405166149139404 0.40480890870094299
0.58856362104415894 0.39446255564689636 0.38007590174674988
0.75280892848968506 0.4098111093044281 0.37245991826057434
0.89425933361053467 0.42872512340545654 0.36269620060920715
0.99181920289993286 0.45566502213478088 0.36774811148643494
0.23925435543060303 0.56321233510971069 0.44575017690658569
0.31858780980110168 0.55900561809539795 0.44956165552139282
0.42381525039672852 0.55468100309371948 0.44038489460945129
0.55553299188613892 0.55724352598190308 0.41168081760406494
0.73352861404418945 0.54806321859359741 0.36600133776664734
0.88183456659317017 0.53913819789886475 0.33388435840606689
0.98986649513244629 0.54505610466003418 0.33420810103416443
0.36329665780067444 0.69319087266921997 0.50700849294662476
0.3845868706703186 0.69361752271652222 0.49999654293060303
0.45002567768096924 0.68538713455200195 0.49658355116844177
0.54007160663604736 0.68175959587097168 0.48244908452033997
0.69603723287582397 0.70459252595901489 0.44032636284828186
0.85909217596054077 0.70458298921585083 0.39072513580322266
0.98818886280059814 0.68299120664596558 0.33481857180595398
0.46722257137298584 0.81039631366729736 0.58888876438140869
0.48807013034820557 0.81129103899002075 0.58966469764709473
0.52995055913925171 0.80817866325378418 0.59216314554214478
0.59630465507507324 0.80727177858352661 0.59376800060272217
0.6855129599571228 0.81744647026062012 0.56566447019577026
0.81727325916290283 0.83110576868057251 0.51606833934783936
0.96905755996704102 0.8457338809967041 0.46002861857414246
0.62270987033843994 0.92906373739242554 0.71636378765106201
0.63363075256347656 0.92961913347244263 0.71654951572418213
0.66095638275146484 0.92853289842605591 0.72207784652709961
0.70804613828659058 0.92928957939147949 0.72859030961990356
0.76029723882675171 0.93335455656051636 0.7196115255355835
0.83614921569824219 0.94579386711120605 0.69581347703933716
0.93993997573852539 0.95982378721237183 0.66069996356964111
0.00081260531442239881 0.15313313901424408 0.58469176292419434
0.17291633784770966 0.17163006961345673 0.58740109205245972
0.4401836097240448 0.22506096959114075 0.5805547833442688
0.62261569499969482 0.23863811790943146 0.57158106565475464
0.74691534042358398 0.16446413099765778 0.51743412017822266
0.895183265209198 0.15542896091938019 0.4817579984664917
0.99534589052200317 0.22173838317394257 0.47343629598617554
0.0061259400099515915 0.29353764653205872 0.5961616039276123
0.20853124558925629 0.29720026254653931 0.59585666656494141
0.45401325821876526 0.32882216572761536 0.59175670146942139
0.62107259035110474 0.33740520477294922 0.57593679428100586
0.74718928337097168 0.28594863414764404 0.52792799472808838
0.89259803295135498 0.27794823050498962 0.49673435091972351
0.99599945545196533 0.31694287061691284 0.4872300922870636
0.0083708371967077255 0.46386700868606567 0.59572982788085938
0.22589309513568878 0.46359163522720337 0.59732240438461304
0.43450665473937988 0.45906785130500793 0.58699893951416016
0.61025846004486084 0.46027597784996033 0.57453888654708862
0.7458990216255188 0.42222821712493896 0.53800374269485474
0.89148873090744019 0.4281066358089447 0.52226334810256958
0.99183428287506104 0.47713646292686462 0.53912621736526489
0.18982610106468201 0.58785110712051392 0.5811392068862915
0.30031299591064453 0.58745646476745605 0.58490806818008423
0.44522392749786377 0.58226919174194336 0.58360356092453003
0.58431047201156616 0.57510340213775635 0.5733569860458374
0.73364007472991943 0.56903469562530518 0.55375117063522339
0.87160670757293701 0.58133864402770996 0.55047804117202759
0.98126393556594849 0.59577059745788574 0.54800420999526978
0.39487442374229431 0.71093380451202393 0.61717480421066284
0.44075417518615723 0.71000212430953979 0.61932384967803955
0.52664005756378174 0.70565289258956909 0.62343704700469971
0.59974926710128784 0.69809716939926147 0.61110901832580566
0.71544212102890015 0.70626235008239746 0.58791518211364746
0.86235374212265015 0.6970176100730896 0.54628723859786987
0.98052310943603516 0.68480032682418823 0.51211178302764893
0.55158764123916626 0.82557946443557739 0.693328857421875
0.57270681858062744 0.82425886392593384 0.69067567586898804
0.60117244720458984 0.82137805223464966 0.68528550863265991
0.64563620090484619 0.81629157066345215 0.67845481634140015
0.71813690662384033 0.81965452432632446 0.66607069969177246
0.83173179626464844 0.83229571580886841 0.63383656740188599
0.97098582983016968 0.84262865781784058 0.59018194675445557
0.66652411222457886 0.93340069055557251 0.77035069465637207
0.67413562536239624 0.93424761295318604 0.7703443169593811
0.69275927543640137 0.93581604957580566 0.76927787065505981
0.73272651433944702 0.93125820159912109 0.77399837970733643
0.77979886531829834 0.93405807018280029 0.7724115252494812
0.84684395790100098 0.94521957635879517 0.75472122430801392
0.94400525093078613 0.96193581819534302 0.72595429420471191
0.051533881574869156 0.26477032899856567 0.76047873497009277
0.27670738101005554 0.28581798076629639 0.75660532712936401
0.48609799146652222 0.32253652811050415 0.75080841779708862
0.65778666734695435 0.3786691427230835 0.73969781398773193
0.7889670729637146 0.37710094451904297 0.73021751642227173
0.88068199157714844 0.32770660519599915 0.67978322505950928
0.98843622207641602 0.33108556270599365 0.64642322063446045
0.15575569868087769 0.36976632475852966 0.76559042930603027
0.31477877497673035 0.38210448622703552 0.75945931673049927
0.49365022778511047 0.4023861289024353 0.75036203861236572
0.66129177808761597 0.44117698073387146 0.74622780084609985
0.78430235385894775 0.44604378938674927 0.73319721221923828
0.88076061010360718 0.39883476495742798 0.68248766660690308
0.9860302209854126 0.38913863897323608 0.65045732259750366
0.25503522157669067 0.51947605609893799 0.75631862878799438
0.35104000568389893 0.51345604658126831 0.75526142120361328
0.48932984471321106 0.51225489377975464 0.74814242124557495
0.64916998147964478 0.5411449670791626 0.73910266160964966
0.76976108551025391 0.54506421089172363 0.72917252779006958
0.87260586023330688 0.49989098310470581 0.69005274772644043
0.98661470413208008 0.49215960502624512 0.66858130693435669
0.23726138472557068 0.62702196836471558 0.73520749807357788
0.33847805857658386 0.62909972667694092 0.7392391562461853
0.46941033005714417 0.62670868635177612 0.73412781953811646
0.61763769388198853 0.63040715456008911 0.7284885048866272
0.75146645307540894 0.63724297285079956 0.72573679685592651
0.86387985944747925 0.60843133926391602 0.70139580965042114
0.98322099447250366 0.60991287231445312 0.69149035215377808
0.38577425479888916 0.73238945007324219 0.73308861255645752
0.43483617901802063 0.73159408569335938 0.7328791618347168
0.52325272560119629 0.72712212800979614 0.73192358016967773
0.62347757816314697 0.7263752818107605 0.73345315456390381
0.73231202363967896 0.72797268629074097 0.72861039638519287
0.85967403650283813 0.71762669086456299 0.7127644419670105
0.97592246532440186 0.72924035787582397 0.7102927565574646
0.5504763126373291 0.84104520082473755 0.76548439264297485
0.57733786106109619 0.83870190382003784 0.76907742023468018
0.6237373948097229 0.83819729089736938 0.77553761005401611
0.69473183155059814 0.83730530738830566 0.77737581729888916
0.75893294811248779 0.83350545167922974 0.76425403356552124
0.8490028977394104 0.83387267589569092 0.74657523632049561
0.97260886430740356 0.8325200080871582 0.71143597364425659
0.69166624546051025 0.94490474462509155 0.83074337244033813
0.70387965440750122 0.94255459308624268 0.83293324708938599
0.73409956693649292 0.94290947914123535 0.83658719062805176
0.77338612079620361 0.94086366891860962 0.83591949939727783
0.81426525115966797 0.93967443704605103 0.83307141065597534
0.86915498971939087 0.94527846574783325 0.82664740085601807
0.9544110894203186 0.96105694770812988 0.80250841379165649
0.32262870669364929 0.39819970726966858 0.87592428922653198
0.41620093584060669 0.41683530807495117 0.87445664405822754
0.55028504133224487 0.43881714344024658 0.86840015649795532
0.68750524520874023 0.48276087641716003 0.86551767587661743
0.81055837869644165 0.54225838184356689 0.8591727614402771
0.91333860158920288 0.53974229097366333 0.85171699523925781
0.98777127265930176 0.50293385982513428 0.82314610481262207
0.36004191637039185 0.47020843625068665 0.8764922022819519
0.44316905736923218 0.48957344889640808 0.87068551778793335
0.56120944023132324 0.50452107191085815 0.8653445839881897
0.69482147693634033 0.53634631633758545 0.86447644233703613
0.81142300367355347 0.58079802989959717 0.85553085803985596
0.90885645151138306 0.5798143744468689 0.85118848085403442
0.98173052072525024 0.53970456123352051 0.82420456409454346
0.42120862007141113 0.57629191875457764 0.87197083234786987
0.46404895186424255 0.5752948522567749 0.87240618467330933
0.5686028003692627 0.58994656801223755 0.86864107847213745
0.69460254907608032 0.60991883277893066 0.86578917503356934
0.81018161773681641 0.65099823474884033 0.85797631740570068
0.90124958753585815 0.64568352699279785 0.85309255123138428
0.97907429933547974 0.61182540655136108 0.82929521799087524
0.40553176403045654 0.6802794337272644 0.86167341470718384
0.46311953663825989 0.68158429861068726 0.86198586225509644
0.56601381301879883 0.68376994132995605 0.86133301258087158
0.67855691909790039 0.68454456329345703 0.86243492364883423
0.79453319311141968 0.71094083786010742 0.85956621170043945
0.8886101245880127 0.71445626020431519 0.85124796628952026
0.97416704893112183 0.68194234371185303 0.82914209365844727
0.45697572827339172 0.77291655540466309 0.85581821203231812
0.49633386731147766 0.7724754810333252 0.85609400272369385
0.56571608781814575 0.77150201797485352 0.8533482551574707
0.65559583902359009 0.76953881978988647 0.85423415899276733
0.77382957935333252 0.77492982149124146 0.85437417030334473
0.88571441173553467 0.78381448984146118 0.85509347915649414
0.97581583261489868 0.75820696353912354 0.83701252937316895
0.54989755153656006 0.862060546875 0.85887390375137329
0.58600920438766479 0.86309611797332764 0.86242669820785522
0.62962371110916138 0.860065758228302 0.8595879077911377
0.69800078868865967 0.85761886835098267 0.86179184913635254
0.7798646092414856 0.85362446308135986 0.86255323886871338
0.87003827095031738 0.85310715436935425 0.85987746715545654
0.97564208507537842 0.85052841901779175 0.84566056728363037
0.68298804759979248 0.95466917753219604 0.89095973968505859
0.69837933778762817 0.95401746034622192 0.89125150442123413
0.7290765643119812 0.95160716772079468 0.8957977294921875
0.77621489763259888 0.95146983861923218 0.89868712425231934
0.84063738584518433 0.95209664106369019 0.90103983879089355
0.89488387107849121 0.95337003469467163 0.8982735276222229
0.96636039018630981 0.96328949928283691 0.88292282819747925
0.52937507629394531 0.55571037530899048 0.96899139881134033
0.5744626522064209 0.56848961114883423 0.96865367889404297
0.64986121654510498 0.58764302730560303 0.96625816822052002
0.75013971328735352 0.62047296762466431 0.95397341251373291
0.85075074434280396 0.66261982917785645 0.95280855894088745
0.93503296375274658 0.70101487636566162 0.9489978551864624
0.99293535947799683 0.69721919298171997 0.9496799111366272
0.54763591289520264 0.59887826442718506 0.9680216908454895
0.58540123701095581 0.60726416110992432 0.9675898551940918
0.66006672382354736 0.6204150915145874 0.96409481763839722
0.75506716966629028 0.64810556173324585 0.96020007133483887
0.85192751884460449 0.68506401777267456 0.95471489429473877
0.93387115001678467 0.72110509872436523 0.94931894540786743
0.99208402633666992 0.71915823221206665 0.95119917392730713
0.56897932291030884 0.66205525398254395 0.96745270490646362
0.6026761531829834 0.66967493295669556 0.96687120199203491
0.6681290864944458 0.67841321229934692 0.96396154165267944
0.75745117664337158 0.69906902313232422 0.95956122875213623
0.84968400001525879 0.72582799196243286 0.95554077625274658
0.93089437484741211 0.75333964824676514 0.94927901029586792
0.99001526832580566 0.75291401147842407 0.95219624042510986
0.59307610988616943 0.74870675802230835 0.96344929933547974
0.62181878089904785 0.75022429227828979 0.96583205461502075
0.66844046115875244 0.74300557374954224 0.96352118253707886
0.74861711263656616 0.75139725208282471 0.96184456348419189
0.84267163276672363 0.77011096477508545 0.95849227905273438
0.92866432666778564 0.79502242803573608 0.95446294546127319
0.9839472770690918 0.79638379812240601 0.95273458957672119
0.54979968070983887 0.81905961036682129 0.96223795413970947
0.580158531665802 0.82044029235839844 0.96273136138916016
0.64011228084564209 0.81915557384490967 0.96281939744949341
0.72756445407867432 0.8184848427772522 0.95884531736373901
0.8287166953086853 0.82538306713104248 0.96030086278915405
0.91955500841140747 0.84182572364807129 0.95931792259216309
0.98522102832794189 0.85138332843780518 0.95559370517730713
0.61313462257385254 0.89573723077774048 0.96102285385131836
0.63267421722412109 0.89722096920013428 0.96212685108184814
0.66845846176147461 0.89549654722213745 0.96166825294494629
0.72739464044570923 0.89441812038421631 0.96083694696426392
0.80427384376525879 0.89390993118286133 0.96504050493240356
0.90376734733581543 0.90134906768798828 0.96632194519042969
0.98519116640090942 0.910422682762146 0.96295714378356934
0.69366252422332764 0.97303467988967896 0.96715456247329712
0.70601016283035278 0.97273796796798706 0.96704161167144775
0.72788769006729126 0.9673646092414856 0.96451246738433838
0.78549045324325562 0.97456616163253784 0.96929895877838135
0.84353268146514893 0.97233659029006958 0.97219157218933105
0.91116780042648315 0.97325307130813599 0.97373366355895996
0.97942358255386353 0.97637146711349487 0.97254592180252075
