luts/negative_old/kodak_portra_400_vc.cube
# Created by: G'MIC (https://gmic.eu)
TITLE "kodak_portra_400_vc"
# LUT size
LUT_3D_SIZE 5
# Data domain
DOMAIN_MIN 0.0 0.0 0.0
DOMAIN_MAX 1.0 1.0 1.0
# LUT data points
0.031072638928890228 0.055320229381322861 0.058923445641994476
0.21562553942203522 0.067634671926498413 0.047657415270805359
0.54981297254562378 0.0647239089012146 0.018860252574086189
0.81371182203292847 0.096062108874320984 0.0044867121614515781
0.98517876863479614 0.20098720490932465 0.0003735710633918643
0.0040330025367438793 0.23685824871063232 0.10849727690219879
0.17644675076007843 0.26317939162254333 0.068524725735187531
0.6197894811630249 0.29709848761558533 0.0033432904165238142
0.83728140592575073 0.28978267312049866 0.006720823235809803
0.98999941349029541 0.31125900149345398 0.00077574484748765826
0 0.52160978317260742 0.210527703166008
0.042861398309469223 0.52501821517944336 0.21059814095497131
0.51801955699920654 0.57166206836700439 0.11177169531583786
0.82901012897491455 0.56432700157165527 0.0064077936112880707
0.99360436201095581 0.5148966908454895 0.00025087245739996433
0.13826324045658112 0.72887241840362549 0.37808236479759216
0.2696165144443512 0.72097569704055786 0.38573867082595825
0.47508987784385681 0.73086965084075928 0.37013256549835205
0.72136712074279785 0.76214301586151123 0.31060323119163513
0.96603101491928101 0.77529138326644897 0.20375895500183105
0.57537037134170532 0.89278364181518555 0.65107488632202148
0.60506027936935425 0.89210861921310425 0.65718847513198853
0.66467779874801636 0.89121687412261963 0.66302132606506348
0.75971925258636475 0.90536987781524658 0.64884001016616821
0.90369302034378052 0.92872327566146851 0.62495952844619751
0.0028136908076703548 0.061644237488508224 0.25337088108062744
0.21059387922286987 0.065057523548603058 0.26096892356872559
0.57567775249481201 0.0034515082370489836 0.22662743926048279
0.81517559289932251 0.040733907371759415 0.19611629843711853
0.97346842288970947 0.18687278032302856 0.15542854368686676
0.0020670571830123663 0.28006073832511902 0.29091864824295044
0.24768887460231781 0.29323488473892212 0.30231568217277527
0.6120184063911438 0.28576001524925232 0.26090458035469055
0.82716286182403564 0.28919300436973572 0.21035371720790863
0.98874682188034058 0.31524962186813354 0.16091127693653107
0.1177414208650589 0.56755167245864868 0.38130250573158264
0.27193158864974976 0.5571632981300354 0.37707245349884033
0.56092101335525513 0.58012086153030396 0.34457507729530334
0.82752233743667603 0.55248290300369263 0.25074106454849243
0.99168550968170166 0.5194057822227478 0.16122740507125854
0.32592102885246277 0.73921054601669312 0.47640338540077209
0.41176488995552063 0.73400509357452393 0.49169987440109253
0.53163957595825195 0.73268097639083862 0.47862184047698975
0.73782926797866821 0.76292717456817627 0.44373533129692078
0.96276712417602539 0.77002984285354614 0.37356877326965332
0.60016858577728271 0.89349144697189331 0.68118667602539062
0.62623238563537598 0.89460140466690063 0.68656456470489502
0.68211930990219116 0.89082503318786621 0.69496411085128784
0.77216941118240356 0.90760987997055054 0.68520057201385498
0.9036518931388855 0.9273984432220459 0.66615831851959229
0.0014514549402520061 0.11514458805322647 0.554127037525177
0.19304059445858002 0.11786506325006485 0.56487208604812622
0.6042669415473938 0.093750372529029846 0.57372337579727173
0.84673964977264404 0.14905893802642822 0.51263415813446045
0.99407553672790527 0.12511472404003143 0.42841264605522156
0.0037735733203589916 0.32923305034637451 0.57161927223205566
0.23831570148468018 0.33430030941963196 0.58989799022674561
0.61043936014175415 0.35535880923271179 0.5837598443031311
0.83340764045715332 0.36432763934135437 0.5312507152557373
0.98666369915008545 0.32356271147727966 0.44797202944755554
0.12706603109836578 0.59630036354064941 0.59092593193054199
0.38615307211875916 0.59636062383651733 0.59513717889785767
0.61770522594451904 0.59680426120758057 0.60047656297683716
0.81483477354049683 0.57339000701904297 0.54806041717529297
0.97222882509231567 0.54568219184875488 0.48371899127960205
0.49911314249038696 0.76409411430358887 0.65419292449951172
0.55433541536331177 0.76187872886657715 0.65383058786392212
0.62564551830291748 0.7490273118019104 0.63915091753005981
0.76979672908782959 0.77002841234207153 0.62905383110046387
0.96219855546951294 0.75670731067657471 0.56736129522323608
0.66345763206481934 0.90111297369003296 0.75476557016372681
0.67214018106460571 0.9006812572479248 0.74962902069091797
0.71744805574417114 0.89851170778274536 0.75430524349212646
0.79641067981719971 0.90463113784790039 0.74909853935241699
0.91296958923339844 0.93019503355026245 0.7408757209777832
0.00035738476435653865 0.21701042354106903 0.78459411859512329
0.21673128008842468 0.23061414062976837 0.78480982780456543
0.5814669132232666 0.27701577544212341 0.78300607204437256
0.82206952571868896 0.33080127835273743 0.77826857566833496
0.97117996215820312 0.42185842990875244 0.73948401212692261
0.008440578356385231 0.37145900726318359 0.78386956453323364
0.29178652167320251 0.38700118660926819 0.78082472085952759
0.59506607055664062 0.42091488838195801 0.78060251474380493
0.81331461668014526 0.46860077977180481 0.7769971489906311
0.96574467420578003 0.52107149362564087 0.74931156635284424
0.17185728251934052 0.58679032325744629 0.76315814256668091
0.38040247559547424 0.5952112078666687 0.76799100637435913
0.60247093439102173 0.61281639337539673 0.7688484787940979
0.79773902893066406 0.64178001880645752 0.77107006311416626
0.94721508026123047 0.65109705924987793 0.755340576171875
0.46367835998535156 0.77268856763839722 0.77828729152679443
0.53095859289169312 0.77558070421218872 0.78286558389663696
0.66166812181472778 0.77558267116546631 0.79032254219055176
0.80053561925888062 0.78261333703994751 0.78954970836639404
0.94288164377212524 0.75977146625518799 0.7542681097984314
0.68787044286727905 0.91661781072616577 0.83855348825454712
0.71232396364212036 0.91666328907012939 0.8409426212310791
0.75722122192382812 0.91276580095291138 0.83580535650253296
0.8240399956703186 0.91334718465805054 0.8353162407875061
0.93442833423614502 0.93140536546707153 0.82929319143295288
0.36637857556343079 0.4396689236164093 0.93506777286529541
0.4689490795135498 0.45359334349632263 0.92985790967941284
0.64218103885650635 0.48673665523529053 0.92547696828842163
0.81709176301956177 0.55375063419342041 0.91837781667709351
0.9623909592628479 0.59730881452560425 0.92029935121536255
0.42685726284980774 0.52901923656463623 0.93099534511566162
0.50802940130233765 0.53365617990493774 0.92805188894271851
0.65744566917419434 0.56200432777404785 0.92728704214096069
0.81556415557861328 0.6102864146232605 0.91932040452957153
0.95628273487091064 0.6393197774887085 0.9183695912361145
0.48482036590576172 0.66739225387573242 0.92136716842651367
0.5455208420753479 0.66503900289535522 0.92287105321884155
0.66190594434738159 0.66862207651138306 0.92426413297653198
0.82064485549926758 0.70300424098968506 0.92059260606765747
0.95291578769683838 0.7256125807762146 0.92003613710403442
0.50231021642684937 0.79842507839202881 0.92193788290023804
0.54295694828033447 0.79193812608718872 0.92019152641296387
0.64050143957138062 0.78914207220077515 0.91750693321228027
0.80259168148040771 0.80312532186508179 0.92565006017684937
0.95306318998336792 0.82249528169631958 0.93015938997268677
0.66286087036132812 0.93760710954666138 0.93372660875320435
0.68508434295654297 0.93745100498199463 0.93845599889755249
0.74770641326904297 0.93752408027648926 0.94240456819534302
0.83493506908416748 0.94049549102783203 0.94504654407501221
0.9542805552482605 0.94327032566070557 0.94512540102005005
