luts/negative_old/kodak_portra_160_vc_-.cube
# Created by: G'MIC (https://gmic.eu)
TITLE "kodak_portra_160_vc_-"
# LUT size
LUT_3D_SIZE 13
# Data domain
DOMAIN_MIN 0.0 0.0 0.0
DOMAIN_MAX 1.0 1.0 1.0
# LUT data points
0.0094543453305959702 0.011469089426100254 0.013609657995402813
0.038531597703695297 0.012696165591478348 0.01197470910847187
0.11361918598413467 0.022456943988800049 0.0097500672563910484
0.2169383317232132 0.035368930548429489 0.0087654562667012215
0.33855745196342468 0.028678730130195618 0.003442038781940937
0.45880916714668274 0.017018904909491539 0.0067678862251341343
0.56759411096572876 0.0097458483651280403 0.0065624313428997993
0.67228269577026367 0.006227575708180666 0.0023894964251667261
0.76975125074386597 0.01521409023553133 0.0013688928447663784
0.84704881906509399 0.04946613684296608 0.0021699792705476284
0.91716712713241577 0.10381253063678741 0.0013186435680836439
0.97505486011505127 0.15374316275119781 0.00040395400719717145
0.99941408634185791 0.19707375764846802 0.00025473203277215362
0.0062188990414142609 0.051425725221633911 0.020178057253360748
0.035121377557516098 0.056034132838249207 0.014787846244871616
0.11697114259004593 0.07091241329908371 0.0093180490657687187
0.22535103559494019 0.082906179130077362 0.0075070997700095177
0.34636905789375305 0.087705574929714203 0.0070452373474836349
0.46690332889556885 0.081515111029148102 0.0073684095405042171
0.57356244325637817 0.068403802812099457 0.008272792212665081
0.67335426807403564 0.067807398736476898 0.0021252201404422522
0.76698094606399536 0.089002199470996857 0.00033681534114293754
0.84613305330276489 0.12189404666423798 0.00056391698308289051
0.91542541980743408 0.15460509061813354 0.002159313065931201
0.97502809762954712 0.19106608629226685 0.0016531700966879725
0.99802279472351074 0.22825184464454651 0.0023072485346347094
0.0039995829574763775 0.13314259052276611 0.035887312144041061
0.017261041328310966 0.13395239412784576 0.028852125629782677
0.097074247896671295 0.14571629464626312 0.01647898368537426
0.22224247455596924 0.16197581589221954 0.012121058069169521
0.35635179281234741 0.1720578521490097 0.011274360120296478
0.4781859815120697 0.1657683253288269 0.0080796033143997192
0.58331400156021118 0.16215802729129791 0.0076398663222789764
0.67871952056884766 0.16660107672214508 0.0026671616360545158
0.76704627275466919 0.1804327666759491 0.00072073843330144882
0.84534662961959839 0.19917111098766327 0.0029501672834157944
0.91105139255523682 0.22193388640880585 0.0037370121572166681
0.974578857421875 0.24303500354290009 0.0017883300315588713
0.99645459651947021 0.26741597056388855 0.0013918858021497726
0.0016939201159402728 0.23108199238777161 0.067823760211467743
0.0046386271715164185 0.23396782577037811 0.067161396145820618
0.045472342520952225 0.23966050148010254 0.04895101860165596
0.19573988020420074 0.26347023248672485 0.023154344409704208
0.35282495617866516 0.28122726082801819 0.0074014551937580109
0.48171618580818176 0.27621868252754211 0.0048693190328776836
0.58785748481750488 0.26225683093070984 0.0041068284772336483
0.68041479587554932 0.25678125023841858 0.0022251952905207872
0.76364231109619141 0.26478329300880432 0.0016677706735208631
0.83964008092880249 0.27637651562690735 0.0039293328300118446
0.90625560283660889 0.29167655110359192 0.004183541052043438
0.96858292818069458 0.30417636036872864 0.0021415860392153263
0.9957001805305481 0.32053729891777039 0.001875649206340313
0 0.33050087094306946 0.1232614740729332
0.0013676362577825785 0.33833137154579163 0.12716744840145111
0.017233680933713913 0.34561920166015625 0.11713164299726486
0.15607801079750061 0.36141753196716309 0.083512850105762482
0.31734052300453186 0.37813910841941833 0.035288702696561813
0.46684163808822632 0.39007747173309326 0.0063973073847591877
0.57916814088821411 0.37895750999450684 0.0021126242354512215
0.67497318983078003 0.35940194129943848 0.0021936604753136635
0.75630652904510498 0.34899640083312988 0.001999769126996398
0.83121877908706665 0.35138562321662903 0.003547608619555831
0.90140509605407715 0.35997965931892395 0.0038593218196183443
0.963642418384552 0.36856934428215027 0.0023834677413105965
0.99492841958999634 0.37919312715530396 0.00067714619217440486
0.0017050649039447308 0.42594736814498901 0.18952471017837524
0.0030742869712412357 0.43324926495552063 0.19106654822826385
0.019933080300688744 0.43965059518814087 0.18671137094497681
0.1429799348115921 0.44772595167160034 0.16913273930549622
0.28182968497276306 0.45801383256912231 0.13055427372455597
0.42152795195579529 0.47167396545410156 0.064772889018058777
0.55618572235107422 0.48244142532348633 0.013970902189612389
0.65865635871887207 0.47150519490242004 0.0030868980102241039
0.7412872314453125 0.45270264148712158 0.0012126697693020105
0.82110637426376343 0.43646442890167236 0.00086298922542482615
0.89525735378265381 0.43043577671051025 0.0014883752446621656
0.954517662525177 0.43496745824813843 0.0018104553455486894
0.99194151163101196 0.44348707795143127 0.00084992952179163694
0.0043003009632229805 0.51711815595626831 0.24698947370052338
0.0051178126595914364 0.51921731233596802 0.24614332616329193
0.045926067978143692 0.52142131328582764 0.24333752691745758
0.16599954664707184 0.52459198236465454 0.23102615773677826
0.27577066421508789 0.53081423044204712 0.2111118882894516
0.38933286070823669 0.54043787717819214 0.17109254002571106
0.50911349058151245 0.55186361074447632 0.10609228163957596
0.63211613893508911 0.56417912244796753 0.033207058906555176
0.72947585582733154 0.55748611688613892 0.003427168820053339
0.80894911289215088 0.53831779956817627 0.0038255429826676846
0.88395315408706665 0.52118343114852905 0.00066849950235337019
0.948322594165802 0.51162630319595337 0.0012369492324069142
0.99285984039306641 0.51083213090896606 0.0013227126328274608
0.0054499008692800999 0.59954714775085449 0.29294410347938538
0.025169657543301582 0.60059988498687744 0.29169279336929321
0.10241866856813431 0.59682756662368774 0.29225924611091614
0.20578363537788391 0.59621524810791016 0.28883498907089233
0.29577124118804932 0.5991966724395752 0.27778312563896179
0.38361409306526184 0.60689389705657959 0.25504681468009949
0.48127087950706482 0.61538606882095337 0.21706561744213104
0.58802002668380737 0.62364357709884644 0.16129116714000702
0.69974923133850098 0.63694560527801514 0.074028044939041138
0.79478877782821655 0.63618439435958862 0.022175194695591927
0.87139618396759033 0.62278264760971069 0.0049026641063392162
0.93957167863845825 0.60697972774505615 0.0032527849543839693
0.99094849824905396 0.59397947788238525 0.0023782916832715273
0.079256020486354828 0.67249035835266113 0.33892983198165894
0.12980629503726959 0.67140185832977295 0.34306201338768005
0.19636534154415131 0.66837525367736816 0.3447728157043457
0.26519724726676941 0.66713452339172363 0.34600779414176941
0.32815229892730713 0.6681511402130127 0.34202966094017029
0.3984285295009613 0.67210805416107178 0.3279234766960144
0.47561979293823242 0.67857354879379272 0.30738970637321472
0.56665980815887451 0.68537420034408569 0.26856279373168945
0.66182893514633179 0.69393032789230347 0.21557250618934631
0.76516169309616089 0.70532858371734619 0.14826527237892151
0.85856878757476807 0.71185511350631714 0.082977965474128723
0.93193703889846802 0.70238542556762695 0.036406096071004868
0.98684436082839966 0.69026750326156616 0.010435306467115879
0.22401970624923706 0.74159276485443115 0.40236571431159973
0.25024446845054626 0.74013245105743408 0.40419071912765503
0.28651738166809082 0.73827332258224487 0.40674227476119995
0.32932579517364502 0.7364192008972168 0.40766215324401855
0.37761217355728149 0.73454630374908447 0.40699756145477295
0.43271219730377197 0.73586320877075195 0.40152373909950256
0.49795916676521301 0.74173390865325928 0.38588753342628479
0.56544005870819092 0.74866050481796265 0.36249136924743652
0.64566022157669067 0.75451380014419556 0.32731276750564575
0.73570823669433594 0.76174992322921753 0.28328227996826172
0.83021086454391479 0.77413433790206909 0.23261606693267822
0.91960495710372925 0.7817542552947998 0.18004117906093597
0.98003691434860229 0.7760433554649353 0.13288296759128571
0.34805041551589966 0.80643379688262939 0.4784848690032959
0.36568763852119446 0.80664801597595215 0.48176276683807373
0.3838808536529541 0.80534303188323975 0.48071536421775818
0.410133957862854 0.80153036117553711 0.48211082816123962
0.4452286958694458 0.79808253049850464 0.48072752356529236
0.48751866817474365 0.79937684535980225 0.47848713397979736
0.53311842679977417 0.80331248044967651 0.47002112865447998
0.58989548683166504 0.80943697690963745 0.45661216974258423
0.65395677089691162 0.8155362606048584 0.43400716781616211
0.72388195991516113 0.82104277610778809 0.40009880065917969
0.80504447221755981 0.82803219556808472 0.35963231325149536
0.89450919628143311 0.8388516902923584 0.31632751226425171
0.96863782405853271 0.84715676307678223 0.27780300378799438
0.4677920937538147 0.86796355247497559 0.57299429178237915
0.48046711087226868 0.8679811954498291 0.57517749071121216
0.49087274074554443 0.86724740266799927 0.57437711954116821
0.50728422403335571 0.86331641674041748 0.57284551858901978
0.53419578075408936 0.86157506704330444 0.57372385263442993
0.56997668743133545 0.86178106069564819 0.57476776838302612
0.60339891910552979 0.86398589611053467 0.56964313983917236
0.63982504606246948 0.86939465999603271 0.55797499418258667
0.68233209848403931 0.8764265775680542 0.54479151964187622
0.73613029718399048 0.88232266902923584 0.52200919389724731
0.80187702178955078 0.88679718971252441 0.49419578909873962
0.87605845928192139 0.89267462491989136 0.45834639668464661
0.94723206758499146 0.90230512619018555 0.41596880555152893
0.58081257343292236 0.92696261405944824 0.6655421257019043
0.58752304315567017 0.92629265785217285 0.66644406318664551
0.59471654891967773 0.92463862895965576 0.66669440269470215
0.60975182056427002 0.92528790235519409 0.66911578178405762
0.6302751898765564 0.92450487613677979 0.67153990268707275
0.65494424104690552 0.92380422353744507 0.67464017868041992
0.68163985013961792 0.92553842067718506 0.6764521598815918
0.70703327655792236 0.92826557159423828 0.66798281669616699
0.73868227005004883 0.93538624048233032 0.6607135534286499
0.77527159452438354 0.94025498628616333 0.64380395412445068
0.82115024328231812 0.94473373889923096 0.62641340494155884
0.87788891792297363 0.95160877704620361 0.6055532693862915
0.93400877714157104 0.9578700065612793 0.57886159420013428
0.0075853085145354271 0.011703595519065857 0.05622495710849762
0.046556420624256134 0.013636555522680283 0.059364050626754761
0.11743771284818649 0.011798948049545288 0.056267712265253067
0.22076934576034546 0.010936393402516842 0.051867317408323288
0.34358963370323181 0.014619356021285057 0.049512438476085663
0.46345645189285278 0.0091699333861470222 0.054747145622968674
0.57245928049087524 0.0075495550408959389 0.056415870785713196
0.67720621824264526 0.008988608606159687 0.049735050648450851
0.76959490776062012 0.026554033160209656 0.044204816222190857
0.84524571895599365 0.072986528277397156 0.042334776371717453
0.91279411315917969 0.12287309020757675 0.035655047744512558
0.97170513868331909 0.17098855972290039 0.03460223600268364
0.99934637546539307 0.21299697458744049 0.037970986217260361
0.0049684261903166771 0.060999762266874313 0.069943279027938843
0.038083497434854507 0.061990145593881607 0.06796737015247345
0.12416248768568039 0.067836850881576538 0.064939014613628387
0.2323591560125351 0.066229008138179779 0.057493757456541061
0.35135209560394287 0.072647854685783386 0.056691620498895645
0.46949008107185364 0.073196545243263245 0.052445340901613235
0.57747900485992432 0.073451772332191467 0.049491956830024719
0.67909902334213257 0.080680713057518005 0.043179292231798172
0.768715500831604 0.10294346511363983 0.038574982434511185
0.84588825702667236 0.13398480415344238 0.035609643906354904
0.9116395115852356 0.16970448195934296 0.031951259821653366
0.97313350439071655 0.2045617401599884 0.031604617834091187
0.99940741062164307 0.24013982713222504 0.039498873054981232
0.0040275272913277149 0.14693279564380646 0.097306318581104279
0.021156400442123413 0.14534969627857208 0.09264005720615387
0.10909591615200043 0.15269474685192108 0.084810011088848114
0.2356066107749939 0.16090448200702667 0.06797897070646286
0.36151647567749023 0.16408704221248627 0.048490606248378754
0.47902315855026245 0.16459974646568298 0.042800109833478928
0.58656173944473267 0.16861233115196228 0.042454469949007034
0.68432629108428955 0.17594151198863983 0.036350637674331665
0.76781326532363892 0.18833582103252411 0.035726673901081085
0.84522610902786255 0.20542134344577789 0.028168113902211189
0.91165363788604736 0.22755074501037598 0.026082580909132957
0.97152966260910034 0.25282096862792969 0.023947278037667274
0.99842649698257446 0.28031280636787415 0.031208695843815804
0.0031368779018521309 0.24354343116283417 0.1298622339963913
0.0073215411975979805 0.24317587912082672 0.12957911193370819
0.069573104381561279 0.2472861111164093 0.12276546657085419
0.21529677510261536 0.26728084683418274 0.097219638526439667
0.36355993151664734 0.27901852130889893 0.056689541786909103
0.48869377374649048 0.27170175313949585 0.035716306418180466
0.59318739175796509 0.26235651969909668 0.027986997738480568
0.68278050422668457 0.26069861650466919 0.026709148660302162
0.76499634981155396 0.26821079850196838 0.022934423759579659
0.84151560068130493 0.2787172794342041 0.017830165103077888
0.90885657072067261 0.29424828290939331 0.017746720463037491
0.96959471702575684 0.31041622161865234 0.016664586961269379
0.99735182523727417 0.33206295967102051 0.020565003156661987
0.0013926787069067359 0.34643933176994324 0.17957890033721924
0.0051157930865883827 0.34919863939285278 0.17824305593967438
0.053284902125597 0.35222110152244568 0.17416150867938995
0.18974339962005615 0.36554977297782898 0.15605676174163818
0.33144867420196533 0.38122165203094482 0.11313541233539581
0.47444948554039001 0.38892200589179993 0.059412278234958649
0.58596158027648926 0.37441903352737427 0.030203904956579208
0.67785608768463135 0.35743570327758789 0.014898606576025486
0.75762218236923218 0.35132721066474915 0.0090300170704722404
0.8324277400970459 0.35462617874145508 0.0093522015959024429
0.90217459201812744 0.36229187250137329 0.0093979779630899429
0.96528524160385132 0.37328353524208069 0.0098070185631513596
0.99705660343170166 0.38995763659477234 0.011190286837518215
0.0033482122235000134 0.44108238816261292 0.23232677578926086
0.0062101627700030804 0.44495844841003418 0.22819159924983978
0.065835557878017426 0.44738289713859558 0.22598089277744293
0.18535639345645905 0.45158737897872925 0.21647310256958008
0.30162623524665833 0.46200171113014221 0.19002380967140198
0.42905142903327942 0.47294479608535767 0.14146211743354797
0.56029105186462402 0.4812963604927063 0.0765090212225914
0.66457599401473999 0.47275084257125854 0.029618611559271812
0.74489617347717285 0.45309525728225708 0.012111110612750053
0.82262134552001953 0.43757545948028564 0.0061946646310389042
0.89413213729858398 0.4334142804145813 0.0064783133566379547
0.95838731527328491 0.43936771154403687 0.0056648855097591877
0.99449986219406128 0.44927772879600525 0.0063485540449619293
0.0074080373160541058 0.52644294500350952 0.27175730466842651
0.020779598504304886 0.52883464097976685 0.27197062969207764
0.10117987543344498 0.52749085426330566 0.27273619174957275
0.20521926879882812 0.52862149477005005 0.26706898212432861
0.29721438884735107 0.53405576944351196 0.25131699442863464
0.40260177850723267 0.54349803924560547 0.21894535422325134
0.51726871728897095 0.5535353422164917 0.16867648065090179
0.63323897123336792 0.56178086996078491 0.10204336047172546
0.73096436262130737 0.55851978063583374 0.047536347061395645
0.81019848585128784 0.54038029909133911 0.015187866054475307
0.88265091180801392 0.52372604608535767 0.0073486478067934513
0.94877076148986816 0.51590842008590698 0.0058565624058246613
0.99150252342224121 0.5159294605255127 0.0052308323793113232
0.029352959245443344 0.60509592294692993 0.3120453953742981
0.076342068612575531 0.6054341197013855 0.31589320302009583
0.16261869668960571 0.60104537010192871 0.31792548298835754
0.23884336650371552 0.59841477870941162 0.31426545977592468
0.31343641877174377 0.60117417573928833 0.3064371645450592
0.39711648225784302 0.60888767242431641 0.28788366913795471
0.4891301691532135 0.61696016788482666 0.25476136803627014
0.59163695573806763 0.62463176250457764 0.20730774104595184
0.70033538341522217 0.63633865118026733 0.14397367835044861
0.79436969757080078 0.6363903284072876 0.081625856459140778
0.8710978627204895 0.62478995323181152 0.038129664957523346
0.94147765636444092 0.60992586612701416 0.011056788265705109
0.99089139699935913 0.59884786605834961 0.003946221899241209
0.13132858276367188 0.67412316799163818 0.36006882786750793
0.17247475683689117 0.67403841018676758 0.36503827571868896
0.2315155565738678 0.67116630077362061 0.36742696166038513
0.29067650437355042 0.66916698217391968 0.36524659395217896
0.34825655817985535 0.66853135824203491 0.36384290456771851
0.40998384356498718 0.6719469428062439 0.35047024488449097
0.48412242531776428 0.67985957860946655 0.32705843448638916
0.57283741235733032 0.68602448701858521 0.29498234391212463
0.66599279642105103 0.69533926248550415 0.25186488032341003
0.76880413293838501 0.70978772640228271 0.20061150193214417
0.85774540901184082 0.71158778667449951 0.15066544711589813
0.93223118782043457 0.70274746417999268 0.096288882195949554
0.98893314599990845 0.69133156538009644 0.046954493969678879
0.24885407090187073 0.74001944065093994 0.42157605290412903
0.2730070948600769 0.74158424139022827 0.42055317759513855
0.30629459023475647 0.74049776792526245 0.42202401161193848
0.34748965501785278 0.73782074451446533 0.42464759945869446
0.39498171210289001 0.73510938882827759 0.42633152008056641
0.44454202055931091 0.73534548282623291 0.420134037733078
0.50342869758605957 0.74119263887405396 0.40336933732032776
0.57070624828338623 0.74891936779022217 0.37870708107948303
0.65060132741928101 0.75635969638824463 0.34913855791091919
0.73678207397460938 0.76351016759872437 0.31256899237632751
0.82960748672485352 0.77366083860397339 0.26621311902999878
0.91938835382461548 0.78092378377914429 0.21966978907585144
0.98043084144592285 0.77536702156066895 0.18079183995723724
0.36372047662734985 0.80643379688262939 0.49331077933311462
0.38074144721031189 0.80662763118743896 0.49778270721435547
0.40026646852493286 0.80609691143035889 0.49628889560699463
0.42411854863166809 0.8029484748840332 0.49529987573623657
0.45843493938446045 0.79972654581069946 0.49759659171104431
0.49832123517990112 0.79947882890701294 0.49372667074203491
0.54139190912246704 0.80347412824630737 0.48331573605537415
0.59180521965026855 0.81054294109344482 0.46931883692741394
0.65696489810943604 0.81657993793487549 0.45140770077705383
0.72737926244735718 0.82174932956695557 0.42102402448654175
0.80787909030914307 0.82799971103668213 0.38433656096458435
0.89206016063690186 0.83823210000991821 0.33969688415527344
0.96980923414230347 0.84783679246902466 0.30361771583557129
0.47742044925689697 0.86828005313873291 0.58383876085281372
0.48825153708457947 0.8680574893951416 0.58548712730407715
0.50296610593795776 0.86783516407012939 0.58525323867797852
0.51909512281417847 0.86451262235641479 0.58391427993774414
0.54352015256881714 0.86147809028625488 0.58446997404098511
0.57270437479019165 0.86224102973937988 0.58550798892974854
0.60819423198699951 0.86517077684402466 0.57930839061737061
0.64287519454956055 0.86978542804718018 0.56924700736999512
0.68616765737533569 0.87685537338256836 0.55625653266906738
0.74199926853179932 0.88251399993896484 0.53487366437911987
0.80454486608505249 0.88750213384628296 0.5067933201789856
0.87501806020736694 0.8930545449256897 0.47362533211708069
0.94714939594268799 0.90279543399810791 0.4336925745010376
0.58627587556838989 0.92763596773147583 0.67236208915710449
0.59030628204345703 0.92603480815887451 0.67183178663253784
0.6018064022064209 0.92642176151275635 0.67463588714599609
0.6160043478012085 0.92505002021789551 0.67512184381484985
0.63319689035415649 0.92265039682388306 0.67647379636764526
0.65476483106613159 0.92232954502105713 0.67912662029266357
0.68202996253967285 0.92543768882751465 0.68262487649917603
0.70920133590698242 0.92940497398376465 0.67562222480773926
0.74104171991348267 0.93591713905334473 0.66606259346008301
0.78030145168304443 0.94148868322372437 0.6529119610786438
0.82524275779724121 0.94565945863723755 0.63363438844680786
0.87747377157211304 0.95084077119827271 0.61293226480484009
0.93403607606887817 0.9590485692024231 0.58867233991622925
0.0053695826791226864 0.018601555377244949 0.15151402354240417
0.041025873273611069 0.02053171768784523 0.15268333256244659
0.11480338871479034 0.02096068486571312 0.14733627438545227
0.21596622467041016 0.012613872066140175 0.14450374245643616
0.34207186102867126 0.0043560550548136234 0.13928481936454773
0.46687239408493042 0.0028349484782665968 0.13880878686904907
0.57948189973831177 0.0096530690789222717 0.14808852970600128
0.68219947814941406 0.035513829439878464 0.16500812768936157
0.76811075210571289 0.08729216456413269 0.17024779319763184
0.84168827533721924 0.13358946144580841 0.16768299043178558
0.9080040454864502 0.17188265919685364 0.1617387980222702
0.97137248516082764 0.21017101407051086 0.16167926788330078
0.99940782785415649 0.24817574024200439 0.16796791553497314
0.0042710844427347183 0.076469644904136658 0.1641535609960556
0.028757251799106598 0.078194968402385712 0.1653604656457901
0.1259474903345108 0.081649675965309143 0.16143499314785004
0.23388616740703583 0.069748267531394958 0.15441422164440155
0.3552396297454834 0.054920870810747147 0.15083561837673187
0.4741281270980835 0.056612711399793625 0.15397730469703674
0.58414721488952637 0.085831627249717712 0.16345506906509399
0.68282914161682129 0.12183136492967606 0.17001409828662872
0.76860517263412476 0.14819498360157013 0.16865144670009613
0.84281456470489502 0.17698125541210175 0.16508324444293976
0.90741318464279175 0.20942226052284241 0.15827573835849762
0.97030586004257202 0.238289475440979 0.15954624116420746
0.99840074777603149 0.27202877402305603 0.16693483293056488
0.0038305544294416904 0.16230978071689606 0.1771213710308075
0.02131468802690506 0.16285018622875214 0.17822496592998505
0.12054968625307083 0.16926996409893036 0.18074455857276917
0.24601566791534424 0.16690276563167572 0.16980937123298645
0.36756333708763123 0.16985785961151123 0.16466589272022247
0.48413059115409851 0.17930795252323151 0.16496939957141876
0.58924871683120728 0.18963636457920074 0.16515156626701355
0.68358337879180908 0.20542490482330322 0.16556504368782043
0.76755428314208984 0.21610274910926819 0.16217593848705292
0.84256625175476074 0.23506757616996765 0.15785707533359528
0.90910226106643677 0.25614097714424133 0.15289396047592163
0.96705979108810425 0.28151920437812805 0.14990916848182678
0.99618852138519287 0.31034529209136963 0.15958787500858307
0.0040053273551166058 0.25735300779342651 0.20254744589328766
0.029979946091771126 0.25998058915138245 0.2050335556268692
0.12466671317815781 0.26332786679267883 0.20700229704380035
0.24049359560012817 0.27267831563949585 0.19827774167060852
0.37254142761230469 0.28115510940551758 0.18036419153213501
0.49409511685371399 0.28095397353172302 0.16146889328956604
0.59419482946395874 0.27710768580436707 0.15451070666313171
0.68378108739852905 0.27935343980789185 0.1513337641954422
0.76501423120498657 0.28644803166389465 0.14621031284332275
0.8396105170249939 0.29829287528991699 0.14091013371944427
0.90721553564071655 0.3134920597076416 0.13821017742156982
0.96831071376800537 0.32986369729042053 0.13892099261283875
0.99757939577102661 0.35305580496788025 0.14699850976467133
0.01711120642721653 0.36606490612030029 0.2475864440202713
0.054161384701728821 0.36808386445045471 0.24806055426597595
0.13982322812080383 0.3681909441947937 0.25043749809265137
