luts/negative_old/kodak_portra_400_uc_+.cube
# Created by: G'MIC (https://gmic.eu)
TITLE "kodak_portra_400_uc_+"
# LUT size
LUT_3D_SIZE 5
# Data domain
DOMAIN_MIN 0.0 0.0 0.0
DOMAIN_MAX 1.0 1.0 1.0
# LUT data points
0.067128323018550873 0.076630689203739166 0.066567651927471161
0.23862031102180481 0.084659889340400696 0.055355489253997803
0.57212656736373901 0.084326393902301788 0.017542775720357895
0.84922075271606445 0.12726736068725586 0.0013505674432963133
0.9969140887260437 0.21985562145709991 0.0013068554690107703
0.0063474765047430992 0.23973123729228973 0.085062332451343536
0.18770912289619446 0.26668354868888855 0.057476524263620377
0.60865956544876099 0.30350974202156067 0.0052099190652370453
0.8512498140335083 0.31133818626403809 0.0038928461726754904
0.99146592617034912 0.34331512451171875 0.0012328204466030002
0.0012618419714272022 0.51527726650238037 0.15310660004615784
0.011005072854459286 0.5269702672958374 0.15767431259155273
0.47584742307662964 0.55907469987869263 0.061557307839393616
0.82405155897140503 0.56448888778686523 0.0057524885050952435
0.99514800310134888 0.52570819854736328 0.0016092637088149786
0.00031874413252808154 0.72443222999572754 0.31068980693817139
0.0061248182319104671 0.72595483064651489 0.32452452182769775
0.38271161913871765 0.73347395658493042 0.32459479570388794
0.70436185598373413 0.75698435306549072 0.28007721900939941
0.96352595090866089 0.77488237619400024 0.17710211873054504
0.46422204375267029 0.89943802356719971 0.60343790054321289
0.50051242113113403 0.89769995212554932 0.60930806398391724
0.5950920581817627 0.89826011657714844 0.62252217531204224
0.7324669361114502 0.90880113840103149 0.62180310487747192
0.89127397537231445 0.92643159627914429 0.60873943567276001
0.032301165163516998 0.087822318077087402 0.233080193400383
0.241464763879776 0.091759040951728821 0.24046184122562408
0.56230038404464722 0.0204493198543787 0.2239261120557785
0.84874403476715088 0.081305697560310364 0.20838777720928192
0.99378657341003418 0.25478461384773254 0.20217649638652802
0.010580489411950111 0.27458706498146057 0.2577100396156311
0.27453407645225525 0.3026002049446106 0.28183162212371826
0.61408692598342896 0.30613526701927185 0.24970716238021851
0.85047852993011475 0.3201926052570343 0.210257887840271
0.99082356691360474 0.36510589718818665 0.19135673344135284
0.058970730751752853 0.55150324106216431 0.35046011209487915
0.18355692923069 0.55220973491668701 0.33827245235443115
0.53650051355361938 0.57276386022567749 0.31822893023490906
0.83668261766433716 0.55575817823410034 0.20826005935668945
0.99476200342178345 0.53657549619674683 0.12951810657978058
0.099456697702407837 0.73425334692001343 0.43197464942932129
0.20369657874107361 0.73283213376998901 0.42846673727035522
0.45792677998542786 0.73814529180526733 0.43819916248321533
0.73595196008682251 0.76025313138961792 0.42202669382095337
0.95667630434036255 0.77026844024658203 0.36066743731498718
0.50256776809692383 0.90022438764572144 0.638580322265625
0.536296546459198 0.90004140138626099 0.64316761493682861
0.62524694204330444 0.89771109819412231 0.65950661897659302
0.74511981010437012 0.90885257720947266 0.66063541173934937
0.89454185962677002 0.92669177055358887 0.65504693984985352
0.0077987969852983952 0.12436297535896301 0.52143567800521851
0.23940464854240417 0.12665314972400665 0.53940480947494507
0.60742318630218506 0.11994919180870056 0.56333708763122559
0.81191980838775635 0.13952150940895081 0.49764090776443481
0.98799079656600952 0.21043451130390167 0.46189415454864502
0.0024007759056985378 0.29748919606208801 0.51562261581420898
0.23217520117759705 0.31293812394142151 0.55611199140548706
0.61110538244247437 0.35598504543304443 0.57131540775299072
0.82837539911270142 0.34124815464019775 0.51802933216094971
0.99061459302902222 0.37009862065315247 0.48402827978134155
0.018284322693943977 0.55942106246948242 0.53777396678924561
0.29963916540145874 0.56581276655197144 0.55704718828201294
0.60352998971939087 0.58529216051101685 0.58300101757049561
0.82403719425201416 0.58264338970184326 0.54509997367858887
0.97455000877380371 0.58509176969528198 0.5222582221031189
0.3952174186706543 0.74218416213989258 0.60735833644866943
0.4890277087688446 0.744282066822052 0.61794698238372803
0.58898472785949707 0.74761909246444702 0.61252576112747192
0.76612740755081177 0.76581686735153198 0.60999459028244019
0.96292102336883545 0.76048702001571655 0.55762952566146851
0.61358559131622314 0.90008747577667236 0.72482991218566895
0.63195675611495972 0.89987313747406006 0.72184747457504272
0.67248857021331787 0.89917689561843872 0.71737813949584961
0.76826602220535278 0.90767604112625122 0.72733783721923828
0.90978538990020752 0.93063688278198242 0.72903293371200562
0.0026567047461867332 0.19511264562606812 0.74907040596008301
0.24080231785774231 0.20524595677852631 0.75401788949966431
0.58931511640548706 0.24893176555633545 0.7642708420753479
0.83809596300125122 0.31740283966064453 0.76943349838256836
0.96795016527175903 0.37821033596992493 0.72411644458770752
0.0046870512887835503 0.32514035701751709 0.73646509647369385
0.24202586710453033 0.34097611904144287 0.75061684846878052
0.59115862846374512 0.39646849036216736 0.7641257643699646
0.8333701491355896 0.4555298388004303 0.76998221874237061
0.96033018827438354 0.47670891880989075 0.72932666540145874
0.0043386123143136501 0.5295594334602356 0.71084439754486084
0.15346923470497131 0.53243613243103027 0.71846598386764526
0.55586063861846924 0.57179945707321167 0.74434643983840942
0.81561428308486938 0.6301264762878418 0.76288378238677979
0.95072817802429199 0.62300634384155273 0.73183399438858032
0.25100937485694885 0.73989725112915039 0.72878557443618774
0.3851572573184967 0.74024862051010132 0.73437386751174927
0.60108989477157593 0.74685090780258179 0.74854475259780884
0.80426394939422607 0.77826648950576782 0.77698636054992676
0.95281326770782471 0.78053873777389526 0.75095707178115845
0.60833460092544556 0.90834426879882812 0.79999303817749023
0.6452140212059021 0.90715104341506958 0.8008112907409668
0.72369098663330078 0.90695536136627197 0.81194579601287842
0.8092232346534729 0.91524863243103027 0.81442701816558838
0.92813891172409058 0.93368566036224365 0.81607145071029663
0.36156126856803894 0.40259343385696411 0.91748052835464478
0.47511687874794006 0.41435050964355469 0.91513603925704956
0.66718548536300659 0.4539109468460083 0.91434144973754883
0.84305876493453979 0.53528928756713867 0.910910964012146
0.98251485824584961 0.58462852239608765 0.91072696447372437
0.37258478999137878 0.48261159658432007 0.91385358572006226
0.48758605122566223 0.49629637598991394 0.91248059272766113
0.6687045693397522 0.52673065662384033 0.91274166107177734
0.83867847919464111 0.59011250734329224 0.9109189510345459
0.96965080499649048 0.63155263662338257 0.90901035070419312
0.34768489003181458 0.61096024513244629 0.90239250659942627
0.44872003793716431 0.60836112499237061 0.90327411890029907
0.63984888792037964 0.62751418352127075 0.90677320957183838
0.82976287603378296 0.68189859390258789 0.90995919704437256
0.96421217918395996 0.72012591361999512 0.91037452220916748
0.20048607885837555 0.75691688060760498 0.89381229877471924
0.32611361145973206 0.75232517719268799 0.89353829622268677
0.52460062503814697 0.74581229686737061 0.89362168312072754
0.78426557779312134 0.77858424186706543 0.90813660621643066
0.95543628931045532 0.82313239574432373 0.91843444108963013
0.5371132493019104 0.92843508720397949 0.90888500213623047
0.57880127429962158 0.93102425336837769 0.91161167621612549
0.66335517168045044 0.92848718166351318 0.91644865274429321
0.7908138632774353 0.92683959007263184 0.92011553049087524
0.95399564504623413 0.94424247741699219 0.93050539493560791
