luts/negative_old/kodak_portra_160_nc_++.cube
# Created by: G'MIC (https://gmic.eu)
TITLE "kodak_portra_160_nc_++"
# LUT size
LUT_3D_SIZE 13
# Data domain
DOMAIN_MIN 0.0 0.0 0.0
DOMAIN_MAX 1.0 1.0 1.0
# LUT data points
0.067408151924610138 0.071399539709091187 0.056897033005952835
0.095777608454227448 0.074955090880393982 0.059258896857500076
0.15568390488624573 0.076838597655296326 0.058730375021696091
0.23672285676002502 0.07178930938243866 0.05533948540687561
0.32542815804481506 0.064118482172489166 0.053047794848680496
0.42377912998199463 0.05450795590877533 0.048741135746240616
0.51981061697006226 0.049112655222415924 0.042377576231956482
0.6101982593536377 0.052164595574140549 0.036915093660354614
0.69362270832061768 0.067875608801841736 0.029853940010070801
0.77006763219833374 0.10052141547203064 0.025906087830662727
0.84126609563827515 0.13745115697383881 0.019887601956725121
0.90605032444000244 0.17775838077068329 0.020822832360863686
0.9672580361366272 0.22422313690185547 0.026800597086548805
0.065698526799678802 0.096450150012969971 0.06241944432258606
0.099022164940834045 0.10219620168209076 0.06135375052690506
0.16696420311927795 0.10794016718864441 0.058238670229911804
0.25193065404891968 0.10634632408618927 0.050810284912586212
0.34396517276763916 0.10730071365833282 0.047218009829521179
0.43837326765060425 0.10553282499313354 0.041954997926950455
0.52982056140899658 0.10233508795499802 0.034891720861196518
0.61928349733352661 0.11055281758308411 0.032748878002166748
0.69848829507827759 0.12451811879873276 0.028494860976934433
0.7725188136100769 0.14807696640491486 0.025238322094082832
0.84385466575622559 0.17609021067619324 0.018624743446707726
0.90853589773178101 0.21018427610397339 0.01979573629796505
0.96858984231948853 0.25025001168251038 0.025037487968802452
0.053222715854644775 0.14781753718852997 0.076293334364891052
0.086581483483314514 0.15266165137290955 0.071659669280052185
0.15436270833015442 0.16601315140724182 0.062111515551805496
0.26083046197891235 0.18161527812480927 0.039279669523239136
0.36372488737106323 0.17942161858081818 0.03209540992975235
0.46174460649490356 0.17665456235408783 0.028675872832536697
0.55086266994476318 0.17774495482444763 0.024861952289938927
0.63585472106933594 0.18232075870037079 0.020413940772414207
0.70994985103607178 0.19296005368232727 0.017461050301790237
0.78162521123886108 0.21000905334949493 0.014360316097736359
0.85047358274459839 0.23070324957370758 0.010770536027848721
0.91346454620361328 0.25807809829711914 0.014037801884114742
0.97167938947677612 0.29114565253257751 0.024436308071017265
0.020834291353821754 0.22305776178836823 0.095955207943916321
0.053642436861991882 0.22871322929859161 0.094534672796726227
0.12137819081544876 0.24399250745773315 0.08124668151140213
0.23489873111248016 0.26926565170288086 0.044697750359773636
0.37140044569969177 0.2935880720615387 0.012365034781396389
0.48071444034576416 0.28661262989044189 0.010037246160209179
0.57236027717590332 0.27355760335922241 0.010375916957855225
0.65447366237640381 0.26896074414253235 0.0068866354413330555
0.72466248273849487 0.27471604943275452 0.0083495043218135834
0.79225218296051025 0.28368076682090759 0.0086111929267644882
0.85608989000320435 0.29982617497444153 0.0091822603717446327
0.91717898845672607 0.31911975145339966 0.010782443918287754
0.97327530384063721 0.34335130453109741 0.018045507371425629
0.003927313257008791 0.31819626688957214 0.12952461838722229
0.011537888087332249 0.32192784547805786 0.12727956473827362
0.065489046275615692 0.33240750432014465 0.12098171561956406
0.18020628392696381 0.35435625910758972 0.090676233172416687
0.32627829909324646 0.38419380784034729 0.039817135781049728
0.4709058403968811 0.40748938918113708 0.0053277108818292618
0.57520139217376709 0.3975367546081543 0.0041096857748925686
0.66134083271026611 0.37664064764976501 0.0035132912453263998
0.73558080196380615 0.36704742908477783 0.0050499411299824715
0.8024895191192627 0.36567100882530212 0.0078659355640411377
0.86389511823654175 0.37337687611579895 0.0085537778213620186
0.92288494110107422 0.38618093729019165 0.0088136410340666771
0.97593152523040771 0.40165188908576965 0.014724521897733212
0.0017043618718162179 0.41194355487823486 0.17151804268360138
0.0032163732685148716 0.41465651988983154 0.17142435908317566
0.019815960898995399 0.41694444417953491 0.16869482398033142
0.12378010153770447 0.43197152018547058 0.15124271810054779
0.26032394170761108 0.45443466305732727 0.1109645888209343
0.40570095181465149 0.48026293516159058 0.044896025210618973
0.55665254592895508 0.50518834590911865 0.0046464060433208942
0.66010940074920654 0.49800774455070496 0.0012813194189220667
0.7385370135307312 0.47459632158279419 0.0028040718752890825
0.80860108137130737 0.45339012145996094 0.0041440026834607124
0.86958771944046021 0.44940969347953796 0.0059054354205727577
0.92760729789733887 0.45422619581222534 0.0074315238744020462
0.977577805519104 0.46443992853164673 0.012070689350366592
8.1858917837962508e-05 0.49362152814865112 0.21958144009113312
0.001972138648852706 0.49598535895347595 0.22081713378429413
0.0096046151593327522 0.4957088828086853 0.22021858394145966
0.089125782251358032 0.50471174716949463 0.21152924001216888
0.21723175048828125 0.52073442935943604 0.18793259561061859
0.34491264820098877 0.54144108295440674 0.14515520632266998
0.48519349098205566 0.56439721584320068 0.074198178946971893
0.631641685962677 0.58716803789138794 0.013312770053744316
0.73441189527511597 0.58182752132415771 0.0025677101220935583
0.80591040849685669 0.55898392200469971 0.0042415694333612919
0.86941301822662354 0.5414617657661438 0.0047691944055259228
0.92921370267868042 0.52920472621917725 0.0058094398118555546
0.97891330718994141 0.52982044219970703 0.012038616463541985
9.4036025984678417e-05 0.567466139793396 0.27112844586372375
0.0015401054406538606 0.56886810064315796 0.27408134937286377
0.010444745421409607 0.56892025470733643 0.27383720874786377
0.0896759033203125 0.57404351234436035 0.2700849175453186
0.20393665134906769 0.58272838592529297 0.25767865777015686
0.3135477602481842 0.59931856393814087 0.23164916038513184
0.43283239006996155 0.61700010299682617 0.18831710517406464
0.56356418132781982 0.6348077654838562 0.12234868109226227
0.69817656278610229 0.65651440620422363 0.041258420795202255
0.79837733507156372 0.65673166513442993 0.0054889754392206669
0.86639463901519775 0.63838803768157959 0.0063401167280972004
0.924976646900177 0.62107151746749878 0.011867388151586056
0.97855347394943237 0.60926640033721924 0.028546771034598351
0.0035216088872402906 0.63790285587310791 0.32415992021560669
0.0051921023987233639 0.6393660306930542 0.32787355780601501
0.02903117798268795 0.63943487405776978 0.32779252529144287
0.12608209252357483 0.64092558622360229 0.32858496904373169
0.21631504595279694 0.64292854070663452 0.32479259371757507
0.30446705222129822 0.6554025411605835 0.30848661065101624
0.40482267737388611 0.66976773738861084 0.28209647536277771
0.515980064868927 0.68559277057647705 0.24670697748661041
0.63509052991867065 0.70190197229385376 0.18965248763561249
0.75873947143554688 0.71881437301635742 0.10532328486442566
0.85607987642288208 0.72395521402359009 0.050968363881111145
0.9167485237121582 0.70901989936828613 0.062736541032791138
0.97108596563339233 0.69459074735641479 0.096455022692680359
0.041324406862258911 0.70643746852874756 0.38606256246566772
0.070424385368824005 0.70697963237762451 0.38830918073654175
0.12842424213886261 0.70471709966659546 0.38964375853538513
0.19282242655754089 0.70217299461364746 0.39083114266395569
0.25724443793296814 0.70309209823608398 0.39087808132171631
0.32403385639190674 0.71076345443725586 0.38194289803504944
0.40670925378799438 0.72273629903793335 0.36589273810386658
0.4964447021484375 0.73514389991760254 0.34249991178512573
0.59580570459365845 0.74836099147796631 0.31084892153739929
0.70400553941726685 0.76156491041183472 0.26601561903953552
0.8103603720664978 0.77666705846786499 0.21318343281745911
0.90281403064727783 0.78583008050918579 0.17184537649154663
0.96362477540969849 0.77726078033447266 0.18534764647483826
0.21761533617973328 0.76979809999465942 0.46489837765693665
0.23325292766094208 0.76743513345718384 0.46430018544197083
0.25542363524436951 0.76502972841262817 0.46200352907180786
0.28996098041534424 0.76369696855545044 0.46304073929786682
0.33321192860603333 0.76334989070892334 0.46602034568786621
0.37970861792564392 0.76548862457275391 0.46256521344184875
0.43663150072097778 0.77487027645111084 0.45181348919868469
0.50565546751022339 0.78504526615142822 0.4357055127620697
0.58238857984542847 0.79632627964019775 0.41445338726043701
0.67148834466934204 0.80755263566970825 0.38857188820838928
0.76444190740585327 0.81952089071273804 0.35829755663871765
0.86095678806304932 0.83454954624176025 0.31207218766212463
0.95196974277496338 0.84870004653930664 0.27920198440551758
0.38313683867454529 0.8320467472076416 0.56061857938766479
0.39027631282806396 0.8304443359375 0.56083583831787109
0.40236333012580872 0.8292165994644165 0.56043469905853271
0.41862276196479797 0.82759326696395874 0.55872225761413574
0.44400006532669067 0.82618743181228638 0.56075173616409302
0.47482892870903015 0.82640862464904785 0.56116622686386108
0.51122355461120605 0.83256745338439941 0.55456805229187012
0.55520808696746826 0.84085744619369507 0.54557329416275024
0.6095460057258606 0.85038375854492188 0.53259080648422241
0.67545551061630249 0.8605726957321167 0.51618099212646484
0.74802005290985107 0.86974465847015381 0.49384954571723938
0.82675355672836304 0.88018631935119629 0.46359246969223022
0.90902495384216309 0.89205276966094971 0.42415058612823486
0.52945005893707275 0.89368581771850586 0.66262525320053101
0.53512203693389893 0.89374005794525146 0.66254669427871704
0.54388761520385742 0.89401739835739136 0.66454434394836426
0.55338221788406372 0.89303606748580933 0.66418957710266113
0.56897866725921631 0.89206796884536743 0.66569674015045166
0.59062719345092773 0.89216232299804688 0.66942059993743896
0.6144670844078064 0.89523571729660034 0.67005586624145508
0.64214658737182617 0.90078669786453247 0.66354727745056152
0.67480528354644775 0.90861785411834717 0.65447336435317993
0.71900171041488647 0.91806226968765259 0.64491182565689087
0.76899009943008423 0.92485404014587402 0.62882024049758911
0.82380497455596924 0.93218213319778442 0.61047768592834473
0.88470864295959473 0.94103288650512695 0.58850210905075073
0.070971287786960602 0.07335440069437027 0.087683811783790588
0.10064652562141418 0.075100168585777283 0.088169187307357788
0.15855121612548828 0.07483336329460144 0.08730577677488327
0.23854711651802063 0.066026486456394196 0.085221372544765472
0.32921254634857178 0.06055113673210144 0.088636197149753571
0.42660444974899292 0.058489721268415451 0.09213651716709137
0.51904171705245972 0.065527193248271942 0.093306146562099457
0.60840868949890137 0.072995699942111969 0.093136794865131378
0.69130641222000122 0.093698807060718536 0.091165266931056976
0.76729285717010498 0.12188234180212021 0.087140493094921112
0.83650666475296021 0.15417730808258057 0.084644600749015808
0.90212005376815796 0.19284869730472565 0.087992571294307709
0.96375757455825806 0.23622733354568481 0.096338666975498199
0.073829501867294312 0.10095542669296265 0.094405993819236755
0.11031445115804672 0.10580915212631226 0.099314130842685699
0.17214825749397278 0.10907350480556488 0.09664279967546463
0.25611230731010437 0.10817646980285645 0.091724500060081482
0.34737920761108398 0.11340215057134628 0.092828147113323212
0.44047659635543823 0.1140093058347702 0.092388927936553955
0.53100335597991943 0.11767064779996872 0.092092461884021759
0.61887013912200928 0.1241171732544899 0.090967856347560883
0.69844681024551392 0.1395782083272934 0.089394919574260712
0.7732093334197998 0.16183234751224518 0.084643237292766571
0.8412812352180481 0.19004201889038086 0.082490332424640656
0.90561771392822266 0.22290827333927155 0.087043941020965576
0.96589422225952148 0.26233223080635071 0.097105927765369415
0.083649896085262299 0.15829996764659882 0.11331783980131149
0.11456560343503952 0.16034448146820068 0.11112023144960403
0.1699940413236618 0.16824400424957275 0.10609903931617737
0.26874306797981262 0.17832903563976288 0.093569844961166382
0.36793997883796692 0.17971736192703247 0.088518194854259491
0.46283930540084839 0.18272611498832703 0.082552231848239899
0.55279606580734253 0.18868893384933472 0.081412069499492645
0.63453620672225952 0.1928684264421463 0.083717241883277893
0.70852088928222656 0.20425315201282501 0.083074696362018585
0.78027498722076416 0.22078640758991241 0.080437526106834412
0.84735584259033203 0.24263384938240051 0.07732708752155304
0.91001123189926147 0.26923754811286926 0.082436114549636841
0.96847182512283325 0.3008478581905365 0.096276223659515381
0.075630098581314087 0.23580603301525116 0.13904844224452972
0.10082557797431946 0.23847295343875885 0.13649122416973114
0.15012441575527191 0.24572056531906128 0.12786926329135895
0.24690781533718109 0.26918339729309082 0.10487005114555359
0.37724530696868896 0.28991389274597168 0.073291927576065063
0.4827326238155365 0.28319966793060303 0.065940916538238525
0.57407796382904053 0.27461153268814087 0.067836478352546692
0.65201771259307861 0.27368780970573425 0.067106999456882477
0.72222995758056641 0.28152996301651001 0.066786192357540131
0.79024612903594971 0.29003915190696716 0.063972786068916321
0.85387903451919556 0.30719852447509766 0.067423470318317413
0.91482692956924438 0.32655075192451477 0.07194894552230835
0.96946310997009277 0.3492923378944397 0.088758639991283417
0.033251907676458359 0.33172351121902466 0.17027276754379272
0.051517996937036514 0.33396473526954651 0.16874457895755768
0.11673650145530701 0.33903953433036804 0.16652858257293701
0.20752434432506561 0.35783588886260986 0.14736625552177429
0.34007155895233154 0.38653197884559631 0.10007414221763611
0.47881567478179932 0.40548968315124512 0.049552049487829208
0.5800931453704834 0.39291992783546448 0.042537406086921692
0.66346645355224609 0.37459835410118103 0.043742191046476364
0.73507595062255859 0.36715492606163025 0.046223435550928116
0.80085331201553345 0.36853337287902832 0.04536011815071106
0.86138248443603516 0.37803143262863159 0.054662488400936127
0.92029488086700439 0.39267623424530029 0.062576502561569214
0.97227579355239868 0.40987366437911987 0.083808243274688721
0.0092030242085456848 0.42254817485809326 0.2096928209066391
0.018388053402304649 0.4243355393409729 0.20813564956188202
0.075699418783187866 0.42401361465454102 0.20934586226940155
0.16888028383255005 0.43538758158683777 0.19888757169246674
0.28030633926391602 0.45627543330192566 0.16687357425689697
0.41747453808784485 0.48253577947616577 0.10890359431505203
0.56254786252975464 0.50440746545791626 0.041971754282712936
0.66354751586914062 0.49590665102005005 0.025512918829917908
0.73876237869262695 0.47285977005958557 0.030738607048988342
0.80717986822128296 0.45513397455215454 0.032022930681705475
0.86697614192962646 0.45368340611457825 0.043489016592502594
0.92426764965057373 0.45873427391052246 0.05200856551527977
0.97508049011230469 0.47146090865135193 0.081385836005210876
0.0028261970728635788 0.50172638893127441 0.25326964259147644
0.010705851018428802 0.50358504056930542 0.25306829810142517
0.049622658640146255 0.50171470642089844 0.25224235653877258
0.14166368544101715 0.50805562734603882 0.24790121614933014
0.2433101087808609 0.52280962467193604 0.22867673635482788
0.36162886023521423 0.54244983196258545 0.19193437695503235
0.4955296516418457 0.56523555517196655 0.1339435875415802
0.63771355152130127 0.58793759346008301 0.054343730211257935
0.73617029190063477 0.58099365234375 0.028014807030558586
0.80619335174560547 0.5597689151763916 0.029956115409731865
0.86766707897186279 0.54269850254058838 0.037914816290140152
0.92573881149291992 0.52956771850585938 0.04892648383975029
0.9752727746963501 0.5334123969078064 0.084099709987640381
0.0028823104221373796 0.5739864706993103 0.29794225096702576
0.0087829139083623886 0.57604825496673584 0.29859662055969238
0.050945594906806946 0.57490664720535278 0.29931089282035828
0.14363881945610046 0.57637995481491089 0.29933446645736694
0.23429371416568756 0.58360868692398071 0.28900396823883057
0.33096656203269958 0.59937316179275513 0.26488128304481506
0.44180896878242493 0.61777901649475098 0.22892546653747559
0.56920593976974487 0.63681906461715698 0.1741192489862442
0.70176464319229126 0.65648764371871948 0.09886748343706131
0.79917401075363159 0.65579259395599365 0.059789411723613739
0.86314988136291504 0.63596349954605103 0.05986245721578598
0.92179566621780396 0.6181909441947937 0.07727476954460144
0.97560906410217285 0.60794270038604736 0.1083875447511673
0.010569299571216106 0.64332455396652222 0.34571045637130737
0.026437826454639435 0.64459329843521118 0.34720635414123535
0.08091425895690918 0.64331543445587158 0.3503456711769104
0.16855822503566742 0.64339566230773926 0.35264235734939575
0.24592322111129761 0.64470398426055908 0.3470224142074585
0.32288789749145508 0.65564453601837158 0.33386310935020447
0.41605052351951599 0.67050951719284058 0.31114029884338379
0.5218815803527832 0.6859174370765686 0.27830660343170166
0.63947457075119019 0.70137518644332886 0.23243528604507446
0.75932800769805908 0.71767854690551758 0.16822528839111328
0.85392367839813232 0.72051018476486206 0.13331602513790131
0.91418212652206421 0.70470809936523438 0.14234106242656708
0.96947872638702393 0.69151955842971802 0.16466428339481354
0.092897780239582062 0.7081676721572876 0.40408375859260559
0.1252971738576889 0.70883578062057495 0.40528589487075806
0.17432059347629547 0.70714592933654785 0.40845984220504761
0.22591164708137512 0.70555561780929565 0.41004255414009094
0.28151580691337585 0.70595043897628784 0.40796861052513123
0.34384939074516296 0.71162909269332886 0.40215817093849182
0.41706520318984985 0.72255814075469971 0.38571664690971375
0.50159269571304321 0.73523294925689697 0.36360365152359009
0.59875392913818359 0.74774140119552612 0.33591294288635254
0.70425373315811157 0.75929617881774902 0.29687798023223877
0.81187248229980469 0.77561861276626587 0.24892571568489075
0.90362203121185303 0.78506100177764893 0.21577033400535583
0.96439450979232788 0.77621579170227051 0.22694785892963409
0.24331481754779816 0.76722586154937744 0.47521144151687622
0.26078328490257263 0.76721620559692383 0.47877404093742371
0.28237488865852356 0.76649147272109985 0.47843867540359497
0.31167685985565186 0.76523315906524658 0.47817030549049377
0.35306838154792786 0.76352334022521973 0.48105517029762268
0.39444136619567871 0.76672488451004028 0.47867360711097717
0.44689324498176575 0.77379679679870605 0.46701377630233765
0.51156002283096313 0.78457021713256836 0.45140182971954346
0.58809632062911987 0.79527705907821655 0.4316459596157074
0.67420947551727295 0.80650442838668823 0.40569967031478882
0.76571238040924072 0.81979238986968994 0.37292918562889099
0.86542659997940063 0.83729708194732666 0.3357926607131958
0.95213192701339722 0.84871619939804077 0.30919566750526428
0.39619678258895874 0.83009737730026245 0.56913995742797852
0.40640503168106079 0.83028095960617065 0.57187581062316895
0.41506850719451904 0.8288542628288269 0.57052874565124512
0.42855009436607361 0.82735425233840942 0.56907176971435547
0.4590897262096405 0.82704532146453857 0.57237392663955688
0.48730888962745667 0.82719653844833374 0.57292479276657104
0.51887494325637817 0.8313828706741333 0.56730186939239502
0.56222063302993774 0.83941829204559326 0.55705159902572632
0.61530297994613647 0.84864169359207153 0.54382061958312988
0.67967420816421509 0.8589097261428833 0.52584034204483032
0.75102400779724121 0.86931222677230835 0.50541359186172485
0.82957202196121216 0.88214761018753052 0.47916445136070251
0.91103845834732056 0.89351290464401245 0.44220137596130371
0.53911876678466797 0.89447224140167236 0.66960334777832031
0.54066884517669678 0.89331185817718506 0.66830813884735107
0.54721617698669434 0.89322233200073242 0.66929489374160767
0.557658851146698 0.8927949070930481 0.66977983713150024
0.57689017057418823 0.89262902736663818 0.67312264442443848
0.59518015384674072 0.89219087362289429 0.6750066876411438
0.61854922771453857 0.89410442113876343 0.67605900764465332
0.64517879486083984 0.90008336305618286 0.67149174213409424
0.67888110876083374 0.90825790166854858 0.66222870349884033
0.7209358811378479 0.91614061594009399 0.64980119466781616
0.77060943841934204 0.92417329549789429 0.63619410991668701
0.82760453224182129 0.9326176643371582 0.61795598268508911
0.88699823617935181 0.94110339879989624 0.59816956520080566
0.074651606380939484 0.0763358473777771 0.1435275673866272
0.11581890285015106 0.075076296925544739 0.14414422214031219
0.17079378664493561 0.07472393661737442 0.14429777860641479
0.2423224002122879 0.069713205099105835 0.14153550565242767
0.33819341659545898 0.05494251474738121 0.14370955526828766
0.4335942268371582 0.036986961960792542 0.14190781116485596
0.52525144815444946 0.047801658511161804 0.14736150205135345
0.61046826839447021 0.085728950798511505 0.15830962359905243
0.68955409526824951 0.12029866129159927 0.16293798387050629
0.76229822635650635 0.15102945268154144 0.16247893869876862
0.83298283815383911 0.18066595494747162 0.1617971658706665
0.89787250757217407 0.21616487205028534 0.16717836260795593
0.95971333980560303 0.25582611560821533 0.17409844696521759
0.075266025960445404 0.10887261480093002 0.15421468019485474
0.12133732438087463 0.11115175485610962 0.15812160074710846
0.18397490680217743 0.11448271572589874 0.15925930440425873
0.25913211703300476 0.11475574225187302 0.15477807819843292
0.35263389348983765 0.10837893187999725 0.15391972661018372
0.44444847106933594 0.1032397523522377 0.15124976634979248
0.53297966718673706 0.12135659158229828 0.1585870236158371
0.61707550287246704 0.14331023395061493 0.16507340967655182
0.69527226686477661 0.16240693628787994 0.16490480303764343
0.76880073547363281 0.18503157794475555 0.16309012472629547
0.83735895156860352 0.211957648396492 0.16326083242893219
0.9007146954536438 0.24222142994403839 0.16788914799690247
0.96172845363616943 0.27800503373146057 0.17534057796001434
0.090426228940486908 0.16770021617412567 0.16736185550689697
0.13258719444274902 0.17087399959564209 0.17125910520553589
0.19352063536643982 0.17628079652786255 0.17440460622310638
0.2778857946395874 0.18227827548980713 0.16859729588031769
0.37329679727554321 0.18516388535499573 0.16427268087863922
0.46495014429092407 0.18453232944011688 0.15832348167896271
0.54970473051071167 0.19774866104125977 0.16228553652763367
0.62840396165847778 0.21154065430164337 0.16741947829723358
0.70305365324020386 0.22208048403263092 0.16820043325424194
0.77598303556442261 0.23795239627361298 0.16480112075805664
0.84284955263137817 0.25965002179145813 0.16598764061927795
0.90531426668167114 0.28384482860565186 0.16816616058349609
0.96503365039825439 0.31231892108917236 0.17714183032512665
0.11901837587356567 0.25111603736877441 0.19752354919910431
0.15246096253395081 0.25300407409667969 0.19960863888263702
0.19199544191360474 0.25628823041915894 0.19551686942577362
0.27262800931930542 0.27483564615249634 0.18599571287631989
0.38625305891036987 0.28614822030067444 0.17082816362380981
0.48496720194816589 0.28278180956840515 0.16434936225414276
0.56962960958480835 0.28219988942146301 0.16377300024032593
0.64650976657867432 0.28716102242469788 0.16379372775554657
0.71755576133728027 0.29536059498786926 0.1643204540014267
0.78433024883270264 0.30208402872085571 0.16278840601444244
0.8479684591293335 0.31971290707588196 0.16567845642566681
0.90980297327041626 0.33911904692649841 0.16761012375354767
0.9669380784034729 0.35992780327796936 0.17752254009246826
0.13551764190196991 0.34725865721702576 0.23797120153903961
0.15404988825321198 0.34886756539344788 0.23593823611736298
0.18572857975959778 0.35173359513282776 0.22999411821365356
0.24713081121444702 0.36303651332855225 0.22034057974815369
