luts/negative_old/kodak_portra_400_vc_-.cube
# Created by: G'MIC (https://gmic.eu)
TITLE "kodak_portra_400_vc_-"
# LUT size
LUT_3D_SIZE 13
# Data domain
DOMAIN_MIN 0.0 0.0 0.0
DOMAIN_MAX 1.0 1.0 1.0
# LUT data points
0.0078388284891843796 0.011293463408946991 0.015070133842527866
0.045535922050476074 0.017243688926100731 0.012003072537481785
0.12257961183786392 0.031111802905797958 0.0098792584612965584
0.21536524593830109 0.045654013752937317 0.009326261468231678
0.32013407349586487 0.051636386662721634 0.01212621945887804
0.42769971489906311 0.04940052330493927 0.007617696188390255
0.53400158882141113 0.040981173515319824 0.0043815909884870052
0.63528722524642944 0.032174039632081985 0.0017884946428239346
0.72004008293151855 0.031141573563218117 0.0017353581497445703
0.78674417734146118 0.054171018302440643 0.0034896400757133961
0.8506091833114624 0.086763285100460052 0.0023175408132374287
0.9148566722869873 0.13261358439922333 0.0028677098453044891
0.97367161512374878 0.17332576215267181 0.00037590475403703749
0.0040919133462011814 0.057706240564584732 0.027119191363453865
0.041420731693506241 0.065644390881061554 0.021373555064201355
0.12719215452671051 0.085700109601020813 0.014646627008914948
0.22973330318927765 0.095291957259178162 0.008084435947239399
0.33721774816513062 0.10318733751773834 0.011218560859560966
0.44635459780693054 0.10236247628927231 0.0065829409286379814
0.55308699607849121 0.098650120198726654 0.0041643478907644749
0.65000385046005249 0.096508339047431946 0.0018180249026045203
0.72379022836685181 0.10045517235994339 0.0031021717004477978
0.79235762357711792 0.11467260867357254 0.0044396491721272469
0.8573799729347229 0.13866668939590454 0.0046283495612442493
0.92017215490341187 0.16866134107112885 0.0040648365393280983
0.97526490688323975 0.20451688766479492 0.00065361469751223922
0.00066339829936623573 0.13846731185913086 0.048484563827514648
0.018625626340508461 0.14191423356533051 0.044793013483285904
0.099310256540775299 0.16082721948623657 0.027461541816592216
0.22399552166461945 0.1818021684885025 0.010984248481690884
0.3507569432258606 0.18816083669662476 0.0077272900380194187
0.47167998552322388 0.18939816951751709 0.0051668952219188213
0.57683259248733521 0.18789801001548767 0.004459126852452755
0.66496706008911133 0.18308284878730774 0.0034559811465442181
0.73491817712783813 0.1836903989315033 0.0035931007005274296
0.79953134059906006 0.191568523645401 0.0039215688593685627
0.8638690710067749 0.205384761095047 0.0045353607274591923
0.92733705043792725 0.22189684212207794 0.0041836905293166637
0.98140072822570801 0.24266928434371948 0.00093443627702072263
0.00057543587172403932 0.23304376006126404 0.077796444296836853
0.0041825985535979271 0.23372462391853333 0.077520586550235748
0.039409443736076355 0.24320146441459656 0.062931105494499207
0.18215878307819366 0.27006122469902039 0.032591816037893295
0.34187096357345581 0.29595476388931274 0.0085046058520674706
0.48243126273155212 0.29438242316246033 0.004434533417224884
0.59762072563171387 0.28188616037368774 0.0032577663660049438
0.68266069889068604 0.27213665843009949 0.0029334721621125937
0.74993425607681274 0.27015921473503113 0.0036438587121665478
0.81232267618179321 0.27415502071380615 0.0037552777212113142
0.87351453304290771 0.28161662817001343 0.0042124278843402863
0.9351540207862854 0.29284462332725525 0.0034887576475739479
0.9838903546333313 0.29952836036682129 0.001055983011610806
0.0015116373542696238 0.32812973856925964 0.12077953666448593
0.0044914991594851017 0.33284696936607361 0.12414667755365372
0.01120624877512455 0.33905705809593201 0.11877748370170593
0.11673598736524582 0.35707500576972961 0.095510892570018768
0.29193916916847229 0.38231560587882996 0.054621990770101547
0.45795324444770813 0.40175092220306396 0.016970466822385788
0.58723682165145874 0.39393079280853271 0.0053748334757983685
0.68854999542236328 0.37234863638877869 0.0037235035561025143
0.76486068964004517 0.35700720548629761 0.0016853032866492867
0.82701969146728516 0.35782590508460999 0.0027510400395840406
0.8852267861366272 0.36067378520965576 0.0043939328752458096
0.9411308765411377 0.36496180295944214 0.0018168879905715585
0.98517870903015137 0.36744078993797302 0.00020231358939781785
0.00065750419162213802 0.421455979347229 0.17048604786396027
0.0037430408410727978 0.42340943217277527 0.17563517391681671
0.0055296951904892921 0.42587730288505554 0.17683769762516022
0.070953130722045898 0.43542414903640747 0.16405327618122101
0.24299655854701996 0.45237404108047485 0.13808612525463104
0.40383264422416687 0.47390758991241455 0.095804594457149506
0.55759412050247192 0.49502167105674744 0.036451857537031174
0.66778653860092163 0.48717975616455078 0.0080576874315738678
0.7545047402381897 0.46564388275146484 0.0052375644445419312
0.82980126142501831 0.4483436644077301 0.0038097754586488008
0.89277952909469604 0.43649518489837646 0.0016431172844022512
0.94638758897781372 0.43463981151580811 0.00018023322627414018
0.98918062448501587 0.43394705653190613 0
0.00073743332177400589 0.50312453508377075 0.21918831765651703
0.0022446278017014265 0.50089627504348755 0.22333897650241852
0.0046055363491177559 0.50032222270965576 0.22690485417842865
0.069101043045520782 0.50507897138595581 0.22119446098804474
0.22403968870639801 0.51657968759536743 0.20497763156890869
0.36490753293037415 0.5324217677116394 0.18059401214122772
0.49961331486701965 0.5510103702545166 0.13902392983436584
0.62954479455947876 0.57138961553573608 0.081045903265476227
0.73423635959625244 0.5728035569190979 0.026074621826410294
0.81390321254730225 0.55404335260391235 0.0074080075137317181
0.88274502754211426 0.53080832958221436 0.0044731739908456802
0.94521582126617432 0.51231271028518677 0.0017593832453712821
0.99313336610794067 0.50501877069473267 0
0.0032284606713801622 0.57762819528579712 0.2701796293258667
0.0035481173545122147 0.57559651136398315 0.27001062035560608
0.012189768254756927 0.57362347841262817 0.27187925577163696
0.11490674316883087 0.57232964038848877 0.27281433343887329
0.2402656078338623 0.57846885919570923 0.26213285326957703
0.35078424215316772 0.58956968784332275 0.24675658345222473
0.46463921666145325 0.60411852598190308 0.22360251843929291
0.57756847143173218 0.62006241083145142 0.19043609499931335
0.69433075189590454 0.64191097021102905 0.13813522458076477
0.79152184724807739 0.64744263887405396 0.07499384880065918
0.86579990386962891 0.6317436695098877 0.025879982858896255
0.9334072470664978 0.61188435554504395 0.0051754373125731945
0.98595094680786133 0.59465402364730835 0.002399190329015255
0.0083556827157735825 0.64596545696258545 0.31738090515136719
0.026124542579054832 0.64538693428039551 0.31692427396774292
0.089644141495227814 0.64309853315353394 0.31948080658912659
0.18895639479160309 0.6404605507850647 0.32175168395042419
0.27594903111457825 0.64177179336547852 0.31669354438781738
0.36106818914413452 0.6484343409538269 0.30678650736808777
0.45189884305000305 0.65969389677047729 0.29354539513587952
0.55026030540466309 0.67200988531112671 0.27185490727424622
0.6468314528465271 0.6861346960067749 0.24277506768703461
0.74997276067733765 0.70354819297790527 0.20809014141559601
0.84446746110916138 0.71298331022262573 0.15722641348838806
0.91831201314926147 0.70430600643157959 0.091678708791732788
0.98011684417724609 0.68979364633560181 0.032533265650272369
0.13358369469642639 0.71118390560150146 0.36990836262702942
0.17131823301315308 0.71002405881881714 0.37236663699150085
0.21832221746444702 0.7072717547416687 0.37521949410438538
0.26948952674865723 0.70448803901672363 0.37905046343803406
0.32896867394447327 0.70356929302215576 0.37660691142082214
0.39275950193405151 0.70675790309906006 0.36929550766944885
0.46452850103378296 0.71549826860427856 0.35982096195220947
0.53977054357528687 0.72543787956237793 0.34683877229690552
0.62144684791564941 0.73686438798904419 0.32825705409049988
0.70779240131378174 0.7468644380569458 0.30267888307571411
0.80180168151855469 0.76170909404754639 0.27731737494468689
0.89221411943435669 0.77111554145812988 0.24279767274856567
0.96555948257446289 0.77151226997375488 0.19693805277347565
0.29036149382591248 0.77275377511978149 0.44200810790061951
0.30443847179412842 0.77083873748779297 0.43946698307991028
0.32696825265884399 0.76884573698043823 0.44186484813690186
0.36149919033050537 0.7653387188911438 0.44419333338737488
0.39806884527206421 0.76321232318878174 0.44205504655838013
0.4433346688747406 0.76458114385604858 0.43932542204856873
0.50142133235931396 0.77225005626678467 0.43580925464630127
0.5600774884223938 0.7804945707321167 0.43022361397743225
0.62518692016601562 0.78863149881362915 0.41929131746292114
0.69345420598983765 0.79698050022125244 0.39852726459503174
0.77196782827377319 0.80743402242660522 0.37757918238639832
0.85862201452255249 0.82044768333435059 0.35848671197891235
0.94682902097702026 0.84041762351989746 0.34626239538192749
0.41722658276557922 0.83395588397979736 0.52937221527099609
0.42148277163505554 0.83259737491607666 0.52290058135986328
0.43835130333900452 0.83208155632019043 0.52626192569732666
0.46157985925674438 0.8298308253288269 0.52879625558853149
0.48946970701217651 0.82823771238327026 0.53145873546600342
0.52031189203262329 0.82840830087661743 0.53336697816848755
0.55717283487319946 0.83249962329864502 0.53016668558120728
0.60085117816925049 0.83908247947692871 0.52538925409317017
0.65096360445022583 0.84562039375305176 0.51867890357971191
0.70536994934082031 0.85313838720321655 0.50827521085739136
0.77409148216247559 0.86340099573135376 0.49575164914131165
0.8486669659614563 0.87312150001525879 0.47871184349060059
0.91443014144897461 0.88481086492538452 0.4629875123500824
0.54402107000350952 0.89731025695800781 0.63166308403015137
0.54707014560699463 0.89729970693588257 0.62849992513656616
0.55759906768798828 0.89635580778121948 0.63007241487503052
0.57365506887435913 0.89532852172851562 0.63337749242782593
0.59150904417037964 0.89438480138778687 0.63631874322891235
0.61563420295715332 0.89447218179702759 0.63985967636108398
0.64226973056793213 0.89610707759857178 0.64028078317642212
0.67151939868927002 0.90092712640762329 0.63671207427978516
0.70982557535171509 0.90848302841186523 0.63402074575424194
0.74842435121536255 0.91344857215881348 0.62521153688430786
0.79818457365036011 0.92283737659454346 0.61930841207504272
0.85630571842193604 0.93323308229446411 0.61073118448257446
0.91070830821990967 0.93986833095550537 0.59817582368850708
0.0063960803672671318 0.015091855078935623 0.064497433602809906
0.046670876443386078 0.016294742003083229 0.06564127653837204
0.12231963127851486 0.016566032543778419 0.062649838626384735
0.21783213317394257 0.020238360390067101 0.057540744543075562
0.32322868704795837 0.027592243626713753 0.050679691135883331
0.42845171689987183 0.027231881394982338 0.045514799654483795
0.53501683473587036 0.019845236092805862 0.034202799201011658
0.63413363695144653 0.017175696790218353 0.026733743026852608
0.71910363435745239 0.023960398510098457 0.016913993284106255
0.78899991512298584 0.047246836125850677 0.0088927177712321281
0.85306817293167114 0.085279680788516998 0.0056450339034199715
0.91729611158370972 0.12909397482872009 0.0039855507202446461
0.97237879037857056 0.16843323409557343 0.0013078277697786689
0.0057878680527210236 0.067906491458415985 0.079184077680110931
0.045654956251382828 0.074814364314079285 0.081738442182540894
0.1314290463924408 0.079771034419536591 0.075453020632266998
0.2333662360906601 0.081699267029762268 0.069064602255821228
0.33635199069976807 0.090376101434230804 0.059535890817642212
0.44404366612434387 0.092143908143043518 0.048574693500995636
0.55177992582321167 0.086708322167396545 0.034869413822889328
0.64607971906661987 0.087924361228942871 0.027022851631045341
0.72521758079528809 0.096795685589313507 0.018150180578231812
0.79591900110244751 0.11429364234209061 0.011188432574272156
0.86002558469772339 0.13924473524093628 0.0093910070136189461
0.92071074247360229 0.16748003661632538 0.0057456223294138908
0.97410774230957031 0.20130521059036255 0.0019701491110026836
0.0039757969789206982 0.15295381844043732 0.10451209545135498
0.027424128726124763 0.15667137503623962 0.10870463401079178
0.11479562520980835 0.16601148247718811 0.099750310182571411
0.23838593065738678 0.18029868602752686 0.082547985017299652
0.35587292909622192 0.18115143477916718 0.059871256351470947
0.47259294986724854 0.18146376311779022 0.044272821396589279
0.57650792598724365 0.17862284183502197 0.032891083508729935
0.66523075103759766 0.17617210745811462 0.021730653941631317
0.73661237955093384 0.18212494254112244 0.016205267980694771
0.80200189352035522 0.19045998156070709 0.010847967118024826
0.86688673496246338 0.20367880165576935 0.0077800974249839783
0.92675477266311646 0.22273215651512146 0.0071948030963540077
0.97574138641357422 0.24479806423187256 0.0037823845632374287
0.0029635559767484665 0.24856774508953094 0.13510693609714508
0.0083341263234615326 0.24710558354854584 0.13854731619358063
0.064040988683700562 0.25397369265556335 0.13353754580020905
0.20311170816421509 0.2770269513130188 0.10987173020839691
0.3549867570400238 0.29325053095817566 0.07851099967956543
0.49203136563301086 0.287213534116745 0.047574840486049652
0.59954732656478882 0.27579757571220398 0.027458399534225464
0.68250656127929688 0.26637044548988342 0.017569104209542274
0.75237101316452026 0.26562243700027466 0.010392536409199238
0.81378132104873657 0.27020803093910217 0.0075481338426470757
0.87534338235855103 0.27727267146110535 0.0067265527322888374
0.93245035409927368 0.289875328540802 0.0057109757326543331
0.97738128900527954 0.29897364974021912 0.0039493786171078682
0.0017768261022865772 0.3438662588596344 0.17640841007232666
0.0057327570393681526 0.34562277793884277 0.18045471608638763
0.032160185277462006 0.34836685657501221 0.17727062106132507
0.15282835066318512 0.36402353644371033 0.16587190330028534
0.31106355786323547 0.38641571998596191 0.13502009212970734
0.46976864337921143 0.40284490585327148 0.089662514626979828
0.59115678071975708 0.38891255855560303 0.049190819263458252
0.69057649374008179 0.36975491046905518 0.019441043958067894
0.76377320289611816 0.35728651285171509 0.0094197886064648628
0.82645982503890991 0.35460403561592102 0.0068857381120324135
0.88428223133087158 0.35550335049629211 0.0079178158193826675
0.93896549940109253 0.36166855692863464 0.0047446605749428272
0.98275876045227051 0.36615830659866333 0.0051449793390929699
0.0019552342128008604 0.43243640661239624 0.21477656066417694
0.0047282800078392029 0.43402513861656189 0.22008483111858368
0.016374925151467323 0.43410345911979675 0.21947760879993439
0.12330622971057892 0.44023099541664124 0.2124992161989212
0.27337035536766052 0.45626884698867798 0.19265152513980865
0.4148595929145813 0.47607925534248352 0.16328519582748413
0.56092178821563721 0.49272730946540833 0.1136234775185585
0.67150896787643433 0.48610499501228333 0.055504936724901199
0.75782394409179688 0.46579590439796448 0.018420768901705742
0.82892930507659912 0.44759431481361389 0.0069988174363970757
0.89038705825805664 0.43611779808998108 0.0043608872219920158
0.94653284549713135 0.43322741985321045 0.003020058386027813
0.99036145210266113 0.43312311172485352 0.002970138331875205
0.0023157906252890825 0.50976455211639404 0.25360280275344849
0.0057405508123338223 0.5105288028717041 0.25709500908851624
0.018753770738840103 0.50970584154129028 0.25816011428833008
0.12875199317932129 0.51022964715957642 0.25570571422576904
0.2552318274974823 0.51990324258804321 0.2436547726392746
0.37863293290138245 0.53504210710525513 0.22463369369506836
0.50795203447341919 0.55306857824325562 0.19438368082046509
0.63429719209671021 0.57179844379425049 0.14821538329124451
0.73445624113082886 0.56921470165252686 0.085416264832019806
0.81439197063446045 0.55321574211120605 0.032672252506017685
0.88498347997665405 0.53174364566802979 0.010576599277555943
0.94801253080368042 0.51264327764511108 0.0043376698158681393
0.99271637201309204 0.50604921579360962 0.0020684036426246166
0.0022987215779721737 0.5817943811416626 0.29414230585098267
0.0125071806833148 0.58257496356964111 0.29605981707572937
0.053871963173151016 0.58018475770950317 0.29686051607131958
0.16618740558624268 0.57632100582122803 0.29977557063102722
0.26745766401290894 0.57944583892822266 0.2903473973274231
0.36961677670478821 0.590079665184021 0.27739071846008301
0.47531822323799133 0.60539233684539795 0.259542316198349
0.58411455154418945 0.62081968784332275 0.2297331690788269
0.69755071401596069 0.64191293716430664 0.19091795384883881
0.79172462224960327 0.64523029327392578 0.13960979878902435
0.86709243059158325 0.63095831871032715 0.078406013548374176
0.93681162595748901 0.61119550466537476 0.026756001636385918
0.98880422115325928 0.59265178442001343 0.0052646114490926266
0.03628208115696907 0.64885807037353516 0.3361763060092926
0.074458882212638855 0.64927631616592407 0.33881339430809021
0.14396455883979797 0.64648222923278809 0.34233978390693665
0.2223866730928421 0.64253073930740356 0.3442571759223938
0.29849427938461304 0.6414685845375061 0.34002351760864258
0.37682968378067017 0.64781421422958374 0.33085545897483826
0.46537858247756958 0.65984624624252319 0.31887474656105042
0.55571442842483521 0.67292362451553345 0.30107584595680237
0.65126055479049683 0.68838882446289062 0.27450063824653625
0.75528085231781006 0.70679390430450439 0.24346718192100525
0.8446122407913208 0.71300166845321655 0.2038128525018692
0.91704016923904419 0.70233845710754395 0.14097672700881958
0.97882765531539917 0.68980765342712402 0.078462861478328705
0.18401205539703369 0.71441853046417236 0.38782313466072083
0.21033017337322235 0.71255683898925781 0.39143550395965576
0.2394586056470871 0.70962643623352051 0.39388129115104675
0.29037189483642578 0.70732539892196655 0.39476588368415833
0.34569236636161804 0.70395708084106445 0.39309650659561157
0.40461131930351257 0.7062419056892395 0.38860568404197693
0.47306308150291443 0.71547865867614746 0.38141238689422607
0.54729765653610229 0.72644954919815063 0.37023699283599854
0.6273883581161499 0.73746633529663086 0.35376402735710144
0.71159183979034424 0.74859178066253662 0.32978278398513794
0.80363911390304565 0.76391702890396118 0.30557510256767273
0.89611738920211792 0.7756766676902771 0.27637642621994019
0.965057373046875 0.77259814739227295 0.23680821061134338
0.30669680237770081 0.77318280935287476 0.44928523898124695
0.31895560026168823 0.77217602729797363 0.45031234622001648
0.34126079082489014 0.76991111040115356 0.45297807455062866
0.37028759717941284 0.76885205507278442 0.45319423079490662
0.41085916757583618 0.76626014709472656 0.45689034461975098
0.45351782441139221 0.76648324728012085 0.4555814266204834
0.50348752737045288 0.77210009098052979 0.44974967837333679
0.56081533432006836 0.78014367818832397 0.4425983726978302
0.6237102746963501 0.78885024785995483 0.43044319748878479
0.6975751519203186 0.79721289873123169 0.41594129800796509
0.77616709470748901 0.80823570489883423 0.39996275305747986
0.86041146516799927 0.82308065891265869 0.38016122579574585
0.94539916515350342 0.84026777744293213 0.36664000153541565
0.42410194873809814 0.83439505100250244 0.53638774156570435
0.43258899450302124 0.83438271284103394 0.53623956441879272
0.44761389493942261 0.83261489868164062 0.53587383031845093
0.46642112731933594 0.83112424612045288 0.53604346513748169
0.49373409152030945 0.83043873310089111 0.53931915760040283
0.52674943208694458 0.8302876353263855 0.54111170768737793
0.56564855575561523 0.83280223608016968 0.54290544986724854
0.60633325576782227 0.83843302726745605 0.53771930932998657
0.65541738271713257 0.84552782773971558 0.53102374076843262
0.70872265100479126 0.85285568237304688 0.52090233564376831
0.77305734157562256 0.86294019222259521 0.50813812017440796
0.84375548362731934 0.87251740694046021 0.49227851629257202
0.91563194990158081 0.88476413488388062 0.47728481888771057
0.54815918207168579 0.89987218379974365 0.6368371844291687
0.55336087942123413 0.89914286136627197 0.63630098104476929
0.56157839298248291 0.89658612012863159 0.63564473390579224
0.57557028532028198 0.89507675170898438 0.63676333427429199
0.59408450126647949 0.89446240663528442 0.63948738574981689
0.61721062660217285 0.8948216438293457 0.64420086145401001
0.64783394336700439 0.89711582660675049 0.64954918622970581
0.67812031507492065 0.90161514282226562 0.646900475025177
0.7128748893737793 0.90579211711883545 0.63978290557861328
0.75154143571853638 0.91332000494003296 0.63545304536819458
0.79762560129165649 0.92058295011520386 0.62456035614013672
0.85286116600036621 0.9299275279045105 0.61591583490371704
0.91155034303665161 0.94062602519989014 0.6071513295173645
0.0025155460461974144 0.020772373303771019 0.15548123419284821
0.038200363516807556 0.022848855704069138 0.15799616277217865
0.11601077765226364 0.023580633103847504 0.15642522275447845
0.21771693229675293 0.016527721658349037 0.1527668833732605
0.33067974448204041 0.0079075079411268234 0.14056098461151123
0.43904626369476318 0.0080524217337369919 0.12537369132041931
0.54236376285552979 0.0062864716164767742 0.11854182183742523
0.63584858179092407 0.013892409391701221 0.1207430362701416
0.71398144960403442 0.039254624396562576 0.11629500985145569
0.78383427858352661 0.068281121551990509 0.096787817776203156
0.85033893585205078 0.10163267701864243 0.074457861483097076
0.91627293825149536 0.13505077362060547 0.051252178847789764
0.97408688068389893 0.17248587310314178 0.038413506001234055
0.0032232995145022869 0.08118196576833725 0.16636855900287628
0.027892064303159714 0.083766505122184753 0.17142979800701141
0.12465286254882812 0.088362462818622589 0.17081515491008759
0.23224712908267975 0.08069116622209549 0.16317319869995117
0.33995729684829712 0.070165939629077911 0.15241846442222595
0.44823029637336731 0.063360340893268585 0.14201794564723969
0.55169010162353516 0.075444750487804413 0.13672769069671631
0.64273053407669067 0.094533450901508331 0.13122986257076263
0.72002995014190674 0.11189256608486176 0.11611887812614441
0.79072988033294678 0.12886244058609009 0.097490586340427399
0.85782861709594727 0.15045143663883209 0.077579781413078308
0.91876143217086792 0.17554689943790436 0.05810198187828064
0.97463816404342651 0.20691567659378052 0.042221397161483765
0.0032898846548050642 0.17074541747570038 0.18123665452003479
0.023242546245455742 0.17222662270069122 0.18653228878974915
0.12448896467685699 0.17941370606422424 0.19069638848304749
0.24372698366641998 0.18327449262142181 0.18276940286159515
0.35756319761276245 0.17888908088207245 0.16764083504676819
0.47021716833114624 0.17973025143146515 0.15546448528766632
0.57114571332931519 0.18577830493450165 0.14514607191085815
0.65626722574234009 0.1872904896736145 0.13222602009773254
0.72887116670608521 0.19118788838386536 0.11495775729417801
0.79670363664627075 0.20011170208454132 0.096102230250835419
0.86513441801071167 0.2107899934053421 0.07714187353849411
0.92464864253997803 0.22866208851337433 0.057832367718219757
0.97600662708282471 0.25099202990531921 0.042129576206207275
0.0033385781571269035 0.267679363489151 0.20973487198352814
0.022546431049704552 0.26883724331855774 0.21375434100627899
0.1132805198431015 0.27309373021125793 0.21645796298980713
0.22859707474708557 0.28126105666160583 0.20708931982517242
0.36979377269744873 0.29252678155899048 0.18887424468994141
0.49664202332496643 0.28660434484481812 0.16779139637947083
0.59341180324554443 0.28039753437042236 0.1465783566236496
0.67378133535385132 0.27484160661697388 0.12986984848976135
0.74573278427124023 0.27203446626663208 0.11356422305107117
0.80863970518112183 0.27456235885620117 0.093975663185119629
0.87369674444198608 0.27936375141143799 0.074303358793258667
0.9306829571723938 0.29099085927009583 0.055917613208293915
0.97946858406066895 0.30334270000457764 0.036823198199272156
0.0033212399575859308 0.37008729577064514 0.25333026051521301
0.024026205763220787 0.36937627196311951 0.25095683336257935
