luts/negative_old/kodak_portra_400_vc_+.cube
# Created by: G'MIC (https://gmic.eu)
TITLE "kodak_portra_400_vc_+"
# LUT size
LUT_3D_SIZE 5
# Data domain
DOMAIN_MIN 0.0 0.0 0.0
DOMAIN_MAX 1.0 1.0 1.0
# LUT data points
0.071352086961269379 0.097510427236557007 0.11380034685134888
0.23392614722251892 0.1020842045545578 0.10292299836874008
0.53240126371383667 0.11484220623970032 0.079463198781013489
0.79210937023162842 0.139627605676651 0.032664325088262558
0.97157847881317139 0.18912422657012939 0.0010695962700992823
0.01527328509837389 0.23850677907466888 0.14238481223583221
0.2117827832698822 0.2662513256072998 0.11982782185077667
0.60059851408004761 0.30132165551185608 0.030348055064678192
0.82375222444534302 0.29516923427581787 0.0081153418868780136
0.98034435510635376 0.30474087595939636 0.0020760032348334789
0.0010435365838930011 0.5040287971496582 0.21708856523036957
0.096004322171211243 0.51546716690063477 0.21817417442798615
0.50280296802520752 0.55507558584213257 0.14457525312900543
0.82328671216964722 0.54651904106140137 0.0094218235462903976
0.98702627420425415 0.49025070667266846 0.0016164592234417796
0.15828542411327362 0.70114856958389282 0.37576949596405029
0.2779538631439209 0.69157373905181885 0.38304626941680908
0.46888822317123413 0.70387572050094604 0.36584454774856567
0.71995741128921509 0.72901785373687744 0.31311139464378357
0.95426535606384277 0.73947340250015259 0.21790818870067596
0.58816158771514893 0.85757797956466675 0.62900042533874512
0.61532354354858398 0.8549543023109436 0.63039165735244751
0.67388421297073364 0.85648781061172485 0.63990920782089233
0.76452988386154175 0.87176847457885742 0.62620991468429565
0.89372289180755615 0.89368915557861328 0.60138112306594849
0.021222775802016258 0.10779022425413132 0.26270368695259094
0.23100873827934265 0.10605180263519287 0.26237732172012329
0.5631677508354187 0.015306136570870876 0.24037964642047882
0.79480135440826416 0.064817167818546295 0.20826129615306854
0.96625983715057373 0.18381074070930481 0.18117667734622955
0.0090065598487854004 0.28175333142280579 0.29144281148910522
0.26423400640487671 0.29414251446723938 0.30399715900421143
0.60049325227737427 0.28130903840065002 0.26344621181488037
0.80837160348892212 0.2856752872467041 0.22150313854217529
0.97486954927444458 0.31014361977577209 0.17886053025722504
0.15177971124649048 0.55137437582015991 0.37574952840805054
0.28982627391815186 0.54350435733795166 0.37315398454666138
0.54671555757522583 0.56164753437042236 0.3359941840171814
0.8237268328666687 0.53033632040023804 0.25756800174713135
0.98573207855224609 0.49245893955230713 0.1830095648765564
0.33271202445030212 0.70942896604537964 0.46709230542182922
0.40057963132858276 0.70400309562683105 0.47199425101280212
0.52729010581970215 0.70423740148544312 0.46544834971427917
0.73474037647247314 0.73065632581710815 0.43181607127189636
0.95023709535598755 0.73339611291885376 0.36428382992744446
0.61783218383789062 0.85848778486251831 0.66036742925643921
0.63914710283279419 0.85791653394699097 0.66079163551330566
0.68952775001525879 0.85559672117233276 0.66760486364364624
0.77497220039367676 0.87198376655578613 0.66136330366134644
0.89294826984405518 0.89341551065444946 0.64142179489135742
0.00076407636515796185 0.13805432617664337 0.53907996416091919
0.22955086827278137 0.14428147673606873 0.54645711183547974
0.58682453632354736 0.12672156095504761 0.55929923057556152
0.82942557334899902 0.15746983885765076 0.49717986583709717
0.9852287769317627 0.12467034906148911 0.41958573460578918
0.0044682072475552559 0.33000281453132629 0.55955392122268677
0.2587960958480835 0.3296697735786438 0.57071763277053833
0.6011776328086853 0.34360790252685547 0.56988120079040527
0.81928747892379761 0.35299775004386902 0.51330077648162842
0.97085517644882202 0.31425553560256958 0.44141054153442383
0.15840277075767517 0.57591110467910767 0.5721626877784729
0.38185679912567139 0.57395762205123901 0.58272302150726318
0.60546326637268066 0.57752406597137451 0.58160138130187988
0.80092513561248779 0.55101507902145386 0.53057515621185303
0.95820838212966919 0.52257102727890015 0.47316402196884155
0.5018799901008606 0.73200476169586182 0.62977230548858643
0.55661630630493164 0.72963917255401611 0.63030576705932617
0.62470781803131104 0.71736574172973633 0.61947798728942871
0.76444673538208008 0.73423260450363159 0.60288959741592407
0.94872993230819702 0.72517949342727661 0.55223554372787476
0.67316693067550659 0.86527353525161743 0.72658032178878784
0.68057644367218018 0.86528944969177246 0.72048211097717285
0.72157377004623413 0.86388605833053589 0.72352516651153564
0.79282611608505249 0.86818236112594604 0.72150415182113647
0.9052659273147583 0.89646649360656738 0.71052217483520508
0.00036846983130089939 0.21922934055328369 0.75282973051071167
0.23753604292869568 0.23468680679798126 0.75554895401000977
0.5580439567565918 0.2745862603187561 0.75181162357330322
0.80750960111618042 0.3256257176399231 0.74739599227905273
0.95544964075088501 0.40636822581291199 0.71008515357971191
0.039085432887077332 0.36502531170845032 0.7532159686088562
0.30038860440254211 0.37959551811218262 0.75312513113021851
0.58383452892303467 0.41857179999351501 0.74855989217758179
0.80885112285614014 0.45039266347885132 0.75192058086395264
0.94967746734619141 0.49875235557556152 0.7189401388168335
0.20617678761482239 0.56723934412002563 0.73347759246826172
0.3794589638710022 0.57341307401657104 0.73683243989944458
0.60285323858261108 0.58787238597869873 0.74336880445480347
0.79857629537582397 0.61189383268356323 0.7512781023979187
0.93804246187210083 0.62375915050506592 0.72818887233734131
0.47990512847900391 0.74106669425964355 0.74867874383926392
0.54842960834503174 0.7438892126083374 0.75283235311508179
0.6659168004989624 0.74171280860900879 0.75885105133056641
0.79965341091156006 0.74828332662582397 0.76225471496582031
0.93261528015136719 0.72791409492492676 0.72477644681930542
0.69358932971954346 0.88041919469833374 0.80633437633514404
0.71464508771896362 0.88087332248687744 0.80892926454544067
0.76570969820022583 0.88038665056228638 0.81263774633407593
0.81707882881164551 0.87776702642440796 0.80473780632019043
0.91585975885391235 0.89991903305053711 0.80006831884384155
0.36468583345413208 0.42856055498123169 0.89974051713943481
0.46469655632972717 0.44124504923820496 0.89866071939468384
0.64201253652572632 0.47646096348762512 0.89458459615707397
0.81250464916229248 0.53218233585357666 0.89156264066696167
0.95118552446365356 0.57237756252288818 0.8893083930015564
0.42905429005622864 0.51233989000320435 0.89883273839950562
0.50600862503051758 0.521168053150177 0.89738351106643677
0.65825057029724121 0.54431033134460449 0.8938823938369751
0.8187488317489624 0.58825492858886719 0.88919764757156372
0.94671273231506348 0.61687898635864258 0.89065122604370117
0.49634847044944763 0.64217770099639893 0.89137715101242065
0.54947072267532349 0.63942801952362061 0.8914794921875
0.66233175992965698 0.63844853639602661 0.89110696315765381
0.8187444806098938 0.66800558567047119 0.89109951257705688
0.93809968233108521 0.69265806674957275 0.89138960838317871
0.51834231615066528 0.76543819904327393 0.88794422149658203
0.55508196353912354 0.76187503337860107 0.88908976316452026
0.64980757236480713 0.75710475444793701 0.88956481218338013
0.79836094379425049 0.76579570770263672 0.89272713661193848
0.93769162893295288 0.79142266511917114 0.89826256036758423
0.67050337791442871 0.903342604637146 0.90649831295013428
0.68761360645294189 0.90262460708618164 0.90943652391433716
0.74347692728042603 0.90566360950469971 0.91174840927124023
0.82527512311935425 0.90337729454040527 0.91293156147003174
0.937641441822052 0.91148018836975098 0.91864264011383057
