luts/negative_old/kodak_portra_400_uc_++.cube
# Created by: G'MIC (https://gmic.eu)
TITLE "kodak_portra_400_uc_++"
# LUT size
LUT_3D_SIZE 5
# Data domain
DOMAIN_MIN 0.0 0.0 0.0
DOMAIN_MAX 1.0 1.0 1.0
# LUT data points
0.10902193933725357 0.1064995676279068 0.074699178338050842
0.24267299473285675 0.11992289125919342 0.080334745347499847
0.57109230756759644 0.11080588400363922 0.025677042081952095
0.86924958229064941 0.13483069837093353 0.0046609016135334969
0.99599683284759521 0.23778223991394043 0.00061394186923280358
0.030633695423603058 0.229993537068367 0.081611126661300659
0.18733830749988556 0.25855666399002075 0.058828316628932953
0.62049317359924316 0.31296399235725403 0.0036853267811238766
0.87643313407897949 0.32966703176498413 0.0039058162365108728
0.99204981327056885 0.35618960857391357 0.0039215688593685627
0 0.52330583333969116 0.086571969091892242
0.0073429332114756107 0.54230928421020508 0.08849518746137619
0.4823170006275177 0.58064800500869751 0.0088353920727968216
0.8359711766242981 0.58725059032440186 0.0031613667961210012
0.99128532409667969 0.55483895540237427 0.00088883942225947976
0.0027819017414003611 0.74658674001693726 0.29124641418457031
0.0074617275968194008 0.74982959032058716 0.30711382627487183
0.36386409401893616 0.75818347930908203 0.30114844441413879
0.72851783037185669 0.77667194604873657 0.24579635262489319
0.97097319364547729 0.7949223518371582 0.12689384818077087
0.50136834383010864 0.91237783432006836 0.61193948984146118
0.5329965353012085 0.9109911322593689 0.61590927839279175
0.62465119361877441 0.91048699617385864 0.62906265258789062
0.76167261600494385 0.91845351457595825 0.62437355518341064
0.90782815217971802 0.93743878602981567 0.61947923898696899
0.092636182904243469 0.11046760529279709 0.2059779018163681
0.23634760081768036 0.11602409183979034 0.21711872518062592
0.56554639339447021 0.02050495520234108 0.20627078413963318
0.88009411096572876 0.045510623604059219 0.17948433756828308
0.9984438419342041 0.25019299983978271 0.16248734295368195
0.02783660963177681 0.26397129893302917 0.22453081607818604
0.25445795059204102 0.29195746779441833 0.24992270767688751
0.63506048917770386 0.29661399126052856 0.21918816864490509
0.88178539276123047 0.31943118572235107 0.16994930803775787
0.99653935432434082 0.36827421188354492 0.1434531956911087
0.015458379872143269 0.56751203536987305 0.33715099096298218
0.10998747497797012 0.57117289304733276 0.31725475192070007
0.55174201726913452 0.59657055139541626 0.28943273425102234
0.86092287302017212 0.57657706737518311 0.14528447389602661
0.99569070339202881 0.5516279935836792 0.057562973350286484
0.079547867178916931 0.75826901197433472 0.4316658079624176
0.18800872564315796 0.75871437788009644 0.42961511015892029
0.47731763124465942 0.75851380825042725 0.43903705477714539
0.75437641143798828 0.7815062403678894 0.42459550499916077
0.96796333789825439 0.7897835373878479 0.3419748842716217
0.54385006427764893 0.91074287891387939 0.64594173431396484
0.57527458667755127 0.90948367118835449 0.65122228860855103
0.65596890449523926 0.90880167484283447 0.66519588232040405
0.77164548635482788 0.91912925243377686 0.66356521844863892
0.91363215446472168 0.93635517358779907 0.65919142961502075
0.0092242816463112831 0.14036129415035248 0.52013778686523438
0.23916006088256836 0.12670698761940002 0.54741555452346802
0.62930309772491455 0.056709498167037964 0.5750269889831543
0.84807544946670532 0.052021685987710953 0.50331491231918335
0.99328124523162842 0.17737618088722229 0.45898628234863281
0.011764706112444401 0.29761853814125061 0.52995979785919189
0.1929904967546463 0.30190405249595642 0.56780070066452026
0.64082640409469604 0.34641817212104797 0.58030694723129272
0.86547768115997314 0.34133201837539673 0.52225035429000854
0.99560272693634033 0.38244876265525818 0.48836752772331238
0.0090069789439439774 0.57916808128356934 0.55007654428482056
0.27781781554222107 0.58827036619186401 0.56670784950256348
0.63380938768386841 0.61239981651306152 0.59648627042770386
0.84343647956848145 0.60391533374786377 0.55550777912139893
0.9802975058555603 0.61815780401229858 0.52582466602325439
0.42231005430221558 0.76771670579910278 0.61317247152328491
0.51353102922439575 0.7675517201423645 0.62536144256591797
0.61221128702163696 0.77118206024169922 0.62112891674041748
0.79390788078308105 0.78208059072494507 0.61838215589523315
0.96200180053710938 0.78045272827148438 0.56724375486373901
0.64829164743423462 0.90813827514648438 0.72697478532791138
0.6468999981880188 0.90856420993804932 0.71567213535308838
0.69792324304580688 0.91240054368972778 0.72066152095794678
0.79238271713256836 0.91968119144439697 0.73048627376556396
0.92408806085586548 0.93358856439590454 0.72631406784057617
0.005124963354319334 0.18758061528205872 0.75402694940567017
0.23087567090988159 0.19077198207378387 0.7605476975440979
0.61443471908569336 0.22629980742931366 0.77026826143264771
0.86536473035812378 0.30455273389816284 0.76572650671005249
0.97925782203674316 0.38253411650657654 0.72404623031616211
0.0053113154135644436 0.31341704726219177 0.74759006500244141
0.224684938788414 0.33122032880783081 0.75596970319747925
0.61538195610046387 0.39867639541625977 0.76554375886917114
0.85606473684310913 0.47075128555297852 0.76415359973907471
0.97920697927474976 0.5032426118850708 0.73384982347488403
0.0049431296065449715 0.53593403100967407 0.7154850959777832
0.1328231543302536 0.5458795428276062 0.72494244575500488
0.58912324905395508 0.6009865403175354 0.7476772665977478
0.83173215389251709 0.65331494808197021 0.75938165187835693
0.97032898664474487 0.64951688051223755 0.7298048734664917
0.28631207346916199 0.76346206665039062 0.73034846782684326
0.41912484169006348 0.76000964641571045 0.73632192611694336
0.63051503896713257 0.77019011974334717 0.74658143520355225
0.81690818071365356 0.79392343759536743 0.76463568210601807
0.96202725172042847 0.80454206466674805 0.75061166286468506
0.63891851902008057 0.91802620887756348 0.79369866847991943
0.66982877254486084 0.9149545431137085 0.79653835296630859
0.74587976932525635 0.91914582252502441 0.80621802806854248
0.82762837409973145 0.92014724016189575 0.80837923288345337
0.93829017877578735 0.94109642505645752 0.81818670034408569
0.38467395305633545 0.40275135636329651 0.91092962026596069
0.50242286920547485 0.41834211349487305 0.90974289178848267
0.69588428735733032 0.46499752998352051 0.90766680240631104
0.86510223150253296 0.55079352855682373 0.90159541368484497
0.98571127653121948 0.61269581317901611 0.89792275428771973
0.40655258297920227 0.49372965097427368 0.90869224071502686
0.51813513040542603 0.50525951385498047 0.90466654300689697
0.69844931364059448 0.5480843186378479 0.90401393175125122
0.86332076787948608 0.61423081159591675 0.90255576372146606
0.98188751935958862 0.65939134359359741 0.89922046661376953
0.38640874624252319 0.63226109743118286 0.89600783586502075
0.48725321888923645 0.6314694881439209 0.89548367261886597
0.66502153873443604 0.65026700496673584 0.8966946005821228
0.85059338808059692 0.70793592929840088 0.89742088317871094
0.97592395544052124 0.74692171812057495 0.90035450458526611
0.27541506290435791 0.77978646755218506 0.88522046804428101
0.38118264079093933 0.77577275037765503 0.88489913940429688
0.56248253583908081 0.76783269643783569 0.8860049843788147
0.80522835254669189 0.7991759181022644 0.90010470151901245
0.95344215631484985 0.83587551116943359 0.90491294860839844
0.58994781970977783 0.94248825311660767 0.90622079372406006
0.61264538764953613 0.94102680683135986 0.90709412097930908
0.69495272636413574 0.93845260143280029 0.91076529026031494
0.80721652507781982 0.94094479084014893 0.91642624139785767
0.95815742015838623 0.95137667655944824 0.92669200897216797
