luts/negative_old/kodak_portra_400_uc_++.cube
# Created by: G'MIC (https://gmic.eu)
TITLE "kodak_portra_400_uc_++"
# LUT size
LUT_3D_SIZE 13
# Data domain
DOMAIN_MIN 0.0 0.0 0.0
DOMAIN_MAX 1.0 1.0 1.0
# LUT data points
0.10902193933725357 0.1064995676279068 0.074699178338050842
0.12408337742090225 0.10959263145923615 0.074422858655452728
0.17478828132152557 0.11592899262905121 0.076865836977958679
0.24267299473285675 0.11992289125919342 0.080334745347499847
0.32430505752563477 0.12121541798114777 0.073546268045902252
0.43746590614318848 0.1182485967874527 0.055035803467035294
0.57109230756759644 0.11080588400363922 0.025677042081952095
0.68752610683441162 0.10826031863689423 0.0088058924302458763
0.78909677267074585 0.11009731143712997 0.0076275845058262348
0.86924958229064941 0.13483069837093353 0.0046609016135334969
0.9397965669631958 0.17414359748363495 0.0034849727526307106
0.98747813701629639 0.21080984175205231 0.0014641855377703905
0.99599683284759521 0.23778223991394043 0.00061394186923280358
0.09875023365020752 0.12921065092086792 0.075285710394382477
0.11594518274068832 0.14126802980899811 0.076711572706699371
0.1621423065662384 0.1496993750333786 0.074269071221351624
0.23352351784706116 0.15574465692043304 0.070756055414676666
0.33083686232566833 0.16124856472015381 0.05418853834271431
0.45133984088897705 0.16116732358932495 0.036580402404069901
0.58425444364547729 0.1618611216545105 0.018353436142206192
0.6992034912109375 0.16090968251228333 0.010275732725858688
0.79694044589996338 0.16261063516139984 0.0078835431486368179
0.87289154529571533 0.18249942362308502 0.0070082270540297031
0.94212210178375244 0.20806095004081726 0.0038679982535541058
0.99010533094406128 0.23088093101978302 0.0012341218534857035
0.99607843160629272 0.25066637992858887 0.00073529413202777505
0.075873672962188721 0.17016585171222687 0.078423716127872467
0.097272150218486786 0.17554640769958496 0.078216105699539185
0.14517754316329956 0.18474400043487549 0.073494255542755127
0.21969722211360931 0.19361481070518494 0.062937386333942413
0.33184099197387695 0.20811218023300171 0.03498547151684761
0.46401140093803406 0.21841949224472046 0.01706249825656414
0.60436296463012695 0.22738240659236908 0.0094923879951238632
0.71529304981231689 0.22634118795394897 0.00721715297549963
0.80457866191864014 0.23185746371746063 0.0060827219858765602
0.87539780139923096 0.25193864107131958 0.0040132710710167885
0.93792110681533813 0.27171856164932251 0.0038806241936981678
0.98249292373657227 0.28560510277748108 0.0033729553688317537
0.99422216415405273 0.2928217351436615 0.0028815176337957382
0.030633695423603058 0.229993537068367 0.081611126661300659
0.056233424693346024 0.23166307806968689 0.080792412161827087
0.10306142270565033 0.2431524246931076 0.073513224720954895
0.18733830749988556 0.25855666399002075 0.058828316628932953
0.31748273968696594 0.28643643856048584 0.024251481518149376
0.47328928112983704 0.30722397565841675 0.0059644063003361225
0.62049317359924316 0.31296399235725403 0.0036853267811238766
0.72687900066375732 0.31168368458747864 0.0030835769139230251
0.81028074026107788 0.31678420305252075 0.0038638096302747726
0.87643313407897949 0.32966703176498413 0.0039058162365108728
0.93112432956695557 0.3390122652053833 0.0039215688593685627
0.97617578506469727 0.34818074107170105 0.0039215688593685627
0.99204981327056885 0.35618960857391357 0.0039215688593685627
0.0025696398224681616 0.31812545657157898 0.082451686263084412
0.0073071797378361225 0.32338735461235046 0.086230799555778503
0.030026169493794441 0.33239111304283142 0.077043585479259491
0.11609450727701187 0.34900230169296265 0.056652352213859558
0.27324861288070679 0.37984797358512878 0.020753897726535797
0.45231682062149048 0.41072613000869751 0.004190781619399786
0.60375010967254639 0.42005646228790283 0.0014234804548323154
0.7185288667678833 0.40961027145385742 0.0011991763021796942
0.81329923868179321 0.40158936381340027 0.0020653069950640202
0.87508422136306763 0.40354260802268982 0.0031094420701265335
0.92704439163208008 0.40871325135231018 0.0038857853505760431
0.9742622971534729 0.4149053692817688 0.0039215688593685627
0.99140024185180664 0.42069479823112488 0.0039519066922366619
2.3336971935350448e-05 0.42277687788009644 0.075608320534229279
0.0019122404046356678 0.42882326245307922 0.081552483141422272
0.0064891739748418331 0.43656077980995178 0.077552691102027893
0.025235449895262718 0.44845950603485107 0.060724146664142609
0.17231342196464539 0.46686983108520508 0.027590792626142502
0.38076597452163696 0.49148139357566833 0.0049067330546677113
0.56124579906463623 0.51502829790115356 0.0021030949428677559
0.68824893236160278 0.51033461093902588 0.0003559037868399173
0.78980815410614014 0.49870651960372925 0.0012831893982365727
0.86151665449142456 0.49082538485527039 0.0017288656672462821
0.92384111881256104 0.4831225574016571 0.0021749907173216343
0.9767487645149231 0.48068669438362122 0.0027146581560373306
0.99251264333724976 0.48485675454139709 0.0027222428470849991
0 0.52330583333969116 0.086571969091892242
6.4356187067460269e-05 0.53024077415466309 0.09290129691362381
0.0029969010502099991 0.53615283966064453 0.095383107662200928
0.0073429332114756107 0.54230928421020508 0.08849518746137619
0.065517127513885498 0.55118489265441895 0.064788907766342163
0.29295676946640015 0.56377154588699341 0.032026223838329315
0.4823170006275177 0.58064800500869751 0.0088353920727968216
0.64380323886871338 0.5965685248374939 0.0023282519541680813
0.76130568981170654 0.59905886650085449 0.0012714011827483773
0.8359711766242981 0.58725059032440186 0.0031613667961210012
0.9060518741607666 0.57199394702911377 0.0029589184559881687
0.97373354434967041 0.55371057987213135 0.0011186936171725392
0.99128532409667969 0.55483895540237427 0.00088883942225947976
0 0.60811078548431396 0.13685066998004913
0 0.61387115716934204 0.14568556845188141
0.0010114184115082026 0.61753708124160767 0.14858782291412354
0.0045776665210723877 0.62139880657196045 0.14494733512401581
0.017478538677096367 0.62509661912918091 0.1338367760181427
0.20406448841094971 0.63254857063293457 0.10815794765949249
0.40713116526603699 0.6409459114074707 0.062235575169324875
0.57129472494125366 0.65307700634002686 0.026221660897135735
0.71332532167434692 0.67099690437316895 0.017796026542782784
0.81218886375427246 0.67093229293823242 0.0085999434813857079
0.88790410757064819 0.66142350435256958 0.0044622980058193207
0.95176255702972412 0.64732348918914795 0.0051255919970571995
0.97855281829833984 0.64323508739471436 0.0049596452154219151
0.00031763713923282921 0.68319422006607056 0.20003794133663177
0.00061615591403096914 0.68520015478134155 0.21053853631019592
0.0020206226035952568 0.68719238042831421 0.21447722613811493
0.0043125525116920471 0.68864428997039795 0.2202511727809906
0.0089395409449934959 0.69056904315948486 0.21717149019241333
0.15399330854415894 0.69600987434387207 0.20485463738441467
0.35759890079498291 0.70286029577255249 0.17845255136489868
0.51904302835464478 0.7107006311416626 0.15577547252178192
0.65087205171585083 0.72147113084793091 0.12346453219652176
0.77354377508163452 0.73307311534881592 0.07812606543302536
0.87088322639465332 0.74184083938598633 0.050290156155824661
0.93461716175079346 0.73355245590209961 0.020307203754782677
0.97379481792449951 0.7254067063331604 0.008610803633928299
0.0027819017414003611 0.74658674001693726 0.29124641418457031
0.0040668710134923458 0.74802601337432861 0.2971164882183075
0.0042955586686730385 0.74910181760787964 0.30159080028533936
0.0074617275968194008 0.74982959032058716 0.30711382627487183
0.030737200751900673 0.75029700994491577 0.30982780456542969
0.19581077992916107 0.75348567962646484 0.30940085649490356
0.36386409401893616 0.75818347930908203 0.30114844441413879
0.50463563203811646 0.76337885856628418 0.28728541731834412
0.6208651065826416 0.76950448751449585 0.26911327242851257
0.72851783037185669 0.77667194604873657 0.24579635262489319
0.83247679471969604 0.79078686237335205 0.22955994307994843
0.91300976276397705 0.79944020509719849 0.19310000538825989
0.97097319364547729 0.7949223518371582 0.12689384818077087
0.020313307642936707 0.80872434377670288 0.39085328578948975
0.028962273150682449 0.80842775106430054 0.39012798666954041
0.038175933063030243 0.80971425771713257 0.39253479242324829
0.087857358157634735 0.80946546792984009 0.39901739358901978
0.19402807950973511 0.80691701173782349 0.40815681219100952
0.30789610743522644 0.80623584985733032 0.41337716579437256
0.41526931524276733 0.80836665630340576 0.4119172990322113
0.51883196830749512 0.81178587675094604 0.40321063995361328
0.61863422393798828 0.8167341947555542 0.39174765348434448
0.71208888292312622 0.82170295715332031 0.3783143162727356
0.79287505149841309 0.82980489730834961 0.37037754058837891
0.87854534387588501 0.84405887126922607 0.36852902173995972
0.94593030214309692 0.85248178243637085 0.3653203547000885
0.25501015782356262 0.86349022388458252 0.50197166204452515
0.27478021383285522 0.86266207695007324 0.50147813558578491
0.3093225359916687 0.86350440979003906 0.50595772266387939
0.34395051002502441 0.86114060878753662 0.50840908288955688
0.39362707734107971 0.85890138149261475 0.51337903738021851
0.44393163919448853 0.8583674430847168 0.51732432842254639
0.51205408573150635 0.86016201972961426 0.52171069383621216
0.5844961404800415 0.86243176460266113 0.51847171783447266
0.65672421455383301 0.86632376909255981 0.51269543170928955
0.73126745223999023 0.87071281671524048 0.50492334365844727
0.79216957092285156 0.87488728761672974 0.49797135591506958
0.85582429170608521 0.88386458158493042 0.49722331762313843
0.92283773422241211 0.89684575796127319 0.50631093978881836
0.50136834383010864 0.91237783432006836 0.61193948984146118
0.50147879123687744 0.91209763288497925 0.61140292882919312
0.52099406719207764 0.91215497255325317 0.61491549015045166
0.5329965353012085 0.9109911322593689 0.61590927839279175
0.55607914924621582 0.90973103046417236 0.61912226676940918
0.58590501546859741 0.9090990424156189 0.62238091230392456
0.62465119361877441 0.91048699617385864 0.62906265258789062
0.66767269372940063 0.91264396905899048 0.63099867105484009
0.71832692623138428 0.91559940576553345 0.62813055515289307
0.76167261600494385 0.91845351457595825 0.62437355518341064
0.81019288301467896 0.92363893985748291 0.62212753295898438
0.85960251092910767 0.92889922857284546 0.61614769697189331
0.90782815217971802 0.93743878602981567 0.61947923898696899
0.10879356414079666 0.10814596712589264 0.097896501421928406
0.13329792022705078 0.11166868358850479 0.099047176539897919
0.16989824175834656 0.11210065335035324 0.095332622528076172
0.23963215947151184 0.11461523920297623 0.094599798321723938
0.32476598024368286 0.1129855141043663 0.090504482388496399
0.43945378065109253 0.10560733824968338 0.080707713961601257
0.57152163982391357 0.093805320560932159 0.066196441650390625
0.69454848766326904 0.082581117749214172 0.045637331902980804
0.7977178692817688 0.097234107553958893 0.021887850016355515
0.87375146150588989 0.12479659169912338 0.01317755039781332
0.94147336483001709 0.1604626327753067 0.0065298490226268768
0.98299896717071533 0.19686511158943176 0.0045185764320194721
0.99450516700744629 0.23296046257019043 0.0042239469476044178
0.10333783179521561 0.13692639768123627 0.10264532268047333
0.12760145962238312 0.14456409215927124 0.10421483963727951
0.17135551571846008 0.14842557907104492 0.10143914073705673
0.24349038302898407 0.15039114654064178 0.097734533250331879
0.3377821147441864 0.14673727750778198 0.088595733046531677
0.45513454079627991 0.14500652253627777 0.0771065354347229
0.58570283651351929 0.14677245914936066 0.057423222810029984
0.70365685224533081 0.14615622162818909 0.035498525947332382
0.80253279209136963 0.15391698479652405 0.016881411895155907
0.87761706113815308 0.17226576805114746 0.0099228350445628166
0.94318586587905884 0.19771112501621246 0.0062582129612565041
0.98722606897354126 0.22549140453338623 0.0042258319444954395
0.99549269676208496 0.25273615121841431 0.0043706409633159637
0.088167838752269745 0.17781880497932434 0.10637204349040985
0.11082389950752258 0.18777245283126831 0.1073002964258194
0.1613452136516571 0.19028095901012421 0.10505130141973495
0.24011191725730896 0.19601355493068695 0.095606818795204163
0.34967619180679321 0.20329757034778595 0.077880099415779114
0.47496262192726135 0.21336673200130463 0.052765205502510071
0.60794532299041748 0.216313436627388 0.030303491279482841
0.71925228834152222 0.21717143058776855 0.016385620459914207
0.80850446224212646 0.22480103373527527 0.0072960499674081802
0.87875592708587646 0.24190637469291687 0.0062552508898079395
0.93941062688827515 0.25852090120315552 0.0054599535651504993
0.98106986284255981 0.27951613068580627 0.0045502455905079842
0.99508392810821533 0.29240232706069946 0.0039215688593685627
0.054566387087106705 0.2446783185005188 0.11746446043252945
0.075520247220993042 0.24394491314888 0.11170729249715805
0.12480803579092026 0.25435307621955872 0.10909102112054825
0.20828105509281158 0.27268156409263611 0.098012082278728485
0.3426058292388916 0.29623615741729736 0.06511407345533371
0.48887336254119873 0.30483055114746094 0.027026396244764328
0.62259793281555176 0.30654129385948181 0.012545791454613209
0.72612679004669189 0.30549329519271851 0.0083852130919694901
0.81080096960067749 0.3093801736831665 0.0068425345234572887
0.87864255905151367 0.3199860155582428 0.0069257849827408791
0.93661797046661377 0.32943186163902283 0.0065098032355308533
0.97988027334213257 0.34015843272209167 0.0064204349182546139
0.99442148208618164 0.35476991534233093 0.0056264093145728111
0.005550803616642952 0.33336749672889709 0.12280602753162384
0.010190567001700401 0.33480948209762573 0.11914283782243729
0.042058967053890228 0.34380173683166504 0.11630912870168686
0.13637374341487885 0.35913512110710144 0.10322823375463486
0.292510986328125 0.38764876127243042 0.067844823002815247
0.46472850441932678 0.4112098217010498 0.02417970634996891
0.61314719915390015 0.41605976223945618 0.00629450473934412
0.72531533241271973 0.40476962924003601 0.0054274913854897022
0.81004470586776733 0.39980107545852661 0.0054120081476867199
0.87607884407043457 0.40045776963233948 0.0066068312153220177
0.93301224708557129 0.40287542343139648 0.0071083968505263329
0.97845500707626343 0.40864002704620361 0.007322902325540781
0.99414438009262085 0.41804215312004089 0.0085772648453712463
0.0025936800520867109 0.43544328212738037 0.12578842043876648
0.0047734878025949001 0.44126683473587036 0.13173358142375946
0.0073395376093685627 0.44731715321540833 0.13018445670604706
0.033056028187274933 0.45569956302642822 0.11601307988166809
0.19368354976177216 0.47439676523208618 0.08935074508190155
0.39789387583732605 0.49747708439826965 0.044509332627058029
0.5730624794960022 0.51602834463119507 0.013414839282631874
0.69597417116165161 0.51262968778610229 0.0058934679254889488
0.79107797145843506 0.50170266628265381 0.0078564062714576721
0.86433154344558716 0.49352055788040161 0.004869408905506134
0.92797094583511353 0.48147010803222656 0.0053596645593643188
0.97887253761291504 0.47929921746253967 0.0061379526741802692
0.99467074871063232 0.4863925576210022 0.0067867203615605831
0.00033253687433898449 0.53322923183441162 0.13770784437656403
0.00039128321805037558 0.54026472568511963 0.14422640204429626
0.0044046142138540745 0.54416561126708984 0.14860604703426361
0.008637402206659317 0.54707491397857666 0.14497892558574677
0.091860584914684296 0.55501949787139893 0.12938849627971649
0.30903559923171997 0.56773418188095093 0.093422561883926392
0.49085542559623718 0.58128887414932251 0.048015609383583069
0.64829260110855103 0.59621411561965942 0.019117273390293121
0.76225143671035767 0.59874469041824341 0.0093041211366653442
0.84231710433959961 0.58929276466369629 0.0051889307796955109
0.91178721189498901 0.57285314798355103 0.0068812500685453415
0.97174763679504395 0.55782932043075562 0.0050480114296078682
0.99244594573974609 0.55756348371505737 0.0043238322250545025
1.0696111530705821e-05 0.61498415470123291 0.17606817185878754
0 0.61865949630737305 0.18672654032707214
0.002421405166387558 0.62157857418060303 0.19360977411270142
0.0063605513423681259 0.62326651811599731 0.19499899446964264
0.031916748732328415 0.62676233053207397 0.18702925741672516
0.23190991580486298 0.63474637269973755 0.16557542979717255
0.41989427804946899 0.64422804117202759 0.12571656703948975
0.5818062424659729 0.65473586320877075 0.09101828932762146
0.71841412782669067 0.67004507780075073 0.055374220013618469
0.82235503196716309 0.67486250400543213 0.019211502745747566
0.89462661743164062 0.66230368614196777 0.012545986101031303
0.95408350229263306 0.64843857288360596 0.0062315845862030983
0.98300409317016602 0.6434398889541626 0.0027899499982595444
0.0023339514154940844 0.68261432647705078 0.24363029003143311
0.0015700545627623796 0.68757325410842896 0.25414273142814636
0.0034550684504210949 0.68959760665893555 0.25897303223609924
0.0058094249106943607 0.68962007761001587 0.26119863986968994
0.01956520788371563 0.6913447380065918 0.25818943977355957
0.19913315773010254 0.69636267423629761 0.24897877871990204
0.38278090953826904 0.70320981740951538 0.22798511385917664
0.5384596586227417 0.71032983064651489 0.21035338938236237
0.66177952289581299 0.72079145908355713 0.18430677056312561
0.7824285626411438 0.73736882209777832 0.14756892621517181
0.87319016456604004 0.74145710468292236 0.09832540899515152
0.93793183565139771 0.73322033882141113 0.040854435414075851
0.9813917875289917 0.72401875257492065 0.0088957240805029869
0.0041101491078734398 0.74653136730194092 0.32203039526939392
0.005083031952381134 0.74885058403015137 0.32821670174598694
0.0047601438127458096 0.75112217664718628 0.33149230480194092
0.0062528122216463089 0.75165259838104248 0.3325132429599762
0.062523424625396729 0.75164443254470825 0.33631232380867004
0.24356122314929962 0.75384455919265747 0.33952853083610535
0.394266277551651 0.75783634185791016 0.33241188526153564
0.51876986026763916 0.76253914833068848 0.3207283616065979
0.62667942047119141 0.76955777406692505 0.30318281054496765
0.73183256387710571 0.77868366241455078 0.28563094139099121
0.83550220727920532 0.7920304536819458 0.27351653575897217
0.91476356983184814 0.79848510026931763 0.24333322048187256
0.97227269411087036 0.79460281133651733 0.17617528140544891
0.031759075820446014 0.80880957841873169 0.406850665807724
0.039766617119312286 0.80942684412002563 0.40940496325492859
0.065872430801391602 0.81017738580703735 0.41225910186767578
0.13639022409915924 0.80915749073028564 0.41854330897331238
0.23480172455310822 0.80641275644302368 0.42707213759422302
0.34355291724205017 0.80628156661987305 0.43375745415687561
0.43765315413475037 0.80761039257049561 0.43272459506988525
0.53397262096405029 0.81028562784194946 0.42527154088020325
0.63046044111251831 0.81598907709121704 0.41587144136428833
0.71918642520904541 0.82212692499160767 0.40692940354347229
0.80136567354202271 0.83013594150543213 0.39655733108520508
0.88198786973953247 0.84243887662887573 0.39593991637229919
0.94828253984451294 0.85164099931716919 0.38960373401641846
0.28903257846832275 0.86376148462295532 0.51315462589263916
0.30515167117118835 0.86343395709991455 0.5142437219619751
0.33426514267921448 0.86369925737380981 0.51717936992645264
0.36941325664520264 0.86148041486740112 0.52091008424758911
0.40712806582450867 0.85852545499801636 0.5258554220199585
0.46603566408157349 0.85798054933547974 0.5333327054977417
0.53452616930007935 0.85938119888305664 0.53727042675018311
0.59471803903579712 0.8612791895866394 0.53568804264068604
0.66208678483963013 0.86537814140319824 0.53161650896072388
0.73537808656692505 0.87040418386459351 0.52581918239593506
0.79352480173110962 0.8747941255569458 0.51629817485809326
0.85253113508224487 0.88290947675704956 0.51414781808853149
0.92154359817504883 0.89559906721115112 0.51891177892684937
0.51226860284805298 0.91238081455230713 0.61859589815139771
0.51575028896331787 0.91180825233459473 0.61814588308334351
0.53010034561157227 0.9123414158821106 0.62134629487991333
0.54236418008804321 0.91106754541397095 0.62325549125671387
0.56004780530929565 0.9091346263885498 0.62579643726348877
0.59399199485778809 0.90986639261245728 0.63232743740081787
0.63461458683013916 0.90997517108917236 0.63545107841491699
0.67265200614929199 0.91062122583389282 0.63543635606765747
0.71669214963912964 0.91282987594604492 0.63358193635940552
0.7627561092376709 0.91727089881896973 0.63068503141403198
0.80932611227035522 0.92341709136962891 0.62742817401885986
0.8578040599822998 0.93078315258026123 0.62586158514022827
0.90704447031021118 0.93675380945205688 0.62443381547927856
0.10652844607830048 0.110108382999897 0.14076867699623108
0.13390277326107025 0.11295613646507263 0.14644704759120941
0.17177028954029083 0.11256767809391022 0.14147761464118958
0.23178261518478394 0.11275193095207214 0.1368478387594223
0.32005545496940613 0.1030501127243042 0.13622456789016724
0.43649584054946899 0.064833231270313263 0.12792028486728668
0.57354074716567993 0.03341948613524437 0.11974330246448517
0.70537590980529785 0.030153430998325348 0.11090561747550964
0.80350703001022339 0.058413859456777573 0.10014142841100693
0.877735435962677 0.1031496673822403 0.087293140590190887
0.94301444292068481 0.14584176242351532 0.062661223113536835
0.98283535242080688 0.19252549111843109 0.047440055757761002
0.99605292081832886 0.23443180322647095 0.032805409282445908
0.10161957144737244 0.14147455990314484 0.14482849836349487
0.12955094873905182 0.1465250700712204 0.15163028240203857
0.17691397666931152 0.14748874306678772 0.14687007665634155
0.24135960638523102 0.1443476527929306 0.14152374863624573
0.3398679792881012 0.13220809400081635 0.13814890384674072
0.45509514212608337 0.11671918630599976 0.1297944039106369
0.59353125095367432 0.10614972561597824 0.12317901104688644
0.7140156626701355 0.1095898225903511 0.1125810369849205
0.80764651298522949 0.13212336599826813 0.096027553081512451
0.88150805234909058 0.15710504353046417 0.073522336781024933
0.94415569305419922 0.18914774060249329 0.053609617054462433
0.98804271221160889 0.22357620298862457 0.038338590413331985
0.99674201011657715 0.25987908244132996 0.031652577221393585
0.093849927186965942 0.18299345672130585 0.14659447968006134
0.12221941351890564 0.19419702887535095 0.15748672187328339
0.1728745698928833 0.19457106292247772 0.15316121280193329
0.2497611939907074 0.19662469625473022 0.14721183478832245
0.35552859306335449 0.20022685825824738 0.13999967277050018
0.48097747564315796 0.20040185749530792 0.12342282384634018
0.61381572484970093 0.19985088706016541 0.11598557233810425
0.72274500131607056 0.20181119441986084 0.099055469036102295
0.81154096126556396 0.21557112038135529 0.078231573104858398
0.88306331634521484 0.23325687646865845 0.056350182741880417
0.9426237940788269 0.2556355893611908 0.042982589453458786
0.98231542110443115 0.27736809849739075 0.034051407128572464
0.99803745746612549 0.2958102822303772 0.021514907479286194
0.069462329149246216 0.25317096710205078 0.16052435338497162
0.098400041460990906 0.25972294807434082 0.16651758551597595
0.1459931880235672 0.26512822508811951 0.16521455347537994
0.23554198443889618 0.28109532594680786 0.16074267029762268
0.36129125952720642 0.29752489924430847 0.14164729416370392
0.50071841478347778 0.30156973004341125 0.1138865128159523
0.62816065549850464 0.29814112186431885 0.086798585951328278
0.7303091287612915 0.29814714193344116 0.067471854388713837
0.81491583585739136 0.30253380537033081 0.047854255884885788
0.88439321517944336 0.3118135929107666 0.035194337368011475
0.94401305913925171 0.32207649946212769 0.026523679494857788
0.98777812719345093 0.33536332845687866 0.02013956755399704
0.99748730659484863 0.35449829697608948 0.016317509114742279
0.014618084765970707 0.35170307755470276 0.1900111585855484
0.031645860522985458 0.35813441872596741 0.18799667060375214
0.06463884562253952 0.36229872703552246 0.18122528493404388
