luts/negative_old/kodak_portra_160_vc_-.cube
# Created by: G'MIC (https://gmic.eu)
TITLE "kodak_portra_160_vc_-"
# LUT size
LUT_3D_SIZE 5
# Data domain
DOMAIN_MIN 0.0 0.0 0.0
DOMAIN_MAX 1.0 1.0 1.0
# LUT data points
0.0094543453305959702 0.011469089426100254 0.013609657995402813
0.2169383317232132 0.035368930548429489 0.0087654562667012215
0.56759411096572876 0.0097458483651280403 0.0065624313428997993
0.84704881906509399 0.04946613684296608 0.0021699792705476284
0.99941408634185791 0.19707375764846802 0.00025473203277215362
0.0016939201159402728 0.23108199238777161 0.067823760211467743
0.19573988020420074 0.26347023248672485 0.023154344409704208
0.58785748481750488 0.26225683093070984 0.0041068284772336483
0.83964008092880249 0.27637651562690735 0.0039293328300118446
0.9957001805305481 0.32053729891777039 0.001875649206340313
0.0043003009632229805 0.51711815595626831 0.24698947370052338
0.16599954664707184 0.52459198236465454 0.23102615773677826
0.50911349058151245 0.55186361074447632 0.10609228163957596
0.80894911289215088 0.53831779956817627 0.0038255429826676846
0.99285984039306641 0.51083213090896606 0.0013227126328274608
0.22401970624923706 0.74159276485443115 0.40236571431159973
0.32932579517364502 0.7364192008972168 0.40766215324401855
0.49795916676521301 0.74173390865325928 0.38588753342628479
0.73570823669433594 0.76174992322921753 0.28328227996826172
0.98003691434860229 0.7760433554649353 0.13288296759128571
0.58081257343292236 0.92696261405944824 0.6655421257019043
0.60975182056427002 0.92528790235519409 0.66911578178405762
0.68163985013961792 0.92553842067718506 0.6764521598815918
0.77527159452438354 0.94025498628616333 0.64380395412445068
0.93400877714157104 0.9578700065612793 0.57886159420013428
0.0020608790218830109 0.032396517693996429 0.26486828923225403
0.23624689877033234 0.042075946927070618 0.25563383102416992
0.57920891046524048 0.0041038063354790211 0.23408335447311401
0.84204560518264771 0.1372128427028656 0.26241567730903625
0.99822026491165161 0.29181525111198425 0.28210219740867615
0.0019128238782286644 0.27855074405670166 0.28496852517127991
0.26512277126312256 0.29162585735321045 0.30085304379463196
0.59400969743728638 0.29825997352600098 0.28088480234146118
0.83385616540908813 0.33100754022598267 0.26698383688926697
0.9964173436164856 0.37984007596969604 0.26898887753486633
0.21051044762134552 0.54985791444778442 0.38596382737159729
0.31459391117095947 0.54611194133758545 0.37865594029426575
0.54171991348266602 0.55580264329910278 0.33051711320877075
0.80977416038513184 0.5342218279838562 0.24118921160697937
0.99106603860855103 0.5321466326713562 0.21313481032848358
0.33733680844306946 0.747933030128479 0.48388209939002991
0.41046798229217529 0.74596303701400757 0.49303704500198364
0.53487581014633179 0.74331158399581909 0.4809911847114563
0.74609619379043579 0.76974880695343018 0.41050174832344055
0.9780956506729126 0.76839655637741089 0.316650390625
0.60394454002380371 0.92810928821563721 0.69480639696121216
0.63246053457260132 0.92658138275146484 0.70197141170501709
0.69860619306564331 0.9266248345375061 0.7112390398979187
0.78983610868453979 0.93881666660308838 0.6874280571937561
0.93640309572219849 0.95797890424728394 0.62669330835342407
0.00081260531442239881 0.15313313901424408 0.58469176292419434
0.32228302955627441 0.19343803822994232 0.58266711235046387
0.62261569499969482 0.23863811790943146 0.57158106565475464
0.82193827629089355 0.14882801473140717 0.49841699004173279
0.99534589052200317 0.22173838317394257 0.47343629598617554
0.028598083183169365 0.38824403285980225 0.6016772985458374
0.34316918253898621 0.3845812976360321 0.59778732061386108
0.61579197645187378 0.39993718266487122 0.57516896724700928
0.82209587097167969 0.34460920095443726 0.51609951257705688
0.99463379383087158 0.3925512433052063 0.50857657194137573
0.18982610106468201 0.58785110712051392 0.5811392068862915
0.37033352255821228 0.5848771333694458 0.58526623249053955
0.58431047201156616 0.57510340213775635 0.5733569860458374
0.80506628751754761 0.57471519708633423 0.55072236061096191
0.98126393556594849 0.59577059745788574 0.54800420999526978
0.4749118983745575 0.76756793260574341 0.65277260541915894
0.54048126935958862 0.76685214042663574 0.65503019094467163
0.61937636137008667 0.75683128833770752 0.64023619890213013
0.76885116100311279 0.77035331726074219 0.60602140426635742
0.97951191663742065 0.76226091384887695 0.54031312465667725
0.66652411222457886 0.93340069055557251 0.77035069465637207
0.683971107006073 0.9353567361831665 0.77098166942596436
0.73272651433944702 0.93125820159912109 0.77399837970733643
0.81064122915267944 0.93839967250823975 0.76501947641372681
0.94400525093078613 0.96193581819534302 0.72595429420471191
0.21685996651649475 0.33292946219444275 0.8268202543258667
0.43030604720115662 0.36277830600738525 0.81816309690475464
0.66882699728012085 0.42905217409133911 0.80661952495574951
0.85469549894332886 0.45904624462127686 0.79516136646270752
0.98877418041229248 0.41231450438499451 0.74212956428527832
0.30004212260246277 0.47344982624053955 0.82186061143875122
0.44990405440330505 0.4905630350112915 0.81440615653991699
0.67538774013519287 0.52923011779785156 0.80943703651428223
0.84678483009338379 0.55092400312423706 0.79651093482971191
0.9806516170501709 0.50102764368057251 0.74625098705291748
0.30714458227157593 0.65202277898788452 0.80279606580734253
0.44482734799385071 0.65374898910522461 0.80261486768722534
0.64538532495498657 0.656868577003479 0.79735487699508667
0.82529908418655396 0.67777836322784424 0.79461169242858887
0.97738009691238403 0.6313745379447937 0.75687849521636963
0.47199621796607971 0.79982542991638184 0.79819434881210327
0.54771840572357178 0.79992467164993286 0.80065733194351196
0.66060703992843628 0.79546195268630981 0.80073261260986328
0.80479311943054199 0.78945708274841309 0.79470658302307129
0.9753117561340332 0.79016494750976562 0.78171455860137939
0.68969941139221191 0.95049244165420532 0.85957545042037964
0.71879684925079346 0.94948297739028931 0.86154228448867798
0.78053873777389526 0.94738256931304932 0.87053364515304565
0.85483336448669434 0.94546496868133545 0.86391532421112061
0.95918726921081543 0.96136122941970825 0.84208190441131592
0.52937507629394531 0.55571037530899048 0.96899139881134033
0.60870164632797241 0.57515436410903931 0.96690273284912109
0.75013971328735352 0.62047296762466431 0.95397341251373291
0.89691174030303955 0.68347012996673584 0.95195132493972778
0.99293535947799683 0.69721919298171997 0.9496799111366272
0.55766475200653076 0.62755733728408813 0.96771204471588135
0.62642449140548706 0.64292359352111816 0.96623915433883667
0.75818532705307007 0.67202872037887573 0.96069872379302979
0.89446938037872314 0.72066175937652588 0.9540446400642395
0.99050533771514893 0.73458284139633179 0.95044440031051636
0.59307610988616943 0.74870675802230835 0.96344929933547974
0.64220619201660156 0.74690759181976318 0.96378076076507568
0.74861711263656616 0.75139725208282471 0.96184456348419189
0.88681697845458984 0.78221940994262695 0.95550298690795898
0.9839472770690918 0.79638379812240601 0.95273458957672119
0.57707047462463379 0.85685056447982788 0.96062612533569336
0.62051820755004883 0.85832822322845459 0.96205019950866699
0.71422851085662842 0.85589128732681274 0.95935004949569702
0.86262351274490356 0.86227381229400635 0.96126025915145874
0.98494654893875122 0.88330221176147461 0.95688402652740479
0.69366252422332764 0.97303467988967896 0.96715456247329712
0.71376299858093262 0.97184592485427856 0.96571952104568481
0.78549045324325562 0.97456616163253784 0.96929895877838135
0.8775143027305603 0.97240263223648071 0.97367566823959351
0.97942358255386353 0.97637146711349487 0.97254592180252075
