luts/negative_old/kodak_portra_400_uc.cube
# Created by: G'MIC (https://gmic.eu)
TITLE "kodak_portra_400_uc"
# LUT size
LUT_3D_SIZE 7
# Data domain
DOMAIN_MIN 0.0 0.0 0.0
DOMAIN_MAX 1.0 1.0 1.0
# LUT data points
0.039784286171197891 0.053031653165817261 0.053404863923788071
0.13158738613128662 0.06463044136762619 0.049253113567829132
0.32451656460762024 0.071730263531208038 0.035724040120840073
0.57740646600723267 0.046515684574842453 0.011587703600525856
0.79836535453796387 0.022196212783455849 0.0040110270492732525
0.94447028636932373 0.082326881587505341 0.0037414401303976774
0.99859702587127686 0.18158099055290222 0.0018027661135420203
0.007876317948102951 0.14278912544250488 0.06659042090177536
0.096042454242706299 0.16025330126285553 0.053498242050409317
0.34902480244636536 0.18669448792934418 0.021049020811915398
0.60174739360809326 0.19164671003818512 0.0063691381365060806
0.80249369144439697 0.19177833199501038 0.0061151240952312946
0.93979203701019287 0.2134438157081604 0.0076640858314931393
0.99769490957260132 0.26055037975311279 0.0039215688593685627
0.0029184678569436073 0.31991463899612427 0.10844609886407852
0.013188979588449001 0.33119747042655945 0.095817938446998596
0.26879361271858215 0.37462261319160461 0.047690358012914658
0.59952300786972046 0.39774248003959656 0.0058534960262477398
0.81011223793029785 0.37440270185470581 0.0029802659992128611
0.93380284309387207 0.36816328763961792 0.0064119524322450161
0.99471771717071533 0.38891839981079102 0.0021010902710258961
0.0023472954053431749 0.51309716701507568 0.14881476759910583
0.0099851572886109352 0.52384847402572632 0.15519522130489349
0.070983439683914185 0.53609025478363037 0.1324678510427475
0.48178470134735107 0.56662744283676147 0.047193266451358795
0.75796759128570557 0.58434146642684937 0.0069413878954946995
0.91277468204498291 0.55339556932449341 0.0055584176443517208
0.99212992191314697 0.54345202445983887 0
0 0.67276400327682495 0.23452204465866089
0.0023091484326869249 0.67849999666213989 0.24655024707317352
0.014613552019000053 0.67991876602172852 0.24764531850814819
0.37146270275115967 0.69466513395309448 0.21793827414512634
0.65307652950286865 0.71380168199539185 0.16926634311676025
0.86848443746566772 0.74136984348297119 0.081459507346153259
0.98550200462341309 0.7224125862121582 0.0083473203703761101
0.0089105945080518723 0.80972158908843994 0.38496118783950806
0.030662776902318001 0.80862724781036377 0.38635319471359253
0.18265683948993683 0.80822044610977173 0.40040293335914612
0.40127748250961304 0.80858838558197021 0.40902093052864075
0.60889822244644165 0.81975305080413818 0.38822251558303833
0.79055655002593994 0.83317238092422485 0.36239588260650635
0.94199866056442261 0.85304915904998779 0.34994819760322571
0.47980251908302307 0.91642600297927856 0.61915373802185059
0.50284856557846069 0.91629451513290405 0.62269043922424316
0.53709334135055542 0.91348069906234741 0.63085687160491943
0.6089242696762085 0.91390413045883179 0.64228945970535278
0.69444006681442261 0.91840970516204834 0.63813316822052002
0.79319894313812256 0.92717933654785156 0.63442140817642212
0.8996545672416687 0.93773549795150757 0.63165628910064697
0.021591097116470337 0.057807877659797668 0.14727698266506195
0.1386810839176178 0.062232207506895065 0.16455988585948944
0.31450456380844116 0.0348484106361866 0.14668790996074677
0.58814597129821777 0.0088722081854939461 0.13878953456878662
0.79744791984558105 0.020129021257162094 0.12287844717502594
0.9381110668182373 0.093014240264892578 0.099741272628307343
0.9986501932144165 0.19512474536895752 0.079890534281730652
0.0045080147683620453 0.16771870851516724 0.16305015981197357
0.12351355701684952 0.18024519085884094 0.17213878035545349
0.34664642810821533 0.18406423926353455 0.16009192168712616
0.61662012338638306 0.18248151242733002 0.13520921766757965
0.80570733547210693 0.18906326591968536 0.1080586165189743
0.94046443700790405 0.21695020794868469 0.08002365380525589
0.99792569875717163 0.27183961868286133 0.054137915372848511
0.00592015590518713 0.35002106428146362 0.21508722007274628
0.044055338948965073 0.35737496614456177 0.20973676443099976
0.31911668181419373 0.38221889734268188 0.19170489907264709
0.62695813179016113 0.38671940565109253 0.11753592640161514
0.81324344873428345 0.36960938572883606 0.058883052319288254
0.9415820837020874 0.36755475401878357 0.045094955712556839
0.99659615755081177 0.39375200867652893 0.034697141498327255
0.0046715233474969864 0.53889292478561401 0.26478073000907898
0.0092209456488490105 0.54119527339935303 0.25811561942100525
0.16739240288734436 0.54738134145736694 0.24699066579341888
0.52281618118286133 0.57577282190322876 0.20891521871089935
0.77352309226989746 0.58423840999603271 0.11962112784385681
0.92505574226379395 0.54957515001296997 0.021342603489756584
0.99542951583862305 0.54250079393386841 0.0087681189179420471
0.0034811131190508604 0.68301790952682495 0.31375801563262939
0.0054614795371890068 0.68656843900680542 0.32354810833930969
0.10158651322126389 0.68439710140228271 0.32463148236274719
0.41386750340461731 0.69841605424880981 0.31959369778633118
0.68268954753875732 0.72287636995315552 0.28086331486701965
0.86903232336044312 0.73848515748977661 0.22404494881629944
0.98454535007476807 0.71665811538696289 0.083523817360401154
0.050139110535383224 0.81204581260681152 0.42817363142967224
0.12079740315675735 0.81146401166915894 0.43386739492416382
0.29052242636680603 0.80753570795059204 0.4496610164642334
0.45745712518692017 0.80972778797149658 0.4560578465461731
0.62519198656082153 0.82043290138244629 0.44402161240577698
0.79366898536682129 0.83385491371154785 0.43141445517539978
0.94339358806610107 0.85429078340530396 0.42251840233802795
0.50200551748275757 0.91567718982696533 0.63886845111846924
0.52003121376037598 0.91498130559921265 0.64071953296661377
0.55974751710891724 0.91314554214477539 0.65029692649841309
0.63034498691558838 0.9143180251121521 0.66081750392913818
0.70665895938873291 0.91981774568557739 0.66667181253433228
0.80149251222610474 0.92566007375717163 0.65733474493026733
0.89777642488479614 0.93525832891464233 0.64866060018539429
0.0046104430221021175 0.071954794228076935 0.32168698310852051
0.12328016757965088 0.070739641785621643 0.33623102307319641
0.35143816471099854 0.051566615700721741 0.34693694114685059
0.56445705890655518 0.011526983231306076 0.33108484745025635
0.77822554111480713 0.004098555538803339 0.29896983504295349
0.93845200538635254 0.017124354839324951 0.27858629822731018
0.99944531917572021 0.21502736210823059 0.30486512184143066
0.002745654433965683 0.19170254468917847 0.33206236362457275
0.09407699853181839 0.1948566734790802 0.35015597939491272
0.37340667843818665 0.2039606124162674 0.3662082850933075
0.6048240065574646 0.17067024111747742 0.34613773226737976
0.80106556415557861 0.11754090338945389 0.31441351771354675
0.93737584352493286 0.2155815064907074 0.312935471534729
0.99553066492080688 0.32561579346656799 0.31359156966209412
0.0025572383310645819 0.37015962600708008 0.35386094450950623
0.085421092808246613 0.38804328441619873 0.37650129199028015
0.4038461446762085 0.40738794207572937 0.398813396692276
0.63116759061813354 0.40354704856872559 0.36721187829971313
0.80104774236679077 0.39898782968521118 0.34261780977249146
0.92852330207824707 0.41021326184272766 0.31378856301307678
0.99485915899276733 0.4391968846321106 0.30044671893119812
0.059111561626195908 0.56468355655670166 0.41165891289710999
0.24148634076118469 0.57132768630981445 0.42560282349586487
0.38594791293144226 0.57201927900314331 0.42697754502296448
0.58405560255050659 0.58751094341278076 0.4056398868560791
0.77237921953201294 0.58159220218658447 0.35834601521492004
0.91677439212799072 0.55854624509811401 0.29452270269393921
0.99174493551254272 0.5592380166053772 0.26593825221061707
0.26345172524452209 0.70122498273849487 0.47357314825057983
0.28595593571662903 0.7016785740852356 0.46826758980751038
0.36542543768882751 0.70104891061782837 0.46388718485832214
0.50428539514541626 0.70843935012817383 0.46825695037841797
0.70089375972747803 0.72594541311264038 0.45240706205368042
0.86960268020629883 0.72957849502563477 0.40563088655471802
0.97463494539260864 0.70373374223709106 0.31515485048294067
0.34754806756973267 0.81229496002197266 0.54528731107711792
0.36621746420860291 0.81257820129394531 0.54009354114532471
0.42589351534843445 0.80957955121994019 0.53813087940216064
0.52432084083557129 0.81043750047683716 0.54801613092422485
0.6616935133934021 0.82125425338745117 0.5495532751083374
0.80816227197647095 0.83605730533599854 0.53671276569366455
0.94113665819168091 0.85049086809158325 0.51814979314804077
0.55622684955596924 0.91398459672927856 0.68608939647674561
0.56787014007568359 0.91372865438461304 0.68410629034042358
0.59542191028594971 0.91333210468292236 0.68701690435409546
0.6526491641998291 0.9106447696685791 0.70241355895996094
0.72220402956008911 0.91638815402984619 0.70385050773620605
0.81077909469604492 0.92616254091262817 0.70238649845123291
0.90506213903427124 0.93445885181427002 0.69823002815246582
0.0039752437733113766 0.106980100274086 0.51140773296356201
0.051716718822717667 0.096518963575363159 0.53329265117645264
0.37071976065635681 0.1017439141869545 0.55662685632705688
0.62322360277175903 0.047179531306028366 0.57098889350891113
0.7719305157661438 0.027479253709316254 0.52293819189071655
0.90814632177352905 0.074833214282989502 0.48170661926269531
0.99315941333770752 0.15588246285915375 0.46041765809059143
0.0029034933540970087 0.20361608266830444 0.52821016311645508
0.040087815374135971 0.20318271219730377 0.54505056142807007
0.37361827492713928 0.22728200256824493 0.56463706493377686
0.63245171308517456 0.23473729193210602 0.571522057056427
0.78384184837341309 0.22381700575351715 0.53395479917526245
0.91286492347717285 0.23409414291381836 0.49332612752914429
0.99147027730941772 0.27804446220397949 0.4703579843044281
0.0021730461157858372 0.37246912717819214 0.51922154426574707
0.023819463327527046 0.38342759013175964 0.54517704248428345
0.37586277723312378 0.40434503555297852 0.56911706924438477
0.64202702045440674 0.43208929896354675 0.58046168088912964
0.79120218753814697 0.42320975661277771 0.54321694374084473
0.91602295637130737 0.42219915986061096 0.51888018846511841
0.99363625049591064 0.45394191145896912 0.51169383525848389
0.010584213770925999 0.56309175491333008 0.54129213094711304
0.15446420013904572 0.56996750831604004 0.55368906259536743
0.4260869026184082 0.57805490493774414 0.57202786207199097
0.63045591115951538 0.6012081503868103 0.59391647577285767
0.78218287229537964 0.59475672245025635 0.56318658590316772
0.89643460512161255 0.59115010499954224 0.53790754079818726
0.98351871967315674 0.6058574914932251 0.52072441577911377
0.30067798495292664 0.71124106645584106 0.59020143747329712
0.38370189070701599 0.71075457334518433 0.59692013263702393
0.50812900066375732 0.712596595287323 0.60942691564559937
0.61032605171203613 0.7205733060836792 0.6130683422088623
0.73376071453094482 0.73382914066314697 0.60993403196334839
0.87618672847747803 0.72603398561477661 0.56659293174743652
0.97756576538085938 0.70991510152816772 0.51044023036956787
0.4906536340713501 0.81708085536956787 0.66018712520599365
0.5209352970123291 0.81723451614379883 0.66383284330368042
0.56625330448150635 0.81718116998672485 0.66058659553527832
0.60783964395523071 0.81609946489334106 0.65098780393600464
0.69854754209518433 0.82170385122299194 0.65344077348709106
0.82089656591415405 0.84054183959960938 0.65179002285003662
0.94546699523925781 0.8533521294593811 0.63858973979949951
0.62717741727828979 0.90908223390579224 0.74923837184906006
0.63797324895858765 0.91286885738372803 0.7490241527557373
0.64599084854125977 0.91039419174194336 0.74201852083206177
0.68023550510406494 0.91272354125976562 0.74328744411468506
0.74186140298843384 0.91820353269577026 0.75198590755462646
0.82212561368942261 0.92868274450302124 0.75594699382781982
0.91403114795684814 0.93679904937744141 0.74724841117858887
0.0016810249071568251 0.14679276943206787 0.6954725980758667
0.016991499811410904 0.14203615486621857 0.70443099737167358
0.3445093035697937 0.16154868900775909 0.71382957696914673
0.61486756801605225 0.18083921074867249 0.73036801815032959
0.79342353343963623 0.19391617178916931 0.72552895545959473
0.90101605653762817 0.21971996128559113 0.68929195404052734
0.98098766803741455 0.32707896828651428 0.66834896802902222
0.0012885747710242867 0.23156684637069702 0.6958916187286377
0.019091123715043068 0.23215830326080322 0.70836782455444336
0.33774170279502869 0.2567741870880127 0.71626573801040649
0.61833447217941284 0.29026973247528076 0.73221731185913086
0.79673933982849121 0.31750896573066711 0.73581808805465698
0.89691841602325439 0.32946902513504028 0.69168275594711304
0.97751533985137939 0.3988068699836731 0.66967231035232544
0.004382444079965353 0.38077598810195923 0.67656666040420532
0.034187901765108109 0.38260132074356079 0.69848865270614624
0.35438153147697449 0.40451359748840332 0.71036332845687866
0.61160540580749512 0.44812020659446716 0.72612494230270386
0.78615963459014893 0.48169291019439697 0.73017281293869019
0.89119434356689453 0.47849133610725403 0.69577068090438843
0.97651767730712891 0.50018227100372314 0.67364245653152466
0.0063071455806493759 0.53365272283554077 0.66900104284286499
0.020471356809139252 0.53865021467208862 0.67791712284088135
0.34375154972076416 0.55062240362167358 0.69343066215515137
0.58565378189086914 0.58473199605941772 0.71267992258071899
0.76806926727294922 0.62244093418121338 0.72956198453903198
0.87569081783294678 0.62389963865280151 0.70918375253677368
0.97292482852935791 0.61869931221008301 0.68583649396896362
0.15182583034038544 0.70291006565093994 0.6905478835105896
0.26893088221549988 0.69921314716339111 0.69586938619613647
0.44400766491889954 0.70105481147766113 0.70458608865737915
0.60680723190307617 0.71489059925079346 0.72551178932189941
0.75707918405532837 0.7413332462310791 0.73677349090576172
0.86418944597244263 0.74551576375961304 0.72328966856002808
0.9637482762336731 0.74071145057678223 0.70436900854110718
0.45199799537658691 0.82436716556549072 0.73323404788970947
0.49724355340003967 0.82466447353363037 0.73659461736679077
0.56704592704772949 0.82181179523468018 0.74591070413589478
0.67079991102218628 0.8247871994972229 0.76119339466094971
0.74752938747406006 0.83127951622009277 0.75802671909332275
0.8463519811630249 0.84653288125991821 0.75745856761932373
0.94579231739044189 0.85170453786849976 0.73935222625732422
0.63630521297454834 0.91847765445709229 0.80641108751296997
0.64951443672180176 0.91360998153686523 0.80628687143325806
0.68762809038162231 0.91776919364929199 0.8091931939125061
0.73098194599151611 0.91967034339904785 0.80971789360046387
0.77314341068267822 0.91775548458099365 0.80915576219558716
0.83781778812408447 0.92666459083557129 0.81262505054473877
0.92206037044525146 0.94144785404205322 0.81549900770187378
0.0051652048714458942 0.21837791800498962 0.83393728733062744
0.083778619766235352 0.21795669198036194 0.8381226658821106
0.37957283854484558 0.2408294677734375 0.84037935733795166
0.61127448081970215 0.27317464351654053 0.84479665756225586
0.79388546943664551 0.35554009675979614 0.85110068321228027
0.91177380084991455 0.39147791266441345 0.84629440307617188
0.98158472776412964 0.4154764711856842 0.82402396202087402
0.012522977776825428 0.28510069847106934 0.83313888311386108
0.11248966306447983 0.28923976421356201 0.83753973245620728
0.4009137749671936 0.3240610659122467 0.83632367849349976
0.61816930770874023 0.35652387142181396 0.84402942657470703
0.7891424298286438 0.42699003219604492 0.84935325384140015
0.89982908964157104 0.46288308501243591 0.83983731269836426
0.97811460494995117 0.47918850183486938 0.82382321357727051
0.0099872667342424393 0.40451332926750183 0.82257091999053955
0.10564455389976501 0.40391391515731812 0.82917821407318115
0.39071908593177795 0.43721717596054077 0.82825124263763428
0.60899621248245239 0.47115540504455566 0.83614546060562134
0.77550041675567627 0.53083127737045288 0.84307664632797241
0.89170491695404053 0.56863558292388916 0.83900117874145508
0.96615773439407349 0.57188087701797485 0.82248461246490479
0.0081169875338673592 0.54054349660873413 0.80146437883377075
0.054769061505794525 0.53780961036682129 0.80659353733062744
0.36103606224060059 0.55040919780731201 0.81235331296920776
0.5778927206993103 0.58677643537521362 0.81828397512435913
0.75478768348693848 0.63738691806793213 0.83364295959472656
0.87852764129638672 0.68035441637039185 0.83434855937957764
0.9580274224281311 0.68747437000274658 0.81384724378585815
0.012781375087797642 0.68566751480102539 0.79833930730819702
0.056437965482473373 0.67808383703231812 0.79693311452865601
0.30483189225196838 0.67409354448318481 0.79907667636871338
0.51802170276641846 0.68378490209579468 0.80359929800033569
0.72475802898406982 0.72934561967849731 0.82746249437332153
0.86594456434249878 0.77482229471206665 0.84144192934036255
0.95196163654327393 0.77421289682388306 0.81699496507644653
0.32373595237731934 0.81739723682403564 0.81212002038955688
0.38737297058105469 0.81414645910263062 0.81185466051101685
0.5014423131942749 0.81792664527893066 0.81793224811553955
0.60742473602294922 0.81608456373214722 0.83432137966156006
0.73491752147674561 0.82916408777236938 0.84154123067855835
0.84861463308334351 0.84871888160705566 0.84532421827316284
0.94592118263244629 0.85779261589050293 0.83551138639450073
0.59704864025115967 0.92424494028091431 0.84979963302612305
0.62042760848999023 0.92194271087646484 0.84890854358673096
0.65891534090042114 0.92207115888595581 0.85796701908111572
0.71824914216995239 0.92360830307006836 0.86354142427444458
0.79020029306411743 0.92497241497039795 0.86734086275100708
0.85463178157806396 0.93173664808273315 0.86705487966537476
0.93337619304656982 0.94138246774673462 0.87441301345825195
0.35556766390800476 0.39103782176971436 0.93950039148330688
0.4215143620967865 0.39956018328666687 0.93625336885452271
0.54908460378646851 0.4150356650352478 0.93570452928543091
0.68016344308853149 0.44601190090179443 0.93307530879974365
0.80854040384292603 0.50693130493164062 0.93124771118164062
0.9062989354133606 0.57509803771972656 0.92793267965316772
0.98427665233612061 0.60186654329299927 0.92839533090591431
0.3826870322227478 0.44037514925003052 0.93686991930007935
0.44587764143943787 0.45221772789955139 0.93571180105209351
0.55980187654495239 0.46483972668647766 0.9351651668548584
0.68305498361587524 0.49373295903205872 0.93181723356246948
0.8085254430770874 0.54801630973815918 0.93027973175048828
0.90355008840560913 0.61116957664489746 0.92867708206176758
0.98154079914093018 0.63238221406936646 0.92942404747009277
0.37790879607200623 0.51514869928359985 0.93370962142944336
0.44242507219314575 0.52437418699264526 0.93318468332290649
0.55016273260116577 0.53958940505981445 0.92893850803375244
0.67698210477828979 0.56610846519470215 0.92465746402740479
0.80425858497619629 0.617561936378479 0.92873871326446533
0.89977335929870605 0.6656535267829895 0.92987293004989624
0.97441625595092773 0.68573355674743652 0.92817836999893188
0.36162528395652771 0.61974883079528809 0.92430400848388672
0.4165397584438324 0.62063205242156982 0.92436271905899048
0.52165079116821289 0.61917209625244141 0.92529016733169556
0.65461069345474243 0.64003735780715942 0.9252551794052124
0.78054159879684448 0.68654197454452515 0.92433744668960571
0.88515108823776245 0.72827696800231934 0.92581725120544434
0.96690577268600464 0.74676358699798584 0.92468678951263428
0.11275830864906311 0.71319305896759033 0.91473734378814697
0.19252091646194458 0.71125942468643188 0.91383093595504761
0.39815333485603333 0.71307969093322754 0.9145275354385376
0.58468949794769287 0.72440123558044434 0.91671323776245117
0.74347978830337524 0.7539483904838562 0.92047089338302612
0.86696290969848633 0.78632223606109619 0.92468738555908203
0.95637327432632446 0.81088095903396606 0.9229813814163208
0.35146614909172058 0.83523404598236084 0.91464430093765259
0.39258560538291931 0.83627212047576904 0.91488784551620483
0.47230967879295349 0.83387237787246704 0.91574752330780029
0.57241636514663696 0.82714802026748657 0.91549909114837646
0.69442665576934814 0.82402956485748291 0.91775935888290405
0.83123135566711426 0.84825247526168823 0.92648279666900635
0.95364516973495483 0.87508475780487061 0.93234747648239136
0.56214624643325806 0.94262468814849854 0.92714297771453857
0.57999628782272339 0.93768668174743652 0.92737472057342529
0.61999088525772095 0.9352792501449585 0.92595195770263672
0.68617600202560425 0.93301862478256226 0.92806887626647949
0.75943154096603394 0.93009257316589355 0.93098527193069458
0.8431127667427063 0.94179582595825195 0.93753194808959961
0.9490586519241333 0.95298910140991211 0.94398528337478638
