luts/negative_old/kodak_portra_400_vc.cube
# Created by: G'MIC (https://gmic.eu)
TITLE "kodak_portra_400_vc"
# LUT size
LUT_3D_SIZE 7
# Data domain
DOMAIN_MIN 0.0 0.0 0.0
DOMAIN_MAX 1.0 1.0 1.0
# LUT data points
0.031072638928890228 0.055320229381322861 0.058923445641994476
0.1353437751531601 0.062617450952529907 0.053974151611328125
0.31327909231185913 0.076823107898235321 0.040132127702236176
0.54981297254562378 0.0647239089012146 0.018860252574086189
0.74199694395065308 0.066872403025627136 0.007062066812068224
0.87522232532501221 0.12710143625736237 0.0056341434828937054
0.98517876863479614 0.20098720490932465 0.0003735710633918643
0.0074016195721924305 0.15325282514095306 0.083758153021335602
0.10401126742362976 0.16681462526321411 0.067687541246414185
0.34652766585350037 0.1907312273979187 0.024123381823301315
0.59336650371551514 0.19949930906295776 0.005343717522919178
0.76220226287841797 0.20683468878269196 0.0057779350318014622
0.8859131932258606 0.22132021188735962 0.0045884824357926846
0.98779100179672241 0.26037809252738953 0.00076057581463828683
0.0015701742377132177 0.3294159471988678 0.13489818572998047
0.011262811720371246 0.33691474795341492 0.13056635856628418
0.29746302962303162 0.38825631141662598 0.07238895446062088
0.61343538761138916 0.4150356650352478 0.0046548284590244293
0.78665763139724731 0.37784665822982788 0.0032446617260575294
0.90303760766983032 0.3669256865978241 0.0039087631739675999
0.99258995056152344 0.37100252509117126 0.00089211558224633336
0 0.52160978317260742 0.210527703166008
0.0045801051892340183 0.52277505397796631 0.2190462052822113
0.2208884209394455 0.53755003213882446 0.19091182947158813
0.51801955699920654 0.57166206836700439 0.11177169531583786
0.75274085998535156 0.58930325508117676 0.010121364146471024
0.89623987674713135 0.54136967658996582 0.0044414745643734932
0.99360436201095581 0.5148966908454895 0.00025087245739996433
0.0051182913593947887 0.66713392734527588 0.30986705422401428
0.061068203300237656 0.66525131464004517 0.31516414880752563
0.26640200614929199 0.66064143180847168 0.31417852640151978
0.46304884552955627 0.67814207077026367 0.29202646017074585
0.66860431432723999 0.70622932910919189 0.22857484221458435
0.85802304744720459 0.7254941463470459 0.13396193087100983
0.98024046421051025 0.69457650184631348 0.028392521664500237
0.3243737518787384 0.78598207235336304 0.46035891771316528
0.35251298546791077 0.78129810094833374 0.46597591042518616
0.41972309350967407 0.77477359771728516 0.46084120869636536
0.51628392934799194 0.78155404329299927 0.45651203393936157
0.63456141948699951 0.79761016368865967 0.43780714273452759
0.77944052219390869 0.81465655565261841 0.40421929955482483
0.94233435392379761 0.8373979926109314 0.36853620409965515
0.57537037134170532 0.89278364181518555 0.65107488632202148
0.5898594856262207 0.89241588115692139 0.65163135528564453
0.62013763189315796 0.89007949829101562 0.65930557250976562
0.66467779874801636 0.89121687412261963 0.66302132606506348
0.72164303064346313 0.8973657488822937 0.65090090036392212
0.80393064022064209 0.9133872389793396 0.64282166957855225
0.90369302034378052 0.92872327566146851 0.62495952844619751
0.011954737827181816 0.05665506049990654 0.16584207117557526
0.1193140372633934 0.058916278183460236 0.1702386885881424
0.31813108921051025 0.026542484760284424 0.15198227763175964
0.55253016948699951 0.014538544230163097 0.13640376925468445
0.74347978830337524 0.042853500694036484 0.12403914332389832
0.87308168411254883 0.11523594707250595 0.085749410092830658
0.97971707582473755 0.18563072383403778 0.043427098542451859
0.0047441069036722183 0.175278440117836 0.19038744270801544
0.11942937225103378 0.17954213917255402 0.19494359195232391
0.35253342986106873 0.17766423523426056 0.17270313203334808
0.58953893184661865 0.1892123818397522 0.14865531027317047
0.75621598958969116 0.19549956917762756 0.11899133026599884
0.88610643148422241 0.22175395488739014 0.073393940925598145
0.98366427421569824 0.25622144341468811 0.041863325983285904
0.002367550740018487 0.36930873990058899 0.24886420369148254
0.069891311228275299 0.37144237756729126 0.24394850432872772
0.34099936485290527 0.39539963006973267 0.22377553582191467
0.62389767169952393 0.40216755867004395 0.1535685658454895
0.78612756729125977 0.37124285101890564 0.099848456680774689
0.90068334341049194 0.36599138379096985 0.060340523719787598
0.98944079875946045 0.37305963039398193 0.030578913167119026
0.0038062301464378834 0.54835361242294312 0.30085691809654236
0.056056063622236252 0.54517978429794312 0.30103129148483276
0.28909739851951599 0.55105555057525635 0.29950559139251709
0.54483169317245483 0.57896703481674194 0.25159609317779541
0.75358384847640991 0.58056461811065674 0.16549223661422729
0.90159726142883301 0.53524267673492432 0.068043746054172516
0.99204975366592407 0.51460796594619751 0.025923963636159897
0.10881789028644562 0.67696905136108398 0.37600192427635193
0.21104587614536285 0.67368549108505249 0.38322392106056213
0.34041321277618408 0.66611617803573608 0.38506960868835449
0.49880638718605042 0.68166047334671021 0.3733285665512085
0.67764747142791748 0.70382428169250488 0.33220279216766357
0.8561822772026062 0.71902745962142944 0.26429983973503113
0.98117059469223022 0.68844437599182129 0.15944564342498779
0.3688666820526123 0.78668451309204102 0.49388882517814636
0.40114593505859375 0.78564739227294922 0.49962404370307922
0.46309897303581238 0.77945965528488159 0.50698554515838623
0.53792905807495117 0.78022092580795288 0.49983933568000793
0.65001291036605835 0.79688751697540283 0.48149046301841736
0.78395026922225952 0.81523662805557251 0.45736819505691528
0.941322922706604 0.83762401342391968 0.42887839674949646
0.59044164419174194 0.89299076795578003 0.66788643598556519
0.60205078125 0.89188647270202637 0.66855871677398682
0.63471859693527222 0.89255774021148682 0.67586249113082886
0.67328035831451416 0.89151573181152344 0.68082046508789062
0.73121285438537598 0.89968425035476685 0.67409020662307739
0.80683594942092896 0.91094678640365601 0.65787243843078613
0.90405821800231934 0.92633211612701416 0.64407467842102051
0.0010800978634506464 0.079479247331619263 0.35306620597839355
0.09003901481628418 0.079090207815170288 0.36219331622123718
0.33534163236618042 0.060116428881883621 0.36664301156997681
0.58936929702758789 0.010703262872993946 0.34866726398468018
0.77351838350296021 0.0017996096285060048 0.29654091596603394
0.88998347520828247 0.016229398548603058 0.25745883584022522
0.98001015186309814 0.16597297787666321 0.25480806827545166
0.0022068845573812723 0.20674794912338257 0.37234976887702942
0.077299363911151886 0.20273889601230621 0.38183844089508057
0.36874520778656006 0.21248294413089752 0.38884973526000977
0.60933983325958252 0.18476417660713196 0.36056771874427795
0.77256852388381958 0.13681423664093018 0.30957239866256714
0.88296389579772949 0.20347259938716888 0.28645893931388855
0.97908008098602295 0.26987805962562561 0.26846703886985779
0.0029798320028930902 0.40231916308403015 0.40240165591239929
0.11707331240177155 0.41414174437522888 0.41595664620399475
0.40540921688079834 0.41622909903526306 0.41871780157089233
0.62221252918243408 0.40023234486579895 0.38590851426124573
0.7632756233215332 0.38938117027282715 0.34531491994857788
0.88362610340118408 0.3832794725894928 0.30347228050231934
0.98433667421340942 0.39416304230690002 0.27497565746307373
0.18760581314563751 0.58313220739364624 0.45307886600494385
0.3113102912902832 0.58236920833587646 0.4639987051486969
0.42451381683349609 0.5700187087059021 0.45638924837112427
0.58582216501235962 0.58403724431991577 0.435598224401474
0.7571215033531189 0.57662171125411987 0.38294574618339539
0.88847440481185913 0.54182577133178711 0.32689017057418823
0.98716729879379272 0.52753537893295288 0.28925248980522156
0.37002977728843689 0.69690501689910889 0.51094615459442139
0.39153704047203064 0.69420981407165527 0.50531667470932007
0.45503807067871094 0.68387418985366821 0.50155764818191528
0.54746544361114502 0.68731182813644409 0.48927679657936096
0.69403845071792603 0.70899605751037598 0.46930009126663208
0.85710090398788452 0.71556872129440308 0.43072152137756348
0.97893047332763672 0.68102151155471802 0.35393479466438293
0.45696327090263367 0.79387462139129639 0.57125860452651978
0.48100125789642334 0.79411262273788452 0.57517576217651367
0.52779084444046021 0.78831213712692261 0.58162283897399902
0.58107835054397583 0.78383296728134155 0.57474243640899658
0.67166042327880859 0.79843485355377197 0.56503003835678101
0.79965168237686157 0.81783574819564819 0.54951882362365723
0.93965673446655273 0.83447813987731934 0.52449244260787964
0.61892485618591309 0.89705133438110352 0.70266306400299072
0.62840992212295532 0.89612448215484619 0.70272582769393921
0.65164089202880859 0.89348453283309937 0.70404613018035889
0.68926757574081421 0.89140981435775757 0.71001392602920532
0.74367618560791016 0.89854836463928223 0.70504772663116455
0.82009851932525635 0.91471356153488159 0.70109099149703979
0.91020280122756958 0.92587196826934814 0.68404310941696167
0.0014514549402520061 0.11514458805322647 0.554127037525177
0.026699753478169441 0.11287557333707809 0.56110900640487671
0.34820675849914551 0.12264130264520645 0.56883805990219116
0.6042669415473938 0.093750372529029846 0.57372337579727173
0.77400261163711548 0.10616817325353622 0.5353502631187439
0.90537065267562866 0.16420508921146393 0.48816046118736267
0.99407553672790527 0.12511472404003143 0.42841264605522156
0.0015707426937296987 0.23022764921188354 0.56649118661880493
0.038028191775083542 0.23426790535449982 0.57725197076797485
0.3702886700630188 0.25353017449378967 0.5861021876335144
0.613456130027771 0.26029881834983826 0.58463162183761597
0.77443093061447144 0.27440190315246582 0.54909622669219971
0.89500409364700317 0.27944245934486389 0.49907055497169495
0.98885041475296021 0.24963021278381348 0.43810436129570007
0.0040618446655571461 0.42617788910865784 0.5769774317741394
0.082208923995494843 0.42750006914138794 0.58541619777679443
0.40081501007080078 0.43248933553695679 0.59205877780914307
0.61360716819763184 0.44580778479576111 0.58619594573974609
0.76259958744049072 0.44441238045692444 0.55602478981018066
0.88064658641815186 0.4152761697769165 0.50656139850616455
0.97785335779190063 0.40782588720321655 0.46437805891036987
0.12706603109836578 0.59630036354064941 0.59092593193054199
0.29489952325820923 0.59622472524642944 0.59524703025817871
0.46574556827545166 0.5917055606842041 0.59937161207199097
0.61770522594451904 0.59680426120758057 0.60047656297683716
0.75170242786407471 0.59180563688278198 0.57327938079833984
0.86828505992889404 0.55875402688980103 0.52722615003585815
0.97222882509231567 0.54568219184875488 0.48371899127960205
0.42305535078048706 0.71775656938552856 0.62792718410491943
0.47252652049064636 0.71901905536651611 0.63145899772644043
0.54599082469940186 0.71105945110321045 0.62799680233001709
0.61318838596343994 0.70385563373565674 0.61919254064559937
0.72371822595596313 0.71917372941970825 0.6103365421295166
0.85497593879699707 0.7061305046081543 0.57619094848632812
0.97128391265869141 0.68296098709106445 0.52252709865570068
0.56122595071792603 0.80883622169494629 0.68172293901443481
0.57696831226348877 0.80704832077026367 0.68159133195877075
0.59974652528762817 0.8039703369140625 0.67074054479598999
0.63720035552978516 0.79515767097473145 0.66373854875564575
0.70205450057983398 0.79942280054092407 0.65927428007125854
0.81959432363510132 0.82113385200500488 0.65999364852905273
0.94437301158905029 0.82920819520950317 0.63169211149215698
0.66345763206481934 0.90111297369003296 0.75476557016372681
0.66446375846862793 0.90092486143112183 0.7501336932182312
0.68561577796936035 0.899524986743927 0.75147706270217896
0.71744805574417114 0.89851170778274536 0.75430524349212646
0.76445490121841431 0.89909994602203369 0.75407248735427856
0.8308601975440979 0.91238862276077271 0.74749213457107544
0.91296958923339844 0.93019503355026245 0.7408757209777832
0.00029177198302932084 0.17601437866687775 0.7185966968536377
0.01539911050349474 0.17592997848987579 0.72143018245697021
0.34267920255661011 0.19818946719169617 0.72166651487350464
0.59175080060958862 0.22977715730667114 0.71833860874176025
0.76288884878158569 0.25025114417076111 0.72002917528152466
0.88176405429840088 0.28669139742851257 0.68561196327209473
0.97949314117431641 0.39162227511405945 0.65991222858428955
0.00052729586604982615 0.27437689900398254 0.72103720903396606
0.049998804926872253 0.27779015898704529 0.72874796390533447
0.37208378314971924 0.29931318759918213 0.72488903999328613
0.59965860843658447 0.32568681240081787 0.72279053926467896
0.76338297128677368 0.35204586386680603 0.7243727445602417
0.87513715028762817 0.37759727239608765 0.69549143314361572
0.97790074348449707 0.44845858216285706 0.67037159204483032
0.030284596607089043 0.4470011293888092 0.72084832191467285
0.21066319942474365 0.44484484195709229 0.72291916608810425
0.4090363085269928 0.44786202907562256 0.71999168395996094
0.60058128833770752 0.47624900937080383 0.71984755992889404
0.75262552499771118 0.49495163559913635 0.71287089586257935
0.87029707431793213 0.51227045059204102 0.70051813125610352
0.96962893009185791 0.5295683741569519 0.67389112710952759
0.12418843060731888 0.58616179227828979 0.71124184131622314
0.27122366428375244 0.58757668733596802 0.7114027738571167
0.44765415787696838 0.59396803379058838 0.71669501066207886
0.60199278593063354 0.60429549217224121 0.71511870622634888
0.73964506387710571 0.61949712038040161 0.71569198369979858
0.85687482357025146 0.62342375516891479 0.70733845233917236
0.95950216054916382 0.59716969728469849 0.66480082273483276
0.39090162515640259 0.71976518630981445 0.72165131568908691
0.45149928331375122 0.72068578004837036 0.72564446926116943
0.5452117919921875 0.72377490997314453 0.73140662908554077
0.63467288017272949 0.7200126051902771 0.73023694753646851
0.73981213569641113 0.72796446084976196 0.73227971792221069
0.84209823608398438 0.71358925104141235 0.71000683307647705
0.95175689458847046 0.6945878267288208 0.67357802391052246
0.57171499729156494 0.82641857862472534 0.76083123683929443
0.59339070320129395 0.82461780309677124 0.76152044534683228
0.63663601875305176 0.81911361217498779 0.76007157564163208
0.69816344976425171 0.81950509548187256 0.763275146484375
0.74699646234512329 0.81339210271835327 0.75642609596252441
0.83678263425827026 0.82477080821990967 0.75368791818618774
0.94775170087814331 0.82640856504440308 0.72938686609268188
0.68620580434799194 0.91095072031021118 0.81368035078048706
0.69703078269958496 0.91190659999847412 0.81196749210357666
0.72520619630813599 0.91056793928146362 0.81314057111740112
0.74640870094299316 0.90488117933273315 0.80633813142776489
0.78464478254318237 0.90621036291122437 0.80507135391235352
0.84080672264099121 0.91306012868881226 0.80410289764404297
0.92728036642074585 0.93052583932876587 0.79967910051345825
0.0044227899052202702 0.26734581589698792 0.83980584144592285
0.14213885366916656 0.27248641848564148 0.84001225233078003
0.401947021484375 0.30068850517272949 0.83438682556152344
0.59008204936981201 0.33555790781974792 0.83175009489059448
0.74262303113937378 0.39118900895118713 0.83342021703720093
0.87082278728485107 0.41665640473365784 0.82675135135650635
0.96904540061950684 0.45384213328361511 0.81270015239715576
0.050051923841238022 0.34530699253082275 0.84007817506790161
0.21881388127803802 0.35367932915687561 0.83863508701324463
0.42655497789382935 0.37465643882751465 0.83472335338592529
0.60325080156326294 0.40834248065948486 0.83292311429977417
0.7446715235710144 0.4524066150188446 0.83192330598831177
0.86665934324264526 0.47400477528572083 0.82700932025909424
0.96093136072158813 0.5006563663482666 0.81357741355895996
0.22752164304256439 0.47700145840644836 0.83239495754241943
0.31334990262985229 0.47840237617492676 0.83245646953582764
0.45923042297363281 0.48845693469047546 0.82989674806594849
0.60701543092727661 0.51470446586608887 0.82620155811309814
0.74149024486541748 0.55146342515945435 0.82475870847702026
0.86115908622741699 0.5687105655670166 0.82992678880691528
0.95328319072723389 0.58272010087966919 0.81542479991912842
0.26419913768768311 0.60132575035095215 0.8147202730178833
0.3596222996711731 0.60488653182983398 0.81861156225204468
0.48535299301147461 0.60946750640869141 0.82332926988601685
0.61514675617218018 0.62409394979476929 0.82078438997268677
0.74041092395782471 0.64940816164016724 0.82412707805633545
0.856486976146698 0.66541051864624023 0.8214794397354126
0.94361233711242676 0.67020899057388306 0.81536352634429932
0.38192081451416016 0.71543443202972412 0.81665623188018799
0.42443439364433289 0.71700018644332886 0.81806713342666626
0.51308643817901611 0.71957921981811523 0.82071566581726074
0.61046648025512695 0.71869003772735596 0.82128125429153442
0.72999942302703857 0.73284471035003662 0.8223191499710083
0.84628260135650635 0.74977117776870728 0.82665824890136719
0.94173312187194824 0.75375974178314209 0.82409995794296265
0.53336036205291748 0.82274806499481201 0.82917565107345581
0.56954467296600342 0.82535320520401001 0.83560985326766968
0.61824172735214233 0.82697218656539917 0.83808392286300659
0.6904405951499939 0.82943207025527954 0.84084075689315796
0.76795381307601929 0.8298184871673584 0.84241563081741333
0.85224157571792603 0.83283060789108276 0.84041374921798706
0.94204413890838623 0.82087177038192749 0.82293492555618286
0.68198513984680176 0.92135733366012573 0.86521929502487183
0.69588685035705566 0.92162799835205078 0.86770832538604736
0.72311216592788696 0.92172253131866455 0.86958664655685425
0.76592046022415161 0.92206007242202759 0.87021642923355103
0.81104928255081177 0.92131435871124268 0.87097561359405518
0.86650544404983521 0.91950708627700806 0.8702893853187561
0.93934035301208496 0.93571066856384277 0.86485469341278076
0.36637857556343079 0.4396689236164093 0.93506777286529541
0.42586842179298401 0.4471077024936676 0.93180543184280396
0.52629846334457397 0.45916244387626648 0.92821919918060303
0.64218103885650635 0.48673665523529053 0.92547696828842163
0.76175791025161743 0.5336877703666687 0.92305749654769897
0.86936938762664795 0.5758514404296875 0.91837871074676514
0.9623909592628479 0.59730881452560425 0.92029935121536255
0.40527641773223877 0.49081504344940186 0.93247008323669434
0.45919746160507202 0.49815094470977783 0.93376928567886353
0.54054117202758789 0.50254553556442261 0.92867600917816162
0.64929276704788208 0.52579092979431152 0.92560440301895142
0.76381093263626099 0.56482571363449097 0.92406803369522095
0.87238389253616333 0.6054069995880127 0.92242878675460815
0.96102774143218994 0.623046875 0.9221610426902771
0.44107228517532349 0.56607544422149658 0.92584753036499023
0.48802968859672546 0.57249236106872559 0.92807352542877197
0.56405985355377197 0.58409017324447632 0.92729729413986206
0.66318738460540771 0.59893441200256348 0.92499655485153198
0.76490730047225952 0.61786556243896484 0.91988390684127808
0.86565941572189331 0.65415400266647339 0.91775119304656982
0.95634132623672485 0.6681901216506958 0.92081481218338013
0.48482036590576172 0.66739225387573242 0.92136716842651367
0.51791298389434814 0.66440004110336304 0.92069351673126221
0.57070279121398926 0.65923011302947998 0.92446589469909668
0.66190594434738159 0.66862207651138306 0.92426413297653198
0.76810812950134277 0.69048619270324707 0.92107510566711426
0.86533230543136597 0.70898830890655518 0.91694974899291992
0.95291578769683838 0.7256125807762146 0.92003613710403442
0.46045777201652527 0.74742704629898071 0.9197089672088623
0.48990347981452942 0.745807945728302 0.91974127292633057
0.55173450708389282 0.74370032548904419 0.91594630479812622
0.64195460081100464 0.74358266592025757 0.91951197385787964
0.75539696216583252 0.76026105880737305 0.92112809419631958
0.86001592874526978 0.77383595705032349 0.92171931266784668
0.95081138610839844 0.790294349193573 0.92449843883514404
0.55464637279510498 0.8468782901763916 0.92486453056335449
0.57379734516143799 0.84420454502105713 0.92644888162612915
0.60830152034759521 0.84201681613922119 0.92262786626815796
0.67377942800521851 0.84081798791885376 0.92359834909439087
0.74293166399002075 0.83778971433639526 0.92772799730300903
0.84977620840072632 0.84571379423141479 0.93161803483963013
0.95306897163391113 0.85702693462371826 0.93345314264297485
0.66286087036132812 0.93760710954666138 0.93372660875320435
0.67303586006164551 0.93867617845535278 0.9381176233291626
0.70092958211898804 0.93571937084197998 0.93881440162658691
0.74770641326904297 0.93752408027648926 0.94240456819534302
0.8016352653503418 0.93865299224853516 0.9438859224319458
0.87276238203048706 0.94147807359695435 0.94668328762054443
0.9542805552482605 0.94327032566070557 0.94512540102005005
