luts/negative_old/kodak_portra_400_nc_++.cube
# Created by: G'MIC (https://gmic.eu)
TITLE "kodak_portra_400_nc_++"
# LUT size
LUT_3D_SIZE 13
# Data domain
DOMAIN_MIN 0.0 0.0 0.0
DOMAIN_MAX 1.0 1.0 1.0
# LUT data points
0.14737065136432648 0.10058467835187912 0.11854027956724167
0.15380653738975525 0.097363010048866272 0.11602180451154709
0.16785900294780731 0.096034124493598938 0.11217398196458817
0.20588414371013641 0.098507672548294067 0.10850024968385696
0.25745400786399841 0.10219375044107437 0.10520556569099426
0.36061310768127441 0.10592008382081985 0.099903479218482971
0.5029442310333252 0.10229964554309845 0.085434749722480774
0.64018851518630981 0.095929071307182312 0.067316167056560516
0.74353575706481934 0.099644586443901062 0.042711954563856125
0.82774984836578369 0.11369990557432175 0.020510235801339149
0.89599859714508057 0.13655968010425568 0.009291255846619606
0.95435947179794312 0.15809287130832672 0.0064187892712652683
0.98875981569290161 0.19140467047691345 0.0025310739874839783
0.14531858265399933 0.106451116502285 0.11717526614665985
0.15162022411823273 0.11152387410402298 0.11529815942049026
0.17251542210578918 0.11667923629283905 0.11294516921043396
0.21364638209342957 0.12218815088272095 0.10831891000270844
0.27192705869674683 0.12502084672451019 0.10310791432857513
0.38336649537086487 0.13385981321334839 0.094693727791309357
0.52118891477584839 0.14040793478488922 0.076504334807395935
0.65292519330978394 0.14750698208808899 0.052335329353809357
0.75671380758285522 0.1525709331035614 0.028531048446893692
0.83359575271606445 0.16572335362434387 0.013688001781702042
0.90018391609191895 0.18205817043781281 0.0063693476840853691
0.96166795492172241 0.20089693367481232 0.0043787490576505661
0.99380671977996826 0.22043594717979431 0.0022366393823176622
0.13753150403499603 0.13943023979663849 0.12007518112659454
0.14597921073436737 0.13769380748271942 0.11642864346504211
0.17148937284946442 0.14466707408428192 0.1125178188085556
0.21208116412162781 0.15706366300582886 0.1065024733543396
0.29050466418266296 0.17756253480911255 0.094082474708557129
0.41896083950996399 0.20053507387638092 0.075910903513431549
0.5610470175743103 0.21202926337718964 0.052596520632505417
0.67934483289718628 0.21726952493190765 0.028197972103953362
0.77088534832000732 0.21956278383731842 0.011310217902064323
0.84248816967010498 0.22174759209156036 0.0056289969943463802
0.90699350833892822 0.23079465329647064 0.0039383233524858952
0.96741533279418945 0.24906261265277863 0.0033000870607793331
0.9952622652053833 0.25845903158187866 0.0024431715719401836
0.12158143520355225 0.19236205518245697 0.12496791034936905
0.13284917175769806 0.19455316662788391 0.12424843013286591
0.16051650047302246 0.20333541929721832 0.11859788745641708
0.20527991652488708 0.2208615243434906 0.10492809861898422
0.3108464777469635 0.25876635313034058 0.071853190660476685
0.4565589427947998 0.29429203271865845 0.0384853295981884
0.60589689016342163 0.30245468020439148 0.017816072329878807
0.70598334074020386 0.30536916851997375 0.0075755100697278976
0.78222048282623291 0.30671072006225586 0.0048868516460061073
0.85093319416046143 0.29939782619476318 0.0039843539707362652
0.91159915924072266 0.29506069421768188 0.0056591406464576721
0.96719193458557129 0.30813330411911011 0.0052959965541958809
0.99259519577026367 0.31528535485267639 0.003884229576215148
0.060935448855161667 0.28017142415046692 0.1288992315530777
0.078480005264282227 0.28718471527099609 0.12969693541526794
0.13210742175579071 0.29777181148529053 0.12472885847091675
0.20094114542007446 0.32255488634109497 0.10303326696157455
0.31153714656829834 0.35342532396316528 0.060422021895647049
0.47076332569122314 0.39884445071220398 0.01358611136674881
0.60555469989776611 0.41220173239707947 0.002927249064669013
0.70851725339889526 0.40403550863265991 0.0029747008811682463
0.7956773042678833 0.39791020750999451 0.0029711704701185226
0.86014837026596069 0.3855278491973877 0.0038731594104319811
0.91680991649627686 0.37376713752746582 0.006586126983165741
0.96996641159057617 0.3766474723815918 0.0050496417097747326
0.9931609034538269 0.38207244873046875 0.0039215688593685627
0.0026504367124289274 0.40537640452384949 0.13770008087158203
0.01072483416646719 0.41355770826339722 0.13567925989627838
0.082797028124332428 0.41373553872108459 0.13305531442165375
0.19074796140193939 0.42920252680778503 0.10980251431465149
0.30817303061485291 0.45432737469673157 0.056187484413385391
0.45017990469932556 0.48826944828033447 0.010425851680338383
0.5871160626411438 0.51205873489379883 0.0016626544529572129
0.69552499055862427 0.5107886791229248 0.00011067109880968928
0.79044044017791748 0.49692508578300476 0.00038338455487973988
0.8605884313583374 0.4764772355556488 0.0019081415375694633
0.92093634605407715 0.46040800213813782 0.0040905671194195747
0.97568881511688232 0.45607742667198181 0.0036106035113334656
0.99536657333374023 0.45657077431678772 0.0038054671604186296
0.001898537389934063 0.52574503421783447 0.16198231279850006
0.0040385075844824314 0.52859663963317871 0.16197533905506134
0.058441519737243652 0.52584779262542725 0.1603938490152359
0.19201508164405823 0.52455127239227295 0.14901529252529144
0.30762475728988647 0.54034698009490967 0.10246653854846954
0.4256955087184906 0.56150531768798828 0.035436652600765228
0.54759985208511353 0.58122086524963379 0.0086340364068746567
0.67263597249984741 0.60032469034194946 0.0025250602047890425
0.77124828100204468 0.59746724367141724 0.00015213910955935717
0.84662854671478271 0.57749229669570923 0.00028339462005533278
0.91616690158843994 0.55700063705444336 0.0013630586909130216
0.97941482067108154 0.54200524091720581 0.0017481186660006642
0.99908477067947388 0.53507387638092041 0.0023854125756770372
0.020510939881205559 0.61533039808273315 0.22023585438728333
0.052733596414327621 0.61805719137191772 0.22293522953987122
0.145281583070755 0.61464780569076538 0.22494280338287354
0.24409596621990204 0.6119343638420105 0.21655946969985962
0.32923993468284607 0.61557567119598389 0.19301252067089081
0.42317363619804382 0.62694555521011353 0.13500645756721497
0.52177911996841431 0.64310348033905029 0.065925836563110352
0.62996822595596313 0.6587376594543457 0.016918497160077095
0.73823422193527222 0.67385214567184448 0.0036946614272892475
0.83037066459655762 0.67368292808532715 0.00039262959035113454
0.89970493316650391 0.6497693657875061 0.00076599122257903218
0.96436744928359985 0.62844407558441162 0.0028323153965175152
0.99582850933074951 0.6168094277381897 0.0038358052261173725
0.18265640735626221 0.69035309553146362 0.30494427680969238
0.2228313535451889 0.68995070457458496 0.30856859683990479
0.27350041270256042 0.6859014630317688 0.31165578961372375
0.32849270105361938 0.68204975128173828 0.30903404951095581
0.38791874051094055 0.68154060840606689 0.29118898510932922
0.45616990327835083 0.68887585401535034 0.25408157706260681
0.52538949251174927 0.70143473148345947 0.21248304843902588
0.60579091310501099 0.71300196647644043 0.14249497652053833
0.69576752185821533 0.7237207293510437 0.058682236820459366
0.79163199663162231 0.73427742719650269 0.01155376061797142
0.88064712285995483 0.73570531606674194 0.00072370044654235244
0.94342571496963501 0.71540528535842896 0.0031284256838262081
0.98909860849380493 0.70097941160202026 0.0024571737740188837
0.35479509830474854 0.75236201286315918 0.40826618671417236
0.36841961741447449 0.75034058094024658 0.40912964940071106
0.39349761605262756 0.74647665023803711 0.41026967763900757
0.42429280281066895 0.74280732870101929 0.40672498941421509
0.45842263102531433 0.74272346496582031 0.39944520592689514
0.50621557235717773 0.74560421705245972 0.37479498982429504
0.55589133501052856 0.75371021032333374 0.34743431210517883
0.61011272668838501 0.76470422744750977 0.31526955962181091
0.68090224266052246 0.77339798212051392 0.25760558247566223
0.75583058595657349 0.78159123659133911 0.17423392832279205
0.84229618310928345 0.79166430234909058 0.077629655599594116
0.92517143487930298 0.79462742805480957 0.017312817275524139
0.98342448472976685 0.78391814231872559 0.028212049975991249
0.47723031044006348 0.80607390403747559 0.50884824991226196
0.48334088921546936 0.80459785461425781 0.50983285903930664
0.49888265132904053 0.80085510015487671 0.51115179061889648
0.52361512184143066 0.79815810918807983 0.51130175590515137
0.54735445976257324 0.79804950952529907 0.50441396236419678
0.56870943307876587 0.79960370063781738 0.49277061223983765
0.59938627481460571 0.80447471141815186 0.47702920436859131
0.64036136865615845 0.81204551458358765 0.45701178908348083
0.6899750828742981 0.82100749015808105 0.42757028341293335
0.74638265371322632 0.82870817184448242 0.38537502288818359
0.8111843466758728 0.83471417427062988 0.32539200782775879
0.88837629556655884 0.84296035766601562 0.24163162708282471
0.96294993162155151 0.852428138256073 0.20371480286121368
0.58490997552871704 0.85575211048126221 0.6104278564453125
0.58963781595230103 0.8547326922416687 0.61204797029495239
0.60118770599365234 0.85352438688278198 0.6135295033454895
0.61993622779846191 0.851298987865448 0.61303400993347168
0.63738274574279785 0.85115987062454224 0.60915428400039673
0.65072917938232422 0.85138887166976929 0.6016882061958313
0.66699260473251343 0.85351705551147461 0.59351128339767456
0.69332689046859741 0.85991424322128296 0.58309125900268555
0.7248806357383728 0.8668859601020813 0.56633013486862183
0.76478093862533569 0.87339156866073608 0.54187482595443726
0.8090665340423584 0.8796309232711792 0.51397305727005005
0.86617386341094971 0.88608837127685547 0.47059482336044312
0.92655879259109497 0.89502781629562378 0.43185049295425415
0.6892082691192627 0.90406197309494019 0.70869863033294678
0.69262689352035522 0.90304583311080933 0.71045905351638794
0.69848674535751343 0.90212792158126831 0.71112942695617676
0.70973712205886841 0.90224385261535645 0.71156424283981323
0.72044116258621216 0.90090954303741455 0.70967704057693481
0.73337078094482422 0.90209019184112549 0.71074181795120239
0.74749916791915894 0.90340083837509155 0.70755040645599365
0.76250487565994263 0.9065977931022644 0.69709688425064087
0.78216826915740967 0.91350263357162476 0.69109153747558594
0.80673503875732422 0.91848832368850708 0.67804747819900513
0.83561545610427856 0.92551207542419434 0.6654694676399231
0.87258440256118774 0.93178641796112061 0.64559102058410645
0.91575801372528076 0.93965518474578857 0.62094289064407349
0.14549984037876129 0.09950651228427887 0.12902796268463135
0.15302589535713196 0.098482988774776459 0.13239254057407379
0.17199267446994781 0.095779061317443848 0.13197827339172363
0.2087375670671463 0.093030832707881927 0.12445730715990067
0.26586556434631348 0.088679477572441101 0.11802725493907928
0.3651064932346344 0.084890805184841156 0.11627794057130814
0.49956291913986206 0.073513045907020569 0.10700586438179016
0.63907492160797119 0.049244269728660583 0.093752935528755188
0.74519401788711548 0.046433556824922562 0.07771676778793335
0.82519268989562988 0.064528778195381165 0.062126010656356812
0.89639103412628174 0.10104738175868988 0.03737303614616394
0.95683610439300537 0.13834585249423981 0.017996454611420631
0.9897998571395874 0.17071644961833954 0.0095831025391817093
0.14349755644798279 0.10636606812477112 0.12529170513153076
0.15097920596599579 0.11191152036190033 0.13075071573257446
0.17386418581008911 0.11701440066099167 0.13023363053798676
0.21297210454940796 0.12067738175392151 0.12517344951629639
0.28652793169021606 0.12073025852441788 0.12076492607593536
0.39110276103019714 0.11707277595996857 0.11589884757995605
0.52180945873260498 0.11461667716503143 0.10244795680046082
0.65555787086486816 0.10847362130880356 0.088124357163906097
0.75735032558441162 0.11232760548591614 0.069987550377845764
0.83477973937988281 0.13169196248054504 0.05250365287065506
0.90279793739318848 0.16034997999668121 0.030295921489596367
0.96200728416442871 0.18080161511898041 0.015537920407950878
0.99572849273681641 0.20191723108291626 0.0085671963170170784
0.1382572203874588 0.14055068790912628 0.1328941285610199
0.14566187560558319 0.1460917741060257 0.1356709748506546
0.17218449711799622 0.1524149626493454 0.13189804553985596
0.21471896767616272 0.15859502553939819 0.12414959073066711
0.30249974131584167 0.17078502476215363 0.11604319512844086
0.43340981006622314 0.18614481389522552 0.10506255179643631
0.57005417346954346 0.19346585869789124 0.087901189923286438
0.68471992015838623 0.1936643123626709 0.065763168036937714
0.77044224739074707 0.19696581363677979 0.04869760200381279
0.84544140100479126 0.20687389373779297 0.02811979316174984
0.90840667486190796 0.2200494259595871 0.016297344118356705
0.96561992168426514 0.23405304551124573 0.0095257479697465897
0.99577778577804565 0.24582429230213165 0.0066013410687446594
0.12132100015878677 0.19753827154636383 0.14224202930927277
0.13083404302597046 0.20525829493999481 0.14426356554031372
0.16077987849712372 0.21324923634529114 0.13965022563934326
0.2134069949388504 0.22890430688858032 0.1260945200920105
0.32256391644477844 0.25991964340209961 0.10349300503730774
0.47352689504623413 0.28402262926101685 0.076501645147800446
0.6113477349281311 0.29090473055839539 0.0522957444190979
0.7127264142036438 0.28911563754081726 0.029372600838541985
0.78508508205413818 0.29136431217193604 0.022575199604034424
0.85275107622146606 0.29093962907791138 0.013543551787734032
0.91431015729904175 0.29139900207519531 0.0088174855336546898
0.96926313638687134 0.29924184083938599 0.0076437406241893768
0.99425846338272095 0.30613133311271667 0.005148016382008791
0.04557076096534729 0.298013836145401 0.15102751553058624
0.06565423309803009 0.30781903862953186 0.15285517275333405
0.13144607841968536 0.31416398286819458 0.15077114105224609
0.20805203914642334 0.3293093740940094 0.13361646234989166
0.32203462719917297 0.35765746235847473 0.096424028277397156
0.48213285207748413 0.39811071753501892 0.032513756304979324
0.61850035190582275 0.40705132484436035 0.012287110090255737
0.7202075719833374 0.39687612652778625 0.0076117571443319321
0.79632091522216797 0.38788774609565735 0.0081656808033585548
0.86215519905090332 0.37699621915817261 0.0076206582598388195
0.9201398491859436 0.37111601233482361 0.008153189904987812
0.97381216287612915 0.37457847595214844 0.0049728690646588802
0.99445325136184692 0.38053026795387268 0.004072137176990509
0.0037788241170346737 0.42212238907814026 0.16942018270492554
0.010740362107753754 0.42826640605926514 0.17031864821910858
0.084848694503307343 0.42870649695396423 0.1653294712305069
0.20024643838405609 0.43823176622390747 0.14979298412799835
0.31722760200500488 0.45844829082489014 0.10778062045574188
0.45713308453559875 0.48888489603996277 0.036691360175609589
0.59843021631240845 0.51398003101348877 0.0045952140353620052
0.70861482620239258 0.51039433479309082 0.0027432609349489212
0.79267072677612305 0.49058729410171509 0.0042182025499641895
0.86345165967941284 0.47034794092178345 0.0057316198945045471
0.92380064725875854 0.45843315124511719 0.0095010790973901749
0.97564846277236938 0.45613965392112732 0.0055864369496703148
0.99527573585510254 0.45618411898612976 0.005703900009393692
0.0025731255300343037 0.53435510396957397 0.20276346802711487
0.010273562744259834 0.53838056325912476 0.20403708517551422
0.0803183913230896 0.5366053581237793 0.1994076669216156
0.20537571609020233 0.53573840856552124 0.18941777944564819
0.31859388947486877 0.54457128047943115 0.16036425530910492
0.43180555105209351 0.56355386972427368 0.096578367054462433
0.55336117744445801 0.58248353004455566 0.028188159689307213
0.68017578125 0.60287058353424072 0.0047019957564771175
0.77539974451065063 0.59687948226928711 0.0013069153064861894
0.85002249479293823 0.57587367296218872 0.0024488561321049929
0.91819977760314941 0.55521661043167114 0.0045664617791771889
0.97663670778274536 0.5411841869354248 0.0052480362355709076
0.99754476547241211 0.53296363353729248 0.0055664214305579662
0.048502139747142792 0.62159466743469238 0.25673097372055054
0.098778083920478821 0.62432432174682617 0.26294362545013428
0.18657980859279633 0.62054699659347534 0.26625633239746094
0.27221816778182983 0.61639261245727539 0.25958576798439026
0.35248669981956482 0.61579221487045288 0.24074411392211914
0.44090119004249573 0.627960205078125 0.1939886212348938
0.52997159957885742 0.64391285181045532 0.13275076448917389
0.63473594188690186 0.6585385799407959 0.049366384744644165
0.74206620454788208 0.67477107048034668 0.0080023221671581268
0.83219397068023682 0.67221236228942871 0.0016795737901702523
0.90165412425994873 0.65042364597320557 0.0044614905491471291
0.9642370343208313 0.63014626502990723 0.0050729787908494473
0.9962199330329895 0.61523216962814331 0.0069136675447225571
0.2325725257396698 0.69529193639755249 0.34034895896911621
0.26080578565597534 0.6942906379699707 0.34300407767295837
0.30215510725975037 0.69009959697723389 0.34641543030738831
0.35090279579162598 0.68533825874328613 0.34700369834899902
0.40362450480461121 0.68157023191452026 0.33346641063690186
0.46785172820091248 0.68813496828079224 0.30277106165885925
0.53822273015975952 0.70215719938278198 0.25817027688026428
0.61111992597579956 0.71291720867156982 0.1992601752281189
0.69954091310501099 0.72424250841140747 0.11112699657678604
0.79469174146652222 0.73631101846694946 0.033046212047338486
0.88051074743270874 0.73628836870193481 0.0071870693936944008
0.94613277912139893 0.71861350536346436 0.008758964017033577
0.99222660064697266 0.70215684175491333 0.01818319596350193
0.37315106391906738 0.75437247753143311 0.43188270926475525
0.38362202048301697 0.75249010324478149 0.42782944440841675
0.4026828408241272 0.74938744306564331 0.42720147967338562
0.4362761378288269 0.74524581432342529 0.43021330237388611
0.47325998544692993 0.74427860975265503 0.42899763584136963
0.51459896564483643 0.74645674228668213 0.41182669997215271
0.56161051988601685 0.75585037469863892 0.38329994678497314
0.61751013994216919 0.76388430595397949 0.3444240391254425
0.68477541208267212 0.77409344911575317 0.29803448915481567
0.75951319932937622 0.78388649225234985 0.22517667710781097
0.84577614068984985 0.79454928636550903 0.12698045372962952
0.92716366052627563 0.79659664630889893 0.060081467032432556
0.98301070928573608 0.78443092107772827 0.10071271657943726
0.48546937108039856 0.80582106113433838 0.52503359317779541
0.49085429310798645 0.80424302816390991 0.52339285612106323
0.50329786539077759 0.80228877067565918 0.52248579263687134
0.52769947052001953 0.80072826147079468 0.52332127094268799
0.55586987733840942 0.80009472370147705 0.52230191230773926
0.57948237657546997 0.80065757036209106 0.51594090461730957
0.60923707485198975 0.80464851856231689 0.49757844209671021
0.65149396657943726 0.81191325187683105 0.47256565093994141
0.69419592618942261 0.82116436958312988 0.4489654004573822
0.75061887502670288 0.82880759239196777 0.40848550200462341
0.81385582685470581 0.83491289615631104 0.35857775807380676
0.8905029296875 0.84372061491012573 0.28624752163887024
0.96222162246704102 0.85308259725570679 0.2556878924369812
0.59161752462387085 0.85606056451797485 0.62132018804550171
0.59688770771026611 0.85541605949401855 0.62281197309494019
0.60628199577331543 0.85417497158050537 0.62195289134979248
0.62171626091003418 0.85288232564926147 0.62093150615692139
0.63949298858642578 0.85314100980758667 0.61981397867202759
0.65681368112564087 0.8532293438911438 0.61610960960388184
0.67620670795440674 0.85396671295166016 0.60654109716415405
0.70572102069854736 0.86047607660293579 0.59488046169281006
0.73201256990432739 0.86731374263763428 0.57846099138259888
0.76806133985519409 0.87365585565567017 0.55607485771179199
0.81550770998001099 0.87977123260498047 0.52617275714874268
0.86843085289001465 0.88510096073150635 0.48832026124000549
0.93327653408050537 0.89705616235733032 0.44781589508056641
0.69286024570465088 0.90411251783370972 0.71494537591934204
0.69694423675537109 0.90402901172637939 0.71694999933242798
0.70152091979980469 0.90277916193008423 0.71559697389602661
0.71197050809860229 0.90292292833328247 0.71581733226776123
0.72229194641113281 0.90132123231887817 0.71466606855392456
0.73625355958938599 0.90216737985610962 0.71731948852539062
0.75179016590118408 0.90328240394592285 0.71384745836257935
0.76763796806335449 0.90719234943389893 0.70756441354751587
0.78560334444046021 0.91313856840133667 0.69887244701385498
0.80903738737106323 0.91856318712234497 0.68318766355514526
0.83973485231399536 0.92646694183349609 0.67027831077575684
0.87655413150787354 0.93154913187026978 0.64950203895568848
0.91894656419754028 0.93918156623840332 0.62825953960418701
0.1412663459777832 0.095738954842090607 0.15141110122203827
0.15152139961719513 0.09588228166103363 0.15421909093856812
0.17410023510456085 0.094822198152542114 0.15520016849040985
0.20635659992694855 0.093218423426151276 0.15429359674453735
0.27571621537208557 0.079650565981864929 0.15266889333724976
0.37827911972999573 0.043426230549812317 0.14782129228115082
0.51250094175338745 0.022090837359428406 0.14147178828716278
0.65217256546020508 0.0098607232794165611 0.13204576075077057
0.75007957220077515 0.0095278574153780937 0.12487243860960007
0.82779335975646973 0.016133073717355728 0.11334674060344696
0.89543414115905762 0.036730971187353134 0.10021086782217026
0.95805376768112183 0.071942456066608429 0.084164626896381378
0.99229276180267334 0.12283913046121597 0.069443583488464355
0.13646352291107178 0.11231111735105515 0.15496650338172913
0.14793379604816437 0.11315856873989105 0.15759663283824921
0.17222170531749725 0.11480411887168884 0.15874995291233063
0.21242871880531311 0.11532775312662125 0.15702444314956665
0.29596447944641113 0.108303502202034 0.15585309267044067
0.4000948965549469 0.080784529447555542 0.14964506030082703
0.53447061777114868 0.056629914790391922 0.14261232316493988
0.66422879695892334 0.039826173335313797 0.13420172035694122
0.75863587856292725 0.04424845427274704 0.12358497083187103
0.8346487283706665 0.066553838551044464 0.11076264083385468
0.90078979730606079 0.10354985296726227 0.097746320068836212
0.96281427145004272 0.13752350211143494 0.08049195259809494
0.99740731716156006 0.17097438871860504 0.065631076693534851
0.12986278533935547 0.14841738343238831 0.16355589032173157
0.14263075590133667 0.15215636789798737 0.16607110202312469
0.16899994015693665 0.15811213850975037 0.1682923436164856
0.21745398640632629 0.15986967086791992 0.16395564377307892
0.31277036666870117 0.15813474357128143 0.15815843641757965
0.44073235988616943 0.16036184132099152 0.15047116577625275
0.57428216934204102 0.15167242288589478 0.14040404558181763
0.68797963857650757 0.14535777270793915 0.12533494830131531
0.77272248268127441 0.1516767144203186 0.11266200989484787
0.84438061714172363 0.1662236750125885 0.098964348435401917
0.9074292778968811 0.18743237853050232 0.084622584283351898
0.96644765138626099 0.2092212587594986 0.066945426166057587
0.99456602334976196 0.23369233310222626 0.055174734443426132
0.10671639442443848 0.21248579025268555 0.17828735709190369
0.12342729419469833 0.21814264357089996 0.1808343231678009
0.15976883471012115 0.22627432644367218 0.18269859254360199
0.22223773598670959 0.23436562716960907 0.17585073411464691
0.34384053945541382 0.25778555870056152 0.15926459431648254
0.48622366786003113 0.26781389117240906 0.14267663657665253
0.61277872323989868 0.26348695158958435 0.12870053946971893
0.71103155612945557 0.26019033789634705 0.10230712592601776
0.7849317193031311 0.25530111789703369 0.088866062462329865
0.85269045829772949 0.25905707478523254 0.075940616428852081
0.91590523719787598 0.2726345956325531 0.059575427323579788
0.97143995761871338 0.28657221794128418 0.049893740564584732
0.99509900808334351 0.30043396353721619 0.049536131322383881
0.032890632748603821 0.32591536641120911 0.20514398813247681
0.055056866258382797 0.33327198028564453 0.20349067449569702
0.1365654468536377 0.33844870328903198 0.20538291335105896
0.22222234308719635 0.34417891502380371 0.19516542553901672
