luts/negative_old/kodak_portra_400_nc_-.cube
# Created by: G'MIC (https://gmic.eu)
TITLE "kodak_portra_400_nc_-"
# LUT size
LUT_3D_SIZE 7
# Data domain
DOMAIN_MIN 0.0 0.0 0.0
DOMAIN_MAX 1.0 1.0 1.0
# LUT data points
0.0078003229573369026 0.0092874709516763687 0.0090443780645728111
0.10304795950651169 0.017013804987072945 0.009041505865752697
0.3179422914981842 0.032408829778432846 0.0023840512149035931
0.57205939292907715 0.013249790295958519 0.0019494000589475036
0.76276767253875732 0.0084077278152108192 0.0011875077616423368
0.89238446950912476 0.058053020387887955 0.00089180143550038338
0.99140036106109619 0.13875234127044678 0.0029886732809245586
0.0068834642879664898 0.12098763883113861 0.025754876434803009
0.11060741543769836 0.14241772890090942 0.012377690523862839
0.37005573511123657 0.182681605219841 0.0065537248738110065
0.62413287162780762 0.18925479054450989 0.0014250811655074358
0.78081893920898438 0.18291887640953064 0.0039520864374935627
0.90259134769439697 0.20194873213768005 0.0053035509772598743
0.99154055118560791 0.23698036372661591 0.0062957466579973698
0.0038062450475990772 0.33725842833518982 0.10301432758569717
0.093856394290924072 0.35167673230171204 0.085564829409122467
0.36372441053390503 0.40079602599143982 0.0088445032015442848
0.6383395791053772 0.42324084043502808 0.00034761615097522736
0.80282235145568848 0.38399231433868408 0.003177702659741044
0.91460967063903809 0.37333980202674866 0.0038903329987078905
0.995311439037323 0.37540721893310547 0.0020402944646775723
0.06226818636059761 0.54663640260696411 0.23646701872348785
0.2037980705499649 0.54432922601699829 0.2380957156419754
0.36065295338630676 0.55658197402954102 0.19054877758026123
0.55581170320510864 0.58694994449615479 0.056470431387424469
0.7626916766166687 0.6000550389289856 0.0015780130634084344
0.90117686986923218 0.56672888994216919 0.0040542604401707649
0.99544107913970947 0.53589034080505371 0.0003209731075912714
0.30477815866470337 0.67970150709152222 0.37005123496055603
0.36038357019424438 0.67855966091156006 0.37460616230964661
0.43046924471855164 0.6778252124786377 0.36551812291145325
0.53268074989318848 0.69474250078201294 0.31415605545043945
0.68320077657699585 0.71992915868759155 0.20221896469593048
0.86229157447814941 0.73877394199371338 0.041464023292064667
0.98519957065582275 0.71247637271881104 0.044132247567176819
0.48615884780883789 0.79418385028839111 0.51763474941253662
0.50371813774108887 0.79397350549697876 0.51695418357849121
0.54325830936431885 0.79273247718811035 0.51695764064788818
0.6019514799118042 0.80051654577255249 0.50258386135101318
0.6887548565864563 0.81383991241455078 0.45563200116157532
0.80087459087371826 0.82731360197067261 0.38448449969291687
0.95868736505508423 0.85287922620773315 0.31104955077171326
0.67234444618225098 0.90753018856048584 0.69401144981384277
0.68066203594207764 0.9052768349647522 0.69306939840316772
0.70435088872909546 0.9080575704574585 0.6988760232925415
0.7362130880355835 0.90888303518295288 0.69874304533004761
0.77318763732910156 0.9184955358505249 0.67921137809753418
0.83654618263244629 0.9355466365814209 0.6516842246055603
0.92307472229003906 0.95147824287414551 0.60884040594100952
0.0067194919101893902 0.011518201790750027 0.12476480752229691
0.11518013477325439 0.0087964078411459923 0.12612299621105194
0.33914914727210999 0.0030321157537400723 0.13004913926124573
0.58757287263870239 0.00094887230079621077 0.11703920364379883
0.76001745462417603 0.0027723873499780893 0.11539052426815033
0.88577711582183838 0.027659067884087563 0.10171522200107574
0.98957961797714233 0.14075809717178345 0.094198472797870636
0.0022044163197278976 0.14612475037574768 0.15593764185905457
0.1320415586233139 0.16329285502433777 0.16475668549537659
0.38613030314445496 0.16039068996906281 0.14641498029232025
0.62368494272232056 0.15558822453022003 0.13471081852912903
0.77562737464904785 0.16902381181716919 0.11522107571363449
0.89621621370315552 0.19589021801948547 0.10796068608760834
0.99327176809310913 0.24088165163993835 0.097105525434017181
0.032581988722085953 0.38378620147705078 0.24962577223777771
0.19240626692771912 0.37979069352149963 0.25064140558242798
0.40330880880355835 0.41135704517364502 0.19931720197200775
0.64909154176712036 0.4146977961063385 0.13517804443836212
0.79829126596450806 0.38179367780685425 0.1115100309252739
0.91178804636001587 0.37313956022262573 0.10594582557678223
0.99359428882598877 0.38582116365432739 0.10930789262056351
0.21451333165168762 0.56726658344268799 0.34114712476730347
0.29655858874320984 0.55845397710800171 0.34450185298919678
0.40588399767875671 0.56275743246078491 0.32288980484008789
0.57662796974182129 0.59196072816848755 0.23455582559108734
0.76729512214660645 0.59839612245559692 0.14225606620311737
0.90572041273117065 0.56536829471588135 0.12636679410934448
0.99468731880187988 0.54432076215744019 0.13360361754894257
0.37748837471008301 0.69067072868347168 0.44691354036331177
0.4106748104095459 0.68961942195892334 0.44230601191520691
0.47198286652565002 0.68705034255981445 0.42899259924888611
0.56330424547195435 0.70116508007049561 0.39713430404663086
0.69581836462020874 0.72148615121841431 0.31962454319000244
0.85879462957382202 0.7342190146446228 0.23677803575992584
0.9784509539604187 0.71026909351348877 0.22987014055252075
0.51220989227294922 0.79960590600967407 0.55297833681106567
0.52858853340148926 0.79929625988006592 0.55226701498031616
0.5640292763710022 0.79686266183853149 0.5525023341178894
0.6182824969291687 0.80143797397613525 0.53441315889358521
0.69823247194290161 0.81464302539825439 0.50370919704437256
0.81568902730941772 0.82996982336044312 0.43955197930335999
0.95608377456665039 0.85021132230758667 0.381858229637146
0.6820303201675415 0.90878188610076904 0.71104496717453003
0.69036614894866943 0.90822237730026245 0.70835351943969727
0.70973473787307739 0.90706270933151245 0.7110556960105896
0.74077302217483521 0.90796113014221191 0.71193957328796387
0.77827358245849609 0.91908437013626099 0.69525259733200073
0.84176719188690186 0.934883713722229 0.66886276006698608
0.92469900846481323 0.95008254051208496 0.63069015741348267
0.0055791218765079975 0.021693704649806023 0.35569781064987183
0.14655938744544983 0.011663234792649746 0.36671632528305054
0.38851964473724365 0.005976957269012928 0.37408769130706787
0.62530314922332764 0.0016221289988607168 0.35914555191993713
0.78542685508728027 0.0029782464262098074 0.31939482688903809
0.89447391033172607 0.016076331958174706 0.29874274134635925
0.98096024990081787 0.18376879394054413 0.3165137767791748
0.0031012741383165121 0.18941248953342438 0.3842100203037262
0.11503741890192032 0.18313895165920258 0.3953855037689209
0.4227040708065033 0.1875874400138855 0.40203589200973511
0.64177823066711426 0.18996722996234894 0.38581490516662598
0.77945858240127563 0.17488221824169159 0.34590989351272583
0.88574707508087158 0.22448673844337463 0.33663603663444519
0.97935855388641357 0.28918913006782532 0.33649569749832153
0.027322970330715179 0.42001837491989136 0.4269440770149231
0.22615376114845276 0.42830166220664978 0.44060364365577698
0.45761999487876892 0.43110266327857971 0.4448181688785553
0.64213269948959351 0.4242093563079834 0.41586562991142273
0.76936614513397217 0.41056129336357117 0.38288375735282898
0.88161885738372803 0.41139969229698181 0.36203110218048096
0.98337841033935547 0.41331338882446289 0.34836879372596741
0.34237015247344971 0.59872817993164062 0.49188277125358582
0.40737280249595642 0.59735965728759766 0.49444472789764404
0.49131253361701965 0.59129410982131958 0.48730948567390442
0.60891544818878174 0.59967225790023804 0.44627860188484192
0.76593279838562012 0.59303575754165649 0.41071534156799316
0.89394164085388184 0.57243305444717407 0.38832384347915649
0.98719155788421631 0.55966830253601074 0.37125986814498901
0.47034183144569397 0.71514272689819336 0.55058187246322632
0.49037620425224304 0.71158748865127563 0.54576867818832397
0.53121650218963623 0.70447617769241333 0.54127424955368042
0.5984533429145813 0.70616722106933594 0.51752614974975586
0.71280711889266968 0.72641819715499878 0.47045299410820007
0.85722309350967407 0.73288023471832275 0.42481163144111633
0.97752541303634644 0.71043187379837036 0.412149578332901
0.55963671207427979 0.81053656339645386 0.61711829900741577
0.57684504985809326 0.811409592628479 0.62058454751968384
0.60179805755615234 0.8059159517288208 0.61658674478530884
0.64942902326583862 0.80468904972076416 0.6093260645866394
0.71295726299285889 0.81393826007843018 0.579201340675354
0.81643223762512207 0.8293614387512207 0.53248089551925659
0.95659381151199341 0.85015827417373657 0.49299332499504089
0.69907760620117188 0.91152501106262207 0.73980593681335449
0.70714116096496582 0.9124377965927124 0.74054878950119019
0.72139167785644531 0.90746480226516724 0.73767638206481934
0.75049597024917603 0.90906989574432373 0.73834580183029175
0.78811782598495483 0.91696584224700928 0.7276231050491333
0.84817051887512207 0.93530213832855225 0.70913350582122803
0.93087130784988403 0.95153254270553589 0.67057812213897705
0.0017044665291905403 0.044692154973745346 0.57000929117202759
0.13239575922489166 0.032471586018800735 0.57521039247512817
0.42995360493659973 0.030891373753547668 0.57990950345993042
0.64812809228897095 0.057372614741325378 0.58465826511383057
0.78101831674575806 0.14065472781658173 0.54368090629577637
0.90417742729187012 0.22997485101222992 0.51099890470504761
0.99230813980102539 0.25279960036277771 0.48583295941352844
0.00094784004613757133 0.21417997777462006 0.58417367935180664
0.13973881304264069 0.2173631340265274 0.58983010053634644
0.44823285937309265 0.24175411462783813 0.5917201042175293
0.65377414226531982 0.26677167415618896 0.59590190649032593
0.78172624111175537 0.29981112480163574 0.55793887376785278
0.89902931451797485 0.33330449461936951 0.52643853425979614
0.98659783601760864 0.33238616585731506 0.49462899565696716
0.0065271863713860512 0.43604567646980286 0.59526693820953369
0.21990004181861877 0.43848687410354614 0.59976232051849365
0.46335732936859131 0.44696587324142456 0.6000632643699646
0.64469212293624878 0.4680178165435791 0.60188043117523193
0.77028453350067139 0.4732205867767334 0.57813388109207153
0.8778078556060791 0.45389705896377563 0.54112821817398071
0.97760200500488281 0.44944021105766296 0.51898491382598877
0.32344475388526917 0.6130603551864624 0.61159539222717285
0.40765020251274109 0.61244297027587891 0.6175047755241394
0.51901191473007202 0.6160959005355835 0.61859011650085449
0.63490217924118042 0.61735063791275024 0.61203396320343018
0.7561832070350647 0.61262470483779907 0.58911919593811035
0.86911344528198242 0.58828127384185791 0.56047815084457397
0.97347426414489746 0.58142602443695068 0.54442411661148071
0.51601547002792358 0.73856943845748901 0.65459179878234863
0.54024261236190796 0.73563772439956665 0.65318006277084351
0.58863300085067749 0.73405349254608154 0.65407258272171021
0.64820742607116699 0.72508162260055542 0.64286476373672485
0.73316818475723267 0.73257017135620117 0.61764955520629883
0.862662672996521 0.73095256090164185 0.58758085966110229
0.97490859031677246 0.7106025218963623 0.56745451688766479
0.62457430362701416 0.82608675956726074 0.70677870512008667
0.63365519046783447 0.82690095901489258 0.70850974321365356
0.66094434261322021 0.82399743795394897 0.70586311817169189
0.69122564792633057 0.8152582049369812 0.69347232580184937
0.73399883508682251 0.81728893518447876 0.67121416330337524
0.82575654983520508 0.83096826076507568 0.64196610450744629
0.95592677593231201 0.84320253133773804 0.61614441871643066
0.7227897047996521 0.92112857103347778 0.78345668315887451
0.72898077964782715 0.91693979501724243 0.78306585550308228
0.74296474456787109 0.91410225629806519 0.78160196542739868
0.76887434720993042 0.91418683528900146 0.78082388639450073
0.80679810047149658 0.92091464996337891 0.77692115306854248
0.85940665006637573 0.9344322681427002 0.76067876815795898
0.93145418167114258 0.95114284753799438 0.73014551401138306
0.0025100558996200562 0.12029398232698441 0.71998775005340576
0.190522700548172 0.1350233256816864 0.72488522529602051
0.44244092702865601 0.15765032172203064 0.72420001029968262
0.64568066596984863 0.22090451419353485 0.72474592924118042
0.79538846015930176 0.26763001084327698 0.72481691837310791
0.88768702745437622 0.33004826307296753 0.68795901536941528
0.98119664192199707 0.43694540858268738 0.67804825305938721
0.027420148253440857 0.2618003785610199 0.72858351469039917
0.23770491778850555 0.27630341053009033 0.72873640060424805
0.45675432682037354 0.29994428157806396 0.72728109359741211
0.64667129516601562 0.34146708250045776 0.72823911905288696
0.79244810342788696 0.3744543194770813 0.72733300924301147
0.88224107027053833 0.41486093401908875 0.6957625150680542
0.97802501916885376 0.48640406131744385 0.68366497755050659
0.19825060665607452 0.45276585221290588 0.72537106275558472
0.31709221005439758 0.45200303196907043 0.72796136140823364
0.4757542610168457 0.46310028433799744 0.72594696283340454
0.63850700855255127 0.49279627203941345 0.72734051942825317
0.77529704570770264 0.52021199464797974 0.72510391473770142
0.87434852123260498 0.5367165207862854 0.70878720283508301
0.97466897964477539 0.5651479959487915 0.69481223821640015
0.29189866781234741 0.60588604211807251 0.71824973821640015
0.3773462176322937 0.60678470134735107 0.72119241952896118
0.48205956816673279 0.61242407560348511 0.72062855958938599
0.63398778438568115 0.6244891881942749 0.72953641414642334
0.76288026571273804 0.64649724960327148 0.72976601123809814
0.86367237567901611 0.64282786846160889 0.71565240621566772
0.96293610334396362 0.62564188241958618 0.68872147798538208
0.47904542088508606 0.74138587713241577 0.73429423570632935
0.52398049831390381 0.74171698093414307 0.73803144693374634
0.58022403717041016 0.73813945055007935 0.74462932348251343
0.66533058881759644 0.73876845836639404 0.74409240484237671
0.75943225622177124 0.74758130311965942 0.74334454536437988
0.85245382785797119 0.73661428689956665 0.72395777702331543
0.95283949375152588 0.71540725231170654 0.69846570491790771
0.64411848783493042 0.84248846769332886 0.78356099128723145
0.66376745700836182 0.84482759237289429 0.78760695457458496
0.69212180376052856 0.83997929096221924 0.78490179777145386
0.72972202301025391 0.83671790361404419 0.78103154897689819
0.77638185024261475 0.83360624313354492 0.77225315570831299
0.85190623998641968 0.83806920051574707 0.75380474328994751
0.96426182985305786 0.83772885799407959 0.73345255851745605
0.74904710054397583 0.93249106407165527 0.84086483716964722
0.75763851404190063 0.93034034967422485 0.84131324291229248
0.76828348636627197 0.92506605386734009 0.83473759889602661
0.79086017608642578 0.92646998167037964 0.83369088172912598
0.82526248693466187 0.92767786979675293 0.83220350742340088
0.86974966526031494 0.93169379234313965 0.82051205635070801
0.94470387697219849 0.95237612724304199 0.79766750335693359
0.20846877992153168 0.24842683970928192 0.84265977144241333
0.32925900816917419 0.26045709848403931 0.84401232004165649
0.49063858389854431 0.29326847195625305 0.84212899208068848
0.64766627550125122 0.33396261930465698 0.83952987194061279
0.79039418697357178 0.40435078740119934 0.83680087327957153
0.90260881185531616 0.44210845232009888 0.83673286437988281
0.97697097063064575 0.48515835404396057 0.81419920921325684
0.2653316855430603 0.34867766499519348 0.84004706144332886
0.36488202214241028 0.35863158106803894 0.84202522039413452
0.50843751430511475 0.38183337450027466 0.84233814477920532
0.65155762434005737 0.42237880825996399 0.83768600225448608
0.78463762998580933 0.46633028984069824 0.8375324010848999
0.89647048711776733 0.49898770451545715 0.83811253309249878
0.9719165563583374 0.53566545248031616 0.81495100259780884
0.34153595566749573 0.48513251543045044 0.83639770746231079
0.40074843168258667 0.49002364277839661 0.83878850936889648
0.52275544404983521 0.50467890501022339 0.83740472793579102
0.64713889360427856 0.53082561492919922 0.83382076025009155
0.77597427368164062 0.57092690467834473 0.83556675910949707
0.88540023565292358 0.58974730968475342 0.84031015634536743
0.96037441492080688 0.61256760358810425 0.82024848461151123
0.34797549247741699 0.61938369274139404 0.8244825005531311
0.40869364142417908 0.6217724084854126 0.82700258493423462
0.51094037294387817 0.62562209367752075 0.82843893766403198
0.63572514057159424 0.63774007558822632 0.83213210105895996
0.76732718944549561 0.66784882545471191 0.83748161792755127
0.87370288372039795 0.68611347675323486 0.83966749906539917
0.95369523763656616 0.69865483045578003 0.82838302850723267
0.44238868355751038 0.74115258455276489 0.82814127206802368
0.47374540567398071 0.74115347862243652 0.82764244079589844
0.53799605369567871 0.73895180225372314 0.82889306545257568
0.62822353839874268 0.73970621824264526 0.8298153281211853
0.75154173374176025 0.75495380163192749 0.83726447820663452
0.8672182559967041 0.77114748954772949 0.84695529937744141
0.95250242948532104 0.77243834733963013 0.83812969923019409
0.6088186502456665 0.84419941902160645 0.84951794147491455
0.62794691324234009 0.84452146291732788 0.84883099794387817
0.67469948530197144 0.84665489196777344 0.85633313655853271
0.7244032621383667 0.84652155637741089 0.8575558066368103
0.79221683740615845 0.84843289852142334 0.8597036600112915
0.86998963356018066 0.85223782062530518 0.86071383953094482
0.96062523126602173 0.84169495105743408 0.84179079532623291
0.7606436014175415 0.94138997793197632 0.89358603954315186
0.77080482244491577 0.94257658720016479 0.89751791954040527
0.78647631406784058 0.93911343812942505 0.89448952674865723
0.81519126892089844 0.94002640247344971 0.89781779050827026
0.85352879762649536 0.94507831335067749 0.89944469928741455
0.89259189367294312 0.94397538900375366 0.8945615291595459
0.95693153142929077 0.95565223693847656 0.87659132480621338
0.46062430739402771 0.44590497016906738 0.94751310348510742
0.50454491376876831 0.44899645447731018 0.94531881809234619
0.58593070507049561 0.46504732966423035 0.94405901432037354
0.68918085098266602 0.49677583575248718 0.94071036577224731
0.79628628492355347 0.53965252637863159 0.93875491619110107
0.90430784225463867 0.59230703115463257 0.93756324052810669
0.98518836498260498 0.61896073818206787 0.93602699041366577
0.47675672173500061 0.49340519309043884 0.94605571031570435
0.51955568790435791 0.5027652382850647 0.94638144969940186
0.59443068504333496 0.51715123653411865 0.94310975074768066
0.6922755241394043 0.54207265377044678 0.94083970785140991
0.79856425523757935 0.58001649379730225 0.93800657987594604
0.90083807706832886 0.62447690963745117 0.93638879060745239
0.98445522785186768 0.64674597978591919 0.93769097328186035
0.49362176656723022 0.5786747932434082 0.94416588544845581
0.52325618267059326 0.5823323130607605 0.9408496618270874
0.60017770528793335 0.59329205751419067 0.94374340772628784
0.69242602586746216 0.61410731077194214 0.93737131357192993
0.79608261585235596 0.64313799142837524 0.93825846910476685
0.89661204814910889 0.67518800497055054 0.93689912557601929
0.98006749153137207 0.69432705640792847 0.93803948163986206
0.5068131685256958 0.68142354488372803 0.93945807218551636
0.53170484304428101 0.67942726612091064 0.93803274631500244
0.59126782417297363 0.67565375566482544 0.94025111198425293
0.68057864904403687 0.68348193168640137 0.93433928489685059
0.78329086303710938 0.70553374290466309 0.93465554714202881
0.88859772682189941 0.73182427883148193 0.93660283088684082
0.97734618186950684 0.7462843656539917 0.93994611501693726
0.48162040114402771 0.76505285501480103 0.93544816970825195
0.50796759128570557 0.76391458511352539 0.93535095453262329
0.56494641304016113 0.76207262277603149 0.93246757984161377
0.66077721118927002 0.76210319995880127 0.93672257661819458
0.7741999626159668 0.77324831485748291 0.94140732288360596
0.88220864534378052 0.79735732078552246 0.94346553087234497
0.97138726711273193 0.80500966310501099 0.94437164068222046
0.606952965259552 0.8634522557258606 0.94218116998672485
0.61960363388061523 0.86263751983642578 0.94228595495223999
0.64960473775863647 0.86084288358688354 0.94336158037185669
0.6925818920135498 0.85706806182861328 0.94409692287445068
0.76432216167449951 0.85300344228744507 0.94678997993469238
0.86934083700180054 0.86670380830764771 0.95379292964935303
0.97201740741729736 0.87722551822662354 0.95363092422485352
0.7324405312538147 0.95741206407546997 0.95774304866790771
0.74048870801925659 0.95645672082901001 0.95825999975204468
0.762401282787323 0.95652347803115845 0.96111428737640381
0.79759150743484497 0.95726954936981201 0.96572279930114746
0.84737032651901245 0.95831263065338135 0.9662020206451416
0.90281552076339722 0.96092116832733154 0.97017967700958252
0.97337353229522705 0.96758753061294556 0.96811860799789429
