luts/negative_old/kodak_portra_160_nc_+.cube
# Created by: G'MIC (https://gmic.eu)
TITLE "kodak_portra_160_nc_+"
# LUT size
LUT_3D_SIZE 7
# Data domain
DOMAIN_MIN 0.0 0.0 0.0
DOMAIN_MAX 1.0 1.0 1.0
# LUT data points
0.067118220031261444 0.088389992713928223 0.090149387717247009
0.12112220376729965 0.085605069994926453 0.085642844438552856
0.25317901372909546 0.089199498295783997 0.081973686814308167
0.49570557475090027 0.09212532639503479 0.065645046532154083
0.71912693977355957 0.092081271111965179 0.037826687097549438
0.86143010854721069 0.13506686687469482 0.020689886063337326
0.97515660524368286 0.19867332279682159 0.026775136590003967
0.057985000312328339 0.1363300234079361 0.096430808305740356
0.12427326291799545 0.14955776929855347 0.089038491249084473
0.31385898590087891 0.18348291516304016 0.059713639318943024
0.56588834524154663 0.20159107446670532 0.024772629141807556
0.74429178237915039 0.21453765034675598 0.011218635365366936
0.8736799955368042 0.22821199893951416 0.0073000588454306126
0.98033297061920166 0.26830798387527466 0.01112792082130909
0.0072314245626330376 0.30174055695533752 0.13163681328296661
0.1158750057220459 0.31315881013870239 0.12287983298301697
0.32951083779335022 0.36709433794021606 0.047333631664514542
0.61278098821640015 0.4100169837474823 0.001466594054363668
0.78901112079620361 0.38895776867866516 0.0021504720207303762
0.89846628904342651 0.37473425269126892 0.0042483462020754814
0.98633646965026855 0.38162809610366821 0.0079368744045495987
0.0062695522792637348 0.52549397945404053 0.19550797343254089
0.13169203698635101 0.52556848526000977 0.20000414550304413
0.32863268256187439 0.53650486469268799 0.15343104302883148
0.54366987943649292 0.57054233551025391 0.031610406935214996
0.75677764415740967 0.58485448360443115 0.00010860667680390179
0.90121150016784668 0.54478681087493896 0.0021195653825998306
0.99649304151535034 0.5212700366973877 0.0028209311421960592
0.25613296031951904 0.66918349266052246 0.33903634548187256
0.30278044939041138 0.66299140453338623 0.34410446882247925
0.40740218758583069 0.66359961032867432 0.33264309167861938
0.52276444435119629 0.68246090412139893 0.2727101743221283
0.67751771211624146 0.70276594161987305 0.13723818957805634
0.85841101408004761 0.71905028820037842 0.007851993665099144
0.98210442066192627 0.68969249725341797 0.0089668277651071548
0.48441311717033386 0.78477358818054199 0.51230865716934204
0.49983161687850952 0.78012275695800781 0.51101958751678467
0.53787261247634888 0.7782861590385437 0.50254154205322266
0.59479987621307373 0.78537088632583618 0.48470872640609741
0.6773831844329834 0.79804360866546631 0.43733412027359009
0.79308104515075684 0.81459236145019531 0.36743450164794922
0.94787228107452393 0.83794605731964111 0.27842915058135986
0.67416840791702271 0.89209538698196411 0.69237291812896729
0.68358743190765381 0.8897973895072937 0.69411218166351318
0.70128679275512695 0.88914662599563599 0.69386863708496094
0.73257642984390259 0.89208251237869263 0.69287359714508057
0.76773059368133545 0.9010469913482666 0.67458873987197876
0.82703405618667603 0.91560620069503784 0.64804595708847046
0.90760785341262817 0.93239688873291016 0.6140933632850647
0.054724134504795074 0.085241012275218964 0.14755012094974518
0.12745901942253113 0.08288034051656723 0.14728587865829468
0.27592605352401733 0.068427875638008118 0.1483931839466095
0.50829225778579712 0.022063596174120903 0.15078991651535034
0.71773850917816162 0.030158428475260735 0.15392181277275085
0.85238033533096313 0.10574222356081009 0.15569265186786652
0.96994471549987793 0.19087094068527222 0.15756158530712128
0.041432816535234451 0.15449507534503937 0.16749401390552521
0.13439057767391205 0.16317224502563477 0.17515456676483154
0.32358467578887939 0.17008769512176514 0.16376383602619171
0.56672948598861694 0.17596888542175293 0.15487547218799591
0.74037331342697144 0.18131366372108459 0.14433509111404419
0.86645102500915527 0.21933136880397797 0.1358855664730072
0.97573071718215942 0.26658055186271667 0.15651580691337585
0.012116271071135998 0.34202286601066589 0.22069405019283295
0.15200258791446686 0.35015344619750977 0.22591139376163483
0.36273124814033508 0.38249659538269043 0.18145188689231873
0.6324082612991333 0.3967195451259613 0.11491075158119202
0.78381359577178955 0.37725421786308289 0.10268315672874451
0.89413809776306152 0.37152054905891418 0.11018460988998413
0.98282420635223389 0.38567012548446655 0.1376059353351593
0.088388793170452118 0.54900318384170532 0.29513317346572876
0.22823929786682129 0.54681384563446045 0.30490803718566895
0.3672807514667511 0.54615253210067749 0.278066486120224
0.56195676326751709 0.57610207796096802 0.18680553138256073
0.7638060450553894 0.58268940448760986 0.076889291405677795
0.90344345569610596 0.54582697153091431 0.066468104720115662
0.98997873067855835 0.52477103471755981 0.10150402039289474
0.33480271697044373 0.67836731672286987 0.41260942816734314
0.37762150168418884 0.67416244745254517 0.42240029573440552
0.44875103235244751 0.67100077867507935 0.40317004919052124
0.54257172346115112 0.68378126621246338 0.36011627316474915
0.6901668906211853 0.70428633689880371 0.26991593837738037
0.8597375750541687 0.71893227100372314 0.17281945049762726
0.97934317588806152 0.68749535083770752 0.1755397766828537
0.50847768783569336 0.7846406102180481 0.54870021343231201
0.52615928649902344 0.78350472450256348 0.54816931486129761
0.56161177158355713 0.77989000082015991 0.54265302419662476
0.61415886878967285 0.786307692527771 0.5263170599937439
0.68687242269515991 0.7992061972618103 0.48934072256088257
0.80075299739837646 0.81539469957351685 0.42769169807434082
0.94505053758621216 0.83485126495361328 0.36331057548522949
0.6833307147026062 0.89278107881546021 0.70623540878295898
0.69171684980392456 0.89256441593170166 0.70879733562469482
0.71028095483779907 0.89201009273529053 0.70894789695739746
0.73720943927764893 0.89157664775848389 0.70768862962722778
0.77538615465164185 0.90094834566116333 0.69440555572509766
0.83177608251571655 0.9178537130355835 0.67092525959014893
0.90905618667602539 0.93025058507919312 0.63453197479248047
0.0077001233585178852 0.083601810038089752 0.31737175583839417
0.14671666920185089 0.081646986305713654 0.32764503359794617
0.33095654845237732 0.058239191770553589 0.33345198631286621
0.58016538619995117 0.0037384033203125 0.337943434715271
0.75856548547744751 0.0035087885335087776 0.30810880661010742
0.87008106708526611 0.02029184065759182 0.29083168506622314
0.96191620826721191 0.21548944711685181 0.32929494976997375
0.0030921637080609798 0.18082632124423981 0.34104567766189575
0.11075527966022491 0.17507095634937286 0.35442894697189331
0.37278857827186584 0.1769106537103653 0.36733558773994446
0.61500340700149536 0.14544026553630829 0.35519120097160339
0.75761568546295166 0.13151842355728149 0.32375070452690125
0.85992151498794556 0.22172410786151886 0.3272310197353363
0.96243834495544434 0.30681684613227844 0.34874662756919861
0.003740841755643487 0.38686367869377136 0.38924962282180786
0.14094327390193939 0.39826056361198425 0.4078582227230072
0.41795611381530762 0.40330925583839417 0.41252878308296204
0.63204175233840942 0.39697271585464478 0.38324719667434692
0.75557583570480347 0.39093521237373352 0.36198735237121582
0.86782127618789673 0.39822855591773987 0.35042095184326172
0.96927154064178467 0.41823813319206238 0.35545921325683594
0.2866877019405365 0.58618295192718506 0.47080537676811218
0.37312221527099609 0.58444857597351074 0.47719338536262512
0.47095668315887451 0.57550746202468872 0.46454155445098877
0.59832119941711426 0.58487272262573242 0.42281445860862732
0.76421898603439331 0.57813960313796997 0.38022005558013916
0.89062511920928955 0.55141997337341309 0.35628139972686768
0.98093754053115845 0.55086815357208252 0.35968387126922607
0.46004173159599304 0.70052963495254517 0.53745824098587036
0.4822753369808197 0.69705885648727417 0.53612703084945679
0.53121018409729004 0.68806719779968262 0.52577000856399536
0.59061205387115479 0.68849903345108032 0.50545585155487061
0.70987361669540405 0.70826518535614014 0.45466089248657227
0.85857957601547241 0.7138177752494812 0.40439695119857788
0.97264772653579712 0.68488746881484985 0.38787847757339478
0.55881446599960327 0.79486119747161865 0.61202776432037354
0.5746082067489624 0.79380160570144653 0.61156195402145386
0.60440176725387573 0.78910839557647705 0.61098390817642212
0.64763867855072021 0.79033803939819336 0.5995599627494812
0.70458132028579712 0.79979991912841797 0.57309085130691528
0.80928772687911987 0.81645327806472778 0.53359496593475342
0.94410854578018188 0.83498126268386841 0.48697879910469055
0.69902706146240234 0.89546358585357666 0.73523437976837158
0.70624339580535889 0.89548546075820923 0.73360008001327515
0.72276657819747925 0.89197725057601929 0.73506951332092285
0.74865061044692993 0.89290690422058105 0.73482978343963623
0.78515791893005371 0.90017032623291016 0.7224692702293396
0.83536720275878906 0.91541498899459839 0.70809453725814819
0.91049373149871826 0.93105435371398926 0.67498940229415894
0.0030693802982568741 0.094910763204097748 0.54595780372619629
0.14769540727138519 0.07808290421962738 0.54785847663879395
0.40714189410209656 0.033722717314958572 0.55907726287841797
0.62884026765823364 0.0095963124185800552 0.5703655481338501
0.77509915828704834 0.020628387108445168 0.52889919281005859
0.90116268396377563 0.1722392737865448 0.49925798177719116
0.98294949531555176 0.26884433627128601 0.48541337251663208
0.0006708481814712286 0.19418029487133026 0.56476789712905884
0.093198917806148529 0.19146007299423218 0.57307642698287964
0.41680845618247986 0.20248571038246155 0.57963675260543823
0.63987845182418823 0.20149187743663788 0.58472949266433716
0.77913844585418701 0.2465423047542572 0.54194700717926025
0.88865488767623901 0.30641376972198486 0.51516461372375488
0.97272038459777832 0.34671914577484131 0.49938476085662842
0.0018053989624604583 0.40519991517066956 0.57439357042312622
0.083726443350315094 0.41254523396492004 0.58701133728027344
0.42359337210655212 0.42216259241104126 0.58880817890167236
0.63175088167190552 0.43964695930480957 0.59111922979354858
0.76017236709594727 0.45408353209495544 0.56458842754364014
0.86323755979537964 0.44831231236457825 0.53627187013626099
0.95280748605728149 0.46125641465187073 0.52763670682907104
0.24593126773834229 0.59788697957992554 0.59932601451873779
0.36316442489624023 0.59756124019622803 0.60698419809341431
0.49994271993637085 0.59660834074020386 0.60897499322891235
0.63018900156021118 0.60128617286682129 0.60783272981643677
0.75301897525787354 0.59821051359176636 0.58511096239089966
0.85483419895172119 0.58053028583526611 0.55960053205490112
0.95516186952590942 0.57718449831008911 0.54606539011001587
0.50485312938690186 0.72090739011764526 0.64432328939437866
0.53804397583007812 0.71981716156005859 0.64702540636062622
0.59285491704940796 0.71638280153274536 0.64946067333221436
0.64492487907409668 0.7100035548210144 0.63692170381546021
0.72620916366577148 0.71465462446212769 0.60988867282867432
0.85788768529891968 0.71468794345855713 0.58231687545776367
0.96557283401489258 0.69717895984649658 0.56656622886657715
0.62548166513442993 0.81238412857055664 0.70397400856018066
0.63366448879241943 0.81173944473266602 0.7032313346862793
0.65283203125 0.80868488550186157 0.69938260316848755
0.68953424692153931 0.80191469192504883 0.68890607357025146
0.73127758502960205 0.80207020044326782 0.66974616050720215
0.82315719127655029 0.82145524024963379 0.64087402820587158
0.9427868127822876 0.83314871788024902 0.61105549335479736
0.72299128770828247 0.90332436561584473 0.7763068675994873
0.72704297304153442 0.90164792537689209 0.77623111009597778
0.74017536640167236 0.90104120969772339 0.77219295501708984
0.76563191413879395 0.89969110488891602 0.77259451150894165
0.79930239915847778 0.90011745691299438 0.769459068775177
0.84623473882675171 0.91712194681167603 0.75677013397216797
0.91516125202178955 0.93194586038589478 0.73111402988433838
0.0013952067820355296 0.12193594872951508 0.70588916540145874
0.16350497305393219 0.11648751050233841 0.71160674095153809
0.41901198029518127 0.10557906329631805 0.71521288156509399
0.62763136625289917 0.14311213791370392 0.71902531385421753
0.79036629199981689 0.19233012199401855 0.71657758951187134
0.88487064838409424 0.27899914979934692 0.67883449792861938
0.97765868902206421 0.41597828269004822 0.66840028762817383
0.0023276684805750847 0.23267294466495514 0.71602660417556763
0.16318616271018982 0.23387894034385681 0.72117942571640015
0.42742407321929932 0.24944102764129639 0.72262692451477051
0.62848734855651855 0.28828185796737671 0.72312319278717041
0.78702336549758911 0.33749094605445862 0.72102749347686768
0.87818151712417603 0.38287049531936646 0.68733400106430054
0.97439980506896973 0.47485318779945374 0.67806011438369751
0.051638390868902206 0.42417219281196594 0.71668195724487305
0.24115100502967834 0.42458012700080872 0.72057712078094482
0.44721430540084839 0.44111961126327515 0.72052574157714844
0.62871533632278442 0.46827816963195801 0.71780073642730713
0.77243530750274658 0.49833685159683228 0.71999096870422363
0.86768490076065063 0.51976627111434937 0.69908404350280762
0.9575420618057251 0.55318331718444824 0.68724972009658813
0.21901845932006836 0.59015196561813354 0.71128588914871216
0.3245881199836731 0.59048545360565186 0.71352493762969971
0.46883216500282288 0.59432905912399292 0.71588343381881714
0.628631591796875 0.60402524471282959 0.71835923194885254
0.75809627771377563 0.62409907579421997 0.72588872909545898
0.85491353273391724 0.63451212644577026 0.71230703592300415
0.94100052118301392 0.6297767162322998 0.69426578283309937
0.48716813325881958 0.72661745548248291 0.73362964391708374
0.52538442611694336 0.72618836164474487 0.73567414283752441
0.58020412921905518 0.72707760334014893 0.73648440837860107
0.66511267423629761 0.72467374801635742 0.74086904525756836
0.74996471405029297 0.72976040840148926 0.73607057332992554
0.84286534786224365 0.72608673572540283 0.7219884991645813
0.93493622541427612 0.71401512622833252 0.70247155427932739
0.65038728713989258 0.82814031839370728 0.77790230512619019
0.66411459445953369 0.82699096202850342 0.77669894695281982
0.69216465950012207 0.82805019617080688 0.77960628271102905
0.73224842548370361 0.8246271014213562 0.77784699201583862
0.76704114675521851 0.81369715929031372 0.76212960481643677
0.84193813800811768 0.82534438371658325 0.74572485685348511
0.94576478004455566 0.82641226053237915 0.73074406385421753
0.74792897701263428 0.91292339563369751 0.83194714784622192
0.75382685661315918 0.91188007593154907 0.82968384027481079
0.76544207334518433 0.91266298294067383 0.82730615139007568
0.78923046588897705 0.90643107891082764 0.8240591287612915
0.81726181507110596 0.90222775936126709 0.81877285242080688
0.85961019992828369 0.91750586032867432 0.8139835000038147
0.92670565843582153 0.93383371829986572 0.79373407363891602
0.11803630739450455 0.20572301745414734 0.83431744575500488
0.27483183145523071 0.21268405020236969 0.83270710706710815
0.45838898420333862 0.23712223768234253 0.82984572649002075
0.62732470035552979 0.28328484296798706 0.82800537347793579
0.77604228258132935 0.37385565042495728 0.82798641920089722
0.89307647943496704 0.42129385471343994 0.82772880792617798
0.96312260627746582 0.46690952777862549 0.79948103427886963
0.17931273579597473 0.30455690622329712 0.834605872631073
0.3057650625705719 0.31741666793823242 0.83171528577804565
0.47007134556770325 0.34261354804039001 0.83290332555770874
0.63028872013092041 0.38136044144630432 0.82819408178329468
0.77522504329681396 0.44546607136726379 0.82699298858642578
0.88735276460647583 0.48025816679000854 0.82559633255004883
0.95879554748535156 0.51687675714492798 0.80266118049621582
0.27766028046607971 0.45739281177520752 0.82734864950180054
0.36309897899627686 0.46270421147346497 0.82844221591949463
0.49033051729202271 0.48583146929740906 0.82886004447937012
0.63502997159957886 0.50588089227676392 0.82703655958175659
0.76887804269790649 0.54517477750778198 0.82612746953964233
0.8747936487197876 0.57200366258621216 0.82325857877731323
0.94672662019729614 0.59737604856491089 0.80974787473678589
0.31252440810203552 0.59852933883666992 0.81260144710540771
0.3901246190071106 0.60018408298492432 0.81724870204925537
0.50425571203231812 0.61216789484024048 0.82157862186431885
0.6323779821395874 0.62304741144180298 0.8236008882522583
0.76256918907165527 0.64999222755432129 0.82433807849884033
0.8653939962387085 0.6700669527053833 0.82415610551834106
0.9407152533531189 0.68362772464752197 0.81839829683303833
0.44576594233512878 0.72153878211975098 0.81804627180099487
0.483176589012146 0.72155994176864624 0.82053476572036743
0.54184621572494507 0.72105038166046143 0.82118982076644897
0.62953740358352661 0.72203409671783447 0.82226580381393433
0.74314135313034058 0.73887902498245239 0.82533079385757446
0.8560187816619873 0.75647759437561035 0.83268028497695923
0.93714147806167603 0.76236319541931152 0.82650649547576904
0.61525797843933105 0.8308597207069397 0.84127861261367798
0.63843977451324463 0.83322107791900635 0.84174329042434692
0.67128777503967285 0.8316224217414856 0.84042066335678101
0.72135812044143677 0.83167701959609985 0.8459852933883667
0.7830272912979126 0.83263349533081055 0.84908342361450195
0.85625237226486206 0.83800697326660156 0.84833580255508423
0.94291442632675171 0.84136122465133667 0.83746975660324097
0.75894451141357422 0.92214608192443848 0.88097536563873291
0.76913917064666748 0.92339640855789185 0.88131320476531982
0.78176039457321167 0.92162430286407471 0.88089478015899658
0.80945819616317749 0.9222901463508606 0.88227242231369019
0.84441232681274414 0.92492848634719849 0.88575392961502075
0.88065862655639648 0.92371863126754761 0.88126331567764282
0.9387209415435791 0.93826371431350708 0.86670738458633423
0.42220777273178101 0.40794402360916138 0.93162661790847778
0.47803857922554016 0.41941595077514648 0.93122011423110962
0.56445658206939697 0.43934893608093262 0.92785024642944336
0.67613488435745239 0.4752732515335083 0.92475742101669312
0.78720897436141968 0.52396780252456665 0.92091512680053711
0.88923674821853638 0.57847356796264648 0.92085450887680054
0.97433030605316162 0.60642886161804199 0.91992479562759399
0.45309993624687195 0.47291085124015808 0.93020761013031006
0.49791973829269409 0.47978994250297546 0.93048906326293945
0.57503277063369751 0.49103158712387085 0.92767208814620972
0.68038690090179443 0.52475249767303467 0.92622113227844238
0.7872125506401062 0.56325745582580566 0.92185813188552856
0.88900119066238403 0.60975140333175659 0.92050468921661377
0.97150182723999023 0.63200533390045166 0.9220956563949585
0.47948980331420898 0.55839085578918457 0.92726755142211914
0.51726299524307251 0.56483209133148193 0.92587023973464966
0.5865248441696167 0.57547843456268311 0.92467153072357178
0.68433552980422974 0.59684109687805176 0.92415398359298706
0.786415696144104 0.62451577186584473 0.92017191648483276
0.88691604137420654 0.65853524208068848 0.91790634393692017
0.96669363975524902 0.67958313226699829 0.92029166221618652
0.50198549032211304 0.65875214338302612 0.92129778861999512
0.53531110286712646 0.66026067733764648 0.92477375268936157
0.59083211421966553 0.65915852785110474 0.92327123880386353
0.6816103458404541 0.67102789878845215 0.92260551452636719
0.78341656923294067 0.69351279735565186 0.92164462804794312
0.87957173585891724 0.71767449378967285 0.92024201154708862
0.95991849899291992 0.73457366228103638 0.92310351133346558
0.48856964707374573 0.74540901184082031 0.91858416795730591
0.5140688419342041 0.74291849136352539 0.91653811931610107
0.57142150402069092 0.74428474903106689 0.91827380657196045
0.66223251819610596 0.74695867300033569 0.92039656639099121
0.76349055767059326 0.76362305879592896 0.91979360580444336
0.87160730361938477 0.78233456611633301 0.92556083202362061
0.95828729867935181 0.79779398441314697 0.92881911993026733
0.6122201681137085 0.84853911399841309 0.92622047662734985
0.62998121976852417 0.8507150411605835 0.92644822597503662
0.65451335906982422 0.84642237424850464 0.92528396844863892
0.69762295484542847 0.84239912033081055 0.92858505249023438
0.75568646192550659 0.83845674991607666 0.92750108242034912
0.85611623525619507 0.84886837005615234 0.9330710768699646
0.95455968379974365 0.86492305994033813 0.93820333480834961
0.73260200023651123 0.93635320663452148 0.93907618522644043
0.74225908517837524 0.93776178359985352 0.94106465578079224
0.76034867763519287 0.93737906217575073 0.94198703765869141
0.79160284996032715 0.94009041786193848 0.94438076019287109
0.83679354190826416 0.93865966796875 0.94777011871337891
0.89121526479721069 0.94052636623382568 0.95094132423400879
0.95338153839111328 0.94752824306488037 0.9501526951789856
