luts/negative_old/kodak_portra_400_uc_-.cube
# Created by: G'MIC (https://gmic.eu)
TITLE "kodak_portra_400_uc_-"
# LUT size
LUT_3D_SIZE 13
# Data domain
DOMAIN_MIN 0.0 0.0 0.0
DOMAIN_MAX 1.0 1.0 1.0
# LUT data points
0.011429790407419205 0.016360457986593246 0.017534876242280006
0.051388788968324661 0.020527798682451248 0.018913343548774719
0.13997103273868561 0.036244262009859085 0.017640581354498863
0.23572744429111481 0.039825290441513062 0.016234857961535454
0.35162138938903809 0.028745792806148529 0.0074970172718167305
0.47726362943649292 0.013462096452713013 0.0046085282228887081
0.59646999835968018 0.0094190407544374466 0.0088826948776841164
0.70553278923034668 0.0096406377851963043 0.015053767710924149
0.795920729637146 0.0069925496354699135 0.0079661048948764801
0.87299871444702148 0.0083625642582774162 0.0003781935665756464
0.93736684322357178 0.026849798858165741 0.00043254179763607681
0.97882246971130371 0.096446961164474487 0.0028513739816844463
0.99312317371368408 0.1728205531835556 0.0023441838566213846
0.0060375137254595757 0.056290958076715469 0.022870456799864769
0.044206313788890839 0.062969177961349487 0.020205345004796982
0.13604168593883514 0.07897639274597168 0.01154041662812233
0.24174328148365021 0.093866504728794098 0.0085249505937099457
0.36073338985443115 0.092537477612495422 0.0058470484800636768
0.48707336187362671 0.080266512930393219 0.0054115443490445614
0.6051514744758606 0.063699148595333099 0.011307764798402786
0.71042555570602417 0.05450752004981041 0.015895694494247437
0.79577803611755371 0.054556485265493393 0.0059339934960007668
0.87241744995117188 0.065923430025577545 0.0020879108924418688
0.93546736240386963 0.10412244498729706 0.0014890334568917751
0.98654448986053467 0.15284264087677002 0.0019410375971347094
0.99775654077529907 0.20382802188396454 0.001883084187284112
0.0032992493361234665 0.13694204390048981 0.039962738752365112
0.017606697976589203 0.14261177182197571 0.033706080168485641
0.098245240747928619 0.1599501371383667 0.021703518927097321
0.22928224503993988 0.17723739147186279 0.0086226221174001694
0.3674241304397583 0.1849684864282608 0.010949946008622646
0.50521630048751831 0.18424741923809052 0.0083754295483231544
0.62050700187683105 0.17256459593772888 0.0096889417618513107
0.71691334247589111 0.16675171256065369 0.0095931859686970711
0.79739958047866821 0.16538381576538086 0.0059774662367999554
0.87253040075302124 0.17377772927284241 0.0049792719073593616
0.9363703727722168 0.19972379505634308 0.0044786040671169758
0.98792964220046997 0.22196488082408905 0.0025328244082629681
0.99976646900177002 0.25685760378837585 0.002541770227253437
0.003236433956772089 0.23331268131732941 0.056096740067005157
0.0055810664780437946 0.23574027419090271 0.052459537982940674
0.033862512558698654 0.24459779262542725 0.040498215705156326
0.17192016541957855 0.26778918504714966 0.02419993095099926
0.34622520208358765 0.28984189033508301 0.010963814333081245
0.50240993499755859 0.2950531542301178 0.00795745849609375
0.63030707836151123 0.28054177761077881 0.0044491635635495186
0.72286444902420044 0.27365309000015259 0.0046999314799904823
0.80184680223464966 0.26924535632133484 0.0051701865158975124
0.87394571304321289 0.27328935265541077 0.0063406401313841343
0.93696331977844238 0.28225055336952209 0.0053876540623605251
0.98666131496429443 0.29816502332687378 0.0028988856356590986
0.99960076808929443 0.315673828125 0.0034475738648325205
0.0021189821418374777 0.33107081055641174 0.084745354950428009
0.0046850466169416904 0.33602917194366455 0.08676021546125412
0.0066102421842515469 0.34637713432312012 0.08165866881608963
0.078430518507957458 0.3633931577205658 0.066455945372581482
0.28082233667373657 0.38693884015083313 0.035996261984109879
0.47022584080696106 0.40466198325157166 0.010581805370748043
0.60843956470489502 0.39781573414802551 0.0032339657191187143
0.71496844291687012 0.38021513819694519 0.0037447013892233372
0.80712407827377319 0.36595699191093445 0.003278006799519062
0.87647020816802979 0.36352759599685669 0.0038951649330556393
0.9388841986656189 0.36687541007995605 0.0032115413341671228
0.98913115262985229 0.36916342377662659 0.0019594528712332249
0.99733704328536987 0.37492680549621582 0.0044611012563109398
0.0011965882731601596 0.42524227499961853 0.12936854362487793
0.0039431103505194187 0.43277013301849365 0.13195940852165222
0.0044064689427614212 0.43994280695915222 0.13057984411716461
0.023288518190383911 0.44946128129959106 0.12462586164474487
0.18878057599067688 0.46434915065765381 0.098369389772415161
0.39520016312599182 0.48300063610076904 0.057008467614650726
0.56356179714202881 0.49834907054901123 0.02272581122815609
0.6884576678276062 0.49240398406982422 0.0058380127884447575
0.78625613451004028 0.4730372428894043 0.0045538507401943207
0.86979025602340698 0.45815834403038025 0.003994407132267952
0.93645262718200684 0.45043909549713135 0.001757199177518487
0.98265188932418823 0.44882041215896606 0.00096456491155549884
0.99603176116943359 0.44911342859268188 0.0039332369342446327
0.00025221880059689283 0.51416289806365967 0.17423932254314423
0.0038155799265950918 0.5183182954788208 0.1816541850566864
0.0050130356103181839 0.52321368455886841 0.18544773757457733
0.010038173757493496 0.52840286493301392 0.18185319006443024
0.11089293658733368 0.5361291766166687 0.16916009783744812
0.32094800472259521 0.55024045705795288 0.14503093063831329
0.48898574709892273 0.56439793109893799 0.1061473935842514
0.64190524816513062 0.58134448528289795 0.05248655378818512
0.75719404220581055 0.5813029408454895 0.015083507634699345
0.84485507011413574 0.56555634737014771 0.0079236496239900589
0.91773825883865356 0.54885232448577881 0.0049806931056082249
0.97561883926391602 0.53435367345809937 0.0031837462447583675
0.99379962682723999 0.52982091903686523 0.0038655598182231188
0.0006419462151825428 0.59153318405151367 0.22094188630580902
0.0039137895219027996 0.59366440773010254 0.23175987601280212
0.0061299791559576988 0.59684675931930542 0.23676717281341553
0.0087504368275403976 0.59952682256698608 0.23396915197372437
0.068678654730319977 0.60333335399627686 0.22627893090248108
0.27330529689788818 0.61494380235671997 0.21481555700302124
0.4303920567035675 0.62568366527557373 0.19346000254154205
0.57271933555603027 0.6374366283416748 0.15999789535999298
0.70517736673355103 0.65591722726821899 0.10344808548688889
0.81273257732391357 0.6640317440032959 0.053289793431758881
0.89067572355270386 0.65383291244506836 0.017471911385655403
0.95310312509536743 0.63747262954711914 0.007112555205821991
0.98411321640014648 0.63000833988189697 0.0045832465402781963
0.00074462889460846782 0.66448318958282471 0.27154797315597534
0.0040028588846325874 0.66641443967819214 0.28113114833831787
0.0082985525950789452 0.66765516996383667 0.28683629631996155
0.0097820954397320747 0.66850310564041138 0.28618043661117554
0.0549800805747509 0.67015570402145386 0.28056055307388306
0.24833671748638153 0.67875361442565918 0.27559921145439148
0.39542627334594727 0.68730700016021729 0.26264509558677673
0.52564060688018799 0.69647550582885742 0.24585831165313721
0.64941716194152832 0.71162819862365723 0.22142578661441803
0.76846277713775635 0.72968381643295288 0.1889234334230423
0.86338144540786743 0.73748481273651123 0.1418614387512207
0.93398749828338623 0.73299884796142578 0.07062123715877533
0.98376667499542236 0.72463339567184448 0.023015175014734268
0.0018537184223532677 0.73636764287948608 0.32440569996833801
0.0039011486805975437 0.73626363277435303 0.33322170376777649
0.0074048507958650589 0.73783886432647705 0.33902677893638611
0.010260188952088356 0.73857766389846802 0.33729678392410278
0.093190871179103851 0.73830586671829224 0.33868852257728577
0.26444241404533386 0.74271053075790405 0.33998790383338928
0.3949989378452301 0.74805498123168945 0.33377650380134583
0.5085068941116333 0.75315076112747192 0.32597413659095764
0.61765462160110474 0.76247525215148926 0.31188133358955383
0.71842938661575317 0.77402186393737793 0.29154735803604126
0.82149434089660645 0.78960859775543213 0.27598267793655396
0.90876948833465576 0.80003535747528076 0.24364222586154938
0.97087240219116211 0.80034780502319336 0.1959654837846756
0.014152227900922298 0.80517059564590454 0.39406302571296692
0.027707716450095177 0.80378174781799316 0.39558225870132446
0.0383770652115345 0.80463653802871704 0.39656665921211243
0.11473003029823303 0.80531954765319824 0.40122899413108826
0.2181001603603363 0.80276334285736084 0.40896689891815186
0.32751217484474182 0.80304962396621704 0.41487130522727966
0.42491179704666138 0.80630296468734741 0.4142613410949707
0.51845937967300415 0.81078296899795532 0.40614229440689087
0.60933709144592285 0.81800740957260132 0.39619973301887512
0.70026588439941406 0.82489532232284546 0.38947808742523193
0.78602409362792969 0.83147507905960083 0.37742501497268677
0.87194323539733887 0.84354007244110107 0.36721557378768921
0.94880896806716919 0.8569495677947998 0.35550948977470398
0.22081069648265839 0.86841297149658203 0.48815667629241943
0.24298948049545288 0.86795908212661743 0.49001950025558472
0.27433663606643677 0.86710333824157715 0.49561744928359985
0.3167833685874939 0.86481690406799316 0.50291699171066284
0.36815884709358215 0.86304891109466553 0.50642174482345581
0.42815038561820984 0.86313402652740479 0.50894057750701904
0.49458283185958862 0.86506599187850952 0.50996345281600952
0.56513875722885132 0.86905497312545776 0.50702428817749023
0.63329291343688965 0.87436759471893311 0.5025780200958252
0.70368027687072754 0.87956762313842773 0.49969011545181274
0.7818303108215332 0.88395673036575317 0.4935339093208313
0.85263979434967041 0.88923442363739014 0.48668897151947021
0.92043823003768921 0.90034210681915283 0.48462200164794922
0.46188366413116455 0.92590856552124023 0.60965251922607422
0.46639925241470337 0.92401671409606934 0.610260009765625
0.47915482521057129 0.92430931329727173 0.61515432596206665
0.49560916423797607 0.92129313945770264 0.62013417482376099
0.52440178394317627 0.92144352197647095 0.6246069073677063
0.55918174982070923 0.92101776599884033 0.62586551904678345
0.59550011157989502 0.92023825645446777 0.62723422050476074
0.64260566234588623 0.92436087131500244 0.63234895467758179
0.69032973051071167 0.9287835955619812 0.63125407695770264
0.73544639348983765 0.93167406320571899 0.62526929378509521
0.79490393400192261 0.93812119960784912 0.62697499990463257
0.85428214073181152 0.94228941202163696 0.62091583013534546
0.90770852565765381 0.94946771860122681 0.62185269594192505
0.015225713141262531 0.022653467953205109 0.062226060777902603
0.05660412460565567 0.020317826420068741 0.064122490584850311
0.13305795192718506 0.01929919607937336 0.064257599413394928
0.23711404204368591 0.020384978502988815 0.065264500677585602
0.3546714186668396 0.020991381257772446 0.057840056717395782
0.47597047686576843 0.013232601806521416 0.048033591359853745
0.59366530179977417 0.0073855980299413204 0.04913470521569252
0.70537018775939941 0.01056956872344017 0.039138451218605042
0.79487067461013794 0.0093081900849938393 0.0283939428627491
0.87057328224182129 0.010928180068731308 0.017720974981784821
0.93472898006439209 0.041841708123683929 0.015301169827580452
0.98376208543777466 0.11670717597007751 0.016821363940834999
0.9966009259223938 0.17819765210151672 0.01120388600975275
0.0069147595204412937 0.069341026246547699 0.07496141642332077
0.050785154104232788 0.07413889467716217 0.079175539314746857
0.13758571445941925 0.077912561595439911 0.072416715323925018
0.24817930161952972 0.077199019491672516 0.059375539422035217
0.36620163917541504 0.080275349318981171 0.055535364896059036
0.48707467317581177 0.079689055681228638 0.055197667330503464
0.60563546419143677 0.063992865383625031 0.047094922512769699
0.71278303861618042 0.05372517928481102 0.03282615914940834
0.79780727624893188 0.05612800270318985 0.023073861375451088
0.87127470970153809 0.076801568269729614 0.020485103130340576
0.93484401702880859 0.11461804062128067 0.016106579452753067
0.98513418436050415 0.16546501219272614 0.012825611047446728
0.99825018644332886 0.21250134706497192 0.009213167242705822
0.0024756188504397869 0.15064413845539093 0.095790520310401917
0.026280676946043968 0.15364482998847961 0.092523388564586639
0.12162620574235916 0.16719359159469604 0.085097402334213257
0.24648109078407288 0.17541317641735077 0.063496746122837067
0.38101634383201599 0.18158246576786041 0.047758754342794418
0.50661647319793701 0.18146577477455139 0.041349075734615326
0.6193387508392334 0.17479337751865387 0.037863548845052719
0.72034651041030884 0.16678138077259064 0.023804204538464546
0.80012983083724976 0.16891789436340332 0.022291384637355804
0.87267774343490601 0.17846797406673431 0.020517071709036827
0.93840128183364868 0.20172689855098724 0.012604223564267159
0.98571348190307617 0.22940672934055328 0.009129602462053299
0.99851387739181519 0.26246380805969238 0.0083794835954904556
0.0053468444384634495 0.24932925403118134 0.12483442574739456
0.011848255060613155 0.24989497661590576 0.11888767033815384
0.058947380632162094 0.25874471664428711 0.11109589040279388
0.19573523104190826 0.27848413586616516 0.09736410528421402
0.36560621857643127 0.29345899820327759 0.060478735715150833
0.51046955585479736 0.2877744734287262 0.030563639476895332
0.63160282373428345 0.28075340390205383 0.018401067703962326
0.72618800401687622 0.27482125163078308 0.015019973739981651
0.80639934539794922 0.27032151818275452 0.011826713569462299
0.8771553635597229 0.27395069599151611 0.010791674256324768
0.94009655714035034 0.28421574831008911 0.0084200538694858551
0.98437041044235229 0.30142965912818909 0.008200506679713726
0.99908268451690674 0.31980973482131958 0.0084987413138151169
0.0057357936166226864 0.35197430849075317 0.1597239226102829
0.0052801691927015781 0.35266849398612976 0.15679918229579926
0.015205233357846737 0.35848724842071533 0.14920774102210999
0.11095564812421799 0.3719477653503418 0.13695622980594635
0.30650702118873596 0.39220893383026123 0.10502210259437561
0.47952467203140259 0.39832529425621033 0.065171830356121063
0.61715728044509888 0.39381074905395508 0.03004780225455761
0.72215050458908081 0.38053542375564575 0.01075451448559761
0.80662602186203003 0.3677305281162262 0.0095583749935030937
0.8774641752243042 0.3649495542049408 0.0093973949551582336
0.93895602226257324 0.37065926194190979 0.0064990771934390068
0.98350793123245239 0.37581804394721985 0.0073069254867732525
0.99704331159591675 0.38365289568901062 0.0091919396072626114
0.0041304044425487518 0.4432843029499054 0.18827879428863525
0.0050479513593018055 0.44918680191040039 0.19629926979541779
0.007220159750431776 0.45076179504394531 0.19265291094779968
0.044960875064134598 0.45483878254890442 0.18295696377754211
0.22979548573493958 0.46764236688613892 0.16452421247959137
0.417653888463974 0.48577126860618591 0.12698841094970703
0.57644307613372803 0.50026404857635498 0.088516741991043091
0.69553160667419434 0.49550282955169678 0.03864249587059021
0.79027098417282104 0.47820064425468445 0.010293609462678432
0.87011170387268066 0.46125039458274841 0.0091691110283136368
0.93351101875305176 0.45569664239883423 0.0064587313681840897
0.9820321798324585 0.45285883545875549 0.004273642785847187
0.99584507942199707 0.45605885982513428 0.0074930675327777863
0.0022409027442336082 0.52481931447982788 0.2168118953704834
0.0043661231175065041 0.53020584583282471 0.23305284976959229
0.005071557592600584 0.53127169609069824 0.23429816961288452
0.015626989305019379 0.53168958425521851 0.22719931602478027
0.15909132361412048 0.54037952423095703 0.21543143689632416
0.34343609213829041 0.55428361892700195 0.20283782482147217
0.50673633813858032 0.56874531507492065 0.17543226480484009
0.65174692869186401 0.58410793542861938 0.12541268765926361
0.76027613878250122 0.5818336009979248 0.068894751369953156
0.84584379196166992 0.5693092942237854 0.022170975804328918
0.91799044609069824 0.55197930335998535 0.0094904433935880661
0.97997993230819702 0.53597640991210938 0.0038126178551465273
0.99582970142364502 0.53365671634674072 0.0045751682482659817
0.0013117173220962286 0.59823513031005859 0.25604355335235596
0.0046749040484428406 0.60153007507324219 0.27130293846130371
0.0068676220253109932 0.60211938619613647 0.27319669723510742
0.013321401551365852 0.60210072994232178 0.26892539858818054
0.1153206005692482 0.60645902156829834 0.26184087991714478
0.29538336396217346 0.61802148818969727 0.25481286644935608
0.45150572061538696 0.62856805324554443 0.23818308115005493
0.59057754278182983 0.64144855737686157 0.20584440231323242
0.71337980031967163 0.65622007846832275 0.1709601879119873
0.8152087926864624 0.66085243225097656 0.10852944105863571
0.89188134670257568 0.65054595470428467 0.046257991343736649
0.95814108848571777 0.63806605339050293 0.013697425834834576
0.99124395847320557 0.62879282236099243 0.0087245265021920204
0.0013638365780934691 0.66975259780883789 0.30053973197937012
0.0043638939969241619 0.67213016748428345 0.3108159601688385
0.0080074239522218704 0.67255043983459473 0.31161791086196899
0.014038953930139542 0.67108482122421265 0.30868887901306152
0.10403810441493988 0.67272233963012695 0.30729019641876221
0.27485477924346924 0.68108338117599487 0.30591902136802673
0.41224664449691772 0.68934541940689087 0.29715919494628906
0.54002481698989868 0.69732308387756348 0.27841922640800476
0.65673565864562988 0.70787686109542847 0.25739219784736633
0.7686038613319397 0.72332173585891724 0.22596067190170288
0.85837447643280029 0.73018592596054077 0.17960467934608459
0.93557780981063843 0.73122012615203857 0.12317774444818497
0.98718500137329102 0.72267824411392212 0.055259719491004944
0.0041960622183978558 0.73896944522857666 0.35304459929466248
0.0044053168967366219 0.73980963230133057 0.35517051815986633
0.0084576625376939774 0.74137300252914429 0.35554543137550354
0.031731519848108292 0.74023783206939697 0.35407552123069763
0.14863991737365723 0.73968851566314697 0.36179172992706299
0.28539633750915527 0.74239629507064819 0.3670857846736908
0.40400713682174683 0.74911350011825562 0.361093670129776
0.51873672008514404 0.75478589534759521 0.34944301843643188
0.62774938344955444 0.76279568672180176 0.33589842915534973
0.72273951768875122 0.77317476272583008 0.31801870465278625
0.8180275559425354 0.78557866811752319 0.29955381155014038
0.90748381614685059 0.79708456993103027 0.27537938952445984
0.96979153156280518 0.7985350489616394 0.23420180380344391
0.023210203275084496 0.80628508329391479 0.41003885865211487
0.032983772456645966 0.80527812242507935 0.40942832827568054
0.067670427262783051 0.80596190690994263 0.41218221187591553
0.15909534692764282 0.80577182769775391 0.41964578628540039
0.24466754496097565 0.80276948213577271 0.42815151810646057
0.34188508987426758 0.8033149242401123 0.43591248989105225
0.4378722608089447 0.80775195360183716 0.43397873640060425
0.53157335519790649 0.81227511167526245 0.42601940035820007
0.6198420524597168 0.81884437799453735 0.41954752802848816
0.70666885375976562 0.82572031021118164 0.41268196702003479
0.78823596239089966 0.83216065168380737 0.40084537863731384
0.87337017059326172 0.84447699785232544 0.3908957839012146
0.94871640205383301 0.85820645093917847 0.38260450959205627
0.24367280304431915 0.86800259351730347 0.50178337097167969
0.26745414733886719 0.8691214919090271 0.5041356086730957
0.29833728075027466 0.86780589818954468 0.50712078809738159
0.33724382519721985 0.8651355504989624 0.51121729612350464
0.38121935725212097 0.86312806606292725 0.5172620415687561
0.44570520520210266 0.86331486701965332 0.52323544025421143
0.5083889365196228 0.86648952960968018 0.5254102349281311
0.57564359903335571 0.8695560097694397 0.52353167533874512
0.64076679944992065 0.87420129776000977 0.51839405298233032
0.70778757333755493 0.87982511520385742 0.51481884717941284
0.77800601720809937 0.88473820686340332 0.50830978155136108
0.85032075643539429 0.89038747549057007 0.50069218873977661
0.91728496551513672 0.89960801601409912 0.49584618210792542
0.46554341912269592 0.92474043369293213 0.6169622540473938
0.47420200705528259 0.92472696304321289 0.61796367168426514
0.48723065853118896 0.92420089244842529 0.62029182910919189
0.50160360336303711 0.92139977216720581 0.62352979183197021
0.53067868947982788 0.92110961675643921 0.63063973188400269
0.57047402858734131 0.92240029573440552 0.6378520131111145
0.60488945245742798 0.9224352240562439 0.64161533117294312
0.65073758363723755 0.92537248134613037 0.64462363719940186
0.69411861896514893 0.92869138717651367 0.63973087072372437
0.7407345175743103 0.9324226975440979 0.63784694671630859
0.7933652400970459 0.93585884571075439 0.63152700662612915
0.8517991304397583 0.941567063331604 0.62807142734527588
0.90616047382354736 0.94883531332015991 0.62845516204833984
0.01044883020222187 0.02627410925924778 0.14836509525775909
0.057752244174480438 0.02221597358584404 0.15100722014904022
0.13501507043838501 0.021719450131058693 0.15439409017562866
0.23306132853031158 0.016125040128827095 0.15157647430896759
0.34965726733207703 0.0085924630984663963 0.14090242981910706
0.47497919201850891 0.0061115487478673458 0.13371965289115906
0.59478610754013062 0.0078497640788555145 0.13305042684078217
0.70329302549362183 0.018450239673256874 0.13655559718608856
0.79144489765167236 0.030596714466810226 0.13880681991577148
0.86539524793624878 0.057327553629875183 0.1300547868013382
0.92883265018463135 0.10190851241350174 0.11575869470834732
0.98135983943939209 0.15622726082801819 0.10234886407852173
0.99654513597488403 0.20647132396697998 0.093968227505683899
0.0050482209771871567 0.078579246997833252 0.15833522379398346
0.045526571571826935 0.082355141639709473 0.16485680639743805
0.13853281736373901 0.084932394325733185 0.16736435890197754
0.25103986263275146 0.081095948815345764 0.15934522449970245
0.36808392405509949 0.062458578497171402 0.15022017061710358
0.48749592900276184 0.058383822441101074 0.14858391880989075
0.60862857103347778 0.06680113822221756 0.14770896732807159
0.71184831857681274 0.085767634212970734 0.14246545732021332
0.79368418455123901 0.10326087474822998 0.13610370457172394
0.86601835489273071 0.12756980955600739 0.12865792214870453
0.93069988489151001 0.1586347371339798 0.11157615482807159
0.98170429468154907 0.19820432364940643 0.097130581736564636
0.99736225605010986 0.24010510742664337 0.090165726840496063
0.0027879003901034594 0.16536104679107666 0.17435939610004425
0.039415471255779266 0.17051996290683746 0.1816011369228363
0.14116626977920532 0.17848743498325348 0.17983153462409973
0.26140394806861877 0.18521413207054138 0.16815467178821564
0.38441559672355652 0.18742966651916504 0.16044190526008606
0.50672322511672974 0.18924771249294281 0.15395338833332062
0.62208086252212524 0.18735587596893311 0.1428629606962204
0.71954548358917236 0.19036751985549927 0.12880827486515045
0.79837888479232788 0.19831365346908569 0.1245778426527977
0.86890530586242676 0.20881141722202301 0.12183176726102829
0.9342084527015686 0.22681538760662079 0.10549799352884293
0.98325371742248535 0.25105854868888855 0.089465811848640442
0.99761146306991577 0.28476384282112122 0.084002569317817688
0.0034877252764999866 0.26443451642990112 0.19513288140296936
0.029599567875266075 0.26887577772140503 0.19714279472827911
0.11055480688810349 0.27562448382377625 0.19571526348590851
0.23546577990055084 0.28749531507492065 0.19112713634967804
0.38279199600219727 0.29788950085639954 0.17134496569633484
0.51654517650604248 0.29618152976036072 0.14871217310428619
0.6337619423866272 0.29065397381782532 0.12828847765922546
0.72580945491790771 0.28808096051216125 0.11509673297405243
0.8051263689994812 0.28273674845695496 0.11016256362199783
0.87409943342208862 0.28702464699745178 0.10412308573722839
0.9384080171585083 0.29596510529518127 0.091412380337715149
0.98613828420639038 0.31291693449020386 0.080563627183437347
0.99890625476837158 0.33638983964920044 0.080336779356002808
0.0057721007615327835 0.37123909592628479 0.23506699502468109
0.022402893751859665 0.37401974201202393 0.23369681835174561
