luts/negative_old/kodak_portra_400_vc_-.cube
# Created by: G'MIC (https://gmic.eu)
TITLE "kodak_portra_400_vc_-"
# LUT size
LUT_3D_SIZE 5
# Data domain
DOMAIN_MIN 0.0 0.0 0.0
DOMAIN_MAX 1.0 1.0 1.0
# LUT data points
0.0078388284891843796 0.011293463408946991 0.015070133842527866
0.21536524593830109 0.045654013752937317 0.009326261468231678
0.53400158882141113 0.040981173515319824 0.0043815909884870052
0.78674417734146118 0.054171018302440643 0.0034896400757133961
0.97367161512374878 0.17332576215267181 0.00037590475403703749
0.00057543587172403932 0.23304376006126404 0.077796444296836853
0.18215878307819366 0.27006122469902039 0.032591816037893295
0.59762072563171387 0.28188616037368774 0.0032577663660049438
0.81232267618179321 0.27415502071380615 0.0037552777212113142
0.9838903546333313 0.29952836036682129 0.001055983011610806
0.00073743332177400589 0.50312453508377075 0.21918831765651703
0.069101043045520782 0.50507897138595581 0.22119446098804474
0.49961331486701965 0.5510103702545166 0.13902392983436584
0.81390321254730225 0.55404335260391235 0.0074080075137317181
0.99313336610794067 0.50501877069473267 0
0.13358369469642639 0.71118390560150146 0.36990836262702942
0.26948952674865723 0.70448803901672363 0.37905046343803406
0.46452850103378296 0.71549826860427856 0.35982096195220947
0.70779240131378174 0.7468644380569458 0.30267888307571411
0.96555948257446289 0.77151226997375488 0.19693805277347565
0.54402107000350952 0.89731025695800781 0.63166308403015137
0.57365506887435913 0.89532852172851562 0.63337749242782593
0.64226973056793213 0.89610707759857178 0.64028078317642212
0.74842435121536255 0.91344857215881348 0.62521153688430786
0.91070830821990967 0.93986833095550537 0.59817582368850708
0.0021691564470529556 0.030174434185028076 0.25619032979011536
0.22261045873165131 0.033165920525789261 0.2644311785697937
0.55878305435180664 0.00588963832706213 0.22254550457000732
0.78618317842483521 0.05214354395866394 0.19828946888446808
0.96991914510726929 0.19264592230319977 0.16158626973628998
0.002027174923568964 0.28102985024452209 0.28772196173667908
0.25546461343765259 0.29833158850669861 0.30361267924308777
0.58558082580566406 0.28796118497848511 0.26729017496109009
0.79733562469482422 0.29117149114608765 0.21815165877342224
0.97391563653945923 0.3178246021270752 0.16626615822315216
0.15901409089565277 0.54571032524108887 0.37892600893974304
0.28132814168930054 0.5358726978302002 0.37466064095497131
0.53540444374084473 0.55940145254135132 0.34141409397125244
0.81585252285003662 0.54554057121276855 0.25441038608551025
0.98267489671707153 0.51644492149353027 0.17204609513282776
0.29781627655029297 0.72359514236450195 0.45793882012367249
0.37149083614349365 0.71887177228927612 0.4631924033164978
0.50968128442764282 0.71957409381866455 0.45681393146514893
0.72181123495101929 0.75162291526794434 0.42033901810646057
0.96356356143951416 0.76894980669021606 0.35352757573127747
0.56856238842010498 0.90154051780700684 0.66174048185348511
0.59483450651168823 0.89785826206207275 0.66458785533905029
0.65949302911758423 0.89715510606765747 0.67373591661453247
0.76124978065490723 0.91434317827224731 0.66605812311172485
0.91510432958602905 0.94055831432342529 0.64281952381134033
0.0023132623173296452 0.10465825349092484 0.53725874423980713
0.18253058195114136 0.11973000317811966 0.54564619064331055
0.57359683513641357 0.13503514230251312 0.55324465036392212
0.81823527812957764 0.18046309053897858 0.50064802169799805
0.98563843965530396 0.12890173494815826 0.42364031076431274
0.0040099797770380974 0.32395356893539429 0.55205315351486206
0.25581240653991699 0.33810555934906006 0.56225872039794922
0.58050298690795898 0.34849923849105835 0.55809903144836426
0.81195604801177979 0.35582000017166138 0.51751250028610229
0.97870761156082153 0.31061461567878723 0.43896603584289551
0.14670203626155853 0.57368463277816772 0.57015138864517212
0.36773622035980225 0.57595574855804443 0.57865434885025024
0.60019594430923462 0.57579886913299561 0.58000189065933228
0.79910498857498169 0.55344599485397339 0.52980536222457886
0.96891707181930542 0.53336876630783081 0.46372562646865845
0.46076890826225281 0.75285816192626953 0.63751798868179321
0.5259280800819397 0.7485160231590271 0.63285475969314575
0.59579145908355713 0.73725110292434692 0.61821305751800537
0.75130802392959595 0.75619637966156006 0.60300362110137939
0.96661865711212158 0.75570064783096313 0.546314537525177
0.63159793615341187 0.91092562675476074 0.74016815423965454
0.64683884382247925 0.91077041625976562 0.73838549852371216
0.69208776950836182 0.90408098697662354 0.73684155941009521
0.78625249862670898 0.91494590044021606 0.74310141801834106
0.92242574691772461 0.94342100620269775 0.72716337442398071
0.0010223538847640157 0.21894752979278564 0.76810640096664429
0.21769171953201294 0.23428307473659515 0.77085655927658081
0.56570839881896973 0.27584829926490784 0.76865667104721069
0.80425429344177246 0.32224026322364807 0.76699340343475342
0.96730309724807739 0.39183840155601501 0.73008018732070923
0.0088950358331203461 0.36974248290061951 0.76934671401977539
0.2938697338104248 0.38539353013038635 0.76864135265350342
0.58328151702880859 0.40981349349021912 0.76786810159683228
0.80309271812438965 0.44977465271949768 0.7678341269493103
0.96552437543869019 0.48916006088256836 0.737518310546875
0.12629415094852448 0.57371985912322998 0.75122350454330444
0.34592404961585999 0.57739758491516113 0.75460004806518555
0.57763195037841797 0.58698683977127075 0.76053732633590698
0.78887170553207397 0.62006682157516479 0.76534324884414673
0.95678174495697021 0.62920647859573364 0.74731075763702393
0.41835135221481323 0.76412010192871094 0.76956671476364136
0.49828314781188965 0.76804065704345703 0.77143895626068115
0.63558346033096313 0.7658190131187439 0.78094196319580078
0.78932005167007446 0.77205181121826172 0.78379195928573608
0.95251178741455078 0.74761688709259033 0.73863083124160767
0.65977591276168823 0.92652767896652222 0.83680033683776855
0.68991613388061523 0.92755311727523804 0.83875012397766113
0.75141113996505737 0.9273141622543335 0.84281277656555176
0.81972545385360718 0.92298948764801025 0.8360939621925354
0.94376927614212036 0.94637411832809448 0.82937431335449219
0.34784284234046936 0.42588791251182556 0.93985742330551147
0.45924994349479675 0.43427962064743042 0.93515598773956299
0.63563144207000732 0.46518382430076599 0.93391740322113037
0.81512147188186646 0.52907311916351318 0.9273611307144165
0.97545671463012695 0.56857216358184814 0.93164730072021484
0.39164382219314575 0.5087357759475708 0.93866103887557983
0.48024836182594299 0.51387971639633179 0.93559348583221436
0.64312928915023804 0.5372995138168335 0.93328332901000977
0.8167870044708252 0.58981204032897949 0.93185460567474365
0.97039419412612915 0.62106728553771973 0.93097966909408569
0.44185230135917664 0.65270429849624634 0.93327909708023071
0.50452721118927002 0.64799505472183228 0.93274307250976562
0.63600462675094604 0.65018385648727417 0.93265819549560547
0.8119921088218689 0.68343037366867065 0.93151175975799561
0.96497750282287598 0.71370840072631836 0.93327218294143677
0.43621653318405151 0.79088538885116577 0.92715209722518921
0.491575688123703 0.78985399007797241 0.92900979518890381
0.60520315170288086 0.78246498107910156 0.92597615718841553
0.79373908042907715 0.79155141115188599 0.93637299537658691
0.96660518646240234 0.8215644359588623 0.94377285242080688
0.62718480825424194 0.95393431186676025 0.9490845799446106
0.65494155883789062 0.95234858989715576 0.95065069198608398
0.72512036561965942 0.95387649536132812 0.95547318458557129
0.83223384618759155 0.95340561866760254 0.95805108547210693
0.96665084362030029 0.96206563711166382 0.96459430456161499
