luts/negative_old/kodak_portra_400_uc_+.cube
# Created by: G'MIC (https://gmic.eu)
TITLE "kodak_portra_400_uc_+"
# LUT size
LUT_3D_SIZE 13
# Data domain
DOMAIN_MIN 0.0 0.0 0.0
DOMAIN_MAX 1.0 1.0 1.0
# LUT data points
0.067128323018550873 0.076630689203739166 0.066567651927471161
0.093128129839897156 0.080111920833587646 0.065901182591915131
0.1575191468000412 0.082163505256175995 0.062098514288663864
0.23862031102180481 0.084659889340400696 0.055355489253997803
0.3398253321647644 0.093033015727996826 0.051528062671422958
0.45650151371955872 0.090335234999656677 0.038852587342262268
0.57212656736373901 0.084326393902301788 0.017542775720357895
0.68120753765106201 0.085842356085777283 0.0077576879411935806
0.77673721313476562 0.099033743143081665 0.0022083655931055546
0.84922075271606445 0.12726736068725586 0.0013505674432963133
0.91492891311645508 0.15633286535739899 0.0017775292508304119
0.97565454244613647 0.18438269197940826 0.0015975951682776213
0.9969140887260437 0.21985562145709991 0.0013068554690107703
0.056940849870443344 0.10507404059171677 0.067592471837997437
0.086809553205966949 0.11195222288370132 0.067539513111114502
0.15557800233364105 0.11873917281627655 0.060073733329772949
0.24539145827293396 0.12473246455192566 0.048138279467821121
0.34765863418579102 0.13917738199234009 0.040156077593564987
0.46249184012413025 0.14041538536548615 0.026022667065262794
0.57649105787277222 0.13682554662227631 0.0088401343673467636
0.68415790796279907 0.14600148797035217 0.0056330510415136814
0.78058546781539917 0.15662354230880737 0.003877108683809638
0.85465914011001587 0.17047417163848877 0.0033362444955855608
0.91878277063369751 0.19437555968761444 0.0014268015511333942
0.97719192504882812 0.21956314146518707 0.0012912675738334656
0.99685961008071899 0.248019739985466 0.0012419307604432106
0.024784073233604431 0.16238807141780853 0.073624193668365479
0.058145619928836823 0.16693466901779175 0.074279725551605225
0.12919548153877258 0.176104336977005 0.065584979951381683
0.2293800413608551 0.1872129887342453 0.048314336687326431
0.34799423813819885 0.20081840455532074 0.023173447698354721
0.47336184978485107 0.20868121087551117 0.013687417842447758
0.59221565723419189 0.21433940529823303 0.0055682314559817314
0.69438731670379639 0.22189129889011383 0.0040477677248418331
0.78173637390136719 0.22885625064373016 0.0026285059284418821
0.85228449106216431 0.23658837378025055 0.0039551528170704842
0.91598242521286011 0.25292849540710449 0.0039239623583853245
0.97217649221420288 0.27339261770248413 0.0015910130459815264
0.99333810806274414 0.29448029398918152 0.0017628688365221024
0.0063474765047430992 0.23973123729228973 0.085062332451343536
0.014395710080862045 0.24057526886463165 0.083961442112922668
0.067030183970928192 0.24651741981506348 0.076154343783855438
0.18770912289619446 0.26668354868888855 0.057476524263620377
0.33568474650382996 0.2918553352355957 0.020696917548775673
0.48082765936851501 0.30578428506851196 0.0081099867820739746
0.60865956544876099 0.30350974202156067 0.0052099190652370453
0.70546835660934448 0.30422604084014893 0.0028947717510163784
0.78450220823287964 0.30755442380905151 0.0020098816603422165
0.8512498140335083 0.31133818626403809 0.0038928461726754904
0.91454601287841797 0.31602904200553894 0.0038730846717953682
0.97023814916610718 0.32997336983680725 0.0011877770302817225
0.99146592617034912 0.34331512451171875 0.0012328204466030002
0.0023875515908002853 0.33320748805999756 0.10205502808094025
0.0068750269711017609 0.33758071064949036 0.1042637974023819
0.018133994191884995 0.34273034334182739 0.098936401307582855
0.11150074750185013 0.35752439498901367 0.080855920910835266
0.2811683714389801 0.37971997261047363 0.042711790651082993
0.45118209719657898 0.40460330247879028 0.010388108901679516
0.59039843082427979 0.40666064620018005 0.0044035669416189194
0.69610601663589478 0.39793139696121216 0.0029893612954765558
0.78509068489074707 0.38743287324905396 0.0019266465678811073
0.8530350923538208 0.38768753409385681 0.0019760432187467813
0.91646599769592285 0.38900676369667053 0.0014957353705540299
0.97259765863418579 0.39044448733329773 0.00095117604359984398
0.98989206552505493 0.39481860399246216 0.00043204813846386969
0.0020769755356013775 0.43053808808326721 0.12221187353134155
0.0062134237959980965 0.43590697646141052 0.13083058595657349
0.0094191161915659904 0.43892490863800049 0.1282617449760437
0.037016294896602631 0.44589203596115112 0.11583133786916733
0.20306092500686646 0.45967498421669006 0.087854437530040741
0.38351297378540039 0.4792388379573822 0.042712926864624023
0.54784327745437622 0.49855166673660278 0.010003646835684776
0.66802644729614258 0.49862334132194519 0.0028030097018927336
0.76310694217681885 0.4855448305606842 0.0029899745713919401
0.84606337547302246 0.4703211784362793 0.0016606050776317716
0.91609430313110352 0.45990467071533203 0.00044548185542225838
0.96907800436019897 0.45736402273178101 0.0014418658101931214
0.99191516637802124 0.45729395747184753 0.0016392128309234977
0.0012618419714272022 0.51527726650238037 0.15310660004615784
0.0044383630156517029 0.51944154500961304 0.16408286988735199
0.0079333139583468437 0.52180969715118408 0.16677400469779968
0.011005072854459286 0.5269702672958374 0.15767431259155273
0.10739812254905701 0.53459042310714722 0.14099019765853882
0.30942875146865845 0.54563045501708984 0.10499125719070435
0.47584742307662964 0.55907469987869263 0.061557307839393616
0.62330156564712524 0.57528692483901978 0.024628104642033577
0.74022841453552246 0.57924830913543701 0.0073739294894039631
0.82405155897140503 0.56448888778686523 0.0057524885050952435
0.89844012260437012 0.54765570163726807 0.0045901876874268055
0.96097862720489502 0.53334200382232666 0.0030580856837332249
0.99514800310134888 0.52570819854736328 0.0016092637088149786
3.2671759981894866e-05 0.59046053886413574 0.19109100103378296
0.001640753704123199 0.59453088045120239 0.20415768027305603
0.005228094756603241 0.59575200080871582 0.20887917280197144
0.0086620105430483818 0.59857463836669922 0.20479434728622437
0.048032470047473907 0.60098493099212646 0.19736661016941071
0.2508033812046051 0.60791242122650146 0.18005697429180145
0.41772836446762085 0.61709815263748169 0.1543254554271698
0.56344980001449585 0.62951743602752686 0.1224958524107933
0.69635754823684692 0.64725100994110107 0.072988100349903107
0.80022126436233521 0.65197843313217163 0.028862733393907547
0.87850558757781982 0.64050459861755371 0.0096252588555216789
0.94371402263641357 0.62236815690994263 0.0061898925341665745
0.98554939031600952 0.60946154594421387 0.0040508494712412357
0 0.65976375341415405 0.24643771350383759
0.00032377056777477264 0.6631929874420166 0.25295338034629822
0.0025995143223553896 0.66379928588867188 0.25534242391586304
0.0044438829645514488 0.66298907995223999 0.25820216536521912
0.025779424235224724 0.66317808628082275 0.25776845216751099
0.21852864325046539 0.66888242959976196 0.25063830614089966
0.38868612051010132 0.6761319637298584 0.237089604139328
0.52331435680389404 0.68399679660797119 0.21831697225570679
0.64025789499282837 0.69526928663253784 0.19511005282402039
0.75795561075210571 0.7127339243888855 0.16288609802722931
0.85399478673934937 0.7188270092010498 0.10707590728998184
0.9239732027053833 0.71002745628356934 0.049391623586416245
0.97716665267944336 0.698356032371521 0.013803699053823948
0.00031874413252808154 0.72443222999572754 0.31068980693817139
0.0012311898171901703 0.72485226392745972 0.31855529546737671
0.0044611315242946148 0.72587740421295166 0.32191291451454163
0.0061248182319104671 0.72595483064651489 0.32452452182769775
0.057393435388803482 0.72341811656951904 0.32647088170051575
0.23976515233516693 0.72695529460906982 0.32851299643516541
0.38271161913871765 0.73347395658493042 0.32459479570388794
0.49680811166763306 0.73976486921310425 0.3116682767868042
0.60193687677383423 0.74786478281021118 0.29691869020462036
0.70436185598373413 0.75698435306549072 0.28007721900939941
0.8064349889755249 0.76573902368545532 0.26010864973068237
0.89580732583999634 0.77607107162475586 0.23082223534584045
0.96352595090866089 0.77488237619400024 0.17710211873054504
0.011653466150164604 0.78746688365936279 0.39273327589035034
0.020571032539010048 0.78629183769226074 0.39241129159927368
0.036809343844652176 0.78656798601150513 0.39508917927742004
0.093942977488040924 0.78651958703994751 0.40052571892738342
0.2049105167388916 0.78342223167419434 0.40719202160835266
0.30742686986923218 0.7818877100944519 0.41182991862297058
0.42288583517074585 0.78747493028640747 0.41398212313652039
0.51373797655105591 0.79239612817764282 0.40725612640380859
0.60070598125457764 0.79886996746063232 0.40029439330101013
0.68585926294326782 0.80547416210174561 0.39291611313819885
0.77354878187179565 0.81053990125656128 0.37737920880317688
0.85820555686950684 0.82030165195465088 0.3657819926738739
0.93628418445587158 0.83333361148834229 0.3617156445980072
0.22358645498752594 0.84558713436126709 0.49118244647979736
0.24501998722553253 0.84472250938415527 0.49174773693084717
0.28153261542320251 0.84447890520095825 0.49621012806892395
0.32296103239059448 0.84330189228057861 0.50098216533660889
0.37183853983879089 0.84082120656967163 0.50468200445175171
0.42429521679878235 0.83916813135147095 0.50646156072616577
0.48878934979438782 0.84252417087554932 0.51032811403274536
0.55570226907730103 0.84540069103240967 0.50848966836929321
0.62452077865600586 0.85072338581085205 0.50727647542953491
0.69724422693252563 0.85659396648406982 0.50487333536148071
0.76455622911453247 0.86188018321990967 0.49738892912864685
0.83514899015426636 0.8665732741355896 0.48723545670509338
0.89944249391555786 0.87507718801498413 0.48385140299797058
0.46422204375267029 0.89943802356719971 0.60343790054321289
0.46697354316711426 0.89813339710235596 0.60330992937088013
0.48291376233100891 0.89874041080474854 0.60571885108947754
0.50051242113113403 0.89769995212554932 0.60930806398391724
0.52233964204788208 0.89614111185073853 0.61248457431793213
0.55773621797561646 0.89557313919067383 0.61741232872009277
0.5950920581817627 0.89826011657714844 0.62252217531204224
0.63528913259506226 0.90059173107147217 0.62076163291931152
0.68163543939590454 0.90449219942092896 0.62252229452133179
0.7324669361114502 0.90880113840103149 0.62180310487747192
0.78469705581665039 0.91417038440704346 0.61871784925460815
0.83916199207305908 0.91991704702377319 0.61235135793685913
0.89127397537231445 0.92643159627914429 0.60873943567276001
0.067446447908878326 0.079783119261264801 0.096520520746707916
0.09948258101940155 0.081042930483818054 0.096137151122093201
0.16172519326210022 0.078710548579692841 0.094612881541252136
0.24125716090202332 0.07140660285949707 0.088904529809951782
0.3401947021484375 0.07265065610408783 0.086741171777248383
0.45281192660331726 0.079784050583839417 0.083791531622409821
0.57273584604263306 0.077599592506885529 0.07388700544834137
0.68328976631164551 0.083682909607887268 0.054791051894426346
0.77687644958496094 0.098447360098361969 0.035441499203443527
0.85042345523834229 0.12735399603843689 0.023060338571667671
0.91606205701828003 0.15388783812522888 0.012797785922884941
0.97098135948181152 0.18652482330799103 0.0090464577078819275
0.9958423376083374 0.22222898900508881 0.0056533063761889935
0.057424552738666534 0.11318040639162064 0.098207138478755951
0.098731741309165955 0.12119589745998383 0.107599176466465
0.16311520338058472 0.1238371729850769 0.10474765300750732
0.24879494309425354 0.12386978417634964 0.094249308109283447
0.35080158710479736 0.12627297639846802 0.085077323019504547
0.46322786808013916 0.13384313881397247 0.076537653803825378
0.58023875951766968 0.13333308696746826 0.066173508763313293
0.68737179040908813 0.14165128767490387 0.049110159277915955
0.78090018033981323 0.1531422883272171 0.030249591916799545
0.85426300764083862 0.16825102269649506 0.017839483916759491
0.91763925552368164 0.19174970686435699 0.012167822569608688
0.97402006387710571 0.21792207658290863 0.0063795349560678005
0.99665898084640503 0.24757328629493713 0.0066045126877725124
0.043849945068359375 0.17546354234218597 0.11170776933431625
0.086747340857982635 0.17883911728858948 0.11436963826417923
0.15247973799705505 0.18578335642814636 0.11207070201635361
0.24618026614189148 0.19320569932460785 0.097751006484031677
0.35964888334274292 0.19967466592788696 0.076815374195575714
0.47904697060585022 0.20635825395584106 0.06199399009346962
0.59598743915557861 0.2133869081735611 0.047716852277517319
0.69657927751541138 0.21881052851676941 0.030171653255820274
0.78110527992248535 0.22447988390922546 0.019150393083691597
0.85366427898406982 0.23341873288154602 0.012922219932079315
0.91665375232696533 0.2489633709192276 0.0089827738702297211
0.97084319591522217 0.26887944340705872 0.0055175782181322575
0.99570161104202271 0.28993543982505798 0.0062228781171143055
0.01770051009953022 0.25408259034156799 0.12784132361412048
0.033907618373632431 0.25339257717132568 0.12440165877342224
0.099741421639919281 0.25856932997703552 0.12368454039096832
0.21034222841262817 0.27427199482917786 0.11077640205621719
0.34936502575874329 0.29339289665222168 0.078509069979190826
0.49123790860176086 0.30438739061355591 0.041909579187631607
0.61311167478561401 0.30066779255867004 0.021757522597908974
0.70693343877792358 0.29997792840003967 0.011413006111979485
0.78087717294692993 0.30453190207481384 0.011530050076544285
0.85325729846954346 0.30699074268341064 0.0083900447934865952
0.91623413562774658 0.31450888514518738 0.0059084426611661911
0.96860158443450928 0.32807677984237671 0.0044011585414409637
0.99406594038009644 0.34271293878555298 0.0040016323328018188
0.0022209316957741976 0.3473021388053894 0.14902268350124359
0.0070464788004755974 0.35005894303321838 0.15013863146305084
0.030817562714219093 0.35024586319923401 0.14472706615924835
0.14408896863460541 0.36365753412246704 0.13436049222946167
0.30654874444007874 0.38840442895889282 0.10655993223190308
0.46575421094894409 0.41010951995849609 0.059822831302881241
0.59994256496429443 0.40812718868255615 0.023930761963129044
0.7025752067565918 0.39724701642990112 0.0089231450110673904
0.78399884700775146 0.38635450601577759 0.0066178115084767342
0.8554503321647644 0.38354918360710144 0.0069106458686292171
0.91897070407867432 0.38703864812850952 0.0044929655268788338
0.96992135047912598 0.39192995429039001 0.0042001912370324135
0.99280023574829102 0.40073028206825256 0.0031721675768494606
0.0024875118397176266 0.43989554047584534 0.16833493113517761
0.0064872442744672298 0.44387152791023254 0.17796632647514343
0.010558692738413811 0.44451317191123962 0.17413415014743805
0.051783602684736252 0.45144650340080261 0.16449844837188721
0.22677390277385712 0.46877962350845337 0.14822731912136078
0.39995157718658447 0.48922285437583923 0.10884125530719757
0.55692088603973389 0.50329411029815674 0.057123653590679169
0.67812895774841309 0.50127243995666504 0.019494583830237389
0.7688901424407959 0.48606520891189575 0.0085464026778936386
0.84869396686553955 0.47023436427116394 0.0054874792695045471
0.91496211290359497 0.46228781342506409 0.0039480919949710369
0.96722441911697388 0.45937284827232361 0.0053245243616402149
0.99274903535842896 0.46217507123947144 0.0064755757339298725
0.00092345592565834522 0.52109962701797485 0.19334772229194641
0.0033368878066539764 0.52578061819076538 0.20063398778438568
0.0069818086922168732 0.52754658460617065 0.20503430068492889
0.015032031573355198 0.5300944447517395 0.20062729716300964
0.13835868239402771 0.53892624378204346 0.1880817711353302
0.32553267478942871 0.55162090063095093 0.1678244024515152
0.49035501480102539 0.56528729200363159 0.13402047753334045
0.63511443138122559 0.58087038993835449 0.088897272944450378
0.74468141794204712 0.58145922422409058 0.033989656716585159
0.82821696996688843 0.56697756052017212 0.010619144886732101
0.90014410018920898 0.5504002571105957 0.0064092148095369339
0.95901548862457275 0.53603917360305786 0.0053476518951356411
0.99244213104248047 0.5303189754486084 0.0050510629080235958
0.00097349577117711306 0.5953291654586792 0.22881369292736053
0.0014455158961936831 0.59952622652053833 0.23713913559913635
0.0051950789056718349 0.59992134571075439 0.24271979928016663
0.0095072127878665924 0.59936779737472534 0.24184972047805786
0.077220827341079712 0.60243803262710571 0.23595510423183441
0.27374479174613953 0.61163473129272461 0.22567053139209747
0.43487036228179932 0.62129372358322144 0.20280109345912933
0.57780063152313232 0.63357365131378174 0.17224022746086121
0.70414823293685913 0.64888536930084229 0.13765834271907806
0.8045651912689209 0.65240424871444702 0.077953502535820007
0.88048619031906128 0.6402319073677063 0.0293910913169384
0.94386935234069824 0.62505912780761719 0.010482967831194401
0.98442274332046509 0.61296290159225464 0.0059116287156939507
0.00091135362163186073 0.66240125894546509 0.27711153030395508
0.0036160338204354048 0.66558271646499634 0.28873410820960999
0.0054667452350258827 0.66572868824005127 0.29227018356323242
0.0087472358718514442 0.66414308547973633 0.28996846079826355
0.058457933366298676 0.6639862060546875 0.28862404823303223
0.24762055277824402 0.67014282941818237 0.28457054495811462
0.40166538953781128 0.67743176221847534 0.27113139629364014
0.53510475158691406 0.68524253368377686 0.25268635153770447
0.64781332015991211 0.6949954628944397 0.23849520087242126
0.76258552074432373 0.71146023273468018 0.21476462483406067
0.85690629482269287 0.71882086992263794 0.16425611078739166
0.92515337467193604 0.7104485034942627 0.093001194298267365
0.98019605875015259 0.69790780544281006 0.034916702657938004
0.0021848191972821951 0.72584092617034912 0.34159567952156067
0.0030768001452088356 0.72722542285919189 0.3452267050743103
0.0064981197938323021 0.7276497483253479 0.34684023261070251
0.01388657558709383 0.72649955749511719 0.34526824951171875
0.10610565543174744 0.72602701187133789 0.34967279434204102
0.2684931755065918 0.72938770055770874 0.35309258103370667
0.39807188510894775 0.73430138826370239 0.34686735272407532
0.50724655389785767 0.74038851261138916 0.33956387639045715
0.6126520037651062 0.74827945232391357 0.32891860604286194
0.71267485618591309 0.75616514682769775 0.31055045127868652
0.8111148476600647 0.76932495832443237 0.29684293270111084
0.8995438814163208 0.77873402833938599 0.27296179533004761
0.96242880821228027 0.7750813364982605 0.22082988917827606
0.02529512345790863 0.78676855564117432 0.40883937478065491
0.030659813433885574 0.78668045997619629 0.40906831622123718
0.063934102654457092 0.78678125143051147 0.4122806191444397
0.13854388892650604 0.78633463382720947 0.41808256506919861
0.23796994984149933 0.78325700759887695 0.42432048916816711
0.33082824945449829 0.783760666847229 0.42809292674064636
0.42530518770217896 0.78671109676361084 0.42873787879943848
0.51738202571868896 0.79212057590484619 0.42613124847412109
0.60977357625961304 0.79934000968933105 0.42052611708641052
0.69902592897415161 0.80597352981567383 0.41142329573631287
0.77811890840530396 0.81155210733413696 0.40110784769058228
0.85867750644683838 0.82156378030776978 0.39080443978309631
0.93606472015380859 0.83453655242919922 0.38711085915565491
0.25751683115959167 0.84553730487823486 0.50391900539398193
0.27004149556159973 0.84547656774520874 0.50468170642852783
0.29757824540138245 0.84425365924835205 0.50741809606552124
0.33472320437431335 0.84179627895355225 0.5117110013961792
0.38077738881111145 0.83911973237991333 0.5160706639289856
0.43890160322189331 0.83784204721450806 0.52127081155776978
0.50202637910842896 0.84085202217102051 0.52580171823501587
0.56555211544036865 0.84485411643981934 0.52625530958175659
0.63188177347183228 0.85051470994949341 0.52453982830047607
0.7019464373588562 0.85692280530929565 0.52284228801727295
0.77473026514053345 0.86217653751373291 0.5136798620223999
0.83982056379318237 0.86737608909606934 0.50138694047927856
0.90204113721847534 0.87661945819854736 0.49982413649559021
0.47127896547317505 0.89977788925170898 0.6096152663230896
0.47227424383163452 0.8984331488609314 0.60973429679870605
0.48814499378204346 0.89789700508117676 0.61242038011550903
0.50327354669570923 0.89765071868896484 0.61576980352401733
0.5292542576789856 0.89636248350143433 0.62012112140655518
0.56350302696228027 0.89507883787155151 0.62528800964355469
0.60391545295715332 0.89760428667068481 0.6324043869972229
0.64158874750137329 0.90128135681152344 0.63354182243347168
0.68650192022323608 0.90469193458557129 0.6309095025062561
0.7308051586151123 0.90841144323348999 0.62915229797363281
0.78663092851638794 0.91437560319900513 0.62624192237854004
0.84011447429656982 0.92175012826919556 0.62059640884399414
0.8913080096244812 0.92645299434661865 0.61731314659118652
0.059311423450708389 0.082186982035636902 0.15270771086215973
0.10365169495344162 0.082944341003894806 0.15694063901901245
0.16587260365486145 0.083641007542610168 0.15816384553909302
0.23751817643642426 0.079013437032699585 0.15180455148220062
0.33435148000717163 0.065602980554103851 0.14676797389984131
0.44970014691352844 0.040306989103555679 0.13959598541259766
0.57304912805557251 0.035914551466703415 0.13944646716117859
0.68658417463302612 0.061338238418102264 0.13776268064975739
0.77649146318435669 0.096318170428276062 0.1304813027381897
0.84917348623275757 0.13156844675540924 0.11731135100126266
0.91294330358505249 0.16150891780853271 0.10063973069190979
0.96636694669723511 0.19791236519813538 0.088634058833122253
0.99357044696807861 0.234882652759552 0.078774608671665192
0.047067798674106598 0.12108331173658371 0.16025485098361969
0.09780602902173996 0.12828141450881958 0.16653081774711609
0.16436894237995148 0.12982551753520966 0.16551616787910461
0.24762918055057526 0.12806873023509979 0.15956160426139832
0.34948253631591797 0.12091168016195297 0.15348917245864868
0.46414974331855774 0.11334222555160522 0.14790309965610504
0.58646571636199951 0.11539310961961746 0.14558406174182892
0.6929929256439209 0.13398446142673492 0.13807103037834167
0.77867966890335083 0.15552021563053131 0.12739332020282745
0.85134834051132202 0.17754089832305908 0.1154404878616333
0.91464006900787354 0.20173284411430359 0.098524890840053558
0.96876657009124756 0.22701515257358551 0.082149773836135864
0.99446588754653931 0.25892618298530579 0.071265079081058502
0.036699302494525909 0.18468448519706726 0.16757327318191528
0.092849865555763245 0.1908625066280365 0.17618681490421295
0.16479073464870453 0.19671054184436798 0.1735660582780838
0.25738939642906189 0.20047259330749512 0.16465744376182556
0.36688503623008728 0.20361627638339996 0.1580488383769989
0.48421505093574524 0.20898789167404175 0.15292134881019592
0.59923082590103149 0.2122102826833725 0.14000929892063141
0.69916081428527832 0.21821394562721252 0.12469126284122467
0.77805161476135254 0.22692263126373291 0.11269863694906235
0.85120165348052979 0.23851983249187469 0.097971625626087189
0.91485989093780518 0.25745508074760437 0.085662141442298889
0.96815627813339233 0.27412751317024231 0.069736853241920471
0.99597847461700439 0.29842716455459595 0.061173845082521439
0.025404581800103188 0.26432809233665466 0.18445813655853271
0.080736689269542694 0.2706642746925354 0.19206717610359192
0.14685295522212982 0.27369320392608643 0.18845432996749878
0.2466420978307724 0.28455087542533875 0.18388839066028595
0.37247291207313538 0.29626080393791199 0.16791227459907532
0.50234848260879517 0.30398714542388916 0.14471335709095001
0.61461180448532104 0.30218920111656189 0.12066338956356049
0.70534408092498779 0.30328831076622009 0.10379435122013092
0.77968883514404297 0.30517628788948059 0.093998029828071594
0.85297304391860962 0.30778717994689941 0.078312203288078308
0.91694962978363037 0.31922075152397156 0.065081529319286346
0.96928489208221436 0.33261168003082275 0.055494345724582672
0.99521976709365845 0.3473377525806427 0.051631882786750793
0.0090856663882732391 0.36497414112091064 0.21739839017391205
0.034973952919244766 0.36756795644760132 0.2168966680765152
