luts/negative_old/kodak_portra_400_nc_++.cube
# Created by: G'MIC (https://gmic.eu)
TITLE "kodak_portra_400_nc_++"
# LUT size
LUT_3D_SIZE 7
# Data domain
DOMAIN_MIN 0.0 0.0 0.0
DOMAIN_MAX 1.0 1.0 1.0
# LUT data points
0.14737065136432648 0.10058467835187912 0.11854027956724167
0.16785900294780731 0.096034124493598938 0.11217398196458817
0.25745400786399841 0.10219375044107437 0.10520556569099426
0.5029442310333252 0.10229964554309845 0.085434749722480774
0.74353575706481934 0.099644586443901062 0.042711954563856125
0.89599859714508057 0.13655968010425568 0.009291255846619606
0.98875981569290161 0.19140467047691345 0.0025310739874839783
0.13753150403499603 0.13943023979663849 0.12007518112659454
0.17148937284946442 0.14466707408428192 0.1125178188085556
0.29050466418266296 0.17756253480911255 0.094082474708557129
0.5610470175743103 0.21202926337718964 0.052596520632505417
0.77088534832000732 0.21956278383731842 0.011310217902064323
0.90699350833892822 0.23079465329647064 0.0039383233524858952
0.9952622652053833 0.25845903158187866 0.0024431715719401836
0.060935448855161667 0.28017142415046692 0.1288992315530777
0.13210742175579071 0.29777181148529053 0.12472885847091675
0.31153714656829834 0.35342532396316528 0.060422021895647049
0.60555469989776611 0.41220173239707947 0.002927249064669013
0.7956773042678833 0.39791020750999451 0.0029711704701185226
0.91680991649627686 0.37376713752746582 0.006586126983165741
0.9931609034538269 0.38207244873046875 0.0039215688593685627
0.001898537389934063 0.52574503421783447 0.16198231279850006
0.058441519737243652 0.52584779262542725 0.1603938490152359
0.30762475728988647 0.54034698009490967 0.10246653854846954
0.54759985208511353 0.58122086524963379 0.0086340364068746567
0.77124828100204468 0.59746724367141724 0.00015213910955935717
0.91616690158843994 0.55700063705444336 0.0013630586909130216
0.99908477067947388 0.53507387638092041 0.0023854125756770372
0.18265640735626221 0.69035309553146362 0.30494427680969238
0.27350041270256042 0.6859014630317688 0.31165578961372375
0.38791874051094055 0.68154060840606689 0.29118898510932922
0.52538949251174927 0.70143473148345947 0.21248304843902588
0.69576752185821533 0.7237207293510437 0.058682236820459366
0.88064712285995483 0.73570531606674194 0.00072370044654235244
0.98909860849380493 0.70097941160202026 0.0024571737740188837
0.47723031044006348 0.80607390403747559 0.50884824991226196
0.49888265132904053 0.80085510015487671 0.51115179061889648
0.54735445976257324 0.79804950952529907 0.50441396236419678
0.59938627481460571 0.80447471141815186 0.47702920436859131
0.6899750828742981 0.82100749015808105 0.42757028341293335
0.8111843466758728 0.83471417427062988 0.32539200782775879
0.96294993162155151 0.852428138256073 0.20371480286121368
0.6892082691192627 0.90406197309494019 0.70869863033294678
0.69848674535751343 0.90212792158126831 0.71112942695617676
0.72044116258621216 0.90090954303741455 0.70967704057693481
0.74749916791915894 0.90340083837509155 0.70755040645599365
0.78216826915740967 0.91350263357162476 0.69109153747558594
0.83561545610427856 0.92551207542419434 0.6654694676399231
0.91575801372528076 0.93965518474578857 0.62094289064407349
0.1412663459777832 0.095738954842090607 0.15141110122203827
0.17410023510456085 0.094822198152542114 0.15520016849040985
0.27571621537208557 0.079650565981864929 0.15266889333724976
0.51250094175338745 0.022090837359428406 0.14147178828716278
0.75007957220077515 0.0095278574153780937 0.12487243860960007
0.89543414115905762 0.036730971187353134 0.10021086782217026
0.99229276180267334 0.12283913046121597 0.069443583488464355
0.12986278533935547 0.14841738343238831 0.16355589032173157
0.16899994015693665 0.15811213850975037 0.1682923436164856
0.31277036666870117 0.15813474357128143 0.15815843641757965
0.57428216934204102 0.15167242288589478 0.14040404558181763
0.77272248268127441 0.1516767144203186 0.11266200989484787
0.9074292778968811 0.18743237853050232 0.084622584283351898
0.99456602334976196 0.23369233310222626 0.055174734443426132
0.032890632748603821 0.32591536641120911 0.20514398813247681
0.1365654468536377 0.33844870328903198 0.20538291335105896
0.34292283654212952 0.36835765838623047 0.16233488917350769
0.62719255685806274 0.39410820603370667 0.093041181564331055
0.80005890130996704 0.36950904130935669 0.059518523514270782
0.92409074306488037 0.36489120125770569 0.04843941330909729
0.99544870853424072 0.37631314992904663 0.03985576331615448
0.015970746055245399 0.55482488870620728 0.26776325702667236
0.15397953987121582 0.55258291959762573 0.27446910738945007
0.34714320302009583 0.55428695678710938 0.24347087740898132
0.56756222248077393 0.58595281839370728 0.12995973229408264
0.78350734710693359 0.59294193983078003 0.02613537386059761
0.92602813243865967 0.55220645666122437 0.031325202435255051
0.99873489141464233 0.53014689683914185 0.045003373175859451
0.29792115092277527 0.70287954807281494 0.39783075451850891
0.33659893274307251 0.69489741325378418 0.39649996161460876
0.43596747517585754 0.68653601408004761 0.3932977020740509
0.55382817983627319 0.70356589555740356 0.33161219954490662
0.70586127042770386 0.72532850503921509 0.21397769451141357
0.88529002666473389 0.73813176155090332 0.079270273447036743
0.98809361457824707 0.70308452844619751 0.13438327610492706
0.50212627649307251 0.80763030052185059 0.54638326168060303
0.52185118198394775 0.80513721704483032 0.54482614994049072
0.5655059814453125 0.80316942930221558 0.5441519021987915
0.62048685550689697 0.8047218918800354 0.52862632274627686
0.70084214210510254 0.81914323568344116 0.47935181856155396
0.81687217950820923 0.83529758453369141 0.40294355154037476
0.96296292543411255 0.85222327709197998 0.32557550072669983
0.69621652364730835 0.9032781720161438 0.72218763828277588
0.7073482871055603 0.90324759483337402 0.72374647855758667
0.72480612993240356 0.90157556533813477 0.72163140773773193
0.75694960355758667 0.90377914905548096 0.72474724054336548
0.79096609354019165 0.91292464733123779 0.70779132843017578
0.84484410285949707 0.92571121454238892 0.68015146255493164
0.92237818241119385 0.93791657686233521 0.64164721965789795
0.10132839530706406 0.091733045876026154 0.29757145047187805
0.17946355044841766 0.090129941701889038 0.31154558062553406
0.31948390603065491 0.064169876277446747 0.31764507293701172
0.57707041501998901 0.0070534050464630127 0.32705414295196533
0.78472220897674561 0.0027093475218862295 0.28912055492401123
0.92242133617401123 0.0023117514792829752 0.23809479176998138
0.99686682224273682 0.020765012130141258 0.24675138294696808
0.033159788697957993 0.17192189395427704 0.32502070069313049
0.13523483276367188 0.1650557667016983 0.33893248438835144
0.36192262172698975 0.16421614587306976 0.3556063175201416
0.62429344654083252 0.085605263710021973 0.34199091792106628
0.79767137765884399 0.029664432629942894 0.29459646344184875
0.91489851474761963 0.082229673862457275 0.27103725075721741
0.99335217475891113 0.19847400486469269 0.27140441536903381
0.0052273920737206936 0.37440016865730286 0.38021498918533325
0.096209190785884857 0.38938078284263611 0.39569437503814697
0.40997517108917236 0.39632305502891541 0.40367797017097473
0.6467137336730957 0.3853202760219574 0.36950671672821045
0.79154753684997559 0.3643745481967926 0.33420529961585999
0.91340363025665283 0.35963219404220581 0.29985028505325317
0.99363714456558228 0.37759533524513245 0.28765258193016052
0.23178437352180481 0.59768885374069214 0.46355697512626648
0.34678047895431519 0.59294939041137695 0.47265255451202393
0.46157705783843994 0.58523660898208618 0.46219900250434875
0.60751330852508545 0.59433329105377197 0.40524029731750488
0.782093346118927 0.58474332094192505 0.36081096529960632
0.91339278221130371 0.55123060941696167 0.33567371964454651
0.99490225315093994 0.5448606014251709 0.33096256852149963
0.44885626435279846 0.72062462568283081 0.54227840900421143
0.47600036859512329 0.71709716320037842 0.54259788990020752
0.52553868293762207 0.7109336256980896 0.52251118421554565
0.59851914644241333 0.71256464719772339 0.49537208676338196
0.72632342576980591 0.73149526119232178 0.44208031892776489
0.88153648376464844 0.72805607318878174 0.38112467527389526
0.97638082504272461 0.70418459177017212 0.38962802290916443
0.56399726867675781 0.81600165367126465 0.62131273746490479
0.58485287427902222 0.816875159740448 0.6282770037651062
0.61736083030700684 0.81546872854232788 0.62235516309738159
0.65900778770446777 0.81104981899261475 0.61210960149765015
0.72109121084213257 0.81902170181274414 0.58028358221054077
0.82574188709259033 0.83614277839660645 0.5319371223449707
0.95884066820144653 0.85010397434234619 0.4815327525138855
0.71918189525604248 0.90763247013092041 0.75357586145401001
0.72659063339233398 0.90698856115341187 0.75411784648895264
0.74098652601242065 0.90656721591949463 0.75453972816467285
0.76990532875061035 0.90595006942749023 0.75745528936386108
0.79935818910598755 0.91035598516464233 0.74427169561386108
0.84692114591598511 0.92438042163848877 0.72666388750076294
0.91538983583450317 0.93662214279174805 0.6950116753578186
0.0056992475874722004 0.096443712711334229 0.54971212148666382
0.15519189834594727 0.074129588901996613 0.5584111213684082
0.41282275319099426 0.015780819579958916 0.56871557235717773
0.64307010173797607 0.0029104494024068117 0.57921022176742554
0.80106604099273682 0.0039103790186345577 0.53690886497497559
0.94012683629989624 0.058855049312114716 0.4954790472984314
0.9998738169670105 0.099998891353607178 0.45620337128639221
0.0033961278386414051 0.18584372103214264 0.57362198829650879
0.071246355772018433 0.17592118680477142 0.58148229122161865
0.41044685244560242 0.17613618075847626 0.58496946096420288
0.65115094184875488 0.15275152027606964 0.5898929238319397
0.81007552146911621 0.19006587564945221 0.55362427234649658
0.93176686763763428 0.23545017838478088 0.50886911153793335
0.99620360136032104 0.24317659437656403 0.47065156698226929
0.0046649407595396042 0.41052323579788208 0.59183794260025024
0.026691960170865059 0.40773218870162964 0.59885215759277344
0.40640154480934143 0.4114043116569519 0.60096901655197144
0.65162152051925659 0.43161880970001221 0.59732377529144287
0.79708671569824219 0.4413292407989502 0.57252371311187744
0.90938913822174072 0.42080703377723694 0.52782630920410156
0.99083638191223145 0.41096419095993042 0.49821421504020691
0.17240321636199951 0.61289185285568237 0.61412161588668823
0.32784509658813477 0.61409151554107666 0.62011623382568359
0.49885663390159607 0.61448544263839722 0.62369894981384277
0.64613854885101318 0.61570030450820923 0.62188506126403809
0.77919036149978638 0.61261469125747681 0.59698975086212158
0.8895496129989624 0.58111292123794556 0.55736672878265381
0.98159801959991455 0.56672400236129761 0.5286065936088562
0.50147068500518799 0.7401663064956665 0.66417604684829712
0.53860223293304443 0.74236500263214111 0.66363674402236938
0.59543818235397339 0.74052137136459351 0.65739172697067261
0.66549015045166016 0.73426192998886108 0.64837491512298584
0.74806684255599976 0.73540091514587402 0.62013942003250122
0.87325716018676758 0.73686200380325317 0.58933871984481812
0.97749346494674683 0.7091330885887146 0.57951223850250244
0.64423650503158569 0.83090829849243164 0.72478693723678589
0.64648622274398804 0.83174020051956177 0.72732532024383545
0.66980338096618652 0.83133977651596069 0.72040021419525146
0.70374000072479248 0.82144260406494141 0.70339810848236084
0.75044894218444824 0.82025575637817383 0.68619310855865479
0.84089607000350952 0.83711427450180054 0.65779125690460205
0.957256019115448 0.84714186191558838 0.62740802764892578
0.74751371145248413 0.90953773260116577 0.79823964834213257
0.75068157911300659 0.90936934947967529 0.79758578538894653
0.75989598035812378 0.90998023748397827 0.79061508178710938
0.786357581615448 0.91116005182266235 0.79184591770172119
0.81245666742324829 0.90668106079101562 0.78658026456832886
0.85827577114105225 0.92269396781921387 0.77353155612945557
0.9290960431098938 0.94061338901519775 0.75197058916091919
0.0027680639177560806 0.10893385857343674 0.73043644428253174
0.15468558669090271 0.095300696790218353 0.73251652717590332
0.4259086549282074 0.05038878321647644 0.7378045916557312
0.6471717357635498 0.057298861443996429 0.74106258153915405
0.81851845979690552 0.1203458160161972 0.74142324924468994
0.92725765705108643 0.24482011795043945 0.70501238107681274
0.9898754358291626 0.40140464901924133 0.67965799570083618
0.0026969609316438437 0.21477475762367249 0.73969733715057373
0.10810240358114243 0.21300004422664642 0.74534326791763306
0.42779678106307983 0.21997734904289246 0.74219757318496704
0.65053802728652954 0.26468637585639954 0.74330437183380127
0.81576210260391235 0.30640724301338196 0.74521529674530029
0.91511833667755127 0.36744055151939392 0.70520633459091187
0.98619335889816284 0.46850723028182983 0.68629360198974609
0.0089812632650136948 0.4238036572933197 0.7404971718788147
0.17218832671642303 0.42223247885704041 0.74511373043060303
0.43984818458557129 0.43182110786437988 0.74298375844955444
0.65375214815139771 0.46962404251098633 0.74141871929168701
0.79722476005554199 0.49109083414077759 0.74403345584869385
0.90377628803253174 0.52613788843154907 0.7239614725112915
0.98108482360839844 0.55939728021621704 0.696949303150177
0.12846706807613373 0.60251975059509277 0.73507833480834961
0.28577646613121033 0.60477405786514282 0.73539692163467407
0.46260017156600952 0.60780602693557739 0.73594468832015991
0.63666921854019165 0.62240874767303467 0.74228739738464355
0.77913981676101685 0.63485753536224365 0.74406063556671143
0.88079404830932617 0.64954912662506104 0.73323595523834229
0.9647599458694458 0.62795865535736084 0.697998046875
0.4801923930644989 0.74376463890075684 0.76218724250793457
0.51441389322280884 0.7429882287979126 0.75905442237854004
0.59557586908340454 0.74942564964294434 0.75839114189147949
0.67932635545730591 0.74788212776184082 0.76146441698074341
0.77901762723922729 0.75249707698822021 0.76050823926925659
0.86186206340789795 0.73586511611938477 0.73500192165374756
0.95491176843643188 0.72314304113388062 0.71584212779998779
0.66847372055053711 0.8447842001914978 0.79675304889678955
0.6808437705039978 0.84553050994873047 0.79901117086410522
0.71186321973800659 0.84595513343811035 0.80026739835739136
0.74527597427368164 0.83851796388626099 0.7944791316986084
0.79011678695678711 0.83390712738037109 0.78631651401519775
0.85242146253585815 0.83302551507949829 0.76635110378265381
0.95242291688919067 0.83765822649002075 0.75700658559799194
0.76791846752166748 0.92015421390533447 0.84760552644729614
0.77200466394424438 0.9172784686088562 0.84550142288208008
0.79070800542831421 0.9189496636390686 0.84726786613464355
0.8039734959602356 0.91569709777832031 0.84446799755096436
0.83180451393127441 0.91504418849945068 0.83587878942489624
0.87021529674530029 0.92365348339080811 0.82910549640655518
0.93382591009140015 0.94191831350326538 0.81324154138565063
0.061230320483446121 0.18156005442142487 0.85868406295776367
0.25584590435028076 0.18690900504589081 0.85706770420074463
0.45603722333908081 0.20600691437721252 0.85850334167480469
0.64134389162063599 0.26174286007881165 0.85191363096237183
0.80066001415252686 0.35673505067825317 0.848827064037323
0.92104089260101318 0.40850129723548889 0.8461112380027771
0.98718583583831787 0.46986231207847595 0.81874054670333862
0.10317946970462799 0.28500759601593018 0.85895073413848877
0.27639615535736084 0.30472606420516968 0.85659229755401611
0.48159241676330566 0.32536938786506653 0.85156917572021484
0.64220261573791504 0.37408909201622009 0.85167330503463745
0.80000251531600952 0.44756659865379333 0.84889101982116699
0.91126948595046997 0.48163327574729919 0.84663647413253784
0.97912496328353882 0.52120494842529297 0.82054972648620605
0.24389587342739105 0.45872023701667786 0.85191386938095093
0.34541043639183044 0.46941816806793213 0.85052734613418579
0.50591087341308594 0.48360171914100647 0.84779006242752075
0.65845710039138794 0.51727330684661865 0.84417593479156494
0.79200345277786255 0.55963277816772461 0.84676975011825562
0.90075790882110596 0.58600801229476929 0.84879595041275024
0.96882611513137817 0.614368736743927 0.82832473516464233
0.29275968670845032 0.60823613405227661 0.8371659517288208
0.38811585307121277 0.61453843116760254 0.83922994136810303
0.50889080762863159 0.6200796365737915 0.84045553207397461
0.65051603317260742 0.63891869783401489 0.84277468919754028
0.77840727567672729 0.66443610191345215 0.84538280963897705
0.88145148754119873 0.68894869089126587 0.8457721471786499
0.95574861764907837 0.70838350057601929 0.83744895458221436
0.44258147478103638 0.7328561544418335 0.84133648872375488
0.49362355470657349 0.73878061771392822 0.84354579448699951
0.55838876962661743 0.74027800559997559 0.83974891901016235
0.64953231811523438 0.74140173196792603 0.83972644805908203
0.76689499616622925 0.75693827867507935 0.84457767009735107
0.87133467197418213 0.7723878026008606 0.8489985466003418
0.94810330867767334 0.78203868865966797 0.84447163343429565
0.64408606290817261 0.84519004821777344 0.86081242561340332
0.65524685382843018 0.84705162048339844 0.85905969142913818
0.69117790460586548 0.84712666273117065 0.86031168699264526
0.74924331903457642 0.84422069787979126 0.86727869510650635
0.80545121431350708 0.84749722480773926 0.86592888832092285
0.87923324108123779 0.85098737478256226 0.86129409074783325
0.94731062650680542 0.84224724769592285 0.84461784362792969
0.78184336423873901 0.92885839939117432 0.89407825469970703
0.78471064567565918 0.92903190851211548 0.89323884248733521
0.80162250995635986 0.92706257104873657 0.89240401983261108
0.82293558120727539 0.92536252737045288 0.89475864171981812
0.85707151889801025 0.93105214834213257 0.89767980575561523
0.89578628540039062 0.93549811840057373 0.88905054330825806
0.95005220174789429 0.94566488265991211 0.87726372480392456
0.417621910572052 0.40239748358726501 0.94532525539398193
0.47653588652610779 0.41289427876472473 0.94454813003540039
0.57206863164901733 0.43589320778846741 0.94069850444793701
0.68809574842453003 0.47921058535575867 0.93692708015441895
0.80002409219741821 0.53254163265228271 0.93515753746032715
0.90386205911636353 0.59759163856506348 0.93256914615631104
0.98553037643432617 0.62481153011322021 0.93073618412017822
0.44902408123016357 0.47266626358032227 0.94350582361221313
0.50175577402114868 0.47943124175071716 0.94317710399627686
0.59006237983703613 0.50085508823394775 0.94097763299942017
0.69483000040054321 0.53388041257858276 0.9346010684967041
0.8032383918762207 0.5819014310836792 0.93271571397781372
0.90010493993759155 0.62858074903488159 0.92860597372055054
0.98171800374984741 0.65351074934005737 0.93201154470443726
0.48824581503868103 0.5693589448928833 0.9406009316444397
0.53142774105072021 0.57895255088806152 0.9393811821937561
0.60812264680862427 0.59057724475860596 0.93686914443969727
0.70179039239883423 0.61546659469604492 0.93279117345809937
0.80140542984008789 0.64441978931427002 0.93110400438308716
0.89444649219512939 0.67801707983016968 0.92780572175979614
0.97392147779464722 0.70024102926254272 0.93059217929840088
0.52335399389266968 0.6746639609336853 0.93420165777206421
0.5569385290145874 0.67775928974151611 0.93546909093856812
0.61569923162460327 0.68221855163574219 0.93367058038711548
0.69952058792114258 0.69245892763137817 0.92901861667633057
0.79878854751586914 0.71335917711257935 0.93184745311737061
0.88683855533599854 0.74026906490325928 0.92730212211608887
0.96671956777572632 0.75659531354904175 0.93107247352600098
0.51682180166244507 0.75775820016860962 0.92982321977615356
0.54843080043792725 0.76015394926071167 0.93112325668334961
0.602988600730896 0.76120221614837646 0.92993640899658203
0.69369959831237793 0.76863008737564087 0.93007737398147583
0.79094642400741577 0.78035062551498413 0.9293982982635498
0.88117074966430664 0.79489350318908691 0.92984110116958618
0.95455437898635864 0.81093984842300415 0.92386555671691895
0.6468193531036377 0.85800063610076904 0.93761491775512695
0.65995055437088013 0.86076098680496216 0.93555420637130737
0.68576443195343018 0.85380083322525024 0.93253129720687866
0.72806978225708008 0.85017138719558716 0.93772661685943604
0.78471297025680542 0.85683155059814453 0.93811458349227905
0.86905145645141602 0.86047053337097168 0.93888562917709351
0.95638948678970337 0.87527501583099365 0.939056396484375
0.76325637102127075 0.94181901216506958 0.94901323318481445
0.77007979154586792 0.94291609525680542 0.94873124361038208
0.78593689203262329 0.94177132844924927 0.94776546955108643
0.8193930983543396 0.93563461303710938 0.94616055488586426
0.85468214750289917 0.94172555208206177 0.95228904485702515
0.90302270650863647 0.94409716129302979 0.95235073566436768
0.958781898021698 0.95097029209136963 0.95140659809112549
