luts/negative_old/kodak_portra_160_nc_-.cube
# Created by: G'MIC (https://gmic.eu)
TITLE "kodak_portra_160_nc_-"
# LUT size
LUT_3D_SIZE 7
# Data domain
DOMAIN_MIN 0.0 0.0 0.0
DOMAIN_MAX 1.0 1.0 1.0
# LUT data points
0.0095336465165019035 0.018988799303770065 0.016542697325348854
0.11233925819396973 0.028694137930870056 0.011390326544642448
0.31147795915603638 0.049989692866802216 0.012813538312911987
0.51311266422271729 0.054665971547365189 0.0082826055586338043
0.68790924549102783 0.079997345805168152 0.0046583586372435093
0.83959615230560303 0.1412002295255661 0.0076490812934935093
0.96715641021728516 0.22301755845546722 0.023880947381258011
0.00052956974832341075 0.13674584031105042 0.043002933263778687
0.09828929603099823 0.16710406541824341 0.018017876893281937
0.35130247473716736 0.18631471693515778 0.004367574118077755
0.54802465438842773 0.18600191175937653 0.0033537023700773716
0.70891052484512329 0.2016148567199707 0.011039509437978268
0.85186213254928589 0.23302850127220154 0.0094357654452323914
0.97407084703445435 0.28969529271125793 0.030079111456871033
0 0.32614025473594666 0.11297022551298141
0.0064810360781848431 0.34585106372833252 0.10795293748378754
0.29598706960678101 0.39354124665260315 0.023873990401625633
0.57405346632003784 0.39591363072395325 0.0025279924739152193
0.7338186502456665 0.36093047261238098 0.0098006902262568474
0.86566382646560669 0.3657166063785553 0.0051565133035182953
0.98053103685379028 0.39949160814285278 0.038082707673311234
0 0.4906153678894043 0.22977955639362335
0.0065148896537721157 0.49582976102828979 0.24024677276611328
0.19628885388374329 0.5190313458442688 0.2079169750213623
0.47956925630569458 0.56145906448364258 0.10436772555112839
0.73716360330581665 0.57776427268981934 0.0052231880836188793
0.8749280571937561 0.54048937559127808 0.010248850099742413
0.98445624113082886 0.53224760293960571 0.060284290462732315
0.0038186914753168821 0.63499933481216431 0.33802002668380737
0.033926375210285187 0.63735365867614746 0.34102171659469604
0.22114846110343933 0.64228403568267822 0.33829441666603088
0.41154348850250244 0.66963070631027222 0.29789435863494873
0.63854223489761353 0.70210081338882446 0.22338801622390747
0.86014837026596069 0.72735512256622314 0.11482904106378555
0.9771883487701416 0.70339637994766235 0.15752410888671875
0.20825137197971344 0.77532750368118286 0.46689045429229736
0.2501721978187561 0.77208065986633301 0.46523389220237732
0.33242031931877136 0.76947516202926636 0.46801319718360901
0.44202828407287598 0.78217470645904541 0.453309565782547
0.5894167423248291 0.80378496646881104 0.41927394270896912
0.77641832828521729 0.83041131496429443 0.36553823947906494
0.95965278148651123 0.86249566078186035 0.29741647839546204
0.53262311220169067 0.90936315059661865 0.66982740163803101
0.53812015056610107 0.90672218799591064 0.6699337363243103
0.5727730393409729 0.9065203070640564 0.67395317554473877
0.61756622791290283 0.90976113080978394 0.67532414197921753
0.68495869636535645 0.92441129684448242 0.6603008508682251
0.78026968240737915 0.94330066442489624 0.63806402683258057
0.90100347995758057 0.96062922477722168 0.59958422183990479
0.015252655372023582 0.021343335509300232 0.13311830163002014
0.12605506181716919 0.032558292150497437 0.135828897356987
0.32212528586387634 0.019690943881869316 0.13147105276584625
0.52138835191726685 0.042232975363731384 0.1374889463186264
0.68151277303695679 0.14265917241573334 0.16208335757255554
0.8303292989730835 0.19265693426132202 0.16929547488689423
0.96338695287704468 0.2613065242767334 0.18690761923789978
0.0020839765202254057 0.16589775681495667 0.16435700654983521
0.14032177627086639 0.17828942835330963 0.17126187682151794
0.3550410270690918 0.1907057911157608 0.15972845256328583
0.54153752326965332 0.21527265012264252 0.16641548275947571
0.69695204496383667 0.23187921941280365 0.16946794092655182
0.84201580286026001 0.266256183385849 0.17512084543704987
0.96815651655197144 0.3193780779838562 0.19339525699615479
0.049065355211496353 0.35942497849464417 0.2448592334985733
0.13024868071079254 0.36593294143676758 0.24069814383983612
0.34211909770965576 0.39716556668281555 0.20570431649684906
0.57192796468734741 0.39196714758872986 0.17148417234420776
0.72648775577545166 0.37742894887924194 0.16812561452388763
0.85690939426422119 0.3927111029624939 0.17064307630062103
0.97409570217132568 0.4191780686378479 0.20138709247112274
0.090404927730560303 0.51369386911392212 0.32324379682540894
0.14003662765026093 0.51475644111633301 0.3169873058795929
0.27761313319206238 0.52408325672149658 0.3058379590511322
0.50518608093261719 0.56322634220123291 0.25080773234367371
0.73321211338043213 0.57549595832824707 0.19219900667667389
0.8660094141960144 0.54295700788497925 0.18868978321552277
0.97593754529953003 0.54070770740509033 0.21195383369922638
0.11532836407423019 0.64745813608169556 0.39240926504135132
0.17878095805644989 0.64681315422058105 0.3950406014919281
0.28568592667579651 0.64674073457717896 0.39363241195678711
0.4401797354221344 0.67163854837417603 0.36675935983657837
0.65191066265106201 0.70638632774353027 0.31062847375869751
0.85616004467010498 0.72583198547363281 0.25243577361106873
0.97523683309555054 0.69928526878356934 0.26363691687583923
0.27893391251564026 0.77489626407623291 0.49700096249580383
0.31294676661491394 0.77563422918319702 0.50115901231765747
0.37638217210769653 0.77300429344177246 0.50403451919555664
0.46516597270965576 0.78173732757568359 0.49416196346282959
0.60403323173522949 0.80509752035140991 0.46330848336219788
0.77813601493835449 0.8286358118057251 0.41401764750480652
0.96388119459152222 0.86211460828781128 0.36691504716873169
0.54383301734924316 0.90743011236190796 0.68325340747833252
0.55427277088165283 0.90702730417251587 0.68324881792068481
0.58816313743591309 0.90706485509872437 0.69073748588562012
0.62699407339096069 0.91005986928939819 0.69194620847702026
0.69420486688613892 0.92549943923950195 0.68094265460968018
0.7825084924697876 0.94130653142929077 0.65636789798736572
0.90384113788604736 0.9602741003036499 0.62346673011779785
0.0013739492278546095 0.047630086541175842 0.34099695086479187
0.1566120833158493 0.061687782406806946 0.34725776314735413
0.35997086763381958 0.081713221967220306 0.34759896993637085
0.53767174482345581 0.11337823420763016 0.32561016082763672
0.70139193534851074 0.13461509346961975 0.30999034643173218
0.83978110551834106 0.19017611443996429 0.3141818642616272
0.95484369993209839 0.29756152629852295 0.34450200200080872
0.002353862626478076 0.20029568672180176 0.35780203342437744
0.16428819298744202 0.21091809868812561 0.36634400486946106
0.37798398733139038 0.23808620870113373 0.36862003803253174
0.54911118745803833 0.24525871872901917 0.35197436809539795
0.70165205001831055 0.25191628932952881 0.33460494875907898
0.83677834272384644 0.29297611117362976 0.34138622879981995
0.95729005336761475 0.35796728730201721 0.35851225256919861
0.046982035040855408 0.38481780886650085 0.38050991296768188
0.22357155382633209 0.39162138104438782 0.39416581392288208
0.39518928527832031 0.40690478682518005 0.40229469537734985
0.56221991777420044 0.40489891171455383 0.38012221455574036
0.70844769477844238 0.40774160623550415 0.36731502413749695
0.84022408723831177 0.42263272404670715 0.36309278011322021
0.96613782644271851 0.44551217555999756 0.36723047494888306
0.27616459131240845 0.53845125436782837 0.44552209973335266
0.33242294192314148 0.54245734214782715 0.44996002316474915
0.39509469270706177 0.54211294651031494 0.44093239307403564
0.5427888035774231 0.56736433506011963 0.41310024261474609
0.73109596967697144 0.56409084796905518 0.3872932493686676
0.85819649696350098 0.55048501491546631 0.37387537956237793
0.97244089841842651 0.55398589372634888 0.37531778216362
0.35836061835289001 0.66693896055221558 0.51138931512832642
0.36551377177238464 0.66467094421386719 0.50134444236755371
0.40045592188835144 0.66455411911010742 0.49197059869766235
0.48966270685195923 0.67359763383865356 0.47782239317893982
0.67116856575012207 0.70707416534423828 0.44228658080101013
0.85592794418334961 0.71982139348983765 0.41063511371612549
0.97297674417495728 0.69772797822952271 0.40616539120674133
0.42631474137306213 0.78038603067398071 0.58540362119674683
0.43413761258125305 0.78373664617538452 0.58077478408813477
0.46045517921447754 0.78187012672424316 0.57302373647689819
0.52186715602874756 0.7816927433013916 0.57009828090667725
0.6305345892906189 0.80374383926391602 0.54898005723953247
0.79152429103851318 0.83023911714553833 0.51180684566497803
0.96041786670684814 0.85745066404342651 0.48168721795082092
0.59264868497848511 0.91001391410827637 0.72066408395767212
0.59611755609512329 0.91000044345855713 0.71901482343673706
0.61539959907531738 0.91176110506057739 0.71815210580825806
0.65481472015380859 0.91165930032730103 0.72449928522109985
0.70969247817993164 0.92284089326858521 0.71740782260894775
0.79582405090332031 0.9415249228477478 0.69938254356384277
0.91005808115005493 0.96029603481292725 0.67234748601913452
0.0029238234274089336 0.1059640496969223 0.53156322240829468
0.17805568873882294 0.12411624938249588 0.5345529317855835
0.39892718195915222 0.16382946074008942 0.53777152299880981
0.58175456523895264 0.20673505961894989 0.54329019784927368
0.70743697881698608 0.23647004365921021 0.50718969106674194
0.8528362512588501 0.27737757563591003 0.48838871717453003
0.97213596105575562 0.29112741351127625 0.4720282256603241
0.017625082284212112 0.24068951606750488 0.5414280891418457
0.21770988404750824 0.26118773221969604 0.55009108781814575
0.415363609790802 0.28586581349372864 0.54697710275650024
0.58538877964019775 0.30969133973121643 0.55153447389602661
0.71281367540359497 0.31694260239601135 0.52134877443313599
0.85193043947219849 0.33599761128425598 0.49792167544364929
0.96960324048995972 0.34467622637748718 0.48145535588264465
0.033053364604711533 0.40298753976821899 0.54919338226318359
0.22425255179405212 0.41192212700843811 0.55564182996749878
0.41607779264450073 0.42661574482917786 0.56015622615814209
0.58877956867218018 0.44620534777641296 0.5642160177230835
0.7150464653968811 0.43870580196380615 0.54116678237915039
0.84375250339508057 0.43547457456588745 0.51423680782318115
0.96188646554946899 0.45194771885871887 0.50732588768005371
0.24694985151290894 0.55195075273513794 0.5529981255531311
0.32258895039558411 0.55919045209884644 0.56436949968338013
0.44204071164131165 0.56258624792098999 0.57556205987930298
0.58590567111968994 0.57320713996887207 0.58046597242355347
0.72144395112991333 0.57395327091217041 0.56091713905334473
0.84590005874633789 0.56327009201049805 0.53745043277740479
0.95801949501037598 0.57512003183364868 0.53219616413116455
0.41203442215919495 0.68059521913528442 0.60648602247238159
0.45320141315460205 0.68396943807601929 0.61291515827178955
0.52408349514007568 0.68710780143737793 0.61849415302276611
0.57806253433227539 0.68390917778015137 0.61029469966888428
0.70290911197662354 0.70952111482620239 0.59239047765731812
0.85154169797897339 0.70931780338287354 0.56741881370544434
0.96669071912765503 0.69449090957641602 0.55255669355392456
0.54328131675720215 0.79622513055801392 0.68723094463348389
0.56125450134277344 0.79606103897094727 0.68693011999130249
0.58010250329971313 0.79573142528533936 0.67820757627487183
0.59920048713684082 0.79138422012329102 0.66042995452880859
0.67432200908660889 0.80162763595581055 0.64907932281494141
0.80699849128723145 0.83084487915039062 0.63070589303970337
0.9612729549407959 0.85277879238128662 0.61358243227005005
0.65808695554733276 0.91475456953048706 0.78056985139846802
0.65883815288543701 0.9135240912437439 0.77551913261413574
0.66697824001312256 0.914814293384552 0.76968836784362793
0.68815988302230835 0.91635549068450928 0.76568281650543213
0.73364835977554321 0.92134028673171997 0.76656228303909302
0.80928558111190796 0.93881416320800781 0.75473719835281372
0.91605067253112793 0.96023893356323242 0.7345845103263855
0.091907888650894165 0.18863217532634735 0.70475614070892334
0.25793421268463135 0.20379015803337097 0.70510178804397583
0.44351166486740112 0.24211730062961578 0.70445853471755981
0.61669456958770752 0.29511654376983643 0.71003150939941406
0.76012259721755981 0.32129472494125366 0.70769256353378296
0.85273689031600952 0.34334716200828552 0.67038536071777344
0.96786004304885864 0.41470450162887573 0.66279375553131104
0.17453952133655548 0.3002951443195343 0.71128123998641968
0.29588893055915833 0.31055566668510437 0.70830488204956055
0.45354914665222168 0.33283078670501709 0.70734101533889771
0.62400084733963013 0.3729863166809082 0.71011185646057129
0.75803118944168091 0.38959932327270508 0.712871253490448
0.84975385665893555 0.40491726994514465 0.67722028493881226
0.96415442228317261 0.46085307002067566 0.67056989669799805
0.19031788408756256 0.43337312340736389 0.70962083339691162
0.2990838885307312 0.43618229031562805 0.70788109302520752
0.45265725255012512 0.44790929555892944 0.71063739061355591
0.61943870782852173 0.48083344101905823 0.71357077360153198
0.75069284439086914 0.50170189142227173 0.71628910303115845
0.84562325477600098 0.50593513250350952 0.68782269954681396
0.9556465744972229 0.53669255971908569 0.67865097522735596
0.21075952053070068 0.56322705745697021 0.69677954912185669
0.29819375276565552 0.56650203466415405 0.70182597637176514
0.43219220638275146 0.57164657115936279 0.70649135112762451
0.60029226541519165 0.59403496980667114 0.71465140581130981
0.73943698406219482 0.61372154951095581 0.7178993821144104
0.84513729810714722 0.60949629545211792 0.7002294659614563
0.95079457759857178 0.60473984479904175 0.68101727962493896
0.38236314058303833 0.69224411249160767 0.70490962266921997
0.44110986590385437 0.69801926612854004 0.71105271577835083
0.51833415031433105 0.70112347602844238 0.71699601411819458
0.62691891193389893 0.70520645380020142 0.72396749258041382
0.73283594846725464 0.71781188249588013 0.73137086629867554
0.84183776378631592 0.71218955516815186 0.71432590484619141
0.95086264610290527 0.7053830623626709 0.6955115795135498
0.56223255395889282 0.81120502948760986 0.75476574897766113
0.58432614803314209 0.81124883890151978 0.75874769687652588
0.62799906730651855 0.81080842018127441 0.76155275106430054
0.6855156421661377 0.8109811544418335 0.76533728837966919
0.73196583986282349 0.81030255556106567 0.75693726539611816
0.82887983322143555 0.83384466171264648 0.74699383974075317
0.9589238166809082 0.84129202365875244 0.73227238655090332
0.69150036573410034 0.92064380645751953 0.83209896087646484
0.70000255107879639 0.92128157615661621 0.83364343643188477
0.72338384389877319 0.92303645610809326 0.83309674263000488
0.74781733751296997 0.9227224588394165 0.82805335521697998
0.77289080619812012 0.92763823270797729 0.82214313745498657
0.82946443557739258 0.93657463788986206 0.81843274831771851
0.93182539939880371 0.96286863088607788 0.80429130792617798
0.30680203437805176 0.29895612597465515 0.83861261606216431
0.38911592960357666 0.31101137399673462 0.84142661094665527
0.51320403814315796 0.33529794216156006 0.84021288156509399
0.64919155836105347 0.3772331178188324 0.83842200040817261
0.78767400979995728 0.43406182527542114 0.83651828765869141
0.89190185070037842 0.45955228805541992 0.83481264114379883
0.95698469877243042 0.47977352142333984 0.80759322643280029
0.33452585339546204 0.37390604615211487 0.84019571542739868
0.4032803475856781 0.38510176539421082 0.84101146459579468
0.52238279581069946 0.40056875348091125 0.84082537889480591
0.65562725067138672 0.43083730340003967 0.84021544456481934
0.78676360845565796 0.48402047157287598 0.83811378479003906
0.88855421543121338 0.50819557905197144 0.8365635871887207
0.9507681131362915 0.52002859115600586 0.81306725740432739
0.34086188673973083 0.47319334745407104 0.83681643009185791
0.40608859062194824 0.48047974705696106 0.83760464191436768
0.5223889946937561 0.49558916687965393 0.8358687162399292
0.6501585841178894 0.52719831466674805 0.83725768327713013
0.7790723443031311 0.5676763653755188 0.84090113639831543
0.88081604242324829 0.58883863687515259 0.83937615156173706
0.94936668872833252 0.59647154808044434 0.81920748949050903
0.29879879951477051 0.58497756719589233 0.82789343595504761
0.37509867548942566 0.58977687358856201 0.82852435111999512
0.49032217264175415 0.60061299800872803 0.82955306768417358
0.63883578777313232 0.62400490045547485 0.83354216814041138
0.76863175630569458 0.6552116870880127 0.83923137187957764
0.86913800239562988 0.67514264583587646 0.83961588144302368
0.9441717267036438 0.67762523889541626 0.82717263698577881
0.38390845060348511 0.70521086454391479 0.82349628210067749
0.42499476671218872 0.70550590753555298 0.82264578342437744
0.50367099046707153 0.70687699317932129 0.82681787014007568
0.60697042942047119 0.71064352989196777 0.83010339736938477
0.74570280313491821 0.73720008134841919 0.83745545148849487
0.86156243085861206 0.76019608974456787 0.84398841857910156
0.94668233394622803 0.75869309902191162 0.83423101902008057
0.53325623273849487 0.81868290901184082 0.83173847198486328
0.55898088216781616 0.81785988807678223 0.83223003149032593
0.61074137687683105 0.81982004642486572 0.83536458015441895
0.6819034218788147 0.82468008995056152 0.84466636180877686
0.76291346549987793 0.82972174882888794 0.85240042209625244
0.85957437753677368 0.84611207246780396 0.85598862171173096
0.95053839683532715 0.84257656335830688 0.84452062845230103
0.69938230514526367 0.93198311328887939 0.87959831953048706
0.71019577980041504 0.9320075511932373 0.88159096240997314
0.73261785507202148 0.93120235204696655 0.88259786367416382
0.77248060703277588 0.93466830253601074 0.8886110782623291
0.8215828537940979 0.9392998218536377 0.89601707458496094
0.86540907621383667 0.94117283821105957 0.89026445150375366
0.95081382989883423 0.96387475728988647 0.88292998075485229
0.50188153982162476 0.44555819034576416 0.95134913921356201
0.54361861944198608 0.4553891122341156 0.95204764604568481
0.61751943826675415 0.470680832862854 0.94989579916000366
0.71706122159957886 0.5030055046081543 0.94610476493835449
0.82209718227386475 0.55288094282150269 0.94360959529876709
0.913932204246521 0.60971206426620483 0.94003713130950928
0.98682487010955811 0.63087481260299683 0.94095170497894287
0.51342666149139404 0.49207895994186401 0.95137166976928711
0.55432432889938354 0.50034815073013306 0.9511677622795105
0.62507933378219604 0.51473218202590942 0.94888538122177124
0.72151297330856323 0.54445862770080566 0.94474345445632935
0.82243341207504272 0.58491933345794678 0.94367223978042603
0.91388297080993652 0.63463163375854492 0.94144982099533081
0.98552477359771729 0.65432155132293701 0.94180476665496826
0.52200263738632202 0.56906664371490479 0.95129084587097168
0.55976122617721558 0.57516419887542725 0.94847756624221802
0.6276124119758606 0.58541834354400635 0.94657784700393677
0.72099524736404419 0.6110156774520874 0.94552344083786011
0.81863653659820557 0.64428704977035522 0.9434736967086792
0.90720170736312866 0.68118810653686523 0.93955111503601074
0.98307329416275024 0.69641470909118652 0.94206523895263672
0.50195056200027466 0.65073072910308838 0.94636040925979614
0.54064822196960449 0.65324777364730835 0.94595181941986084
0.60462933778762817 0.65998417139053345 0.9433102011680603
0.70678317546844482 0.67761224508285522 0.94630968570709229
0.80454552173614502 0.70427238941192627 0.94362515211105347
0.90250974893569946 0.73779308795928955 0.94386202096939087
0.97831755876541138 0.75089001655578613 0.94449043273925781
0.46103379130363464 0.73917680978775024 0.94406229257583618
0.49611571431159973 0.73740094900131226 0.94162857532501221
0.56494420766830444 0.73926025629043579 0.94376087188720703
0.66880786418914795 0.74965643882751465 0.94453996419906616
0.78488188982009888 0.76978635787963867 0.94704818725585938
0.89151912927627563 0.79693275690078735 0.94804728031158447
0.97418367862701416 0.81769770383834839 0.94783186912536621
0.56961202621459961 0.8510737419128418 0.9465823769569397
0.5857234001159668 0.84732437133789062 0.94434630870819092
0.62191593647003174 0.84850138425827026 0.94514137506484985
0.67812907695770264 0.84633171558380127 0.94663476943969727
0.76053106784820557 0.84866201877593994 0.95115351676940918
0.87083250284194946 0.86535042524337769 0.95435929298400879
0.97186112403869629 0.88796257972717285 0.95604491233825684
0.68369495868682861 0.95098912715911865 0.95330643653869629
0.69848799705505371 0.95114588737487793 0.95499938726425171
0.72152441740036011 0.95049393177032471 0.95464038848876953
0.76350259780883789 0.95373106002807617 0.95819687843322754
0.82089293003082275 0.95486432313919067 0.96574264764785767
0.88809108734130859 0.95786809921264648 0.96904993057250977
0.97148102521896362 0.97069478034973145 0.97057986259460449
