luts/negative_old/kodak_portra_400_vc_-.cube
# Created by: G'MIC (https://gmic.eu)
TITLE "kodak_portra_400_vc_-"
# LUT size
LUT_3D_SIZE 7
# Data domain
DOMAIN_MIN 0.0 0.0 0.0
DOMAIN_MAX 1.0 1.0 1.0
# LUT data points
0.0078388284891843796 0.011293463408946991 0.015070133842527866
0.12257961183786392 0.031111802905797958 0.0098792584612965584
0.32013407349586487 0.051636386662721634 0.01212621945887804
0.53400158882141113 0.040981173515319824 0.0043815909884870052
0.72004008293151855 0.031141573563218117 0.0017353581497445703
0.8506091833114624 0.086763285100460052 0.0023175408132374287
0.97367161512374878 0.17332576215267181 0.00037590475403703749
0.00066339829936623573 0.13846731185913086 0.048484563827514648
0.099310256540775299 0.16082721948623657 0.027461541816592216
0.3507569432258606 0.18816083669662476 0.0077272900380194187
0.57683259248733521 0.18789801001548767 0.004459126852452755
0.73491817712783813 0.1836903989315033 0.0035931007005274296
0.8638690710067749 0.205384761095047 0.0045353607274591923
0.98140072822570801 0.24266928434371948 0.00093443627702072263
0.0015116373542696238 0.32812973856925964 0.12077953666448593
0.01120624877512455 0.33905705809593201 0.11877748370170593
0.29193916916847229 0.38231560587882996 0.054621990770101547
0.58723682165145874 0.39393079280853271 0.0053748334757983685
0.76486068964004517 0.35700720548629761 0.0016853032866492867
0.8852267861366272 0.36067378520965576 0.0043939328752458096
0.98517870903015137 0.36744078993797302 0.00020231358939781785
0.00073743332177400589 0.50312453508377075 0.21918831765651703
0.0046055363491177559 0.50032222270965576 0.22690485417842865
0.22403968870639801 0.51657968759536743 0.20497763156890869
0.49961331486701965 0.5510103702545166 0.13902392983436584
0.73423635959625244 0.5728035569190979 0.026074621826410294
0.88274502754211426 0.53080832958221436 0.0044731739908456802
0.99313336610794067 0.50501877069473267 0
0.0083556827157735825 0.64596545696258545 0.31738090515136719
0.089644141495227814 0.64309853315353394 0.31948080658912659
0.27594903111457825 0.64177179336547852 0.31669354438781738
0.45189884305000305 0.65969389677047729 0.29354539513587952
0.6468314528465271 0.6861346960067749 0.24277506768703461
0.84446746110916138 0.71298331022262573 0.15722641348838806
0.98011684417724609 0.68979364633560181 0.032533265650272369
0.29036149382591248 0.77275377511978149 0.44200810790061951
0.32696825265884399 0.76884573698043823 0.44186484813690186
0.39806884527206421 0.76321232318878174 0.44205504655838013
0.50142133235931396 0.77225005626678467 0.43580925464630127
0.62518692016601562 0.78863149881362915 0.41929131746292114
0.77196782827377319 0.80743402242660522 0.37757918238639832
0.94682902097702026 0.84041762351989746 0.34626239538192749
0.54402107000350952 0.89731025695800781 0.63166308403015137
0.55759906768798828 0.89635580778121948 0.63007241487503052
0.59150904417037964 0.89438480138778687 0.63631874322891235
0.64226973056793213 0.89610707759857178 0.64028078317642212
0.70982557535171509 0.90848302841186523 0.63402074575424194
0.79818457365036011 0.92283737659454346 0.61930841207504272
0.91070830821990967 0.93986833095550537 0.59817582368850708
0.0025155460461974144 0.020772373303771019 0.15548123419284821
0.11601077765226364 0.023580633103847504 0.15642522275447845
0.33067974448204041 0.0079075079411268234 0.14056098461151123
0.54236376285552979 0.0062864716164767742 0.11854182183742523
0.71398144960403442 0.039254624396562576 0.11629500985145569
0.85033893585205078 0.10163267701864243 0.074457861483097076
0.97408688068389893 0.17248587310314178 0.038413506001234055
0.0032898846548050642 0.17074541747570038 0.18123665452003479
0.12448896467685699 0.17941370606422424 0.19069638848304749
0.35756319761276245 0.17888908088207245 0.16764083504676819
0.57114571332931519 0.18577830493450165 0.14514607191085815
0.72887116670608521 0.19118788838386536 0.11495775729417801
0.86513441801071167 0.2107899934053421 0.07714187353849411
0.97600662708282471 0.25099202990531921 0.042129576206207275
0.0033212399575859308 0.37008729577064514 0.25333026051521301
0.095733240246772766 0.36772075295448303 0.24861383438110352
0.3377840518951416 0.39062222838401794 0.22639831900596619
0.59548074007034302 0.38292878866195679 0.16789764165878296
0.75775444507598877 0.359485924243927 0.11371464282274246
0.88042128086090088 0.3555961549282074 0.068457931280136108
0.98480403423309326 0.36817210912704468 0.034286707639694214
0.01051794271916151 0.52650469541549683 0.30540373921394348
0.10328558832406998 0.52472758293151855 0.30799710750579834
0.3006158173084259 0.52465939521789551 0.30364707112312317
0.51684033870697021 0.55591011047363281 0.26295220851898193
0.73309040069580078 0.56250035762786865 0.19318078458309174
0.88548195362091064 0.52848654985427856 0.091390304267406464
0.99156051874160767 0.5084073543548584 0.030685035511851311
0.12566857039928436 0.65562409162521362 0.37235337495803833
0.218844935297966 0.65379530191421509 0.37878885865211487
0.33467942476272583 0.64649516344070435 0.37863895297050476
0.48150622844696045 0.66209602355957031 0.36019429564476013
0.65644913911819458 0.68890285491943359 0.32464832067489624
0.8426210880279541 0.71066021919250488 0.26734098792076111
0.97764456272125244 0.68679380416870117 0.17008471488952637
0.33637148141860962 0.77657663822174072 0.47336134314537048
0.36886045336723328 0.77306157350540161 0.47643786668777466
0.42835292220115662 0.76887977123260498 0.47780153155326843
0.51785475015640259 0.77359044551849365 0.47674724459648132
0.63166099786758423 0.78871041536331177 0.45834222435951233
0.77862334251403809 0.80888873338699341 0.42868819832801819
0.94227021932601929 0.83694767951965332 0.40271922945976257
0.55765056610107422 0.90077674388885498 0.64670312404632568
0.57090753316879272 0.89802998304367065 0.64826518297195435
0.6020311713218689 0.89510434865951538 0.65060693025588989
0.6528007984161377 0.89715671539306641 0.6581110954284668
0.713886559009552 0.90681475400924683 0.65174829959869385
0.80205255746841431 0.92020928859710693 0.63704764842987061
0.91339570283889771 0.9402579665184021 0.62262660264968872
0.0021985222119837999 0.049376722425222397 0.35861808061599731
0.07493908703327179 0.052527900785207748 0.36196845769882202
0.33332440257072449 0.043726034462451935 0.36375156044960022
0.56827157735824585 0.027068030089139938 0.34238395094871521
0.74317538738250732 0.0077574038878083229 0.2936561107635498
0.86322540044784546 0.032452899962663651 0.26297399401664734
0.96793144941329956 0.18718434870243073 0.26125398278236389
0.0015061920275911689 0.20072980225086212 0.36885249614715576
0.083947934210300446 0.2045193612575531 0.38064944744110107
0.36418354511260986 0.2183469831943512 0.38252288103103638
0.58782583475112915 0.21016784012317657 0.36023387312889099
0.73886299133300781 0.16950075328350067 0.31347060203552246
0.85308068990707397 0.22097089886665344 0.29317554831504822
0.9669419527053833 0.27397730946540833 0.26877221465110779
0.0043595707975327969 0.40094473958015442 0.39775547385215759
0.1508316695690155 0.40682485699653625 0.40842580795288086
0.38925015926361084 0.40694305300712585 0.4121803343296051
0.59486901760101318 0.39529520273208618 0.3812595009803772
0.74159437417984009 0.37723451852798462 0.33838847279548645
0.85804587602615356 0.38612562417984009 0.30802181363105774
0.9688115119934082 0.39120543003082275 0.27353987097740173
0.21175777912139893 0.56153804063796997 0.44450324773788452
0.31091856956481934 0.56128090620040894 0.45172613859176636
0.40591603517532349 0.5494534969329834 0.44333255290985107
0.56150460243225098 0.56420910358428955 0.42244607210159302
0.74067205190658569 0.55779188871383667 0.37998116016387939
0.87566369771957397 0.53646767139434814 0.32188659906387329
0.97866356372833252 0.52814829349517822 0.2853233814239502
0.34957796335220337 0.67929536104202271 0.49351984262466431
0.3738308846950531 0.67633205652236938 0.48989492654800415
0.43160459399223328 0.66744238138198853 0.48198121786117554
0.52722656726837158 0.66899454593658447 0.47129499912261963
0.68386781215667725 0.6938551664352417 0.45080149173736572
0.84735590219497681 0.70792758464813232 0.41178169846534729
0.9790642261505127 0.68030321598052979 0.34496185183525085
0.41966807842254639 0.78574806451797485 0.54775774478912354
0.44432622194290161 0.78337448835372925 0.55034881830215454
0.48741960525512695 0.77861452102661133 0.55138516426086426
0.55674582719802856 0.77508848905563354 0.55223506689071655
0.65539360046386719 0.79065549373626709 0.53925961256027222
0.79217791557312012 0.81156611442565918 0.52237075567245483
0.94613701105117798 0.83516442775726318 0.49603590369224548
0.58412891626358032 0.90452086925506592 0.6829218864440918
0.59585082530975342 0.90169835090637207 0.68441134691238403
0.62278968095779419 0.90005111694335938 0.68577420711517334
0.66847586631774902 0.89973396062850952 0.69270294904708862
0.72987347841262817 0.90867733955383301 0.69312405586242676
0.81438189744949341 0.92389589548110962 0.68392115831375122
0.91629493236541748 0.94086992740631104 0.66907584667205811
0.0023132623173296452 0.10465825349092484 0.53725874423980713
0.024119658395648003 0.11030455678701401 0.54285293817520142
0.33118307590484619 0.13217641413211823 0.54791402816772461
0.57359683513641357 0.13503514230251312 0.55324465036392212
0.74558353424072266 0.15344001352787018 0.52199119329452515
0.88325983285903931 0.18370693922042847 0.47863027453422546
0.98563843965530396 0.12890173494815826 0.42364031076431274
0.0023917104117572308 0.23140692710876465 0.5481879711151123
0.052236370742321014 0.2378789484500885 0.55500233173370361
0.36462211608886719 0.26029488444328308 0.56169116497039795
0.58486509323120117 0.27377030253410339 0.56226378679275513
0.74770450592041016 0.28341040015220642 0.53659474849700928
0.87556040287017822 0.28159630298614502 0.4897175133228302
0.98196655511856079 0.23846937716007233 0.43126094341278076
0.0039844438433647156 0.41134119033813477 0.55343961715698242
0.13067103922367096 0.41979655623435974 0.56264472007751465
0.3927311897277832 0.42155787348747253 0.56770825386047363
0.58148825168609619 0.42181345820426941 0.55861467123031616
0.74071836471557617 0.42743834853172302 0.54041796922683716
0.8629644513130188 0.39995715022087097 0.48917391896247864
0.97386229038238525 0.38544595241546631 0.44707822799682617
0.14670203626155853 0.57368463277816772 0.57015138864517212
0.29224368929862976 0.5763668417930603 0.57614594697952271
0.45124226808547974 0.57835710048675537 0.58202505111694336
0.60019594430923462 0.57579886913299561 0.58000189065933228
0.73360282182693481 0.56220221519470215 0.55109256505966187
0.85748517513275146 0.54254484176635742 0.5044480562210083
0.96891707181930542 0.53336876630783081 0.46372562646865845
0.39208760857582092 0.70270484685897827 0.61028647422790527
0.44441512227058411 0.70037031173706055 0.61115306615829468
0.52179443836212158 0.6958003044128418 0.60893362760543823
0.5886237621307373 0.68763309717178345 0.60127496719360352
0.70416498184204102 0.69997823238372803 0.58984041213989258
0.85010433197021484 0.6974177360534668 0.55433470010757446
0.97776627540588379 0.67206937074661255 0.49809658527374268
0.5253901481628418 0.80388557910919189 0.66520792245864868
0.54419904947280884 0.79945105314254761 0.66258686780929565
0.57265204191207886 0.79588007926940918 0.65359407663345337
0.61073487997055054 0.78887355327606201 0.64428281784057617
0.68403232097625732 0.79174983501434326 0.63743716478347778
0.80410420894622803 0.81483954191207886 0.62935721874237061
0.9508405327796936 0.83272981643676758 0.60744798183441162
0.63159793615341187 0.91092562675476074 0.74016815423965454
0.64174926280975342 0.91006064414978027 0.74119633436203003
0.65554243326187134 0.90892630815505981 0.7364203929901123
0.69208776950836182 0.90408098697662354 0.73684155941009521
0.74685925245285034 0.90691214799880981 0.74157810211181641
0.82613402605056763 0.92436975240707397 0.73977047204971313
0.92242574691772461 0.94342100620269775 0.72716337442398071
0.00034784054150804877 0.17422273755073547 0.69415181875228882
0.021531332284212112 0.18208834528923035 0.70015084743499756
0.33416888117790222 0.20358759164810181 0.70076781511306763
0.56505388021469116 0.23573365807533264 0.70408844947814941
0.73909944295883179 0.25232231616973877 0.70195853710174561
0.86693978309631348 0.28280073404312134 0.67301124334335327
0.97441965341567993 0.36540865898132324 0.64848756790161133
0.0011644251644611359 0.27634596824645996 0.70305615663528442
0.069405920803546906 0.28405448794364929 0.70933300256729126
0.36738058924674988 0.30257830023765564 0.70703977346420288
0.5769122838973999 0.32467573881149292 0.70519852638244629
0.74157154560089111 0.34105753898620605 0.706828773021698
0.86290472745895386 0.3634498119354248 0.68152236938476562
0.97407013177871704 0.41779318451881409 0.65669929981231689
0.037049837410449982 0.4367651641368866 0.70011156797409058
0.20898830890655518 0.43609628081321716 0.70415490865707397
0.40269565582275391 0.44057378172874451 0.70329242944717407
0.57756525278091431 0.44847622513771057 0.70278352499008179
0.73701941967010498 0.46509531140327454 0.70891612768173218
0.86169725656509399 0.48545441031455994 0.68713241815567017
0.96971619129180908 0.49912199378013611 0.65685737133026123
0.10599387437105179 0.56954073905944824 0.69267445802688599
0.25535276532173157 0.57226735353469849 0.69416135549545288
0.41762873530387878 0.57392919063568115 0.69677382707595825
0.57827013731002808 0.57769417762756348 0.70378571748733521
0.7309451699256897 0.59916496276855469 0.71272844076156616
0.85147106647491455 0.60074657201766968 0.69074702262878418
0.96494460105895996 0.56820112466812134 0.64676100015640259
0.34307131171226501 0.70021778345108032 0.70844793319702148
0.40628847479820251 0.70439159870147705 0.70900464057922363
0.51041162014007568 0.71044880151748657 0.71504354476928711
0.61212009191513062 0.70562267303466797 0.71820908784866333
0.72645449638366699 0.71297121047973633 0.72277826070785522
0.83779227733612061 0.69876015186309814 0.69520968198776245
0.95957374572753906 0.67975795269012451 0.65683335065841675
0.53416198492050171 0.82448649406433105 0.751556396484375
0.56024956703186035 0.82364958524703979 0.75372153520584106
0.61068862676620483 0.81862443685531616 0.751750648021698
0.67422598600387573 0.81427866220474243 0.75293278694152832
0.73010814189910889 0.80860596895217896 0.74491423368453979
0.82827240228652954 0.81996363401412964 0.73735010623931885
0.95942151546478271 0.82337450981140137 0.70958107709884644
0.66454476118087769 0.92311376333236694 0.80934029817581177
0.67526900768280029 0.92227649688720703 0.81128489971160889
0.7038453221321106 0.91993439197540283 0.80958849191665649
0.7345888614654541 0.91816902160644531 0.80373740196228027
0.77347314357757568 0.9149162769317627 0.79768139123916626
0.84186416864395142 0.9243273138999939 0.80129158496856689
0.9352344274520874 0.94531929492950439 0.79219973087310791
0.012258132919669151 0.27129912376403809 0.83114790916442871
0.15371203422546387 0.27599269151687622 0.83120554685592651
0.39091354608535767 0.30071806907653809 0.82632648944854736
0.57640588283538818 0.32697215676307678 0.82522690296173096
0.73118019104003906 0.37987112998962402 0.82534068822860718
0.86696827411651611 0.38944679498672485 0.82217681407928467
0.96727210283279419 0.41895473003387451 0.8064572811126709
0.047097597271203995 0.34181979298591614 0.83114385604858398
0.22318471968173981 0.35162842273712158 0.83305758237838745
0.4183189868927002 0.36878287792205811 0.82632648944854736
0.58398598432540894 0.39420768618583679 0.82389873266220093
0.73082488775253296 0.43673354387283325 0.82488107681274414
0.85812783241271973 0.45350253582000732 0.8243553638458252
0.96341049671173096 0.47178682684898376 0.80730617046356201
0.1970641016960144 0.46466937661170959 0.82484740018844604
0.28201863169670105 0.46406328678131104 0.82710033655166626
0.43384972214698792 0.47507721185684204 0.82182472944259644
0.59838312864303589 0.49812784790992737 0.82215726375579834
0.73669719696044922 0.52934736013412476 0.82307851314544678
0.85730093717575073 0.5448119044303894 0.82435053586959839
0.95860046148300171 0.55997347831726074 0.81105720996856689
0.22054439783096313 0.58630126714706421 0.81082940101623535
0.32428142428398132 0.58912026882171631 0.81233328580856323
0.45017632842063904 0.58799523115158081 0.81675177812576294
0.58796972036361694 0.59906917810440063 0.81754213571548462
0.72775876522064209 0.62585318088531494 0.82197535037994385
0.84791618585586548 0.6348721981048584 0.82079166173934937
0.948871910572052 0.65418463945388794 0.8156663179397583
0.32560634613037109 0.70347124338150024 0.81325018405914307
0.37481769919395447 0.7049371600151062 0.81229078769683838
0.46399757266044617 0.70414936542510986 0.81148910522460938
0.57797670364379883 0.70394718647003174 0.81382745504379272
0.71480083465576172 0.71855312585830688 0.82150840759277344
0.8441656231880188 0.73464429378509521 0.82792359590530396
0.95264780521392822 0.73923212289810181 0.82012468576431274
0.48850816488265991 0.82205545902252197 0.82771474123001099
0.51864063739776611 0.82275199890136719 0.82793712615966797
0.57945913076400757 0.82368683815002441 0.83239102363586426
0.66383582353591919 0.82574087381362915 0.83777898550033569
0.75107783079147339 0.82887840270996094 0.83861815929412842
0.85096746683120728 0.83172798156738281 0.83896350860595703
0.95657241344451904 0.81869202852249146 0.8184199333190918
0.6562313437461853 0.93418663740158081 0.86813855171203613
0.67233157157897949 0.93389344215393066 0.86927491426467896
0.70353978872299194 0.93187403678894043 0.8712647557258606
0.75476533174514771 0.93711215257644653 0.87699002027511597
0.8093256950378418 0.93522769212722778 0.87609982490539551
0.86497044563293457 0.93112313747406006 0.87050759792327881
0.95114505290985107 0.94951534271240234 0.86788803339004517
0.34784284234046936 0.42588791251182556 0.93985742330551147
0.41244679689407349 0.43121629953384399 0.93868929147720337
0.51273685693740845 0.44109749794006348 0.93459498882293701
0.63563144207000732 0.46518382430076599 0.93391740322113037
0.75631940364837646 0.50511384010314941 0.9289277195930481
0.87449562549591064 0.54790687561035156 0.92691963911056519
0.97545671463012695 0.56857216358184814 0.93164730072021484
0.37975284457206726 0.47244483232498169 0.93908882141113281
0.43538349866867065 0.48046407103538513 0.93911284208297729
0.52387541532516479 0.48575049638748169 0.93520545959472656
0.63966912031173706 0.50573575496673584 0.93205910921096802
0.7584039568901062 0.53901934623718262 0.93191689252853394
0.87074548006057739 0.57664668560028076 0.92812788486480713
0.97312617301940918 0.59795206785202026 0.93150770664215088
0.40151357650756836 0.54608410596847534 0.93647485971450806
0.4475853443145752 0.55058169364929199 0.93502748012542725
0.53370624780654907 0.55987560749053955 0.9324149489402771
0.64492505788803101 0.57435017824172974 0.93416821956634521
0.75854206085205078 0.60243427753448486 0.92978405952453613
0.86861622333526611 0.6346818208694458 0.92907774448394775
0.96662205457687378 0.64911216497421265 0.93081188201904297
0.44185230135917664 0.65270429849624634 0.93327909708023071
0.4783996045589447 0.6515190601348877 0.93292009830474854
0.53914737701416016 0.64556699991226196 0.93304342031478882
0.63600462675094604 0.65018385648727417 0.93265819549560547
0.75610059499740601 0.67063349485397339 0.93282115459442139
0.8659479022026062 0.69663858413696289 0.92998695373535156
0.96497750282287598 0.71370840072631836 0.93327218294143677
0.39183691143989563 0.73814386129379272 0.92681038379669189
0.43193173408508301 0.73779070377349854 0.9273868203163147
0.50874078273773193 0.73672151565551758 0.92652374505996704
0.62116855382919312 0.73693233728408813 0.92820852994918823
0.73730862140655518 0.74076217412948608 0.93234032392501831
0.86080300807952881 0.76075798273086548 0.93320751190185547
0.9659608006477356 0.78137248754501343 0.94016009569168091
0.49710568785667419 0.8443065881729126 0.92986953258514404
0.52280467748641968 0.84829533100128174 0.93211930990219116
0.57219457626342773 0.84198498725891113 0.93342739343643188
0.63377386331558228 0.84072262048721313 0.93440312147140503
0.72486931085586548 0.83931314945220947 0.93902748823165894
0.84850627183914185 0.84457767009735107 0.94365793466567993
0.96483689546585083 0.86206918954849243 0.94880837202072144
0.62718480825424194 0.95393431186676025 0.9490845799446106
0.63954472541809082 0.95325690507888794 0.94944137334823608
0.67487114667892456 0.95102620124816895 0.95158630609512329
0.72512036561965942 0.95387649536132812 0.95547318458557129
0.79043495655059814 0.9536670446395874 0.95721054077148438
0.87070387601852417 0.95563340187072754 0.96170336008071899
0.96665084362030029 0.96206563711166382 0.96459430456161499
