luts/negative_old/kodak_portra_160_nc_+.cube
# Created by: G'MIC (https://gmic.eu)
TITLE "kodak_portra_160_nc_+"
# LUT size
LUT_3D_SIZE 5
# Data domain
DOMAIN_MIN 0.0 0.0 0.0
DOMAIN_MAX 1.0 1.0 1.0
# LUT data points
0.067118220031261444 0.088389992713928223 0.090149387717247009
0.17652231454849243 0.088569283485412598 0.083654917776584625
0.49570557475090027 0.09212532639503479 0.065645046532154083
0.79512912034988403 0.11147783696651459 0.027972636744379997
0.97515660524368286 0.19867332279682159 0.026775136590003967
0.039397265762090683 0.19962942600250244 0.10978806763887405
0.20556561648845673 0.23787607252597809 0.081996604800224304
0.61259740591049194 0.29497981071472168 0.0041061104275286198
0.82972127199172974 0.29884505271911621 0.0045643225312232971
0.98403912782669067 0.32243156433105469 0.0084721138700842857
0.0062695522792637348 0.52549397945404053 0.19550797343254089
0.23428201675415039 0.52542853355407715 0.1887952983379364
0.54366987943649292 0.57054233551025391 0.031610406935214996
0.83012109994888306 0.56536829471588135 0.0007215163204818964
0.99649304151535034 0.5212700366973877 0.0028209311421960592
0.37891212105751038 0.72853118181228638 0.42403703927993774
0.43375381827354431 0.72198396921157837 0.42567282915115356
0.5508541464805603 0.73507100343704224 0.38264167308807373
0.73613876104354858 0.7597811222076416 0.25172561407089233
0.96875286102294922 0.77087163925170898 0.11764948070049286
0.67416840791702271 0.89209538698196411 0.69237291812896729
0.68930375576019287 0.88886499404907227 0.69254744052886963
0.73257642984390259 0.89208251237869263 0.69287359714508057
0.79535287618637085 0.90943735837936401 0.66358458995819092
0.90760785341262817 0.93239688873291016 0.6140933632850647
0.031044544652104378 0.08522159606218338 0.22031868994235992
0.20210853219032288 0.083430193364620209 0.22238951921463013
0.55141991376876831 0.0045083588920533657 0.23047724366188049
0.79361236095428467 0.02548612654209137 0.21984463930130005
0.96310830116271973 0.204152911901474 0.24373422563076019
0.0075193070806562901 0.24723818898200989 0.25888785719871521
0.24849867820739746 0.26703307032585144 0.27876773476600647
0.60756111145019531 0.26910537481307983 0.25260764360427856
0.81339627504348755 0.28655844926834106 0.23802089691162109
0.97527569532394409 0.33190751075744629 0.24975912272930145
0.22932066023349762 0.56831204891204834 0.38802561163902283
0.35748252272605896 0.55955111980438232 0.38236424326896667
0.58177167177200317 0.57983046770095825 0.30694177746772766
0.83656865358352661 0.56006091833114624 0.23264084756374359
0.9854927659034729 0.53528851270675659 0.24172385036945343
0.4623260498046875 0.73942470550537109 0.52062618732452393
0.51000392436981201 0.73498451709747314 0.52007377147674561
0.59086549282073975 0.73587191104888916 0.49767598509788513
0.75290632247924805 0.76290309429168701 0.41664746403694153
0.9637075662612915 0.76642251014709473 0.35146471858024597
0.68913573026657104 0.89315640926361084 0.71702301502227783
0.70614719390869141 0.89302903413772583 0.7194904088973999
0.74403595924377441 0.89238440990447998 0.72084969282150269
0.8025277853012085 0.90834289789199829 0.6979861855506897
0.91007667779922485 0.92943722009658813 0.64922881126403809
0.0030693802982568741 0.094910763204097748 0.54595780372619629
0.27938210964202881 0.060901254415512085 0.5521053671836853
0.62884026765823364 0.0095963124185800552 0.5703655481338501
0.84608465433120728 0.09932023286819458 0.510345458984375
0.98294949531555176 0.26884433627128601 0.48541337251663208
0.00027955000405199826 0.29928162693977356 0.57105278968811035
0.26864689588546753 0.30364155769348145 0.58558028936386108
0.63771277666091919 0.32728487253189087 0.5870978832244873
0.82854229211807251 0.37143048644065857 0.53633630275726318
0.96317881345748901 0.40253481268882751 0.51286345720291138
0.24593126773834229 0.59788697957992554 0.59932601451873779
0.43495258688926697 0.59648734331130981 0.60802167654037476
0.63018900156021118 0.60128617286682129 0.60783272981643677
0.79877567291259766 0.58763605356216431 0.57355821132659912
0.95516186952590942 0.57718449831008911 0.54606539011001587
0.56975263357162476 0.76802605390548706 0.67264473438262939
0.60428214073181152 0.76736903190612793 0.67401564121246338
0.66260808706283569 0.75537729263305664 0.66055858135223389
0.77842527627944946 0.76932084560394287 0.61800986528396606
0.95779573917388916 0.76552307605743408 0.58471143245697021
0.72299128770828247 0.90332436561584473 0.7763068675994873
0.73054403066635132 0.90031641721725464 0.77199184894561768
0.76563191413879395 0.89969110488891602 0.77259451150894165
0.8194044828414917 0.90727144479751587 0.76303583383560181
0.91516125202178955 0.93194586038589478 0.73111402988433838
0.0088311443105340004 0.15325731039047241 0.77460509538650513
0.32977306842803955 0.16192822158336639 0.7750852108001709
0.6226733922958374 0.21170839667320251 0.77684986591339111
0.84609979391098022 0.31526657938957214 0.77553486824035645
0.966064453125 0.43955186009407043 0.73600369691848755
0.062970884144306183 0.33791613578796387 0.78015702962875366
0.35662746429443359 0.36413788795471191 0.77910268306732178
0.62523221969604492 0.40167775750160217 0.77661925554275513
0.83431011438369751 0.47254106402397156 0.77607524394989014
0.9568181037902832 0.53519392013549805 0.74732840061187744
0.24126175045967102 0.58813035488128662 0.76202571392059326
0.41265928745269775 0.59485006332397461 0.76706552505493164
0.62479633092880249 0.61200219392776489 0.77063006162643433
0.81228500604629517 0.64500993490219116 0.7729194164276123
0.94468396902084351 0.66757994890213013 0.76399916410446167
0.54791730642318726 0.77981144189834595 0.7858579158782959
0.60110104084014893 0.78090852499008179 0.7895737886428833
0.69274932146072388 0.78010278940200806 0.79659950733184814
0.79954069852828979 0.78332662582397461 0.79100102186203003
0.93793302774429321 0.77597486972808838 0.77197772264480591
0.75544744729995728 0.91756480932235718 0.8564944863319397
0.76921916007995605 0.91668790578842163 0.85535216331481934
0.8009151816368103 0.91335219144821167 0.85234397649765015
0.84903419017791748 0.916545569896698 0.85019391775131226
0.93331778049468994 0.93535715341567993 0.82794630527496338
0.42220777273178101 0.40794402360916138 0.93162661790847778
0.51661837100982666 0.42810383439064026 0.92905241250991821
0.67613488435745239 0.4752732515335083 0.92475742101669312
0.84164774417877197 0.55646878480911255 0.92304301261901855
0.97433030605316162 0.60642886161804199 0.91992479562759399
0.46974280476570129 0.51661932468414307 0.92923945188522339
0.53947454690933228 0.52341169118881226 0.92627435922622681
0.68117046356201172 0.55915510654449463 0.92417967319488525
0.84220319986343384 0.61479687690734863 0.92244631052017212
0.96926939487457275 0.6497461199760437 0.92038357257843018
0.50198549032211304 0.65875214338302612 0.92129778861999512
0.55876737833023071 0.65881860256195068 0.92379415035247803
0.6816103458404541 0.67102789878845215 0.92260551452636719
0.83505278825759888 0.70629715919494629 0.92175257205963135
0.95991849899291992 0.73457366228103638 0.92310351133346558
0.54543155431747437 0.79688471555709839 0.92050457000732422
0.57977837324142456 0.79300439357757568 0.9196656346321106
0.65861773490905762 0.79113072156906128 0.92093855142593384
0.8109588623046875 0.80735057592391968 0.9278101921081543
0.95638692378997803 0.82887500524520874 0.93291229009628296
0.73260200023651123 0.93635320663452148 0.93907618522644043
0.75214099884033203 0.93763130903244019 0.94201785326004028
0.79160284996032715 0.94009041786193848 0.94438076019287109
0.86229240894317627 0.93970000743865967 0.94896674156188965
0.95338153839111328 0.94752824306488037 0.9501526951789856
