luts/negative_old/kodak_portra_400_uc_++.cube
# Created by: G'MIC (https://gmic.eu)
TITLE "kodak_portra_400_uc_++"
# LUT size
LUT_3D_SIZE 7
# Data domain
DOMAIN_MIN 0.0 0.0 0.0
DOMAIN_MAX 1.0 1.0 1.0
# LUT data points
0.10902193933725357 0.1064995676279068 0.074699178338050842
0.17478828132152557 0.11592899262905121 0.076865836977958679
0.32430505752563477 0.12121541798114777 0.073546268045902252
0.57109230756759644 0.11080588400363922 0.025677042081952095
0.78909677267074585 0.11009731143712997 0.0076275845058262348
0.9397965669631958 0.17414359748363495 0.0034849727526307106
0.99599683284759521 0.23778223991394043 0.00061394186923280358
0.075873672962188721 0.17016585171222687 0.078423716127872467
0.14517754316329956 0.18474400043487549 0.073494255542755127
0.33184099197387695 0.20811218023300171 0.03498547151684761
0.60436296463012695 0.22738240659236908 0.0094923879951238632
0.80457866191864014 0.23185746371746063 0.0060827219858765602
0.93792110681533813 0.27171856164932251 0.0038806241936981678
0.99422216415405273 0.2928217351436615 0.0028815176337957382
0.0025696398224681616 0.31812545657157898 0.082451686263084412
0.030026169493794441 0.33239111304283142 0.077043585479259491
0.27324861288070679 0.37984797358512878 0.020753897726535797
0.60375010967254639 0.42005646228790283 0.0014234804548323154
0.81329923868179321 0.40158936381340027 0.0020653069950640202
0.92704439163208008 0.40871325135231018 0.0038857853505760431
0.99140024185180664 0.42069479823112488 0.0039519066922366619
0 0.52330583333969116 0.086571969091892242
0.0029969010502099991 0.53615283966064453 0.095383107662200928
0.065517127513885498 0.55118489265441895 0.064788907766342163
0.4823170006275177 0.58064800500869751 0.0088353920727968216
0.76130568981170654 0.59905886650085449 0.0012714011827483773
0.9060518741607666 0.57199394702911377 0.0029589184559881687
0.99128532409667969 0.55483895540237427 0.00088883942225947976
0.00031763713923282921 0.68319422006607056 0.20003794133663177
0.0020206226035952568 0.68719238042831421 0.21447722613811493
0.0089395409449934959 0.69056904315948486 0.21717149019241333
0.35759890079498291 0.70286029577255249 0.17845255136489868
0.65087205171585083 0.72147113084793091 0.12346453219652176
0.87088322639465332 0.74184083938598633 0.050290156155824661
0.97379481792449951 0.7254067063331604 0.008610803633928299
0.020313307642936707 0.80872434377670288 0.39085328578948975
0.038175933063030243 0.80971425771713257 0.39253479242324829
0.19402807950973511 0.80691701173782349 0.40815681219100952
0.41526931524276733 0.80836665630340576 0.4119172990322113
0.61863422393798828 0.8167341947555542 0.39174765348434448
0.79287505149841309 0.82980489730834961 0.37037754058837891
0.94593030214309692 0.85248178243637085 0.3653203547000885
0.50136834383010864 0.91237783432006836 0.61193948984146118
0.52099406719207764 0.91215497255325317 0.61491549015045166
0.55607914924621582 0.90973103046417236 0.61912226676940918
0.62465119361877441 0.91048699617385864 0.62906265258789062
0.71832692623138428 0.91559940576553345 0.62813055515289307
0.81019288301467896 0.92363893985748291 0.62212753295898438
0.90782815217971802 0.93743878602981567 0.61947923898696899
0.10652844607830048 0.110108382999897 0.14076867699623108
0.17177028954029083 0.11256767809391022 0.14147761464118958
0.32005545496940613 0.1030501127243042 0.13622456789016724
0.57354074716567993 0.03341948613524437 0.11974330246448517
0.80350703001022339 0.058413859456777573 0.10014142841100693
0.94301444292068481 0.14584176242351532 0.062661223113536835
0.99605292081832886 0.23443180322647095 0.032805409282445908
0.093849927186965942 0.18299345672130585 0.14659447968006134
0.1728745698928833 0.19457106292247772 0.15316121280193329
0.35552859306335449 0.20022685825824738 0.13999967277050018
0.61381572484970093 0.19985088706016541 0.11598557233810425
0.81154096126556396 0.21557112038135529 0.078231573104858398
0.9426237940788269 0.2556355893611908 0.042982589453458786
0.99803745746612549 0.2958102822303772 0.021514907479286194
0.014618084765970707 0.35170307755470276 0.1900111585855484
0.06463884562253952 0.36229872703552246 0.18122528493404388
0.31320187449455261 0.3907988965511322 0.15434584021568298
0.62864720821380615 0.40904569625854492 0.065918929874897003
0.81350314617156982 0.39552059769630432 0.02844555489718914
0.94147568941116333 0.39626464247703552 0.018636981025338173
0.9969673752784729 0.41544407606124878 0.013121406547725201
0.0040250141173601151 0.5488121509552002 0.23444122076034546
0.0054086274467408657 0.55703556537628174 0.2250310480594635
0.14346972107887268 0.56103783845901489 0.21400782465934753
0.51443397998809814 0.58571875095367432 0.16505637764930725
0.77645218372344971 0.59955573081970215 0.058890055865049362
0.92156344652175903 0.5657958984375 0.010353372432291508
0.99392551183700562 0.55554771423339844 0.0062066470272839069
0.0043894597329199314 0.68712157011032104 0.30333954095840454
0.0051411348395049572 0.69427579641342163 0.30885514616966248
0.0777854323387146 0.69361549615859985 0.31441786885261536
0.40809148550033569 0.70417290925979614 0.30314958095550537
0.67294180393218994 0.72326517105102539 0.26780316233634949
0.87280869483947754 0.73861289024353027 0.19617237150669098
0.98763072490692139 0.71980202198028564 0.052196919918060303
0.069417513906955719 0.81105071306228638 0.43869742751121521
0.14255772531032562 0.81132364273071289 0.4435667097568512
0.29745620489120483 0.80623859167098999 0.4592437744140625
0.46822687983512878 0.80753231048583984 0.46314549446105957
0.63470178842544556 0.81510430574417114 0.44902995228767395
0.80331516265869141 0.83199632167816162 0.43914690613746643
0.94717603921890259 0.84954953193664551 0.42553195357322693
0.52616465091705322 0.91207659244537354 0.6282886266708374
0.54004484415054321 0.91161131858825684 0.63062423467636108
0.57109349966049194 0.90949910879135132 0.63616758584976196
0.64413261413574219 0.9101557731628418 0.65026527643203735
0.71637451648712158 0.91282254457473755 0.64471662044525146
0.81398612260818481 0.92313426733016968 0.63941627740859985
0.90977317094802856 0.9375838041305542 0.64009952545166016
0.047746740281581879 0.11534293740987778 0.30044367909431458
0.170977383852005 0.11960180103778839 0.32395213842391968
0.34495675563812256 0.11041516810655594 0.33178558945655823
0.56411880254745483 0.030368011444807053 0.31811869144439697
0.78636938333511353 0.0046225753612816334 0.28120595216751099
0.94288212060928345 0.021296212449669838 0.25871190428733826
0.99986076354980469 0.23558969795703888 0.28423714637756348
0.018770944327116013 0.20159201323986053 0.30789723992347717
0.14093397557735443 0.2019210010766983 0.33775472640991211
0.37818732857704163 0.21679331362247467 0.3583972156047821
0.61854320764541626 0.16949018836021423 0.3328588604927063
0.8090282678604126 0.12016697227954865 0.29616859555244446
0.94237661361694336 0.2311723381280899 0.29311078786849976
0.99801409244537354 0.34350931644439697 0.30085089802742004
0.0095378654077649117 0.37769871950149536 0.34628978371620178
0.077957287430763245 0.39668694138526917 0.36661553382873535
0.3994353711605072 0.41314750909805298 0.39070579409599304
0.64268124103546143 0.41652867197990417 0.35825702548027039
0.80583435297012329 0.41469138860702515 0.32449048757553101
0.93249070644378662 0.42685940861701965 0.30180525779724121
0.99836349487304688 0.45504304766654968 0.28464624285697937
0.028908926993608475 0.57859307527542114 0.41447603702545166
0.20658436417579651 0.58649569749832153 0.42692416906356812
0.3704712986946106 0.58511817455291748 0.42475771903991699
0.58355969190597534 0.60100924968719482 0.40563848614692688
0.78553932905197144 0.59173518419265747 0.35014587640762329
0.92085856199264526 0.56697702407836914 0.28678178787231445
0.98827743530273438 0.56957292556762695 0.25150611996650696
0.25358837842941284 0.70884829759597778 0.48108705878257751
0.2841695249080658 0.70728659629821777 0.47530639171600342
0.36213874816894531 0.70687758922576904 0.47054862976074219
0.51943504810333252 0.71029883623123169 0.46780958771705627
0.71225166320800781 0.73274582624435425 0.46026438474655151
0.87725830078125 0.73004037141799927 0.41542565822601318
0.9759376049041748 0.71124273538589478 0.31434923410415649
0.36791214346885681 0.81092840433120728 0.54877138137817383
0.37856766581535339 0.81051492691040039 0.54132294654846191
0.43182122707366943 0.80939072370529175 0.54218173027038574
0.53901612758636475 0.80980169773101807 0.54824411869049072
0.66734540462493896 0.81778872013092041 0.5465691089630127
0.81918781995773315 0.83715158700942993 0.54607880115509033
0.94521874189376831 0.85212916135787964 0.53202986717224121
0.57730597257614136 0.91032946109771729 0.67114967107772827
0.58270537853240967 0.90994751453399658 0.66624635457992554
0.61431896686553955 0.90584039688110352 0.66988146305084229
0.66698086261749268 0.90932053327560425 0.67936521768569946
0.73529231548309326 0.9144013524055481 0.68156898021697998
0.82275211811065674 0.92337632179260254 0.67746472358703613
0.91698271036148071 0.9360845685005188 0.67699819803237915
0.0092242816463112831 0.14036129415035248 0.52013778686523438
0.090345852077007294 0.12764200568199158 0.53920310735702515
0.37172982096672058 0.11699236929416656 0.56056338548660278
0.62930309772491455 0.056709498167037964 0.5750269889831543
0.78463113307952881 0.027547992765903473 0.53132522106170654
0.91091549396514893 0.083075143396854401 0.4833119809627533
0.99328124523162842 0.17737618088722229 0.45898628234863281
0.011657744646072388 0.22176435589790344 0.52580028772354126
0.049932815134525299 0.21295167505741119 0.55027979612350464
0.37406334280967712 0.22959823906421661 0.57259595394134521
0.63797211647033691 0.23732432723045349 0.58055800199508667
0.79523730278015137 0.22963705658912659 0.53156858682632446
0.92231065034866333 0.24986833333969116 0.49473172426223755
0.99364542961120605 0.30746793746948242 0.47099688649177551
0.011764706112444401 0.39392322301864624 0.53672248125076294
0.012595128268003464 0.39315438270568848 0.55186766386032104
0.36489042639732361 0.4111945629119873 0.5707470178604126
0.64457869529724121 0.4483431875705719 0.58669757843017578
0.79642343521118164 0.43758460879325867 0.54928958415985107
0.91580939292907715 0.44171622395515442 0.52177488803863525
0.99565690755844116 0.47802641987800598 0.51849424839019775
0.0090069789439439774 0.57916808128356934 0.55007654428482056
0.10491546988487244 0.58555203676223755 0.56036078929901123
0.41692006587982178 0.59364897012710571 0.57544755935668945
0.63380938768386841 0.61239981651306152 0.59648627042770386
0.77894771099090576 0.60893160104751587 0.56951755285263062
0.8958740234375 0.60142630338668823 0.54487389326095581
0.9802975058555603 0.61815780401229858 0.52582466602325439
0.30542558431625366 0.717121422290802 0.58729654550552368
0.3867337703704834 0.71671789884567261 0.59537810087203979
0.52024662494659424 0.72029560804367065 0.60854685306549072
0.61901921033859253 0.72341549396514893 0.61107629537582397
0.74744117259979248 0.73867648839950562 0.60499793291091919
0.87547355890274048 0.72331047058105469 0.57310503721237183
0.97397410869598389 0.71682953834533691 0.51815760135650635
0.51220607757568359 0.8150705099105835 0.6484687328338623
0.53783911466598511 0.81417065858840942 0.65004909038543701
0.58446091413497925 0.8148682713508606 0.65282833576202393
0.62457418441772461 0.81593066453933716 0.64487898349761963
0.71062636375427246 0.81971544027328491 0.64439672231674194
0.83215367794036865 0.83187472820281982 0.64524435997009277
0.94652724266052246 0.84728044271469116 0.62989538908004761
0.64829164743423462 0.90813827514648438 0.72697478532791138
0.64043039083480835 0.90872639417648315 0.71758466958999634
0.65755581855773926 0.90855211019515991 0.71509134769439697
0.69792324304580688 0.91240054368972778 0.72066152095794678
0.75758391618728638 0.91232979297637939 0.72579091787338257
0.83414965867996216 0.92521017789840698 0.73019325733184814
0.92408806085586548 0.93358856439590454 0.72631406784057617
0.0067403903231024742 0.16697444021701813 0.68768042325973511
0.042026713490486145 0.15829381346702576 0.69583117961883545
0.36117684841156006 0.16668786108493805 0.70733696222305298
0.62611919641494751 0.18924731016159058 0.72064220905303955
0.80081725120544434 0.2024688720703125 0.71249544620513916
0.90500092506408691 0.23426899313926697 0.67634999752044678
0.98283648490905762 0.34415850043296814 0.65646934509277344
0.010706732980906963 0.24789881706237793 0.68607085943222046
0.033910024911165237 0.24081718921661377 0.69997680187225342
0.35215702652931213 0.25855797529220581 0.70679014921188354
0.62298059463500977 0.30052831768989563 0.71857458353042603
0.80459791421890259 0.33474010229110718 0.71990668773651123
0.90587586164474487 0.34645602107048035 0.6800275444984436
0.98236566781997681 0.41497969627380371 0.66017091274261475
0.007069950457662344 0.3867613673210144 0.67402434349060059
0.023940740153193474 0.39062327146530151 0.69079339504241943
0.35401824116706848 0.41340640187263489 0.69601345062255859
0.61827540397644043 0.46196708083152771 0.71139788627624512
0.79538619518280029 0.49933484196662903 0.71222573518753052
0.89785599708557129 0.50400042533874512 0.68218058347702026
0.98065018653869629 0.51929742097854614 0.66502654552459717
0.0058935275301337242 0.54550611972808838 0.66243356466293335
0.016474496573209763 0.55456846952438354 0.67018383741378784
0.33226847648620605 0.56374841928482056 0.67938333749771118
0.59568309783935547 0.60487174987792969 0.70204740762710571
0.77790212631225586 0.64207088947296143 0.71498900651931763
0.88402849435806274 0.63083732128143311 0.68777936697006226
0.97607076168060303 0.62585091590881348 0.6743847131729126
0.17441606521606445 0.70783150196075439 0.67742854356765747
0.29583948850631714 0.70847535133361816 0.68183720111846924
0.46657085418701172 0.71299737691879272 0.69036632776260376
0.61590492725372314 0.7179645299911499 0.70635318756103516
0.76403498649597168 0.74005061388015747 0.71553486585617065
0.86876469850540161 0.74303948879241943 0.70639222860336304
0.96744978427886963 0.74050289392471313 0.68343043327331543
0.4796406626701355 0.82207232713699341 0.71053475141525269
0.50500214099884033 0.81782859563827515 0.71783155202865601
0.59210622310638428 0.8189200758934021 0.72237282991409302
0.68461358547210693 0.82351100444793701 0.73091250658035278
0.75647372007369995 0.82658100128173828 0.730937659740448
0.84978210926055908 0.84041529893875122 0.7358049750328064
0.95746272802352905 0.84592217206954956 0.71800416707992554
0.64750373363494873 0.91365498304367065 0.77283155918121338
0.66850638389587402 0.91443878412246704 0.77703678607940674
0.70415925979614258 0.91561710834503174 0.77897626161575317
0.74694013595581055 0.91586118936538696 0.78010815382003784
0.7917359471321106 0.91528522968292236 0.77878737449645996
0.85322952270507812 0.92318260669708252 0.78371089696884155
0.93378311395645142 0.94031399488449097 0.78417128324508667
0.0092320758849382401 0.22298581898212433 0.80944651365280151
0.14570041000843048 0.22809460759162903 0.81095582246780396
0.40477263927459717 0.24764855206012726 0.81266635656356812
0.62121963500976562 0.28171390295028687 0.81740272045135498
0.79462289810180664 0.37155845761299133 0.8205026388168335
0.91176348924636841 0.4150097668170929 0.81247138977050781
0.98238110542297363 0.43061944842338562 0.78832662105560303
0.01413376722484827 0.29442372918128967 0.80685603618621826
0.15700317919254303 0.29437416791915894 0.81032902002334595
0.41725096106529236 0.33224886655807495 0.81022453308105469
0.62623351812362671 0.36285227537155151 0.81636816263198853
0.79924136400222778 0.44359099864959717 0.82126957178115845
0.91131001710891724 0.47565603256225586 0.81351262331008911
0.97737932205200195 0.49760285019874573 0.79335212707519531
0.014386091381311417 0.41172111034393311 0.79881972074508667
0.14555081725120544 0.41374427080154419 0.80200934410095215
0.41619321703910828 0.44276136159896851 0.80382919311523438
0.6193585991859436 0.48954415321350098 0.80891382694244385
0.79087620973587036 0.55218076705932617 0.81608909368515015
0.89762955904006958 0.58067220449447632 0.80720561742782593
0.97228020429611206 0.58246928453445435 0.79474884271621704
0.0078339371830224991 0.55075627565383911 0.77684372663497925
0.074804447591304779 0.55080795288085938 0.78010398149490356
0.38176682591438293 0.5617479681968689 0.78658664226531982
0.59145623445510864 0.60284590721130371 0.79407250881195068
0.76337426900863647 0.64566987752914429 0.8047214150428772
0.88589918613433838 0.67426615953445435 0.80215024948120117
0.96883124113082886 0.67857915163040161 0.78668421506881714
0.019729165360331535 0.6891855001449585 0.77060079574584961
0.098029099404811859 0.68447208404541016 0.76970970630645752
0.33608782291412354 0.68095380067825317 0.77599138021469116
0.54211330413818359 0.69154816865921021 0.77789270877838135
0.73283296823501587 0.7326047420501709 0.79596197605133057
0.87232744693756104 0.75979793071746826 0.80503135919570923
0.96241301298141479 0.7741321325302124 0.79786157608032227
0.37580054998397827 0.81654441356658936 0.78328138589859009
0.43258589506149292 0.81455832719802856 0.78278207778930664
0.52867752313613892 0.81560099124908447 0.79043984413146973
0.63982439041137695 0.82123935222625732 0.79767674207687378
0.75462120771408081 0.82836192846298218 0.80939513444900513
0.87033241987228394 0.84710443019866943 0.81950682401657104
0.95604848861694336 0.85592818260192871 0.81107372045516968
0.61794519424438477 0.9210968017578125 0.8208242654800415
0.63519692420959473 0.9207879900932312 0.82049280405044556
0.66805350780487061 0.91709572076797485 0.82881063222885132
0.73409014940261841 0.92380404472351074 0.83214002847671509
0.80028295516967773 0.92309170961380005 0.83794969320297241
0.87156987190246582 0.93147403001785278 0.84479308128356934
0.94102942943572998 0.941173255443573 0.85377901792526245
0.38467395305633545 0.40275135636329651 0.91092962026596069
0.45279252529144287 0.41060489416122437 0.90949082374572754
0.5610085129737854 0.42756721377372742 0.90947610139846802
0.69588428735733032 0.46499752998352051 0.90766680240631104
0.81601285934448242 0.51909327507019043 0.90396296977996826
0.91220498085021973 0.58567911386489868 0.90240967273712158
0.98571127653121948 0.61269581317901611 0.89792275428771973
0.40424498915672302 0.45385873317718506 0.91026604175567627
0.46320769190788269 0.46145921945571899 0.90875852108001709
0.57092821598052979 0.47604387998580933 0.9090084433555603
0.69632166624069214 0.50963330268859863 0.90616011619567871
0.81322979927062988 0.55816030502319336 0.90522688627243042
0.91020065546035767 0.61844629049301147 0.90174245834350586
0.98440289497375488 0.64166998863220215 0.89970529079437256
0.40245282649993896 0.5337720513343811 0.90496957302093506
0.46440207958221436 0.54105406999588013 0.90450584888458252
0.57261985540390015 0.55470806360244751 0.90215420722961426
0.69092869758605957 0.58442944288253784 0.90006560087203979
0.80996739864349365 0.62280482053756714 0.90132987499237061
0.90678387880325317 0.66604268550872803 0.89908689260482788
0.98117738962173462 0.68432748317718506 0.89941304922103882
0.38640874624252319 0.63226109743118286 0.89600783586502075
0.43859291076660156 0.63431131839752197 0.89491218328475952
0.53848975896835327 0.6293601393699646 0.89763325452804565
0.66502153873443604 0.65026700496673584 0.8966946005821228
0.79562902450561523 0.69192045927047729 0.89792770147323608
0.89684939384460449 0.72563225030899048 0.89856046438217163
0.97592395544052124 0.74692171812057495 0.90035450458526611
0.16788357496261597 0.71987438201904297 0.8855433464050293
0.27005752921104431 0.71891695261001587 0.8848147988319397
0.42847684025764465 0.71904438734054565 0.88612210750579834
0.59905368089675903 0.72688692808151245 0.88891863822937012
0.75278967618942261 0.75191158056259155 0.89357608556747437
0.88641858100891113 0.78316289186477661 0.90160810947418213
0.9592704176902771 0.80641442537307739 0.90101325511932373
0.40759247541427612 0.83929622173309326 0.89051860570907593
0.43993842601776123 0.83747386932373047 0.88844311237335205
0.49698886275291443 0.83347034454345703 0.88778340816497803
0.59214544296264648 0.82539856433868408 0.8892667293548584
0.70276117324829102 0.82377588748931885 0.89348512887954712
0.84831827878952026 0.8416447639465332 0.90352576971054077
0.95803689956665039 0.87075978517532349 0.91257518529891968
0.58994781970977783 0.94248825311660767 0.90622079372406006
0.59904336929321289 0.93994569778442383 0.90571516752243042
0.63445496559143066 0.93964880704879761 0.90973281860351562
0.69495272636413574 0.93845260143280029 0.91076529026031494
0.76551204919815063 0.94122534990310669 0.91451984643936157
0.84943342208862305 0.94176876544952393 0.91972297430038452
0.95815742015838623 0.95137667655944824 0.92669200897216797
