luts/negative_old/kodak_portra_400_vc_+.cube
# Created by: G'MIC (https://gmic.eu)
TITLE "kodak_portra_400_vc_+"
# LUT size
LUT_3D_SIZE 13
# Data domain
DOMAIN_MIN 0.0 0.0 0.0
DOMAIN_MAX 1.0 1.0 1.0
# LUT data points
0.071352086961269379 0.097510427236557007 0.11380034685134888
0.10177461057901382 0.094601273536682129 0.11227452754974365
0.15924368798732758 0.096821941435337067 0.10727923363447189
0.23392614722251892 0.1020842045545578 0.10292299836874008
0.32318425178527832 0.10701616853475571 0.10009113699197769
0.4278685450553894 0.11122921109199524 0.091089211404323578
0.53240126371383667 0.11484220623970032 0.079463198781013489
0.63538354635238647 0.12001656740903854 0.061216525733470917
0.7256128191947937 0.12632541358470917 0.045431129634380341
0.79210937023162842 0.139627605676651 0.032664325088262558
0.85933250188827515 0.15192142128944397 0.016835950314998627
0.92058646678924561 0.16720981895923615 0.0049111908301711082
0.97157847881317139 0.18912422657012939 0.0010695962700992823
0.065659090876579285 0.12172139436006546 0.11590911448001862
0.096915192902088165 0.12698051333427429 0.11574092507362366
0.15380093455314636 0.13228490948677063 0.11087591201066971
0.23854702711105347 0.14027900993824005 0.10419278591871262
0.33467024564743042 0.14298692345619202 0.097762957215309143
0.43973365426063538 0.14848433434963226 0.086779862642288208
0.54604613780975342 0.15387701988220215 0.072634659707546234
0.65090978145599365 0.16185919940471649 0.051576517522335052
0.73492342233657837 0.16779299080371857 0.035275820642709732
0.80036944150924683 0.177592933177948 0.024934746325016022
0.86310327053070068 0.18330767750740051 0.014538828283548355
0.92213577032089233 0.19532282650470734 0.0050045987591147423
0.97337889671325684 0.21405334770679474 0.0017901252722367644
0.046076111495494843 0.17359510064125061 0.12658901512622833
0.080734431743621826 0.17749331891536713 0.12471090257167816
0.14045606553554535 0.18337590992450714 0.1181083545088768
0.23530663549900055 0.19811926782131195 0.1055840402841568
0.35094639658927917 0.20559528470039368 0.091229923069477081
0.4643939733505249 0.21146763861179352 0.074072085320949554
0.57212311029434204 0.21733216941356659 0.056736547499895096
0.67221266031265259 0.21840806305408478 0.037395909428596497
0.74822771549224854 0.22107192873954773 0.021977636963129044
0.81377267837524414 0.22478501498699188 0.012528363615274429
0.87240862846374512 0.22865307331085205 0.0080575533211231232
0.92618280649185181 0.23819755017757416 0.0049123875796794891
0.97736430168151855 0.25262343883514404 0.0020359412301331758
0.01527328509837389 0.23850677907466888 0.14238481223583221
0.043880268931388855 0.2425757497549057 0.14360494911670685
0.11473901569843292 0.25068801641464233 0.13625569641590118
0.2117827832698822 0.2662513256072998 0.11982782185077667
0.34637457132339478 0.29146704077720642 0.094300590455532074
0.48248893022537231 0.30312743782997131 0.060668721795082092
0.60059851408004761 0.30132165551185608 0.030348055064678192
0.6893773078918457 0.29349640011787415 0.01774902269244194
0.75981879234313965 0.29584267735481262 0.013217118568718433
0.82375222444534302 0.29516923427581787 0.0081153418868780136
0.87963283061981201 0.29010829329490662 0.0063325171358883381
0.93221092224121094 0.29289957880973816 0.0053174784407019615
0.98034435510635376 0.30474087595939636 0.0020760032348334789
0.0075138318352401257 0.32616502046585083 0.16739696264266968
0.014010036364197731 0.32617613673210144 0.16604809463024139
0.066581860184669495 0.33709564805030823 0.16171061992645264
0.1770477294921875 0.35602948069572449 0.14625869691371918
0.31339752674102783 0.37855526804924011 0.12098711729049683
0.46870517730712891 0.407003253698349 0.071837134659290314
0.59682762622833252 0.40680855512619019 0.023867469280958176
0.69390159845352173 0.38703224062919617 0.008752455934882164
0.7720375657081604 0.37328812479972839 0.0075761983171105385
0.83423972129821777 0.36807456612586975 0.0055224099196493626
0.89004158973693848 0.36020353436470032 0.0045678382739424706
0.94178968667984009 0.35677215456962585 0.0034535876475274563
0.98609131574630737 0.35944256186485291 0.0021802415139973164
0.0044715432450175285 0.41839933395385742 0.18845120072364807
0.0077582863159477711 0.42179149389266968 0.19103929400444031
0.021358266472816467 0.42698723077774048 0.1891232430934906
0.12814569473266602 0.4426136314868927 0.17815835773944855
0.27537161111831665 0.45902004837989807 0.15834084153175354
0.41695448756217957 0.47894307971000671 0.12486959993839264
0.55997663736343384 0.49791330099105835 0.062269188463687897
0.67705351114273071 0.49493971467018127 0.014608255587518215
0.76372760534286499 0.47148799896240234 0.0053175832144916058
0.83790582418441772 0.44783809781074524 0.0042212391272187233
0.89885735511779785 0.43055644631385803 0.0029442880768328905
0.94751912355422974 0.42620363831520081 0.002343405969440937
0.98639839887619019 0.4243215024471283 0.0023284314665943384
0.0010435365838930011 0.5040287971496582 0.21708856523036957
0.0048583238385617733 0.50578880310058594 0.2237493097782135
0.0098637603223323822 0.50869256258010864 0.224103182554245
0.096004322171211243 0.51546716690063477 0.21817417442798615
0.24470920860767365 0.52707505226135254 0.20603209733963013
0.37511792778968811 0.54010790586471558 0.18284475803375244
0.50280296802520752 0.55507558584213257 0.14457525312900543
0.63691788911819458 0.57221150398254395 0.085078157484531403
0.74531376361846924 0.56992936134338379 0.028678145259618759
0.82328671216964722 0.54651904106140137 0.0094218235462903976
0.8874887228012085 0.52239793539047241 0.0054666409268975258
0.94447380304336548 0.50193172693252563 0.0034200032241642475
0.98702627420425415 0.49025070667266846 0.0016164592234417796
2.6747758965939283e-05 0.57679080963134766 0.25953033566474915
0.0018349442398175597 0.57772219181060791 0.26477900147438049
0.016414912417531013 0.57940137386322021 0.26597458124160767
0.1240132674574852 0.57880419492721558 0.2643187940120697
0.24500414729118347 0.58395689725875854 0.25731620192527771
0.35349550843238831 0.5931699275970459 0.24226288497447968
0.46119681000709534 0.60481554269790649 0.21876497566699982
0.58178061246871948 0.61989688873291016 0.1808285266160965
0.70602482557296753 0.63655638694763184 0.13454486429691315
0.80333817005157471 0.63322871923446655 0.077825583517551422
0.87194955348968506 0.61415934562683105 0.031728018075227737
0.93287324905395508 0.59206265211105347 0.0085185328498482704
0.98481792211532593 0.57065016031265259 0.0017733105923980474
0.012824488803744316 0.64456015825271606 0.31095999479293823
0.033919166773557663 0.64526170492172241 0.31454372406005859
0.090260647237300873 0.64238256216049194 0.31531330943107605
0.18627774715423584 0.63676577806472778 0.31754150986671448
0.27134793996810913 0.63725787401199341 0.31424608826637268
0.35942789912223816 0.64426720142364502 0.30464604496955872
0.45298773050308228 0.65383023023605347 0.29120105504989624
0.54998660087585449 0.66495829820632935 0.26921632885932922
0.65345168113708496 0.67702478170394897 0.24131637811660767
0.76542437076568604 0.69090312719345093 0.20725373923778534
0.85094881057739258 0.69244170188903809 0.16260442137718201
0.91644155979156494 0.67845898866653442 0.10365356504917145
0.97411137819290161 0.66105949878692627 0.04820314422249794
0.15828542411327362 0.70114856958389282 0.37576949596405029
0.19135187566280365 0.70052981376647949 0.38021299242973328
0.23528996109962463 0.69576907157897949 0.38296636939048767
0.2779538631439209 0.69157373905181885 0.38304626941680908
0.33672824501991272 0.69116747379302979 0.38090890645980835
0.39776283502578735 0.69532114267349243 0.37451297044754028
0.46888822317123413 0.70387572050094604 0.36584454774856567
0.54588562250137329 0.71242994070053101 0.35158398747444153
0.63466978073120117 0.72048544883728027 0.33296209573745728
0.71995741128921509 0.72901785373687744 0.31311139464378357
0.81408298015594482 0.74333810806274414 0.29110303521156311
0.89341127872467041 0.74805951118469238 0.25987222790718079
0.95426535606384277 0.73947340250015259 0.21790818870067596
0.32328245043754578 0.75154542922973633 0.45118549466133118
0.33796140551567078 0.75219184160232544 0.45143842697143555
0.36407190561294556 0.74873936176300049 0.4545041024684906
0.39224815368652344 0.74546092748641968 0.45500984787940979
0.42379075288772583 0.74413669109344482 0.45340338349342346
0.46665835380554199 0.74709272384643555 0.45196214318275452
0.51746684312820435 0.75279474258422852 0.44941467046737671
0.57421541213989258 0.75898253917694092 0.43828567862510681
0.63849413394927979 0.76575976610183716 0.42680120468139648
0.71195578575134277 0.7735217809677124 0.41268190741539001
0.78751236200332642 0.78170043230056763 0.39501258730888367
0.85786372423171997 0.79188418388366699 0.37748759984970093
0.9292176365852356 0.80406153202056885 0.36446401476860046
0.45882171392440796 0.8040776252746582 0.53700953722000122
0.46596652269363403 0.80427193641662598 0.53709185123443604
0.48602500557899475 0.80350333452224731 0.54041552543640137
0.5081055760383606 0.80125182867050171 0.54081964492797852
0.52566820383071899 0.79925715923309326 0.54055321216583252
0.55378395318984985 0.80006593465805054 0.54131513833999634
0.58938831090927124 0.80315303802490234 0.53959834575653076
0.62678223848342896 0.80790877342224121 0.53454482555389404
0.67839103937149048 0.81519842147827148 0.52831554412841797
0.72879469394683838 0.82245415449142456 0.5212935209274292
0.79385685920715332 0.82999116182327271 0.50552088022232056
0.84982264041900635 0.83681249618530273 0.49101477861404419
0.89986032247543335 0.84536290168762207 0.48059996962547302
0.58816158771514893 0.85757797956466675 0.62900042533874512
0.59408926963806152 0.85757213830947876 0.62991935014724731
0.60497033596038818 0.85674834251403809 0.63100707530975342
0.61532354354858398 0.8549543023109436 0.63039165735244751
0.63144183158874512 0.85523289442062378 0.63483822345733643
0.65239822864532471 0.85420668125152588 0.63819378614425659
0.67388421297073364 0.85648781061172485 0.63990920782089233
0.69954133033752441 0.8606840968132019 0.63759458065032959
0.73199653625488281 0.86663007736206055 0.63180571794509888
0.76452988386154175 0.87176847457885742 0.62620991468429565
0.80636566877365112 0.87897664308547974 0.61947911977767944
0.85247766971588135 0.88814824819564819 0.61209076642990112
0.89372289180755615 0.89368915557861328 0.60138112306594849
0.067172914743423462 0.099072776734828949 0.13622529804706573
0.099520362913608551 0.09605880081653595 0.13414989411830902
0.15846987068653107 0.094603486359119415 0.13134992122650146
0.23798082768917084 0.093270532786846161 0.13161298632621765
0.32422962784767151 0.094115041196346283 0.12895123660564423
0.42379292845726013 0.10161504149436951 0.12687136232852936
0.53085887432098389 0.10350018739700317 0.12120023369789124
0.63366305828094482 0.10782971978187561 0.10995842516422272
0.72191470861434937 0.1137346625328064 0.10018205642700195
0.7909921407699585 0.12871924042701721 0.083127520978450775
0.85792332887649536 0.14463047683238983 0.060041017830371857
0.91855329275131226 0.16619722545146942 0.040285132825374603
0.97344094514846802 0.18852020800113678 0.020281758159399033
0.060937546193599701 0.13070787489414215 0.14584848284721375
0.099223971366882324 0.13261872529983521 0.14589184522628784
0.15868961811065674 0.13431309163570404 0.14191250503063202
0.24364423751831055 0.13693109154701233 0.13856233656406403
0.3349510133266449 0.14007259905338287 0.13487532734870911
0.43889021873474121 0.14489743113517761 0.12858565151691437
0.54493141174316406 0.14716061949729919 0.11953588575124741
0.64702361822128296 0.14866505563259125 0.10581839829683304
0.73178160190582275 0.15600024163722992 0.092605903744697571
0.79931247234344482 0.16738688945770264 0.074717998504638672
0.86227333545684814 0.1762121319770813 0.054294899106025696
0.9215121865272522 0.19379162788391113 0.034860588610172272
0.97342985868453979 0.21224106848239899 0.018727829679846764
0.060664396733045578 0.1829884946346283 0.15939587354660034
0.093533851206302643 0.18853217363357544 0.16392654180526733
0.15115927159786224 0.19288353621959686 0.15913297235965729
0.23995968699455261 0.19798329472541809 0.1476549357175827
0.35605925321578979 0.20228908956050873 0.13452437520027161
0.46824994683265686 0.20816197991371155 0.12248732894659042
0.57301884889602661 0.21450529992580414 0.10914584994316101
0.66649496555328369 0.21448022127151489 0.098613426089286804
0.74323529005050659 0.21852268278598785 0.083116434514522552
0.81046944856643677 0.22001287341117859 0.061802014708518982
0.87080538272857666 0.22509479522705078 0.044623970985412598
0.92641657590866089 0.23599722981452942 0.028538782149553299
0.97717905044555664 0.24974679946899414 0.013953982852399349
0.032718013972043991 0.25016844272613525 0.17390410602092743
0.063115261495113373 0.25852134823799133 0.17884199321269989
0.132505863904953 0.25985991954803467 0.17519764602184296
0.2236592173576355 0.26912784576416016 0.160594642162323
0.35622978210449219 0.2878272533416748 0.13984030485153198
0.49059164524078369 0.29829761385917664 0.11632895469665527
0.60137641429901123 0.29494509100914001 0.096046760678291321
0.68636441230773926 0.29171609878540039 0.077897854149341583
0.75758028030395508 0.2931770384311676 0.064000673592090607
0.82086998224258423 0.29082387685775757 0.04906139150261879
0.87910085916519165 0.28586843609809875 0.031236940994858742
0.93365097045898438 0.29027456045150757 0.01827036589384079
0.9810183048248291 0.29997646808624268 0.010394751094281673
0.0052175633609294891 0.33897867798805237 0.19666336476802826
0.018782297149300575 0.3420984148979187 0.19563692808151245
0.09629523754119873 0.34494844079017639 0.19599035382270813
0.20437858998775482 0.36131125688552856 0.18540690839290619
0.32775765657424927 0.38214582204818726 0.164774090051651
0.47524002194404602 0.40541708469390869 0.13051120936870575
0.59744977951049805 0.40250986814498901 0.095171622931957245
0.69526737928390503 0.38458251953125 0.061455581337213516
0.76959681510925293 0.37115707993507385 0.045220978558063507
0.83290034532546997 0.3629116415977478 0.029796749353408813
0.89027678966522217 0.35388213396072388 0.018190989270806313
0.94109076261520386 0.35218092799186707 0.012319347821176052
0.98502898216247559 0.35749781131744385 0.0079680345952510834
0.003186842892318964 0.43325936794281006 0.21856942772865295
0.0072496752254664898 0.43549844622612 0.22240892052650452
0.041501510888338089 0.4373573362827301 0.22074693441390991
0.1578139066696167 0.44818630814552307 0.21437019109725952
0.29325586557388306 0.46100187301635742 0.19853125512599945
0.42534610629081726 0.47946131229400635 0.16998526453971863
0.56721490621566772 0.49715062975883484 0.12659737467765808
0.67969554662704468 0.4893135130405426 0.083984017372131348
0.76585125923156738 0.46544679999351501 0.043172769248485565
0.83952713012695312 0.44337907433509827 0.019128238782286644
0.8967471718788147 0.42699974775314331 0.01180400513112545
0.94593334197998047 0.42017033696174622 0.0068160113878548145
0.98504984378814697 0.42158505320549011 0.0078341616317629814
0.0019595127087086439 0.51400256156921387 0.24916999042034149
0.0054240208119153976 0.51664155721664429 0.2537790834903717
0.025037115439772606 0.51741069555282593 0.25340196490287781
0.13657759130001068 0.51974749565124512 0.25202065706253052
0.26597660779953003 0.52846258878707886 0.24124640226364136
0.3858988881111145 0.53998398780822754 0.22045129537582397
0.51423561573028564 0.55551958084106445 0.18688873946666718
0.64259958267211914 0.57076501846313477 0.14576241374015808
0.74546551704406738 0.56202149391174316 0.092720016837120056
0.82310158014297485 0.54017728567123413 0.047257188707590103
0.89042913913726807 0.51685339212417603 0.017012592405080795
0.94520825147628784 0.49830794334411621 0.0086769405752420425
0.98633402585983276 0.48879042267799377 0.0069127250462770462
0.0023415957111865282 0.58427482843399048 0.2886054515838623
0.0099764205515384674 0.5861201286315918 0.28982147574424744
0.052376631647348404 0.58601123094558716 0.29115873575210571
0.16563071310520172 0.58311998844146729 0.29426389932632446
0.26563271880149841 0.58512353897094727 0.28747814893722534
0.36967179179191589 0.59271454811096191 0.27263560891151428
0.47714120149612427 0.60392528772354126 0.25119340419769287
0.5872991681098938 0.61878907680511475 0.22020100057125092
0.70654422044754028 0.63144338130950928 0.18409480154514313
0.80077201128005981 0.62782579660415649 0.13958998024463654
0.87257939577102661 0.60937106609344482 0.084344498813152313
0.93518006801605225 0.58886945247650146 0.038769740611314774
0.98537331819534302 0.5674857497215271 0.009206211194396019
0.048691932111978531 0.64903116226196289 0.33449938893318176
0.086219325661659241 0.64875632524490356 0.33649671077728271
0.14927525818347931 0.64520710706710815 0.33824208378791809
0.22458316385746002 0.6408880352973938 0.34146636724472046
0.29517838358879089 0.63936334848403931 0.33977943658828735
0.37510162591934204 0.64451330900192261 0.32953342795372009
0.4639945924282074 0.65434175729751587 0.31613403558731079
0.55541956424713135 0.66582483053207397 0.29746267199516296
0.65489989519119263 0.67651098966598511 0.2745949923992157
0.76324999332427979 0.68856298923492432 0.24664503335952759
0.84930264949798584 0.68922317028045654 0.20827750861644745
0.91425067186355591 0.67609637975692749 0.1585681289434433
0.97147941589355469 0.65965133905410767 0.10001135617494583
0.21374256908893585 0.70482951402664185 0.39665457606315613
0.23240399360656738 0.70344197750091553 0.39765578508377075
0.26141458749771118 0.69792336225509644 0.40027177333831787
0.31505072116851807 0.69446820020675659 0.40540036559104919
0.36077573895454407 0.69194865226745605 0.40188777446746826
0.41523858904838562 0.69634205102920532 0.39366006851196289
0.47901669144630432 0.70372205972671509 0.38372659683227539
0.55339467525482178 0.71274811029434204 0.37170690298080444
0.63821250200271606 0.72090715169906616 0.3581441342830658
0.72461402416229248 0.72946643829345703 0.34119239449501038
0.81225365400314331 0.74192965030670166 0.31909665465354919
0.89237207174301147 0.74817311763763428 0.29111355543136597
0.95229893922805786 0.74012494087219238 0.25404572486877441
0.3477441668510437 0.75447219610214233 0.46606194972991943
0.35777139663696289 0.75336772203445435 0.46611785888671875
0.37881764769554138 0.74987494945526123 0.46715819835662842
0.40933108329772949 0.74679017066955566 0.46874487400054932
0.4383348822593689 0.74555796384811401 0.46767038106918335
0.47935736179351807 0.7480502724647522 0.46442630887031555
0.52577310800552368 0.75227993726730347 0.45940208435058594
0.57815957069396973 0.75860929489135742 0.45173677802085876
0.64208751916885376 0.76539009809494019 0.44225296378135681
0.7147517204284668 0.77301925420761108 0.43036174774169922
0.78874272108078003 0.78070122003555298 0.41473999619483948
0.8584904670715332 0.79102092981338501 0.39820262789726257
0.92868393659591675 0.80244457721710205 0.38361263275146484
0.47161775827407837 0.80577397346496582 0.54714995622634888
0.48028433322906494 0.80465179681777954 0.54820114374160767
0.49475342035293579 0.80354452133178711 0.54930621385574341
0.51445603370666504 0.80151724815368652 0.55035597085952759
0.53470313549041748 0.80108904838562012 0.55116242170333862
0.56117439270019531 0.80031579732894897 0.55153739452362061
0.59871029853820801 0.80283063650131226 0.54895442724227905
0.63340979814529419 0.80768591165542603 0.54520750045776367
0.68184250593185425 0.81443190574645996 0.53813844919204712
0.72930878400802612 0.82144331932067871 0.53105038404464722
0.79406952857971191 0.82852530479431152 0.51830095052719116
0.85049009323120117 0.83563363552093506 0.50452256202697754
0.90206265449523926 0.84489709138870239 0.49397656321525574
0.59466880559921265 0.85746675729751587 0.63439905643463135
0.59778380393981934 0.85630810260772705 0.63409602642059326
0.60903990268707275 0.8575252890586853 0.63643932342529297
0.61983704566955566 0.85607099533081055 0.63652849197387695
0.63436150550842285 0.85582506656646729 0.63987970352172852
0.65535807609558105 0.85440999269485474 0.64446926116943359
0.67938834428787231 0.85480421781539917 0.64443022012710571
0.70279854536056519 0.85930567979812622 0.64195173978805542
0.73386746644973755 0.86630117893218994 0.63928508758544922
0.76459807157516479 0.87183094024658203 0.63362747430801392
0.81023365259170532 0.87969768047332764 0.62689292430877686
0.85197728872299194 0.88546717166900635 0.61607414484024048
0.89510291814804077 0.89481258392333984 0.61186206340789795
0.047418691217899323 0.10424511134624481 0.19409109652042389
0.094881020486354828 0.10326038300991058 0.19062666594982147
0.15426275134086609 0.10071354359388351 0.18587182462215424
0.22904111444950104 0.095467135310173035 0.18268550932407379
0.32795330882072449 0.080948278307914734 0.17751674354076385
0.435293048620224 0.055972740054130554 0.17103514075279236
0.54126495122909546 0.04993685707449913 0.16511908173561096
0.63931488990783691 0.074698686599731445 0.16353212296962738
0.72060352563858032 0.095184192061424255 0.1582285463809967
0.78897476196289062 0.11701693385839462 0.14615504443645477
0.85325640439987183 0.13819514214992523 0.13072147965431213
0.91234666109085083 0.16263602674007416 0.11409107595682144
0.96825277805328369 0.18620599806308746 0.095125012099742889
0.044522229582071304 0.13803400099277496 0.19643095135688782
0.094447627663612366 0.13937725126743317 0.19888775050640106
0.1598343700170517 0.14004649221897125 0.19598352909088135
0.24164868891239166 0.13768090307712555 0.19183266162872314
0.33877122402191162 0.12540814280509949 0.184616819024086
0.44404897093772888 0.12050969898700714 0.1791052371263504
0.55130696296691895 0.11885114014148712 0.17204199731349945
0.64865803718566895 0.1296808123588562 0.16649813950061798
0.72851598262786865 0.14473050832748413 0.15762752294540405
0.79504132270812988 0.15617020428180695 0.14377586543560028
0.85752886533737183 0.17057627439498901 0.12918159365653992
0.91568803787231445 0.19179543852806091 0.11057369410991669
0.96990853548049927 0.21041654050350189 0.089199334383010864
0.044960875064134598 0.19229967892169952 0.21019445359706879
0.095470339059829712 0.19449537992477417 0.21194562315940857
0.16450300812721252 0.19866597652435303 0.21108856797218323
0.25504589080810547 0.20014899969100952 0.20379970967769623
0.35947954654693604 0.19422629475593567 0.19289699196815491
0.46897929906845093 0.1986648291349411 0.18586342036724091
0.57255101203918457 0.20219017565250397 0.17586414515972137
0.6625332236289978 0.20553824305534363 0.16665631532669067
0.73907256126403809 0.21283893287181854 0.154993936419487
0.80369168519973755 0.21580992639064789 0.14047090709209442
0.86424130201339722 0.22325114905834198 0.12556254863739014
0.92229324579238892 0.2366141676902771 0.10503285378217697
0.97382825613021851 0.25197872519493103 0.084254398941993713
0.043084044009447098 0.26753276586532593 0.22816160321235657
0.094641879200935364 0.2711024284362793 0.22887027263641357
0.15747320652008057 0.26901733875274658 0.22804558277130127
0.24691753089427948 0.27768954634666443 0.22289435565471649
0.37210080027580261 0.29047498106956482 0.20647794008255005
0.50042831897735596 0.29272058606147766 0.18920521438121796
0.59925907850265503 0.29049569368362427 0.17664404213428497
0.68032228946685791 0.28885793685913086 0.16449196636676788
0.75279432535171509 0.2907010018825531 0.14964559674263
0.81442970037460327 0.28584745526313782 0.13032528758049011
0.87236052751541138 0.28440430760383606 0.11296515166759491
0.93007528781890869 0.29219728708267212 0.09617161750793457
0.9786493182182312 0.30256351828575134 0.078146778047084808
0.02240174263715744 0.36395981907844543 0.25156548619270325
0.068313419818878174 0.36622053384780884 0.25118815898895264
0.14453111588954926 0.36550179123878479 0.25200054049491882
0.23148456215858459 0.37140083312988281 0.24833531677722931
0.35270774364471436 0.38962191343307495 0.23105034232139587
