luts/negative_old/kodak_portra_160_vc_++.cube
# Created by: G'MIC (https://gmic.eu)
TITLE "kodak_portra_160_vc_++"
# LUT size
LUT_3D_SIZE 5
# Data domain
DOMAIN_MIN 0.0 0.0 0.0
DOMAIN_MAX 1.0 1.0 1.0
# LUT data points
0.13098756968975067 0.10366318374872208 0.063285335898399353
0.25431430339813232 0.10022585839033127 0.051601812243461609
0.5664556622505188 0.078759871423244476 0.01629689522087574
0.86863249540328979 0.10398723930120468 0.0023262922186404467
1 0.21693658828735352 0.0023840512149035931
0.10851351916790009 0.22815690934658051 0.07424578070640564
0.24882860481739044 0.25440272688865662 0.034479044377803802
0.58374565839767456 0.2725527286529541 0.006213468499481678
0.85621774196624756 0.28670203685760498 0.0010558034991845489
1 0.3385864794254303 0.00077691173646599054
0.002344662556424737 0.52331221103668213 0.16948190331459045
0.19331343472003937 0.52862423658370972 0.17389760911464691
0.520729660987854 0.55900967121124268 0.024122964590787888
0.827659010887146 0.53719902038574219 0
0.99188697338104248 0.51088649034500122 0
0.22704431414604187 0.7408299446105957 0.38984972238540649
0.33717778325080872 0.73405331373214722 0.39857518672943115
0.50781691074371338 0.7397531270980835 0.36442163586616516
0.7582097053527832 0.75640302896499634 0.23167888820171356
0.98138636350631714 0.76136314868927002 0.034051362425088882
0.63076788187026978 0.91008931398391724 0.66901838779449463
0.65548527240753174 0.9087526798248291 0.67547661066055298
0.71011728048324585 0.9049537181854248 0.67985004186630249
0.79136848449707031 0.92091113328933716 0.64220136404037476
0.91682124137878418 0.93710619211196899 0.58293294906616211
0.1162564605474472 0.11163270473480225 0.22651247680187225
0.27052819728851318 0.10932095348834991 0.21906715631484985
0.57776188850402832 0.0053262598812580109 0.19256876409053802
0.86973559856414795 0.091298498213291168 0.21164751052856445
0.99916720390319824 0.27813199162483215 0.22627168893814087
0.1060841903090477 0.27052021026611328 0.24568295478820801
0.29509314894676208 0.28175055980682373 0.25822374224662781
0.6021391749382019 0.28929072618484497 0.2367374449968338
0.86215096712112427 0.31858137249946594 0.21423403918743134
0.99670529365539551 0.37566709518432617 0.21173456311225891
0.19439764320850372 0.55707061290740967 0.3615175187587738
0.31149095296859741 0.54958891868591309 0.35560303926467896
0.55620837211608887 0.5619092583656311 0.29069086909294128
0.84066134691238403 0.53623032569885254 0.171610027551651
0.99738699197769165 0.52538275718688965 0.12271285802125931
0.35408481955528259 0.74473917484283447 0.48883342742919922
0.43021422624588013 0.74287444353103638 0.49762025475502014
0.55936944484710693 0.74131613969802856 0.48805895447731018
0.76998770236968994 0.75872880220413208 0.40120843052864075
0.97818475961685181 0.75978761911392212 0.28448718786239624
0.65139847993850708 0.91138410568237305 0.70129573345184326
0.67050445079803467 0.90780830383300781 0.70000505447387695
0.72276407480239868 0.90704131126403809 0.70774549245834351
0.7970162034034729 0.91937631368637085 0.6846926212310791
0.92431414127349854 0.93951690196990967 0.63545221090316772
0.0044549978338181973 0.16738110780715942 0.59632283449172974
0.33714157342910767 0.19002889096736908 0.58787524700164795
0.63185340166091919 0.21577447652816772 0.57694274187088013
0.85133928060531616 0.074013113975524902 0.49428999423980713
0.99981892108917236 0.19464060664176941 0.45932617783546448
0.022333497181534767 0.38088077306747437 0.60978227853775024
0.33822876214981079 0.37668052315711975 0.60897022485733032
0.62967097759246826 0.39243218302726746 0.58069413900375366
0.84900140762329102 0.33031871914863586 0.51725047826766968
0.99546325206756592 0.39033639430999756 0.50891232490539551
0.1464887410402298 0.59734243154525757 0.59190726280212402
0.36781182885169983 0.59460973739624023 0.59468722343444824
0.60289281606674194 0.57977068424224854 0.58482211828231812
0.82771044969558716 0.57227075099945068 0.55740725994110107
0.98168253898620605 0.5965573787689209 0.54706466197967529
0.51446759700775146 0.7662055492401123 0.6599767804145813
0.57278001308441162 0.76083207130432129 0.65592962503433228
0.65335142612457275 0.75184977054595947 0.64301097393035889
0.79851406812667847 0.7608039379119873 0.60990327596664429
0.9731859564781189 0.7497442364692688 0.53957962989807129
0.7004544734954834 0.91440021991729736 0.76727628707885742
0.71500891447067261 0.91599339246749878 0.76397359371185303
0.75328415632247925 0.91230589151382446 0.76591825485229492
0.81748944520950317 0.91938823461532593 0.75937825441360474
0.92899852991104126 0.93828314542770386 0.72337406873703003
0.21539722383022308 0.32270523905754089 0.82274073362350464
0.43111112713813782 0.35025113821029663 0.81682062149047852
0.68809628486633301 0.42281123995780945 0.80431479215621948
0.87462550401687622 0.45749032497406006 0.79022502899169922
0.98940104246139526 0.41019287705421448 0.73533123731613159
0.30450353026390076 0.4728410542011261 0.81762224435806274
0.46271774172782898 0.48670020699501038 0.81237351894378662
0.6970941424369812 0.52999871969223022 0.80006140470504761
0.86422693729400635 0.55237150192260742 0.78907603025436401
0.98232340812683105 0.50017690658569336 0.73498624563217163
0.33249041438102722 0.65270012617111206 0.79754370450973511
0.47941833734512329 0.65651917457580566 0.79808133840560913
0.68419140577316284 0.65843600034713745 0.79330748319625854
0.84061229228973389 0.67046701908111572 0.78619122505187988
0.97448515892028809 0.63305318355560303 0.75314450263977051
0.51370370388031006 0.78826814889907837 0.78780430555343628
0.58049708604812622 0.7874305248260498 0.79274111986160278
0.6942029595375061 0.78112483024597168 0.7903144359588623
0.81941008567810059 0.77672106027603149 0.78536462783813477
0.96320182085037231 0.77745664119720459 0.77229797840118408
0.71576321125030518 0.92834949493408203 0.8472599983215332
0.7335132360458374 0.92762154340744019 0.84953051805496216
0.78980308771133423 0.92610114812850952 0.85550367832183838
0.84710049629211426 0.92322784662246704 0.84786832332611084
0.94021898508071899 0.94253319501876831 0.82973337173461914
0.55825239419937134 0.55934005975723267 0.95186638832092285
0.63991051912307739 0.57792085409164429 0.9501882791519165
0.76909768581390381 0.617645263671875 0.94059371948242188
0.89172166585922241 0.67819023132324219 0.93387126922607422
0.98490637540817261 0.69455474615097046 0.93201059103012085
0.59735411405563354 0.62934476137161255 0.95107758045196533
0.66302949190139771 0.64328163862228394 0.94780069589614868
0.77759772539138794 0.66958749294281006 0.94027692079544067
0.89063513278961182 0.71515601873397827 0.93297570943832397
0.98158782720565796 0.72845059633255005 0.9320605993270874
0.6412891149520874 0.73986750841140747 0.94636589288711548
0.68317753076553345 0.73948180675506592 0.94423162937164307
0.76934385299682617 0.73923075199127197 0.94320237636566162
0.87901401519775391 0.77510851621627808 0.93684446811676025
0.97451525926589966 0.78657668828964233 0.93538564443588257
0.62415701150894165 0.83922070264816284 0.94121402502059937
0.66383618116378784 0.84079575538635254 0.94351565837860107
0.74507343769073486 0.83862423896789551 0.9414629340171814
0.85419934988021851 0.84971028566360474 0.93918102979660034
0.96485543251037598 0.86208212375640869 0.93973928689956665
0.71654015779495239 0.95101284980773926 0.94882744550704956
0.73172307014465332 0.94840139150619507 0.94778543710708618
0.78860211372375488 0.94703119993209839 0.94728541374206543
0.86568135023117065 0.95078438520431519 0.95571017265319824
0.96245801448822021 0.95033299922943115 0.95166003704071045
