luts/negative_old/kodak_portra_400_uc_-.cube
# Created by: G'MIC (https://gmic.eu)
TITLE "kodak_portra_400_uc_-"
# LUT size
LUT_3D_SIZE 5
# Data domain
DOMAIN_MIN 0.0 0.0 0.0
DOMAIN_MAX 1.0 1.0 1.0
# LUT data points
0.011429790407419205 0.016360457986593246 0.017534876242280006
0.23572744429111481 0.039825290441513062 0.016234857961535454
0.59646999835968018 0.0094190407544374466 0.0088826948776841164
0.87299871444702148 0.0083625642582774162 0.0003781935665756464
0.99312317371368408 0.1728205531835556 0.0023441838566213846
0.003236433956772089 0.23331268131732941 0.056096740067005157
0.17192016541957855 0.26778918504714966 0.02419993095099926
0.63030707836151123 0.28054177761077881 0.0044491635635495186
0.87394571304321289 0.27328935265541077 0.0063406401313841343
0.99960076808929443 0.315673828125 0.0034475738648325205
0.00025221880059689283 0.51416289806365967 0.17423932254314423
0.010038173757493496 0.52840286493301392 0.18185319006443024
0.48898574709892273 0.56439793109893799 0.1061473935842514
0.84485507011413574 0.56555634737014771 0.0079236496239900589
0.99379962682723999 0.52982091903686523 0.0038655598182231188
0.0018537184223532677 0.73636764287948608 0.32440569996833801
0.010260188952088356 0.73857766389846802 0.33729678392410278
0.3949989378452301 0.74805498123168945 0.33377650380134583
0.71842938661575317 0.77402186393737793 0.29154735803604126
0.97087240219116211 0.80034780502319336 0.1959654837846756
0.46188366413116455 0.92590856552124023 0.60965251922607422
0.49560916423797607 0.92129313945770264 0.62013417482376099
0.59550011157989502 0.92023825645446777 0.62723422050476074
0.73544639348983765 0.93167406320571899 0.62526929378509521
0.90770852565765381 0.94946771860122681 0.62185269594192505
0.0034138399641960859 0.028892142698168755 0.24607357382774353
0.2429700493812561 0.018134741112589836 0.25559332966804504
0.58623868227005005 0.0065775103867053986 0.232818603515625
0.86284720897674561 0.067177519202232361 0.23123621940612793
0.997874915599823 0.24585387110710144 0.22348055243492126
0.0027233946602791548 0.27239453792572021 0.26918455958366394
0.27278017997741699 0.29940196871757507 0.29422852396965027
0.63166111707687378 0.30551883578300476 0.26679360866546631
0.86775666475296021 0.31521758437156677 0.24091596901416779
0.99616950750350952 0.36394456028938293 0.21659517288208008
0.10996641218662262 0.55257976055145264 0.3632253110408783
0.23568953573703766 0.55260151624679565 0.35743516683578491
0.55761218070983887 0.57750451564788818 0.33256328105926514
0.85044997930526733 0.56262797117233276 0.23876169323921204
0.99683284759521484 0.55043751001358032 0.15539330244064331
0.12721461057662964 0.74840313196182251 0.43420374393463135
0.23273167014122009 0.74576771259307861 0.43771147727966309
0.46121174097061157 0.74797135591506958 0.44286739826202393
0.74908614158630371 0.77881723642349243 0.42252293229103088
0.96663147211074829 0.79544347524642944 0.35687550902366638
0.49934494495391846 0.92408508062362671 0.64940768480300903
0.53727573156356812 0.92301762104034424 0.65570259094238281
0.62194359302520752 0.92057806253433228 0.66750037670135498
0.75200432538986206 0.92907428741455078 0.66741687059402466
0.90558898448944092 0.94845759868621826 0.66535836458206177
0.0018910575890913606 0.075449220836162567 0.51858693361282349
0.21914157271385193 0.093012057244777679 0.54609733819961548
0.62004023790359497 0.10148473829030991 0.56468206644058228
0.82693314552307129 0.1445247083902359 0.50152754783630371
0.99548852443695068 0.19906388223171234 0.4683263897895813
0.0039258622564375401 0.29195648431777954 0.52426379919052124
0.25259920954704285 0.3162510097026825 0.55680638551712036
0.63225167989730835 0.35753911733627319 0.57271063327789307
0.84585177898406982 0.3452913761138916 0.52682793140411377
0.98922288417816162 0.36968526244163513 0.49165838956832886
0.057912789285182953 0.55974465608596802 0.54171240329742432
0.34147310256958008 0.57009667158126831 0.55786502361297607
0.62003916501998901 0.59713435173034668 0.58702045679092407
0.83933228254318237 0.59274899959564209 0.55033087730407715
0.98392379283905029 0.60141408443450928 0.52212196588516235
0.40822058916091919 0.76068246364593506 0.61391693353652954
0.49404171109199524 0.76340538263320923 0.62775194644927979
0.59629142284393311 0.7661513090133667 0.62086600065231323
0.78164619207382202 0.78883522748947144 0.62238138914108276
0.96817255020141602 0.78815591335296631 0.55767381191253662
0.6140933632850647 0.92304086685180664 0.74997943639755249
0.62951427698135376 0.92227482795715332 0.74492639303207397
0.66929113864898682 0.92567718029022217 0.73826807737350464
0.77492433786392212 0.9281807541847229 0.74784475564956665
0.92110246419906616 0.95144522190093994 0.75259459018707275
0.0094977281987667084 0.18640777468681335 0.75507301092147827
0.22901773452758789 0.20338806509971619 0.77067351341247559
0.61102759838104248 0.25145047903060913 0.78753626346588135
0.85524386167526245 0.31564441323280334 0.78614193201065063
0.97470712661743164 0.36760792136192322 0.74092996120452881
0.0059306873008608818 0.3346809446811676 0.75723731517791748
0.2683444619178772 0.34473150968551636 0.769936203956604
0.61523175239562988 0.40059468150138855 0.78232133388519287
0.845786452293396 0.44656676054000854 0.78967231512069702
0.97664344310760498 0.48098695278167725 0.75626391172409058
0.0047102984972298145 0.52800470590591431 0.72412765026092529
0.19945310056209564 0.53688651323318481 0.73608607053756714
0.57710731029510498 0.58881288766860962 0.76517415046691895
0.82771420478820801 0.6400941014289856 0.78829801082611084
0.96824634075164795 0.63113284111022949 0.75393682718276978
0.24321246147155762 0.758137047290802 0.74901962280273438
0.37246492505073547 0.7571110725402832 0.75901234149932861
0.60132819414138794 0.76445716619491577 0.77250188589096069
0.8100777268409729 0.80037444829940796 0.80172771215438843
0.96196794509887695 0.79938918352127075 0.77964770793914795
0.60361009836196899 0.92950731515884399 0.82728630304336548
0.6327444314956665 0.92746657133102417 0.83477401733398438
0.73109918832778931 0.93373823165893555 0.84518533945083618
0.81548982858657837 0.92941427230834961 0.84617030620574951
0.93831723928451538 0.95564258098602295 0.85139203071594238
0.37795022130012512 0.40003648400306702 0.95064610242843628
0.49898022413253784 0.41267704963684082 0.9496721625328064
0.68449872732162476 0.44809558987617493 0.94084608554840088
0.8648226261138916 0.53565120697021484 0.94387441873550415
0.98790335655212402 0.59363031387329102 0.94269871711730957
0.38741201162338257 0.48009225726127625 0.94883763790130615
0.49638745188713074 0.4878598153591156 0.94513416290283203
0.67990869283676147 0.52458071708679199 0.94298893213272095
0.86049807071685791 0.59786909818649292 0.94587469100952148
0.98263782262802124 0.64382553100585938 0.94382292032241821
0.33897837996482849 0.62164938449859619 0.93732732534408569
0.45025071501731873 0.61805099248886108 0.93627625703811646
0.64341264963150024 0.63625359535217285 0.94099390506744385
0.84448063373565674 0.70211619138717651 0.94206959009170532
0.97464889287948608 0.73791956901550293 0.94497352838516235
0.12731266021728516 0.78128254413604736 0.92682945728302002
0.28942573070526123 0.77608639001846313 0.92749804258346558
0.51495260000228882 0.76819294691085815 0.92789244651794434
0.78878867626190186 0.79850727319717407 0.94094038009643555
0.96325451135635376 0.84450393915176392 0.9490121603012085
0.52785032987594604 0.95470476150512695 0.94838666915893555
0.5694771409034729 0.95562654733657837 0.94862645864486694
0.66488349437713623 0.9494699239730835 0.94455111026763916
0.79305183887481689 0.95198118686676025 0.95667892694473267
0.96130287647247314 0.96651560068130493 0.96835935115814209
