luts/negative_old/kodak_portra_400_nc.cube
# Created by: G'MIC (https://gmic.eu)
TITLE "kodak_portra_400_nc"
# LUT size
LUT_3D_SIZE 5
# Data domain
DOMAIN_MIN 0.0 0.0 0.0
DOMAIN_MAX 1.0 1.0 1.0
# LUT data points
0.049032337963581085 0.067753210663795471 0.060001641511917114
0.17900705337524414 0.064109846949577332 0.050892654806375504
0.51273542642593384 0.061671357601881027 0.02670968696475029
0.78583991527557373 0.083448179066181183 0.0072822719812393188
0.96897274255752563 0.1911013126373291 0.019467027857899666
0.013398712500929832 0.20638316869735718 0.089824795722961426
0.20397725701332092 0.24193742871284485 0.043166395276784897
0.61228805780410767 0.2884652316570282 0.0028895358555018902
0.82399314641952515 0.28150483965873718 0.0079880654811859131
0.98116946220397949 0.31172898411750793 0.0059213824570178986
0.017173841595649719 0.52233988046646118 0.21075239777565002
0.24848003685474396 0.52197188138961792 0.20358353853225708
0.53760749101638794 0.56868958473205566 0.041775975376367569
0.81813782453536987 0.56819719076156616 0.00081992056220769882
0.99259215593338013 0.52578473091125488 0.0022603652905672789
0.37590852379798889 0.72641462087631226 0.42833945155143738
0.43785297870635986 0.7191358208656311 0.4192938506603241
0.54136306047439575 0.73379963636398315 0.38262659311294556
0.72691792249679565 0.76162225008010864 0.2630353569984436
0.95764303207397461 0.77193260192871094 0.14998070895671844
0.65922367572784424 0.88729166984558105 0.67826133966445923
0.6826927661895752 0.88871198892593384 0.68339633941650391
0.71961557865142822 0.88702994585037231 0.6823306679725647
0.78800433874130249 0.90594840049743652 0.65427905321121216
0.90676242113113403 0.92799723148345947 0.60457754135131836
0.012490725144743919 0.056332413107156754 0.21915514767169952
0.21234743297100067 0.051256529986858368 0.22701281309127808
0.55864566564559937 0.0019416658906266093 0.22657462954521179
0.78305965662002563 0.043158870190382004 0.22811158001422882
0.9524042010307312 0.21635513007640839 0.25385889410972595
0.0044367769733071327 0.25164461135864258 0.26588979363441467
0.25651082396507263 0.2737058699131012 0.28304374217987061
0.60317492485046387 0.27686157822608948 0.26462024450302124
0.80434942245483398 0.29076415300369263 0.25239050388336182
0.96516650915145874 0.33682778477668762 0.25970026850700378
0.2477487325668335 0.56192421913146973 0.39106127619743347
0.36805811524391174 0.55409198999404907 0.38323867321014404
0.57243525981903076 0.57997679710388184 0.31912156939506531
0.81974911689758301 0.5588192343711853 0.25117018818855286
0.98039686679840088 0.53646218776702881 0.25446644425392151
0.44688743352890015 0.73912864923477173 0.51045364141464233
0.49658989906311035 0.73836261034011841 0.51521849632263184
0.57452517747879028 0.73645955324172974 0.49008777737617493
0.73797380924224854 0.76222854852676392 0.41057553887367249
0.95382887125015259 0.76816004514694214 0.35685446858406067
0.67858809232711792 0.88958644866943359 0.70884478092193604
0.69318008422851562 0.88755089044570923 0.70690995454788208
0.73581349849700928 0.88835674524307251 0.71032357215881348
0.7997625470161438 0.90724790096282959 0.69082176685333252
0.90844619274139404 0.92778176069259644 0.64499425888061523
0.0024634865112602711 0.073197714984416962 0.54044729471206665
0.2774168848991394 0.054082490503787994 0.54652208089828491
0.62552076578140259 0.021601328626275063 0.56626784801483154
0.83147281408309937 0.13776694238185883 0.50975805521011353
0.97177636623382568 0.27392542362213135 0.48307153582572937
0.0036660288460552692 0.30663037300109863 0.56669574975967407
0.28717580437660217 0.30828368663787842 0.57917696237564087
0.63281798362731934 0.33475139737129211 0.5809861421585083
0.81879699230194092 0.3775915801525116 0.54004013538360596
0.95491403341293335 0.40027013421058655 0.50864267349243164
0.26687520742416382 0.59360861778259277 0.59286785125732422
0.43713095784187317 0.59467208385467529 0.60103374719619751
0.62582063674926758 0.60181766748428345 0.59663128852844238
0.78854131698608398 0.58854228258132935 0.56516760587692261
0.94109439849853516 0.57896560430526733 0.537586510181427
0.55789089202880859 0.7717093825340271 0.66549283266067505
0.59443926811218262 0.76839226484298706 0.66456109285354614
0.64993429183959961 0.75895863771438599 0.65221136808395386
0.76565045118331909 0.77301877737045288 0.61071395874023438
0.95044952630996704 0.76565194129943848 0.57809960842132568
0.71039170026779175 0.89677959680557251 0.76834827661514282
0.72325295209884644 0.89612483978271484 0.7669985294342041
0.75960582494735718 0.89686727523803711 0.76797580718994141
0.81599515676498413 0.90563517808914185 0.75694364309310913
0.91465431451797485 0.92981654405593872 0.72130841016769409
0.018806068226695061 0.15959152579307556 0.76782631874084473
0.32852256298065186 0.17699277400970459 0.77019649744033813
0.61806643009185791 0.22981421649456024 0.76777446269989014
0.83751416206359863 0.32155439257621765 0.76658433675765991
0.96277415752410889 0.43621814250946045 0.7236943244934082
0.11310207843780518 0.34503528475761414 0.77158069610595703
0.37179195880889893 0.36644291877746582 0.76960521936416626
0.63154113292694092 0.41250687837600708 0.76787185668945312
0.82765954732894897 0.47040846943855286 0.77053332328796387
0.95296740531921387 0.5385977029800415 0.74090629816055298
0.24867041409015656 0.58661597967147827 0.7540283203125
0.40557405352592468 0.59336155652999878 0.75952565670013428
0.6191369891166687 0.61624932289123535 0.76332360506057739
0.80291670560836792 0.64805108308792114 0.77118474245071411
0.93532603979110718 0.66845887899398804 0.7568545937538147
0.53487157821655273 0.77948755025863647 0.77738630771636963
0.57785153388977051 0.7804291844367981 0.7794114351272583
0.68176484107971191 0.77983421087265015 0.7853357195854187
0.80059152841567993 0.78632581233978271 0.78674507141113281
0.9241253137588501 0.78173404932022095 0.7661278247833252
0.74239033460617065 0.91307002305984497 0.85070443153381348
0.75946897268295288 0.91400718688964844 0.85013073682785034
0.79389643669128418 0.91427969932556152 0.85014951229095459
0.84225153923034668 0.91404765844345093 0.84343582391738892
0.93574029207229614 0.93619281053543091 0.82119619846343994
0.42465850710868835 0.4077509343624115 0.92796880006790161
0.5159716010093689 0.42809459567070007 0.92440301179885864
0.67362761497497559 0.47591114044189453 0.92033940553665161
0.83322495222091675 0.5480760931968689 0.91656404733657837
0.97205841541290283 0.6068386435508728 0.91687726974487305
0.46461409330368042 0.51203161478042603 0.92618727684020996
0.53437727689743042 0.52202504873275757 0.92414897680282593
0.67883193492889404 0.55406457185745239 0.92164510488510132
0.83380764722824097 0.61221379041671753 0.91548573970794678
0.96624177694320679 0.65495753288269043 0.91789621114730835
0.48922041058540344 0.65845662355422974 0.91831344366073608
0.5386117696762085 0.65377914905548096 0.91758209466934204
0.66768568754196167 0.67156338691711426 0.9192887544631958
0.82599341869354248 0.70587098598480225 0.91813808679580688
0.95699334144592285 0.73495489358901978 0.92084109783172607
0.53193050622940063 0.79896873235702515 0.91628879308700562
0.55888998508453369 0.79355800151824951 0.914905846118927
0.64189684391021729 0.79056012630462646 0.91519021987915039
0.8019135594367981 0.80005121231079102 0.92577344179153442
0.95454365015029907 0.82671165466308594 0.93216121196746826
0.72377169132232666 0.93597400188446045 0.93997454643249512
0.7399214506149292 0.93488025665283203 0.93910759687423706
0.78464645147323608 0.93427866697311401 0.94389992952346802
0.85954517126083374 0.9362519383430481 0.94607186317443848
0.95482301712036133 0.94417023658752441 0.94811564683914185
