luts/negative_color/agfa_ultra_color_100.cube
# Created by: G'MIC (https://gmic.eu)
TITLE "agfa_ultra_color_100"
# LUT size
LUT_3D_SIZE 13
# Data domain
DOMAIN_MIN 0.0 0.0 0.0
DOMAIN_MAX 1.0 1.0 1.0
# LUT data points
0.022244052961468697 0.02494182251393795 0.018884532153606415
0.053512603044509888 0.017603212967514992 0.017586024478077888
0.096612758934497833 0.014128486625850201 0.019918404519557953
0.14077672362327576 0.010868491604924202 0.021334929391741753
0.19408890604972839 0.0042675244621932507 0.01652894914150238
0.25271144509315491 0.0027056226972490549 0.011844081804156303
0.33245807886123657 0.0042507993057370186 0.014293326996266842
0.42161852121353149 0.0012545716017484665 0.015728386119008064
0.51987236738204956 0 0.011465005576610565
0.61740398406982422 0 0.0076030357740819454
0.69734162092208862 0 0.0053044636733829975
0.77191692590713501 0 0.0044796960428357124
0.83933907747268677 0 0.0050065284594893456
0.051917549222707748 0.080814525485038757 0.028579786419868469
0.081607475876808167 0.069761700928211212 0.027236159890890121
0.11917564272880554 0.060280967503786087 0.028597334399819374
0.16643597185611725 0.050202298909425735 0.027378920465707779
0.21917912364006042 0.031562924385070801 0.023267947137355804
0.27998811006546021 0.016144247725605965 0.019468195736408234
0.35537168383598328 0.014690727926790714 0.017896914854645729
0.44362744688987732 0.0045307083055377007 0.013727210462093353
0.53783202171325684 0 0.010105866007506847
0.62944477796554565 0 0.0085017038509249687
0.71622937917709351 0 0.0048599541187286377
0.78277063369750977 0 0.0070874080993235111
0.84229433536529541 0 0.011384268291294575
0.091110929846763611 0.1457836925983429 0.04398224875330925
0.11158433556556702 0.13527217507362366 0.04170844703912735
0.14197558164596558 0.12371552735567093 0.039608556777238846
0.19176147878170013 0.11025757342576981 0.040238235145807266
0.24453458189964294 0.095357127487659454 0.039241895079612732
0.30754551291465759 0.06697622686624527 0.032097145915031433
0.38198089599609375 0.036453574895858765 0.02319863997399807
0.47255620360374451 0.014115546829998493 0.016348192468285561
0.56652867794036865 0.0023179745767265558 0.010459630750119686
0.65747588872909546 0.00080002431059256196 0.0094636501744389534
0.73869198560714722 0.0020307654049247503 0.010517584159970284
0.80118203163146973 4.2784446122823283e-05 0.015330669470131397
0.85665625333786011 0 0.018190197646617889
0.11480886489152908 0.2238992303609848 0.061120934784412384
0.13168099522590637 0.21632297337055206 0.061064925044775009
0.16320237517356873 0.20541399717330933 0.058941889554262161
0.21407975256443024 0.189334437251091 0.055919378995895386
0.27066323161125183 0.17154441773891449 0.052418503910303116
0.34091532230377197 0.14504522085189819 0.049923527985811234
0.41871315240859985 0.1122191920876503 0.042334731668233871
0.50961995124816895 0.072374872863292694 0.028176460415124893
0.60495847463607788 0.038174618035554886 0.019038571044802666
0.6935420036315918 0.013233678415417671 0.013490699231624603
0.76619994640350342 0.0070204040966928005 0.018301660194993019
0.82914251089096069 0.0024641447234898806 0.025811662897467613
0.8835253119468689 0.00014060524699743837 0.026217382401227951
0.10302536934614182 0.32635173201560974 0.080737143754959106
0.13273422420024872 0.32399472594261169 0.079263560473918915
0.17895960807800293 0.31509566307067871 0.074765525758266449
0.23532296717166901 0.29840508103370667 0.071109235286712646
0.30410343408584595 0.27731430530548096 0.067500203847885132
0.37912759184837341 0.24938617646694183 0.067981883883476257
0.45876327157020569 0.21943061053752899 0.062442690134048462
0.55463826656341553 0.18071851134300232 0.047148417681455612
0.65082335472106934 0.13551436364650726 0.033487416803836823
0.73369961977005005 0.089960776269435883 0.02672099694609642
0.80101627111434937 0.052753686904907227 0.030273303389549255
0.86411356925964355 0.025461504235863686 0.035936512053012848
0.92139935493469238 0.0093066198751330376 0.04153066873550415
0.10030225664377213 0.44696033000946045 0.095314145088195801
0.13918338716030121 0.44839417934417725 0.093235835433006287
0.19745905697345734 0.44442027807235718 0.088007889688014984
0.26031985878944397 0.4267362654209137 0.08394729346036911
0.34037226438522339 0.40181747078895569 0.08033858984708786
0.41996672749519348 0.37509182095527649 0.079395055770874023
0.50541579723358154 0.34627810120582581 0.07504214346408844
0.60318160057067871 0.31110948324203491 0.061682607978582382
0.69861853122711182 0.27313894033432007 0.053274460136890411
0.77984797954559326 0.22780005633831024 0.048155542463064194
0.84786361455917358 0.18344435095787048 0.048451025038957596
0.91089123487472534 0.13993316888809204 0.054402802139520645
0.96342051029205322 0.090935662388801575 0.067223943769931793
0.097352869808673859 0.57775741815567017 0.097248569130897522
0.15122207999229431 0.57507681846618652 0.097755178809165955
0.21541798114776611 0.57210677862167358 0.09525279700756073
0.28688856959342957 0.55826175212860107 0.091802440583705902
0.37787187099456787 0.53370416164398193 0.087440967559814453
0.46343514323234558 0.50846344232559204 0.084739342331886292
0.55600088834762573 0.48333212733268738 0.081216894090175629
0.65451854467391968 0.4551447331905365 0.072289139032363892
0.75008505582809448 0.422017902135849 0.069312617182731628
0.83353489637374878 0.38328579068183899 0.068860597908496857
0.90139865875244141 0.34702321887016296 0.072635605931282043
0.96160370111465454 0.3083343505859375 0.079942665994167328
0.99059790372848511 0.26176786422729492 0.095601476728916168
0.12241638451814651 0.70334029197692871 0.08386828750371933
0.18300478160381317 0.69428795576095581 0.083720594644546509
0.25637134909629822 0.68613225221633911 0.082201756536960602
0.33416551351547241 0.67728209495544434 0.082543902099132538
0.42069193720817566 0.66232055425643921 0.082684129476547241
0.51224476099014282 0.64141261577606201 0.080457456409931183
0.61130273342132568 0.61591988801956177 0.078570932149887085
0.71144610643386841 0.59138458967208862 0.075142562389373779
0.8030429482460022 0.56000053882598877 0.075924009084701538
0.88280612230300903 0.52534061670303345 0.079066693782806396
0.94845932722091675 0.49446886777877808 0.085293054580688477
0.98683315515518188 0.46148824691772461 0.096925176680088043
0.99668097496032715 0.42854782938957214 0.11562322080135345
0.21578559279441833 0.79865634441375732 0.052786253392696381
0.25996130704879761 0.79263192415237427 0.053352192044258118
0.32074764370918274 0.79001682996749878 0.054876215755939484
0.39920157194137573 0.77809667587280273 0.057107560336589813
0.47930237650871277 0.76624947786331177 0.059647355228662491
0.57189303636550903 0.74392396211624146 0.060994900763034821
0.67114883661270142 0.71917569637298584 0.060676693916320801
0.76430869102478027 0.69570416212081909 0.064083069562911987
0.85023880004882812 0.67332917451858521 0.072955429553985596
0.92448437213897705 0.64914244413375854 0.079496271908283234
0.98067665100097656 0.6239134669303894 0.087555453181266785
0.99423700571060181 0.59104722738265991 0.10476880520582199
0.99843394756317139 0.55932646989822388 0.12319229543209076
0.33023998141288757 0.88075035810470581 0.015950759872794151
0.36296218633651733 0.87953478097915649 0.014335437677800655
0.41469037532806396 0.8754352331161499 0.017052294686436653
0.48547297716140747 0.86059445142745972 0.024662166833877563
0.5592505931854248 0.84760409593582153 0.030004015192389488
0.64241570234298706 0.83203035593032837 0.030636074021458626
0.73378103971481323 0.8079841136932373 0.036344178020954132
0.81686198711395264 0.786609947681427 0.043385524302721024
0.89417612552642822 0.76563221216201782 0.051526568830013275
0.95961594581604004 0.74458783864974976 0.061618775129318237
0.99150222539901733 0.71963101625442505 0.072624340653419495
0.99745184183120728 0.69214022159576416 0.091292224824428558
0.99995797872543335 0.66831856966018677 0.11841893196105957
0.45081740617752075 0.95076954364776611 0.0038378995377570391
0.47949177026748657 0.94873297214508057 0.0034478132147341967
0.52438825368881226 0.94302964210510254 0.0040757125243544579
0.58019745349884033 0.92902159690856934 0.0089518381282687187
0.64820080995559692 0.91683703660964966 0.010846097022294998
0.72227680683135986 0.90637743473052979 0.0071303872391581535
0.79802638292312622 0.89027625322341919 0.0089100254699587822
0.87157464027404785 0.86871659755706787 0.017966430634260178
0.93761575222015381 0.84888380765914917 0.024622838944196701
0.98727905750274658 0.83112233877182007 0.03371308371424675
0.99644696712493896 0.80693262815475464 0.045160643756389618
0.99970722198486328 0.78168940544128418 0.063303060829639435
1 0.76064121723175049 0.10388897359371185
0.59214550256729126 0.99464315176010132 0.00041264551691710949
0.61326354742050171 0.99584400653839111 0.00022542616352438927
0.64703494310379028 0.99154239892959595 0.00037252387846820056
0.68881487846374512 0.98561751842498779 0.0011444541160017252
0.74311864376068115 0.9763953685760498 0.0018937652930617332
0.80674684047698975 0.96544188261032104 0.0014320822665467858
0.87090080976486206 0.9508821964263916 0.0017237793654203415
0.93074905872344971 0.93705260753631592 0.0038679982535541058
0.98068296909332275 0.92273890972137451 0.0054006092250347137
0.99520695209503174 0.90334731340408325 0.0086861252784729004
0.99921524524688721 0.88766247034072876 0.011303890496492386
1 0.8687746524810791 0.021934928372502327
1 0.84976238012313843 0.064757779240608215
0.75683033466339111 0.99985533952713013 0
0.77193909883499146 1 0
0.79160940647125244 0.99976378679275513 0
0.82277905941009521 0.99854749441146851 0
0.85956579446792603 0.99775248765945435 0
0.908702552318573 0.9964337944984436 0
0.95665186643600464 0.98712778091430664 0
0.97814804315567017 0.98213249444961548 0
0.99619495868682861 0.97538149356842041 5.5290671298280358e-05
0.99896740913391113 0.96221441030502319 0.0012887693010270596
1 0.95032531023025513 0.0024258631747215986
1 0.93253523111343384 0.0055567272938787937
1 0.9194333553314209 0.019278448075056076
0.017074421048164368 0.019475614652037621 0.052719730883836746
0.042485449463129044 0.013497685082256794 0.050348363816738129
0.078160442411899567 0.013986594974994659 0.046392567455768585
0.12553291022777557 0.01261113490909338 0.045798342674970627
0.18242304027080536 0.0051113949157297611 0.043867193162441254
0.24958245456218719 0.0025212455075234175 0.039855584502220154
0.32833993434906006 0.0027037826366722584 0.030132144689559937
0.41344210505485535 0.0010594985214993358 0.023160133510828018
0.50830990076065063 0 0.023636477068066597
0.60524410009384155 0 0.024790581315755844
0.68697953224182129 0 0.019141431897878647
0.75976818799972534 0 0.013739582151174545
0.823497474193573 0 0.018600299954414368
0.045531809329986572 0.072195433080196381 0.067113436758518219
0.072473742067813873 0.061293270438909531 0.064904265105724335
0.10885729640722275 0.054363071918487549 0.062301620841026306
0.15685117244720459 0.048171129077672958 0.058767911046743393
0.20980018377304077 0.028474681079387665 0.053179033100605011
0.27096331119537354 0.01154791098088026 0.046585112810134888
0.34941807389259338 0.010265873745083809 0.039871230721473694
0.43528765439987183 0.0032759422902017832 0.033829003572463989
0.52837258577346802 0 0.027722751721739769
0.62209963798522949 0 0.02276294119656086
0.7046973705291748 0 0.01620127446949482
0.76707243919372559 0 0.022027198225259781
0.82235836982727051 0 0.032592188566923141
0.084231838583946228 0.1384257972240448 0.079925224184989929
0.10595222562551498 0.12914367020130157 0.078067466616630554
0.13890090584754944 0.1177842989563942 0.075453348457813263
0.18606290221214294 0.1063053086400032 0.071975842118263245
0.2387346476316452 0.089910335838794708 0.067466363310813904
0.29973837733268738 0.063660204410552979 0.061999287456274033
0.37661558389663696 0.036975335329771042 0.053408470004796982
0.46454235911369324 0.013269027695059776 0.045765131711959839
0.5595707893371582 0.0069934772327542305 0.036104582250118256
0.65129947662353516 0.0015359766548499465 0.027465026825666428
0.72849875688552856 0.00080810248618945479 0.028142083436250687
0.78759872913360596 0 0.03577544167637825
0.83742988109588623 0 0.046836163848638535
0.10935098677873611 0.2169429212808609 0.093660198152065277
0.12847182154655457 0.21108713746070862 0.092601299285888672
0.16133478283882141 0.20121335983276367 0.090317711234092712
0.20985746383666992 0.18626368045806885 0.086360201239585876
0.26479879021644592 0.16865335404872894 0.08195146918296814
0.33387404680252075 0.142717644572258 0.076643295586109161
0.41272953152656555 0.10964039713144302 0.067659266293048859
0.50254523754119873 0.069567888975143433 0.057569824159145355
0.59891164302825928 0.035430938005447388 0.044861946254968643
0.68545204401016235 0.0121878981590271 0.040783915668725967
0.75760197639465332 0.0046300101093947887 0.045778807252645493
0.81954586505889893 0.001221884973347187 0.051010385155677795
0.86964648962020874 0 0.060459345579147339
0.093835823237895966 0.32060855627059937 0.1073322519659996
0.12195815891027451 0.31884396076202393 0.10704389214515686
0.16568395495414734 0.30994272232055664 0.10496798902750015
0.22627419233322144 0.29412519931793213 0.10013921558856964
0.29541334509849548 0.27429261803627014 0.095651917159557343
0.37255996465682983 0.24815309047698975 0.091779313981533051
0.45344793796539307 0.21661192178726196 0.084177888929843903
0.54596138000488281 0.17873717844486237 0.075034089386463165
0.64020454883575439 0.13498717546463013 0.064681544899940491
0.72297221422195435 0.086711689829826355 0.058863066136837006
0.79190337657928467 0.046152975410223007 0.060827381908893585
0.85515815019607544 0.018387004733085632 0.064187847077846527
0.90813624858856201 0.0067683947272598743 0.078022167086601257
0.095645904541015625 0.44229245185852051 0.11602491140365601
0.12467790395021439 0.4429028332233429 0.11592238396406174
0.17856429517269135 0.43661761283874512 0.11244942247867584
0.25056031346321106 0.42373865842819214 0.10923847556114197
0.33404910564422607 0.40188288688659668 0.10604147613048553
0.4160040020942688 0.37644675374031067 0.10250934958457947
0.49837383627891541 0.34743538498878479 0.097255423665046692
0.59145557880401611 0.31110239028930664 0.092013612389564514
0.68673509359359741 0.27174156904220581 0.085344977676868439
0.76809519529342651 0.22381198406219482 0.080077499151229858
0.839000403881073 0.17604419589042664 0.078982949256896973
0.90043395757675171 0.13103710114955902 0.084932081401348114
0.95052576065063477 0.090001709759235382 0.1025269478559494
0.085952267050743103 0.57995772361755371 0.11471279710531235
0.13146613538265228 0.57512640953063965 0.11604047566652298
0.19592061638832092 0.57133197784423828 0.11346691101789474
0.27860844135284424 0.55668610334396362 0.1125132218003273
0.3706929087638855 0.53218382596969604 0.11035943031311035
0.45954486727714539 0.50920569896697998 0.10817636549472809
0.54780572652816772 0.48244437575340271 0.10456299036741257
0.64388942718505859 0.4495234489440918 0.099631153047084808
0.74056392908096313 0.41614875197410583 0.096988901495933533
0.82028043270111084 0.37700498104095459 0.097368963062763214
0.89204210042953491 0.34152868390083313 0.099118523299694061
0.94843047857284546 0.29968127608299255 0.11032773554325104
0.98853635787963867 0.25857526063919067 0.12674905359745026
0.10234933346509933 0.70497405529022217 0.098441027104854584
0.16497297585010529 0.69758278131484985 0.10180183500051498
0.23523935675621033 0.69178193807601929 0.10076086223125458
0.31956267356872559 0.67982995510101318 0.10328206419944763
0.41077476739883423 0.66092509031295776 0.10329149663448334
0.5049285888671875 0.64017337560653687 0.10200322419404984
0.60297083854675293 0.61423009634017944 0.10210411250591278
0.70241183042526245 0.58579999208450317 0.098527021706104279
0.79491972923278809 0.55725657939910889 0.098100058734416962
0.86903089284896851 0.5197330117225647 0.10456351190805435
0.93761587142944336 0.4920995831489563 0.11242493242025375
0.98219829797744751 0.45853495597839355 0.12596897780895233
0.99697071313858032 0.4249873161315918 0.14269505441188812
0.20223025977611542 0.79704451560974121 0.064077205955982208
0.24775172770023346 0.79191505908966064 0.069569982588291168
0.30791652202606201 0.78761774301528931 0.072662189602851868
0.38637959957122803 0.77684009075164795 0.072110988199710846
0.47255697846412659 0.76294553279876709 0.07416660338640213
0.56479048728942871 0.74383258819580078 0.078332908451557159
0.66200143098831177 0.7204558253288269 0.085324227809906006
0.75525480508804321 0.69483953714370728 0.087464995682239532
0.84078800678253174 0.67278778553009033 0.09133438766002655
0.91046863794326782 0.64747053384780884 0.10159339010715485
0.97246813774108887 0.62336677312850952 0.11277084052562714
0.99514287710189819 0.59207874536514282 0.12811942398548126
0.9994468092918396 0.55868744850158691 0.14584906399250031
0.31893628835678101 0.88277393579483032 0.021174218505620956
0.35235270857810974 0.87883913516998291 0.024504972621798515
0.40442970395088196 0.87108582258224487 0.031810298562049866
0.4703938364982605 0.86156934499740601 0.027305707335472107
0.54847770929336548 0.84969425201416016 0.02950337715446949
0.63683229684829712 0.83118420839309692 0.038392324000597
0.72705787420272827 0.80841934680938721 0.050626359879970551
0.80636894702911377 0.78627341985702515 0.062039230018854141
0.88268160820007324 0.76500785350799561 0.068986035883426666
0.94570010900497437 0.74349057674407959 0.082864962518215179
0.98939996957778931 0.72134459018707275 0.09680861234664917
0.99850255250930786 0.69545954465866089 0.11716676503419876
1 0.67180484533309937 0.15286177396774292
0.43903002142906189 0.95195263624191284 0.0081398608162999153
0.46715030074119568 0.95026278495788574 0.0062864716164767742
0.51227068901062012 0.94390678405761719 0.007281329482793808
0.56561964750289917 0.93236124515533447 0.0072527416050434113
0.63561666011810303 0.91992515325546265 0.0075812693685293198
0.71183550357818604 0.90755999088287354 0.0096401143819093704
0.79031020402908325 0.889984130859375 0.015302246436476707
0.86103934049606323 0.87063270807266235 0.02630196325480938
0.92772471904754639 0.8510817289352417 0.033857323229312897
0.98031389713287354 0.83022195100784302 0.048485774546861649
0.99558460712432861 0.80879229307174683 0.066568903625011444
0.99957168102264404 0.78617972135543823 0.098243445158004761
1 0.76536077260971069 0.14366677403450012
0.58142316341400146 0.99376612901687622 0.002898975508287549
0.60359752178192139 0.99357277154922485 0.0023308547679334879
0.63838678598403931 0.99116283655166626 0.0010459601180627942
0.67931115627288818 0.98474043607711792 0.0017833934398368001
0.73583865165710449 0.97736078500747681 0.0036677340976893902
0.79948842525482178 0.96696633100509644 0.0032733394764363766
0.86102944612503052 0.9521028995513916 0.0046972688287496567
0.92142534255981445 0.93840718269348145 0.0071990219876170158
0.97491908073425293 0.92279195785522461 0.0072567956522107124
0.99669557809829712 0.90683305263519287 0.0094238277524709702
0.99958223104476929 0.89000385999679565 0.022023638710379601
1 0.8724244236946106 0.051054112613201141
1 0.85325378179550171 0.11868151277303696
0.74980753660202026 0.99914765357971191 0.0001541885721962899
0.76366186141967773 0.99929916858673096 0.0002675673458725214
0.78340083360671997 0.99933397769927979 3.9493338590546045e-06
0.82047724723815918 0.99773925542831421 0.00029801012715324759
0.85750699043273926 0.99902611970901489 0.00064251467119902372
0.9024776816368103 0.99498146772384644 0.00042800902156159282
0.94623380899429321 0.9898650050163269 2.3696002244832925e-05
0.97417920827865601 0.98573565483093262 0.00028973747976124287
0.99526441097259521 0.97489625215530396 0.0012223038356751204
0.99945360422134399 0.9638526439666748 0.0026640649884939194
1 0.95082175731658936 0.004422161728143692
1 0.9357181191444397 0.011544904671609402
1 0.92235887050628662 0.054351761937141418
0.013791880570352077 0.018156642094254494 0.095555521547794342
0.033143419772386551 0.012376134283840656 0.090062111616134644
0.068221285939216614 0.012041592970490456 0.087994247674942017
0.11203495413064957 0.011893343180418015 0.082580879330635071
0.16898626089096069 0.0050581838004291058 0.07653433084487915
0.23548537492752075 0.00099113315809518099 0.071040555834770203
0.3194350004196167 0.00026128432364203036 0.060401976108551025
0.40706095099449158 0.00022200042440090328 0.049654688686132431
0.50203400850296021 0 0.045329779386520386
0.59522002935409546 0 0.045556791126728058
0.67435616254806519 0 0.045499734580516815
0.74759304523468018 0 0.044427655637264252
0.80951851606369019 0 0.055008351802825928
0.038126524537801743 0.064457833766937256 0.11038457602262497
0.061671581119298935 0.054771363735198975 0.1059475764632225
0.096380420029163361 0.047824949026107788 0.10185746103525162
0.14473623037338257 0.044425934553146362 0.097370177507400513
0.20026010274887085 0.027753284201025963 0.09137272834777832
0.25963887572288513 0.0090101948007941246 0.083723209798336029
0.34309825301170349 0.004528045654296875 0.07529430091381073
0.43055397272109985 0.0025736191309988499 0.066234037280082703
0.5227852463722229 0.00077897612936794758 0.057308018207550049
0.61526453495025635 0.00021375768119469285 0.0495491623878479
0.69179260730743408 0 0.050756148993968964
0.75612974166870117 0 0.058334380388259888
0.81011974811553955 0 0.072215072810649872
0.076257459819316864 0.1304837167263031 0.1213996410369873
0.095095932483673096 0.12295385450124741 0.11782503128051758
0.12905237078666687 0.11242840439081192 0.11475759744644165
0.17548902332782745 0.10004433989524841 0.11132585257291794
0.22816713154315948 0.079579025506973267 0.10630032420158386
0.28903484344482422 0.052704859524965286 0.10000797361135483
0.37168487906455994 0.030104378238320351 0.091251716017723083
0.46021834015846252 0.0099125578999519348 0.080668628215789795
0.55355393886566162 0.0080345151945948601 0.072907738387584686
0.64178037643432617 0.0043604681268334389 0.066232658922672272
0.71665310859680176 0.0013606800930574536 0.066455274820327759
0.77679717540740967 1.6455556760774925e-05 0.074895359575748444
0.82701379060745239 0 0.08900153636932373
0.10101958364248276 0.21297414600849152 0.13092464208602905
0.11804725974798203 0.20513179898262024 0.12902045249938965
0.1524863988161087 0.1955220103263855 0.12689071893692017
0.20089222490787506 0.18185678124427795 0.12457407265901566
0.25369638204574585 0.16204001009464264 0.12068783491849899
0.32341113686561584 0.1342674195766449 0.11500782519578934
0.40531933307647705 0.100113645195961 0.10617788136005402
0.495231032371521 0.06122894212603569 0.095809668302536011
0.58954286575317383 0.030854392796754837 0.087066054344177246
0.67358064651489258 0.012986201792955399 0.083971582353115082
0.7465558648109436 0.0028539469931274652 0.084896907210350037
0.80645734071731567 0.00221403525210917 0.094334639608860016
0.8566705584526062 0.0012220944045111537 0.10866981744766235
0.087387681007385254 0.31570529937744141 0.14283923804759979
0.10684980452060699 0.31190645694732666 0.14201077818870544
0.15080399811267853 0.30296668410301208 0.14059248566627502
0.21334353089332581 0.28943237662315369 0.13849462568759918
0.28297510743141174 0.27089664340019226 0.13445878028869629
0.36398854851722717 0.24513374269008636 0.12873560190200806
0.44569405913352966 0.21194294095039368 0.12241403758525848
0.53723603487014771 0.17279110848903656 0.11577905714511871
0.62937295436859131 0.1277378648519516 0.10824847966432571
0.71008533239364624 0.082334093749523163 0.10260552912950516
0.78022438287734985 0.042688660323619843 0.10382050275802612
0.83884656429290771 0.018587853759527206 0.1150832399725914
0.89232242107391357 0.007291845977306366 0.13084469735622406
0.078164346516132355 0.43721175193786621 0.15164138376712799
0.10658783465623856 0.43490400910377502 0.15053516626358032
0.15914253890514374 0.42902955412864685 0.14895106852054596
