luts/negative_color/agfa_ultra_color_100.cube
# Created by: G'MIC (https://gmic.eu)
TITLE "agfa_ultra_color_100"
# LUT size
LUT_3D_SIZE 7
# Data domain
DOMAIN_MIN 0.0 0.0 0.0
DOMAIN_MAX 1.0 1.0 1.0
# LUT data points
0.022244052961468697 0.02494182251393795 0.018884532153606415
0.096612758934497833 0.014128486625850201 0.019918404519557953
0.19408890604972839 0.0042675244621932507 0.01652894914150238
0.33245807886123657 0.0042507993057370186 0.014293326996266842
0.51987236738204956 0 0.011465005576610565
0.69734162092208862 0 0.0053044636733829975
0.83933907747268677 0 0.0050065284594893456
0.091110929846763611 0.1457836925983429 0.04398224875330925
0.14197558164596558 0.12371552735567093 0.039608556777238846
0.24453458189964294 0.095357127487659454 0.039241895079612732
0.38198089599609375 0.036453574895858765 0.02319863997399807
0.56652867794036865 0.0023179745767265558 0.010459630750119686
0.73869198560714722 0.0020307654049247503 0.010517584159970284
0.85665625333786011 0 0.018190197646617889
0.10302536934614182 0.32635173201560974 0.080737143754959106
0.17895960807800293 0.31509566307067871 0.074765525758266449
0.30410343408584595 0.27731430530548096 0.067500203847885132
0.45876327157020569 0.21943061053752899 0.062442690134048462
0.65082335472106934 0.13551436364650726 0.033487416803836823
0.80101627111434937 0.052753686904907227 0.030273303389549255
0.92139935493469238 0.0093066198751330376 0.04153066873550415
0.097352869808673859 0.57775741815567017 0.097248569130897522
0.21541798114776611 0.57210677862167358 0.09525279700756073
0.37787187099456787 0.53370416164398193 0.087440967559814453
0.55600088834762573 0.48333212733268738 0.081216894090175629
0.75008505582809448 0.422017902135849 0.069312617182731628
0.90139865875244141 0.34702321887016296 0.072635605931282043
0.99059790372848511 0.26176786422729492 0.095601476728916168
0.21578559279441833 0.79865634441375732 0.052786253392696381
0.32074764370918274 0.79001682996749878 0.054876215755939484
0.47930237650871277 0.76624947786331177 0.059647355228662491
0.67114883661270142 0.71917569637298584 0.060676693916320801
0.85023880004882812 0.67332917451858521 0.072955429553985596
0.98067665100097656 0.6239134669303894 0.087555453181266785
0.99843394756317139 0.55932646989822388 0.12319229543209076
0.45081740617752075 0.95076954364776611 0.0038378995377570391
0.52438825368881226 0.94302964210510254 0.0040757125243544579
0.64820080995559692 0.91683703660964966 0.010846097022294998
0.79802638292312622 0.89027625322341919 0.0089100254699587822
0.93761575222015381 0.84888380765914917 0.024622838944196701
0.99644696712493896 0.80693262815475464 0.045160643756389618
1 0.76064121723175049 0.10388897359371185
0.75683033466339111 0.99985533952713013 0
0.79160940647125244 0.99976378679275513 0
0.85956579446792603 0.99775248765945435 0
0.95665186643600464 0.98712778091430664 0
0.99619495868682861 0.97538149356842041 5.5290671298280358e-05
1 0.95032531023025513 0.0024258631747215986
1 0.9194333553314209 0.019278448075056076
0.013791880570352077 0.018156642094254494 0.095555521547794342
0.068221285939216614 0.012041592970490456 0.087994247674942017
0.16898626089096069 0.0050581838004291058 0.07653433084487915
0.3194350004196167 0.00026128432364203036 0.060401976108551025
0.50203400850296021 0 0.045329779386520386
0.67435616254806519 0 0.045499734580516815
0.80951851606369019 0 0.055008351802825928
0.076257459819316864 0.1304837167263031 0.1213996410369873
0.12905237078666687 0.11242840439081192 0.11475759744644165
0.22816713154315948 0.079579025506973267 0.10630032420158386
0.37168487906455994 0.030104378238320351 0.091251716017723083
0.55355393886566162 0.0080345151945948601 0.072907738387584686
0.71665310859680176 0.0013606800930574536 0.066455274820327759
0.82701379060745239 0 0.08900153636932373
0.087387681007385254 0.31570529937744141 0.14283923804759979
0.15080399811267853 0.30296668410301208 0.14059248566627502
0.28297510743141174 0.27089664340019226 0.13445878028869629
0.44569405913352966 0.21194294095039368 0.12241403758525848
0.62937295436859131 0.1277378648519516 0.10824847966432571
0.78022438287734985 0.042688660323619843 0.10382050275802612
0.89232242107391357 0.007291845977306366 0.13084469735622406
0.053950950503349304 0.57789117097854614 0.14965800940990448
0.17221653461456299 0.56593918800354004 0.15094926953315735
0.35867142677307129 0.53450721502304077 0.14342533051967621
0.53964507579803467 0.48040980100631714 0.14325034618377686
0.73126888275146484 0.41141709685325623 0.13756158947944641
0.87671613693237305 0.33517804741859436 0.14548295736312866
0.97745901346206665 0.25408253073692322 0.17584481835365295
0.16389869153499603 0.80084717273712158 0.11695621162652969
0.2827969491481781 0.78782957792282104 0.12805347144603729
0.46025139093399048 0.76296985149383545 0.12391732633113861
0.64982789754867554 0.72330057621002197 0.12154120951890945
0.82451885938644409 0.67291361093521118 0.1312519758939743
0.95725524425506592 0.61970734596252441 0.15718567371368408
0.99764007329940796 0.56921583414077759 0.19346748292446136
0.42064735293388367 0.95396870374679565 0.069530144333839417
0.49436810612678528 0.94266146421432495 0.062737755477428436
0.62494361400604248 0.92132818698883057 0.057404894381761551
0.77587085962295532 0.89106053113937378 0.050659447908401489
0.9143947958946228 0.85557550191879272 0.081491909921169281
0.99490255117416382 0.81278091669082642 0.13446192443370819
0.99991589784622192 0.76747220754623413 0.21069392561912537
0.73738831281661987 0.99890375137329102 0.0053818197920918465
0.7739790678024292 0.99819374084472656 0.0090285353362560272
0.84297186136245728 0.99929606914520264 0.0067890840582549572
0.9319462776184082 0.99404525756835938 0.0084583060815930367
0.99221456050872803 0.97963494062423706 0.012091497890651226
1 0.95759099721908569 0.035449862480163574
1 0.92747956514358521 0.14731892943382263
0.0078771552070975304 0.014421455562114716 0.19409060478210449
0.040728550404310226 0.0078893471509218216 0.18094019591808319
0.14339661598205566 0.0054080737754702568 0.17231066524982452
0.29799404740333557 0.0019184186821803451 0.16013289988040924
0.48041462898254395 0.00073529413202777505 0.15132917463779449
0.64083802700042725 0 0.15473347902297974
0.77396303415298462 0 0.1706487238407135
0.045087642967700958 0.12066798657178879 0.22374671697616577
0.092730008065700531 0.099349513649940491 0.21724909543991089
0.19026455283164978 0.063387639820575714 0.20802029967308044
0.34110718965530396 0.019307184964418411 0.19475391507148743
0.52696079015731812 0.0040168315172195435 0.18270896375179291
0.67279332876205444 0.0036763658281415701 0.1862981915473938
0.78880321979522705 0 0.2015281468629837
0.067277289927005768 0.29886460304260254 0.2522185742855072
0.1116752028465271 0.28547579050064087 0.25315436720848083
0.24297542870044708 0.246901735663414 0.24692972004413605
0.41365313529968262 0.19272896647453308 0.23619291186332703
0.59411042928695679 0.10667803883552551 0.22343292832374573
0.73919963836669922 0.032918069511651993 0.2288951575756073
0.84884601831436157 0.0090152816846966743 0.25129973888397217
0.012956970371305943 0.56238722801208496 0.28331291675567627
0.093553312122821808 0.55361735820770264 0.28355386853218079
0.30205604434013367 0.52545994520187378 0.28201946616172791
0.50538498163223267 0.47592005133628845 0.27473247051239014
0.6892198920249939 0.40169677138328552 0.27109178900718689
0.83108621835708618 0.32436442375183105 0.28033939003944397
0.93972569704055786 0.24120022356510162 0.30802401900291443
0.041038364171981812 0.80146175622940063 0.30366387963294983
0.18346209824085236 0.78546643257141113 0.30030143260955811
0.39829221367835999 0.76061886548995972 0.29784199595451355
0.60036259889602661 0.71182894706726074 0.29552868008613586
0.77737408876419067 0.66865181922912598 0.29719245433807373
0.909160315990448 0.61432045698165894 0.3196636438369751
0.99261921644210815 0.56087929010391235 0.35547360777854919
0.32395058870315552 0.95251846313476562 0.30422481894493103
0.41688871383666992 0.94117045402526855 0.29863914847373962
0.55897712707519531 0.92155522108078003 0.29432520270347595
0.71432334184646606 0.89188474416732788 0.29367882013320923
0.85224425792694092 0.8466799259185791 0.29809066653251648
0.97122502326965332 0.81042945384979248 0.33123257756233215
0.99799656867980957 0.77014964818954468 0.38658192753791809
0.67961567640304565 0.99827766418457031 0.21381561458110809
0.71453565359115601 0.99782818555831909 0.20939761400222778
0.78624808788299561 0.99785721302032471 0.21256367862224579
0.87363189458847046 0.99572402238845825 0.2207024097442627
0.9633558988571167 0.98200309276580811 0.23981691896915436
0.99823921918869019 0.96469837427139282 0.28129318356513977
1 0.93190497159957886 0.36575755476951599
0.0016632230253890157 0.0087998183444142342 0.31698310375213623
0.019476782530546188 0.0049238316714763641 0.31944137811660767
0.097247287631034851 0.0020038231741636992 0.30559912323951721
0.26155078411102295 0.001302876160480082 0.30044263601303101
0.44838935136795044 0 0.2857893705368042
0.6060214638710022 0 0.28197681903839111
0.7342032790184021 0 0.30119746923446655
0.012737932614982128 0.10008250176906586 0.36057591438293457
0.04317079484462738 0.07819589227437973 0.35796085000038147
0.14086632430553436 0.040436148643493652 0.34995612502098083
0.29319551587104797 0.0089775389060378075 0.33844789862632751
0.4771730899810791 0.0045834262855350971 0.32952764630317688
0.62245649099349976 0.0024563658516854048 0.33273780345916748
0.73585957288742065 0 0.34347176551818848
0.034255817532539368 0.2754465639591217 0.40799054503440857
0.080193504691123962 0.26024278998374939 0.40875470638275146
0.18147562444210052 0.22664938867092133 0.40514865517616272
0.35887804627418518 0.16027994453907013 0.38893157243728638
0.539986252784729 0.077060014009475708 0.38031879067420959
0.68216842412948608 0.024445313960313797 0.38604894280433655
0.7895093560218811 0.0073422151617705822 0.40091055631637573
0.0048064137808978558 0.53714293241500854 0.45764842629432678
0.019807329401373863 0.53185844421386719 0.46000617742538452
0.2217848151922226 0.50436133146286011 0.45872333645820618
0.43711942434310913 0.4497109055519104 0.45142084360122681
0.62751948833465576 0.38353011012077332 0.4404318630695343
0.76867973804473877 0.30213943123817444 0.44380125403404236
0.88343995809555054 0.22041572630405426 0.46435755491256714
0.0044286837801337242 0.78245276212692261 0.49405631422996521
0.033124271780252457 0.78369218111038208 0.50237929821014404
0.2881089448928833 0.7537769079208374 0.49960526823997498
0.53252613544464111 0.70985323190689087 0.49719515442848206
0.70950162410736084 0.66313570737838745 0.48915985226631165
0.84800088405609131 0.61044085025787354 0.49896129965782166
0.9654543399810791 0.55135726928710938 0.51874953508377075
0.14928406476974487 0.95430320501327515 0.52462100982666016
0.27442100644111633 0.94588005542755127 0.52210980653762817
0.46770691871643066 0.92569541931152344 0.51846277713775635
0.63456398248672485 0.89053702354431152 0.51174432039260864
0.78074938058853149 0.85494303703308105 0.51618146896362305
0.9097522497177124 0.81550413370132446 0.52578747272491455
0.99365150928497314 0.77938592433929443 0.55517798662185669
0.58672559261322021 1 0.48039171099662781
0.62520414590835571 0.99995332956314087 0.4841880202293396
0.69862645864486694 0.99787867069244385 0.48145738244056702
0.78621888160705566 0.99723988771438599 0.48717322945594788
0.88532668352127075 0.9909977912902832 0.49791800975799561
0.97215181589126587 0.96935981512069702 0.51292663812637329
0.99995797872543335 0.94263738393783569 0.55355632305145264
0 0.0046391654759645462 0.48123571276664734
0.0020053039770573378 0.0031306697055697441 0.47604584693908691
0.048254095017910004 0 0.47789886593818665
0.21012409031391144 0 0.46777999401092529
0.39743232727050781 0 0.45324000716209412
0.55320262908935547 0 0.43787571787834167
0.68552368879318237 0 0.44800156354904175
0.0025613075122237206 0.061040647327899933 0.5262608528137207
0.015895769000053406 0.047614183276891708 0.52555060386657715
0.078863866627216339 0.016755316406488419 0.52200496196746826
0.24041882157325745 0.0041000368073582649 0.50728648900985718
0.4218202531337738 0.0047445408999919891 0.49313259124755859
0.56650084257125854 0.0014093137579038739 0.48658967018127441
0.6860918402671814 0 0.48508808016777039
0.01545505877584219 0.23648917675018311 0.58361214399337769
0.046189118176698685 0.21676720678806305 0.57894295454025269
0.13628937304019928 0.17726443707942963 0.57423925399780273
0.30445519089698792 0.11461485177278519 0.55702722072601318
0.48251473903656006 0.043189030140638351 0.5437464714050293
0.62273144721984863 0.0096348179504275322 0.5364307165145874
0.73528206348419189 0.0035911710001528263 0.53678023815155029
0.0025915259029716253 0.50607848167419434 0.64137488603591919
0.01396478433161974 0.48943740129470825 0.64011901617050171
0.13999775052070618 0.46298515796661377 0.63257467746734619
0.38537943363189697 0.40327745676040649 0.61046427488327026
0.57311743497848511 0.34001770615577698 0.59960556030273438
0.71118509769439697 0.25998851656913757 0.59238755702972412
0.82464396953582764 0.1680978387594223 0.59392791986465454
0.0011890934547409415 0.77409529685974121 0.6820482611656189
0.0061255060136318207 0.76103222370147705 0.68216872215270996
0.20372822880744934 0.74164921045303345 0.67763596773147583
0.47576510906219482 0.69310784339904785 0.66081136465072632
0.65215688943862915 0.64511317014694214 0.65291094779968262
0.7951730489730835 0.59866762161254883 0.65129381418228149
0.91655564308166504 0.52793717384338379 0.65181183815002441
0.025065522640943527 0.95375710725784302 0.71004372835159302
0.1476110965013504 0.944649338722229 0.70703250169754028
0.38623437285423279 0.92073303461074829 0.69733703136444092
0.57076382637023926 0.88923585414886475 0.6871182918548584
0.72079688310623169 0.84816354513168335 0.68204480409622192
0.85733479261398315 0.81179183721542358 0.68027359247207642
0.97008556127548218 0.77236378192901611 0.68728107213973999
0.5010342001914978 1 0.7009006142616272
0.53763151168823242 0.99847334623336792 0.69249755144119263
0.61102735996246338 0.99907153844833374 0.69056022167205811
0.71021592617034912 0.99758750200271606 0.69081556797027588
0.81588882207870483 0.99184584617614746 0.68983560800552368
0.93209654092788696 0.97462701797485352 0.6876252293586731
0.99405199289321899 0.95158970355987549 0.70009547472000122
0 0.0034410215448588133 0.6536020040512085
0 0.00029874316533096135 0.64209920167922974
0.016822410747408867 0 0.63805985450744629
0.16510793566703796 0 0.61778432130813599
0.36067163944244385 0 0.59349560737609863
0.51364588737487793 0 0.58151662349700928
0.64667195081710815 0 0.57784354686737061
0 0.021947583183646202 0.6871216893196106
0.0053896438330411911 0.015883665531873703 0.68185114860534668
0.035811629146337509 0.0059423111379146576 0.67041629552841187
0.18740560114383698 0.0025829989463090897 0.64756679534912109
0.36506900191307068 0.00051522348076105118 0.62671011686325073
0.5176931619644165 0 0.6175156831741333
0.63725906610488892 0 0.60979777574539185
0.0054999557323753834 0.16678529977798462 0.72660928964614868
0.020098548382520676 0.15104150772094727 0.72542768716812134
0.10780328512191772 0.11292670667171478 0.71107357740402222
0.26356536149978638 0.050670113414525986 0.69442915916442871
0.42945808172225952 0.013002432882785797 0.6739313006401062
0.56315356492996216 0.0051664612255990505 0.65964895486831665
0.67652302980422974 0.003680928610265255 0.65111649036407471
0.0049403770826756954 0.44340723752975464 0.77422881126403809
0.012923506088554859 0.433185875415802 0.77594953775405884
0.14405357837677002 0.40199825167655945 0.76360666751861572
0.36320120096206665 0.34074056148529053 0.74222713708877563
0.52769023180007935 0.27174320816993713 0.72905802726745605
0.65614765882492065 0.18798460066318512 0.71204495429992676
0.76804620027542114 0.10242836177349091 0.70323443412780762
0.00067373539786785841 0.73734098672866821 0.81965595483779907
0.0088616460561752319 0.7298583984375 0.81685072183609009
0.1788017600774765 0.7062448263168335 0.80865240097045898
0.4423823356628418 0.65913218259811401 0.79270613193511963
0.61457949876785278 0.6150323748588562 0.78127670288085938
0.75096136331558228 0.55935990810394287 0.77086323499679565
0.87529778480529785 0.49280416965484619 0.76543605327606201
0.013145057484507561 0.93572062253952026 0.8483046293258667
0.11347600817680359 0.92650723457336426 0.84565651416778564
0.33881664276123047 0.90150803327560425 0.83360499143600464
0.52414971590042114 0.87166523933410645 0.82392531633377075
0.67947125434875488 0.83741950988769531 0.81633782386779785
0.81258124113082886 0.80479508638381958 0.81081557273864746
0.9350314736366272 0.75858610868453979 0.80775874853134155
0.44264078140258789 1 0.856944739818573
0.478859543800354 0.99923986196517944 0.85401695966720581
0.55414021015167236 0.99735432863235474 0.84867805242538452
0.6551164984703064 0.99680536985397339 0.84252482652664185
0.76794737577438354 0.98618555068969727 0.83709192276000977
0.87947988510131836 0.97414207458496094 0.83131122589111328
0.98014539480209351 0.95034432411193848 0.82863074541091919
0 0 0.78432917594909668
0 0 0.77129220962524414
0.012988550588488579 0 0.763202965259552
0.14841750264167786 0 0.74494010210037231
0.33951511979103088 0 0.71614038944244385
0.48497182130813599 0 0.70127898454666138
0.61686599254608154 0 0.67752009630203247
0 0.0047876695170998573 0.80423498153686523
0.0028825199697166681 0.0033097958657890558 0.79509341716766357
0.023729974403977394 0.00053172389743849635 0.78255170583724976
0.16366869211196899 0 0.76005321741104126
0.33759427070617676 0 0.73973894119262695
0.48386350274085999 0 0.72485321760177612
0.60683727264404297 0 0.7140655517578125
0.0015091690002009273 0.072609968483448029 0.8406795859336853
0.010443668812513351 0.054179921746253967 0.83320271968841553
0.083441160619258881 0.030416751280426979 0.8201255202293396
0.23755171895027161 0.0069204890169203281 0.79634642601013184
0.38226163387298584 0.0033113667741417885 0.77670049667358398
0.50606286525726318 0.00032360601471737027 0.75951355695724487
0.61299556493759155 9.8015283583663404e-05 0.74551331996917725
0.02356395311653614 0.34074348211288452 0.88767462968826294
0.047272969037294388 0.32526454329490662 0.88255757093429565
0.17583899199962616 0.28349915146827698 0.86728239059448242
0.34851881861686707 0.22959047555923462 0.84807109832763672
0.48765569925308228 0.16201832890510559 0.82942503690719604
0.60354536771774292 0.084106698632240295 0.8105958104133606
0.70772218704223633 0.022764468565583229 0.79555237293243408
0.0010792601387947798 0.67322623729705811 0.92998683452606201
0.020961672067642212 0.66498273611068726 0.9295009970664978
0.24716320633888245 0.63392752408981323 0.91563260555267334
0.44554334878921509 0.58883190155029297 0.89963918924331665
0.58764708042144775 0.53994983434677124 0.88485133647918701
0.71333920955657959 0.48482152819633484 0.86676526069641113
0.82927882671356201 0.40690049529075623 0.8575255274772644
0.076665215194225311 0.90124630928039551 0.96234625577926636
0.1916126161813736 0.88823837041854858 0.95699846744537354
0.3637491762638092 0.86512941122055054 0.94613176584243774
0.51897680759429932 0.83644306659698486 0.93803924322128296
0.65329527854919434 0.80482763051986694 0.92626315355300903
0.78214949369430542 0.77184563875198364 0.91847795248031616
0.89737892150878906 0.72290778160095215 0.90444833040237427
0.43339365720748901 0.99676591157913208 0.979095458984375
0.46789130568504333 0.99596869945526123 0.97768723964691162
0.53786647319793701 0.99559718370437622 0.97204101085662842
0.62814450263977051 0.99457794427871704 0.97031891345977783
0.73156547546386719 0.98426759243011475 0.96243774890899658
0.84662789106369019 0.96407961845397949 0.95053929090499878
0.95163154602050781 0.94776731729507446 0.95123279094696045
