luts/negative_color/agfa_ultra_color_100.cube
# Created by: G'MIC (https://gmic.eu)
TITLE "agfa_ultra_color_100"
# LUT size
LUT_3D_SIZE 5
# Data domain
DOMAIN_MIN 0.0 0.0 0.0
DOMAIN_MAX 1.0 1.0 1.0
# LUT data points
0.022244052961468697 0.02494182251393795 0.018884532153606415
0.14077672362327576 0.010868491604924202 0.021334929391741753
0.33245807886123657 0.0042507993057370186 0.014293326996266842
0.61740398406982422 0 0.0076030357740819454
0.83933907747268677 0 0.0050065284594893456
0.11480886489152908 0.2238992303609848 0.061120934784412384
0.21407975256443024 0.189334437251091 0.055919378995895386
0.41871315240859985 0.1122191920876503 0.042334731668233871
0.6935420036315918 0.013233678415417671 0.013490699231624603
0.8835253119468689 0.00014060524699743837 0.026217382401227951
0.097352869808673859 0.57775741815567017 0.097248569130897522
0.28688856959342957 0.55826175212860107 0.091802440583705902
0.55600088834762573 0.48333212733268738 0.081216894090175629
0.83353489637374878 0.38328579068183899 0.068860597908496857
0.99059790372848511 0.26176786422729492 0.095601476728916168
0.33023998141288757 0.88075035810470581 0.015950759872794151
0.48547297716140747 0.86059445142745972 0.024662166833877563
0.73378103971481323 0.8079841136932373 0.036344178020954132
0.95961594581604004 0.74458783864974976 0.061618775129318237
0.99995797872543335 0.66831856966018677 0.11841893196105957
0.75683033466339111 0.99985533952713013 0
0.82277905941009521 0.99854749441146851 0
0.95665186643600464 0.98712778091430664 0
0.99896740913391113 0.96221441030502319 0.0012887693010270596
1 0.9194333553314209 0.019278448075056076
0.013457474298775196 0.017055585980415344 0.14566443860530853
0.10159382224082947 0.0089853620156645775 0.12872254848480225
0.30905893445014954 0.00076142855687066913 0.10533628612756729
0.58203083276748657 5.6547276471974328e-05 0.089420095086097717
0.78845608234405518 0 0.10957750678062439
0.089216329157352448 0.20793846249580383 0.17767292261123657
0.18292316794395447 0.17299118638038635 0.1773591935634613
0.39190468192100525 0.090086996555328369 0.1549578458070755
0.65490573644638062 0.013476652093231678 0.14063771069049835
0.83865183591842651 0.002619320759549737 0.16515828669071198
0.024843582883477211 0.57027548551559448 0.20849607884883881
0.23521631956100464 0.54511857032775879 0.20841166377067566
0.52635711431503296 0.47928920388221741 0.2016160786151886
0.79026377201080322 0.36874562501907349 0.19815333187580109
0.96199506521224976 0.25020352005958557 0.23927687108516693
0.24618776142597198 0.88372701406478882 0.19935309886932373
0.42438885569572449 0.86323285102844238 0.19530238211154938
0.68283253908157349 0.81057447195053101 0.18869468569755554
0.90852636098861694 0.74246954917907715 0.21467007696628571
0.99797320365905762 0.67111861705780029 0.2890801727771759
0.71618539094924927 0.99773663282394409 0.074930153787136078
0.78461545705795288 0.99862760305404663 0.069928064942359924
0.90970242023468018 0.9928317666053772 0.073579378426074982
0.99627000093460083 0.97332364320755005 0.11983580887317657
1 0.93117672204971313 0.25334477424621582
0.0016632230253890157 0.0087998183444142342 0.31698310375213623
0.043736685067415237 0.0027513690292835236 0.31387969851493835
0.26155078411102295 0.001302876160480082 0.30044263601303101
0.53359448909759521 0 0.28025954961776733
0.7342032790184021 0 0.30119746923446655
0.028800215572118759 0.17737564444541931 0.38356223702430725
0.10402272641658783 0.1451544314622879 0.38107216358184814
0.32334724068641663 0.061800025403499603 0.36196717619895935
0.58154523372650146 0.0072343712672591209 0.35536655783653259
0.75758481025695801 0.00081070547457784414 0.37286913394927979
0.0048064137808978558 0.53714293241500854 0.45764842629432678
0.097281403839588165 0.52235615253448486 0.46137058734893799
0.43711942434310913 0.4497109055519104 0.45142084360122681
0.70437920093536377 0.34634408354759216 0.4389268159866333
0.88343995809555054 0.22041572630405426 0.46435755491256714
0.019034560769796371 0.88072961568832397 0.51434171199798584
0.24440544843673706 0.85930347442626953 0.51470518112182617
0.58223420381546021 0.80764126777648926 0.50697427988052368
0.8139641284942627 0.7384611964225769 0.50315111875534058
0.98721402883529663 0.67803561687469482 0.53889232873916626
0.58672559261322021 1 0.48039171099662781
0.65733569860458374 0.99887406826019287 0.48145166039466858
0.78621888160705566 0.99723988771438599 0.48717322945594788
0.93719279766082764 0.98059314489364624 0.50413602590560913
0.99995797872543335 0.94263738393783569 0.55355632305145264
0 0.0039349277503788471 0.57091498374938965
0.0018438451224938035 0.00026972152409143746 0.56820553541183472
0.18309049308300018 0 0.54916518926620483
0.45769664645195007 0 0.51797711849212646
0.66464030742645264 0 0.51922512054443359
0.0035099552478641272 0.10757311433553696 0.63432711362838745
0.030782617628574371 0.07526957243680954 0.62978005409240723
0.24369518458843231 0.014428322203457355 0.60693073272705078
0.49543434381484985 0.0046632355079054832 0.58127611875534058
0.68039882183074951 0.0013616523938253522 0.57386767864227295
0.0046373107470571995 0.47581273317337036 0.70977085828781128
0.032123923301696777 0.45505058765411377 0.71093654632568359
0.37265390157699585 0.3798879086971283 0.68186861276626587
0.6218942403793335 0.27278327941894531 0.66179913282394409
0.79843986034393311 0.13637489080429077 0.65024292469024658
0.0015715355984866619 0.85958045721054077 0.77007091045379639
0.10171248763799667 0.8430250883102417 0.76708477735519409
0.49823123216629028 0.78465151786804199 0.74433261156082153
0.73470145463943481 0.72430157661437988 0.73503363132476807
0.92825794219970703 0.65267205238342285 0.73335403203964233
0.46788796782493591 1 0.78349089622497559
0.5389900803565979 0.99896597862243652 0.77568912506103516
0.68021833896636963 0.99656540155410767 0.76913738250732422
0.84942018985748291 0.98384910821914673 0.76205742359161377
0.98831534385681152 0.95061337947845459 0.76661735773086548
0 0 0.78432917594909668
0.00010340073640691116 0 0.76678884029388428
0.14841750264167786 0 0.74494010210037231
0.41303572058677673 0 0.70721679925918579
0.61686599254608154 0 0.67752009630203247
0 0.017130503430962563 0.82075166702270508
0.0089226663112640381 0.0071800081059336662 0.80732744932174683
0.19046661257743835 0.0015802420675754547 0.77476304769515991
0.4190349280834198 0 0.74774569272994995
0.60469073057174683 0 0.72755366563796997
0.02356395311653614 0.34074348211288452 0.88767462968826294
0.097936831414699554 0.30823260545730591 0.87778550386428833
0.34851881861686707 0.22959047555923462 0.84807109832763672
0.54760205745697021 0.12116698920726776 0.82065808773040771
0.70772218704223633 0.022764468565583229 0.79555237293243408
0.0077098174951970577 0.79763931035995483 0.94711291790008545
0.19254705309867859 0.77800577878952026 0.94133257865905762
0.48052823543548584 0.72684597969055176 0.92129385471343994
0.68779367208480835 0.67046135663986206 0.9026409387588501
0.87010747194290161 0.58525341749191284 0.88526397943496704
0.43339365720748901 0.99676591157913208 0.979095458984375
0.49651375412940979 0.99505782127380371 0.97284930944442749
0.62814450263977051 0.99457794427871704 0.97031891345977783
0.78627252578735352 0.9763559103012085 0.95794463157653809
0.95163154602050781 0.94776731729507446 0.95123279094696045
