luts/negative_color/agfa_vista_200.cube
# Created by: G'MIC (https://gmic.eu)
TITLE "agfa_vista_200"
# LUT size
LUT_3D_SIZE 5
# Data domain
DOMAIN_MIN 0.0 0.0 0.0
DOMAIN_MAX 1.0 1.0 1.0
# LUT data points
0.017169682309031487 0.01687641441822052 0.013846707530319691
0.17190423607826233 0.015496122650802135 0.0060158823616802692
0.48590520024299622 0.013707194477319717 0.0014546562451869249
0.77387374639511108 0.011743702925741673 4.2006548028439283e-05
0.96898007392883301 0.0018933913670480251 0
0.077431336045265198 0.23332309722900391 0.071234025061130524
0.22141656279563904 0.21081718802452087 0.049510881304740906
0.52995008230209351 0.17600995302200317 0.017936451360583305
0.79780197143554688 0.11999311298131943 0.0040177139453589916
0.98065376281738281 0.039762862026691437 0
0.015882380306720734 0.57035690546035767 0.13029970228672028
0.28120231628417969 0.56275397539138794 0.11892903596162796
0.61058402061462402 0.54360401630401611 0.089791238307952881
0.85897749662399292 0.51229602098464966 0.059196799993515015
0.99675941467285156 0.44525405764579773 0.029881659895181656
0.32043731212615967 0.8057868480682373 0.2013547271490097
0.46909454464912415 0.80385029315948486 0.18463139235973358
0.69442015886306763 0.79766899347305298 0.15953852236270905
0.90045911073684692 0.78595614433288574 0.11906281858682632
0.99997901916503906 0.76528024673461914 0.088006831705570221
0.6052863597869873 0.96467792987823486 0.29543870687484741
0.66798198223114014 0.96313095092773438 0.28236639499664307
0.79549491405487061 0.96144169569015503 0.2712460458278656
0.95284885168075562 0.95748531818389893 0.24872742593288422
0.99956339597702026 0.95243483781814575 0.20675422251224518
0.0058290520682930946 0.011235569603741169 0.1198650598526001
0.13839496672153473 0.007557304110378027 0.10237975418567657
0.45124691724777222 0.0045926561579108238 0.063049793243408203
0.74692040681838989 3.163954897900112e-05 0.021184345707297325
0.96002012491226196 0 0.008635188452899456
0.052385576069355011 0.2052033543586731 0.19821128249168396
0.18147397041320801 0.18353638052940369 0.18251363933086395
0.4990527331829071 0.14950846135616302 0.14423274993896484
0.76572036743164062 0.093259267508983612 0.099337227642536163
0.96607053279876709 0.021921494975686073 0.050521820783615112
0.0055623673833906651 0.55298173427581787 0.29944396018981934
0.2184910774230957 0.55585741996765137 0.28915330767631531
0.57217139005661011 0.53505992889404297 0.25475901365280151
0.82572251558303833 0.50079852342605591 0.22002501785755157
0.99326002597808838 0.43200752139091492 0.18615621328353882
0.21676474809646606 0.80692607164382935 0.39640837907791138
0.40710741281509399 0.80553019046783447 0.39147788286209106
0.65694731473922729 0.79029315710067749 0.3638489842414856
0.8635069727897644 0.77617567777633667 0.33956742286682129
0.99146342277526855 0.75748664140701294 0.31148609519004822
0.54034769535064697 0.96625500917434692 0.47591599822044373
0.61584961414337158 0.96711140871047974 0.46868896484375
0.75282466411590576 0.96531170606613159 0.45746180415153503
0.91821193695068359 0.96154475212097168 0.43817552924156189
0.99779587984085083 0.95662450790405273 0.42241668701171875
0.00057534611551091075 0.0061165755614638329 0.34223893284797668
0.076158232986927032 0.0011558982077986002 0.32938084006309509
0.40915006399154663 0.0034921683836728334 0.29820570349693298
0.70416426658630371 0.0021728514693677425 0.25624582171440125
0.92029380798339844 0 0.22442810237407684
0.016267005354166031 0.16446974873542786 0.43972218036651611
0.11810509115457535 0.13597334921360016 0.42793089151382446
0.43810746073722839 0.10192862153053284 0.3917076587677002
0.71385651826858521 0.055567093193531036 0.35185247659683228
0.91030228137969971 0.016127597540616989 0.31620907783508301
0.00021829044271726161 0.53842979669570923 0.55738574266433716
0.093322351574897766 0.53280913829803467 0.54471540451049805
0.51146364212036133 0.50628721714019775 0.51404440402984619
0.771728515625 0.47001802921295166 0.4856397807598114
0.97013717889785767 0.38262787461280823 0.44859826564788818
0.035793274641036987 0.80685698986053467 0.64039391279220581
0.29364827275276184 0.80078285932540894 0.62888652086257935
0.58642083406448364 0.79508036375045776 0.60878801345825195
0.80851835012435913 0.77661788463592529 0.58349961042404175
0.98883092403411865 0.75209087133407593 0.56556767225265503
0.46591973304748535 0.97426104545593262 0.6862066388130188
0.54088842868804932 0.96890896558761597 0.67972952127456665
0.6958547830581665 0.96788918972015381 0.66779643297195435
0.86952286958694458 0.96913957595825195 0.65281206369400024
0.99621188640594482 0.96176350116729736 0.63778650760650635
0 0.0016590491868555546 0.57969480752944946
0.020350901409983635 4.8469096327607986e-06 0.57544684410095215
0.34420573711395264 1.4002182979311328e-05 0.53687798976898193
0.65331524610519409 0 0.50768738985061646
0.86677324771881104 0 0.47680795192718506
1.4540728443535045e-05 0.074899904429912567 0.65275287628173828
0.046000298112630844 0.062961220741271973 0.64193683862686157
0.37455305457115173 0.036555048078298569 0.6038130521774292
0.6602327823638916 0.017166392877697945 0.56572449207305908
0.86702847480773926 0.0043404973112046719 0.53482329845428467
0 0.47082418203353882 0.74635434150695801
0.02668050117790699 0.4727233350276947 0.73713701963424683
0.45716887712478638 0.43959349393844604 0.70332860946655273
0.7220185399055481 0.38735482096672058 0.66857969760894775
0.92460203170776367 0.28223422169685364 0.63296127319335938
0.0041855308227241039 0.78558582067489624 0.81521368026733398
0.15460444986820221 0.78846293687820435 0.80791264772415161
0.52541106939315796 0.77524679899215698 0.78458434343338013
0.76566004753112793 0.75605374574661255 0.76143407821655273
0.96499043703079224 0.72883898019790649 0.73930507898330688
0.37064430117607117 0.97837847471237183 0.86242920160293579
0.45767152309417725 0.97455614805221558 0.8548436164855957
0.63561159372329712 0.97213858366012573 0.84356576204299927
0.82526540756225586 0.97049248218536377 0.82938116788864136
0.98512387275695801 0.9654887318611145 0.81426936388015747
0 0 0.77010589838027954
0.0041977227665483952 0 0.75450736284255981
0.2864869236946106 0 0.71620255708694458
0.60969918966293335 0 0.6823616623878479
0.83260244131088257 0 0.65367996692657471
0 0.01001872681081295 0.80969572067260742
0.0022642398253083229 0.0045050377957522869 0.79771333932876587
0.29786816239356995 0.0038936091586947441 0.76278126239776611
0.60941159725189209 0.00024342256074305624 0.72079575061798096
0.83208280801773071 4.7392004489665851e-05 0.69876194000244141
0 0.32747867703437805 0.89443540573120117
0.036429759114980698 0.31289213895797729 0.87943530082702637
0.39731773734092712 0.27299806475639343 0.8406299352645874
0.66720855236053467 0.19972661137580872 0.80351406335830688
0.86465293169021606 0.082633137702941895 0.76343148946762085
0 0.74619340896606445 0.96441256999969482
0.01584186963737011 0.74171561002731323 0.95872324705123901
0.45966249704360962 0.7233128547668457 0.93269580602645874
0.72259408235549927 0.70146715641021729 0.90890616178512573
0.93464815616607666 0.65840154886245728 0.88003230094909668
0.14839234948158264 0.97657901048660278 0.99794852733612061
0.33264580368995667 0.97376918792724609 0.9917525053024292
0.55811285972595215 0.96867328882217407 0.986625075340271
0.77322578430175781 0.96365636587142944 0.9725831151008606
0.96167236566543579 0.95675128698348999 0.95991027355194092
