luts/negative_color/agfa_vista_200.cube
# Created by: G'MIC (https://gmic.eu)
TITLE "agfa_vista_200"
# LUT size
LUT_3D_SIZE 13
# Data domain
DOMAIN_MIN 0.0 0.0 0.0
DOMAIN_MAX 1.0 1.0 1.0
# LUT data points
0.017169682309031487 0.01687641441822052 0.013846707530319691
0.043856017291545868 0.013780406676232815 0.0092378798872232437
0.095151655375957489 0.013369317166507244 0.0084635121747851372
0.17190423607826233 0.015496122650802135 0.0060158823616802692
0.26476076245307922 0.014103444293141365 0.0019069297704845667
0.36785396933555603 0.011104254983365536 0.00085606292122974992
0.48590520024299622 0.013707194477319717 0.0014546562451869249
0.60150444507598877 0.019812161102890968 0.0014140109997242689
0.69643265008926392 0.013933608308434486 0.0011630787048488855
0.77387374639511108 0.011743702925741673 4.2006548028439283e-05
0.84157180786132812 0.0098420986905694008 0
0.90798556804656982 0.0060393689200282097 0
0.96898007392883301 0.0018933913670480251 0
0.034099727869033813 0.059541650116443634 0.027014473453164101
0.056615222245454788 0.052713669836521149 0.0210750512778759
0.10856951773166656 0.052917033433914185 0.018804587423801422
0.18035656213760376 0.047435775399208069 0.015902275219559669
0.27376636862754822 0.041308429092168808 0.0090752998366951942
0.38081830739974976 0.036883261054754257 0.0025311489589512348
0.4937712550163269 0.030070509761571884 0.0017272948753088713
0.6017681360244751 0.024483565241098404 0.00079208076931536198
0.69645822048187256 0.01626930944621563 0.00054231530521064997
0.7740471363067627 0.012525072321295738 0
0.84386801719665527 0.010241070762276649 0
0.90989601612091064 0.0059534111060202122 0
0.97035866975784302 0.0015318627702072263 0
0.058185577392578125 0.13208393752574921 0.044890191406011581
0.081675663590431213 0.12641909718513489 0.038327086716890335
0.12596882879734039 0.12234559655189514 0.035451162606477737
0.2003488689661026 0.11986035853624344 0.03542950376868248
0.29537078738212585 0.11079531162977219 0.024550627917051315
0.39873656630516052 0.097542464733123779 0.010925606824457645
0.5096772313117981 0.084374956786632538 0.0060024484992027283
0.61279898881912231 0.067411117255687714 0.0023466672282665968
0.70429092645645142 0.053004290908575058 0.00047945507685653865
0.78109878301620483 0.040278192609548569 8.6167281551752239e-05
0.85142523050308228 0.026557113975286484 0
0.9176323413848877 0.014015557244420052 0
0.97567307949066162 0.0059472774155437946 0
0.077431336045265198 0.23332309722900391 0.071234025061130524
0.099580042064189911 0.22754386067390442 0.064885936677455902
0.14181385934352875 0.21799817681312561 0.057166468352079391
0.22141656279563904 0.21081718802452087 0.049510881304740906
0.31771209836006165 0.204379603266716 0.040744196623563766
0.4215206503868103 0.19211956858634949 0.029008558019995689
0.52995008230209351 0.17600995302200317 0.017936451360583305
0.63229560852050781 0.16185715794563293 0.0095780463889241219
0.72244060039520264 0.14071106910705566 0.0042661330662667751
0.79780197143554688 0.11999311298131943 0.0040177139453589916
0.86574643850326538 0.098819136619567871 0.0022255242802202702
0.93097788095474243 0.071689516305923462 0.00061461504083126783
0.98065376281738281 0.039762862026691437 0
0.041894502937793732 0.34501641988754272 0.095620565116405487
0.061840474605560303 0.34157469868659973 0.091983407735824585
0.12883599102497101 0.33267733454704285 0.085624024271965027
0.23758004605770111 0.32319951057434082 0.074108123779296875
0.34152618050575256 0.31814810633659363 0.064943902194499969
0.44868719577789307 0.3083406388759613 0.055789485573768616
0.55621391534805298 0.29752755165100098 0.042159121483564377
0.65562069416046143 0.28587839007377625 0.028928330168128014
0.74382251501083374 0.26331350207328796 0.018578354269266129
0.81971961259841919 0.24290086328983307 0.012390001676976681
0.88588929176330566 0.2103852778673172 0.0075177662074565887
0.9502798318862915 0.17458437383174896 0.0042653102427721024
0.99197888374328613 0.13346482813358307 0.0020929074380546808
0.015551937744021416 0.46236631274223328 0.1163514256477356
0.046011112630367279 0.45976510643959045 0.11437442153692245
0.13539785146713257 0.45320147275924683 0.10904503613710403
0.25434595346450806 0.44363823533058167 0.098930701613426208
0.36832568049430847 0.43715894222259521 0.088895432651042938
0.477620929479599 0.42853370308876038 0.079780071973800659
0.58218598365783691 0.42127963900566101 0.06734873354434967
0.67737108469009399 0.41223692893981934 0.055756870657205582
0.76352137327194214 0.39442828297615051 0.04470989853143692
0.84153425693511963 0.37723377346992493 0.032408948987722397
0.90931344032287598 0.34848177433013916 0.023808004334568977
0.9686894416809082 0.31739231944084167 0.019415896385908127
0.99436676502227783 0.2854769229888916 0.014358355663716793
0.015882380306720734 0.57035690546035767 0.13029970228672028
0.05331072211265564 0.57019084692001343 0.12851211428642273
0.15771980583667755 0.56800276041030884 0.1250356137752533
0.28120231628417969 0.56275397539138794 0.11892903596162796
0.39839693903923035 0.55688750743865967 0.11027140915393829
0.50814634561538696 0.54967665672302246 0.10101610422134399
0.61058402061462402 0.54360401630401611 0.089791238307952881
0.70307320356369019 0.5353667140007019 0.078805454075336456
0.78404223918914795 0.52373224496841431 0.068978987634181976
0.85897749662399292 0.51229602098464966 0.059196799993515015
0.92909318208694458 0.49194508790969849 0.048225834965705872
0.98386591672897339 0.47273451089859009 0.039131402969360352
0.99675941467285156 0.44525405764579773 0.029881659895181656
0.072958432137966156 0.66112816333770752 0.14244808256626129
0.13523814082145691 0.65767580270767212 0.14217449724674225
0.23049755394458771 0.65788751840591431 0.13682831823825836
0.33325222134590149 0.6574934720993042 0.13001798093318939
0.43709650635719299 0.65497398376464844 0.12445876002311707
0.54255372285842896 0.64821821451187134 0.11664974689483643
0.63816934823989868 0.63940328359603882 0.10704436898231506
0.72309350967407227 0.63196110725402832 0.099477879703044891
0.80013793706893921 0.62983769178390503 0.093099899590015411
0.87262177467346191 0.62124931812286377 0.083212845027446747
0.94003963470458984 0.60296010971069336 0.072468191385269165
0.9859040379524231 0.58704638481140137 0.063145503401756287
0.99833762645721436 0.57427436113357544 0.05405527725815773
0.1980750560760498 0.73789823055267334 0.16674366593360901
0.25100263953208923 0.73364883661270142 0.16600683331489563
0.31419128179550171 0.73134249448776245 0.16274590790271759
0.39772355556488037 0.73314201831817627 0.15310963988304138
0.48994156718254089 0.73242491483688354 0.14459079504013062
0.58397549390792847 0.73001086711883545 0.13266336917877197
0.66664528846740723 0.72448790073394775 0.12347211688756943
0.74491977691650391 0.71892613172531128 0.1154637485742569
0.81765621900558472 0.71551483869552612 0.10882065445184708
0.88694196939468384 0.70946639776229858 0.099632769823074341
0.95118129253387451 0.69782334566116333 0.092861577868461609
0.98765021562576294 0.68571674823760986 0.084561713039875031
0.99911248683929443 0.67914414405822754 0.077512525022029877
0.32043731212615967 0.8057868480682373 0.2013547271490097
0.34760671854019165 0.80370062589645386 0.19843550026416779
0.40436261892318726 0.80093675851821899 0.19317659735679626
0.46909454464912415 0.80385029315948486 0.18463139235973358
0.54789912700653076 0.8014519214630127 0.17834097146987915
0.62438029050827026 0.80028617382049561 0.16953213512897491
0.69442015886306763 0.79766899347305298 0.15953852236270905
0.76707321405410767 0.79373276233673096 0.14589186012744904
0.83517765998840332 0.78972774744033813 0.1317947655916214
0.90045911073684692 0.78595614433288574 0.11906281858682632
0.96376186609268188 0.78033709526062012 0.10728888213634491
0.99510341882705688 0.77283161878585815 0.095526047050952911
0.99997901916503906 0.76528024673461914 0.088006831705570221
0.43227049708366394 0.86814683675765991 0.23778229951858521
0.44714552164077759 0.87055188417434692 0.23269331455230713
0.489187091588974 0.86641663312911987 0.22769120335578918
0.54007703065872192 0.86519640684127808 0.22161303460597992
0.59845763444900513 0.86603736877441406 0.21665959060192108
0.66048574447631836 0.86389350891113281 0.21097832918167114
0.72455793619155884 0.86357450485229492 0.20347042381763458
0.78932267427444458 0.86268472671508789 0.19187089800834656
0.85313713550567627 0.85672628879547119 0.17958049476146698
0.9139438271522522 0.85060328245162964 0.16771920025348663
0.97412168979644775 0.84851753711700439 0.15189658105373383
0.99705040454864502 0.84382909536361694 0.13354930281639099
0.99984633922576904 0.83884817361831665 0.1138053759932518
0.52561551332473755 0.92075228691101074 0.27028980851173401
0.53413450717926025 0.92144709825515747 0.26407638192176819
0.56325602531433105 0.91888147592544556 0.26024001836776733
0.60632503032684326 0.91737991571426392 0.25483733415603638
0.6497352123260498 0.91788023710250854 0.24936951696872711
0.70316749811172485 0.91789215803146362 0.24640387296676636
0.76188313961029053 0.91872411966323853 0.24061086773872375
0.81858813762664795 0.91891449689865112 0.23221592605113983
0.87382477521896362 0.91434198617935181 0.22493381798267365
0.93134182691574097 0.9102100133895874 0.21545706689357758
0.98471748828887939 0.90864711999893188 0.20200133323669434
0.99758368730545044 0.90479326248168945 0.18631160259246826
0.99958401918411255 0.89971411228179932 0.16529467701911926
0.6052863597869873 0.96467792987823486 0.29543870687484741
0.6162763237953186 0.96515071392059326 0.2895568311214447
0.63646209239959717 0.96439266204833984 0.2865084707736969
0.66798198223114014 0.96313095092773438 0.28236639499664307
0.70627516508102417 0.96307235956192017 0.27791237831115723
0.74919521808624268 0.96048212051391602 0.27522021532058716
0.79549491405487061 0.96144169569015503 0.2712460458278656
0.84877824783325195 0.9634053111076355 0.26418775320053101
0.90081477165222168 0.95932459831237793 0.25648334622383118
0.95284885168075562 0.95748531818389893 0.24872742593288422
0.99120146036148071 0.95288395881652832 0.23727098107337952
0.99659109115600586 0.94949203729629517 0.22241850197315216
0.99956339597702026 0.95243483781814575 0.20675422251224518
0.013573485426604748 0.017556298524141312 0.035621613264083862
0.038140047341585159 0.013369930908083916 0.028722068294882774
0.086434051394462585 0.010075916536152363 0.025373721495270729
0.16209335625171661 0.011566012166440487 0.021272458136081696
0.25320005416870117 0.010368975810706615 0.013734346255660057
0.35748976469039917 0.0081698400899767876 0.0056014414876699448
0.47594663500785828 0.0086799170821905136 0.0051117241382598877
0.58971589803695679 0.0093257231637835503 0.0039314418099820614
0.68340742588043213 0.0093041211366653442 0.0040677241049706936
0.76350170373916626 0.0086107440292835236 0.0036059210542589426
0.835102379322052 0.0065642562694847584 0.0038050631992518902
0.90372759103775024 0.0037698782980442047 0.002391620771959424
0.96968907117843628 0.00066920259268954396 0.00085371430031955242
0.024773256853222847 0.053308658301830292 0.050481114536523819
0.052979622036218643 0.049915120005607605 0.046911559998989105
0.10083791613578796 0.045653801411390305 0.041386473923921585
0.17274440824985504 0.039667375385761261 0.034584268927574158
0.26505473256111145 0.035030379891395569 0.0251731276512146
0.37273648381233215 0.032003965228796005 0.014966807328164577
0.48524683713912964 0.025252338498830795 0.010019130073487759
0.59473335742950439 0.01876087486743927 0.0054249032400548458
0.68785512447357178 0.014980750158429146 0.004059900064021349
0.76660573482513428 0.012636670842766762 0.0015873180236667395
0.83774679899215698 0.01021575927734375 0.0031045651994645596
0.90723735094070435 0.0046518961898982525 0.0021531947422772646
0.96903824806213379 0.00075807760003954172 0.0011191723169758916
0.050242241472005844 0.12216918170452118 0.071314312517642975
0.07449842244386673 0.11873218417167664 0.067360088229179382
0.11842404305934906 0.11206451058387756 0.061083387583494186
0.1907697319984436 0.10652715712785721 0.053851064294576645
0.28580585122108459 0.10060019046068192 0.042330961674451828
0.39161783456802368 0.090060427784919739 0.02896137535572052
0.50283634662628174 0.078445032238960266 0.021253323182463646
0.60841149091720581 0.063295789062976837 0.011418106965720654
0.69735658168792725 0.050195313990116119 0.0057598338462412357
0.77374523878097534 0.036374319344758987 0.0024533439427614212
0.84550672769546509 0.024385593831539154 0.00095146027160808444
0.91363847255706787 0.012228572741150856 0.00077933515422046185
0.97488617897033691 0.0026119605172425508 0.00038842594949528575
0.071273252367973328 0.22334806621074677 0.099249519407749176
0.093432784080505371 0.21917285025119781 0.095253363251686096
0.13595372438430786 0.20938043296337128 0.088421016931533813
0.21039247512817383 0.20381426811218262 0.080055922269821167
0.31034636497497559 0.19974625110626221 0.0688948854804039
0.41445288062095642 0.18584746122360229 0.055996913462877274
0.5211111307144165 0.16826519370079041 0.044875483959913254
0.62591195106506348 0.15479227900505066 0.028905352577567101
0.7161673903465271 0.13531792163848877 0.017142083495855331
0.79022759199142456 0.11448859423398972 0.012001845054328442
0.85943037271499634 0.094474285840988159 0.0063404906541109085
0.92582863569259644 0.061729475855827332 0.0020901549141854048
0.9801909327507019 0.031867802143096924 1.7772001228877343e-05
0.039195086807012558 0.33770811557769775 0.12550534307956696
0.060155756771564484 0.33521220088005066 0.12115228921175003
0.11874938756227493 0.32903876900672913 0.11486180871725082
0.22474963963031769 0.32064446806907654 0.10623209178447723
0.3339180052280426 0.31540238857269287 0.096790388226509094
0.44148242473602295 0.30440524220466614 0.087557695806026459
0.54649078845977783 0.29002273082733154 0.075160041451454163
0.64970594644546509 0.27836441993713379 0.056733720004558563
0.73906499147415161 0.2588406503200531 0.041817594319581985
0.8119623064994812 0.23301757872104645 0.029692390933632851
0.88072234392166138 0.20470555126667023 0.018250588327646255
0.94576174020767212 0.17053830623626709 0.0094703072682023048
0.99037283658981323 0.12814851105213165 0.0050108218565583229
0.0046795862726867199 0.45741954445838928 0.147060826420784
0.03615984320640564 0.45621773600578308 0.14193455874919891
0.11987201124429703 0.44994929432868958 0.13646420836448669
0.24166005849838257 0.44240221381187439 0.12862370908260345
0.36153843998908997 0.43850976228713989 0.12061486393213272
0.47073650360107422 0.43082806468009949 0.11353582888841629
0.57446610927581787 0.4180881679058075 0.10037539899349213
0.67353206872940063 0.40875789523124695 0.085047222673892975
0.760581374168396 0.39371374249458313 0.072495944797992706
0.83463394641876221 0.37261554598808289 0.059827018529176712
0.90411508083343506 0.34934604167938232 0.04622713103890419
0.96615314483642578 0.31574538350105286 0.034164860844612122
0.99448949098587036 0.27686822414398193 0.024417009204626083
0.010590811260044575 0.56811422109603882 0.16330774128437042
0.042028449475765228 0.56910043954849243 0.1592024564743042
0.14112590253353119 0.56676143407821655 0.15550263226032257
0.26946160197257996 0.56192004680633545 0.14985744655132294
0.39067253470420837 0.55782407522201538 0.14048096537590027
0.50112664699554443 0.55049347877502441 0.13343138992786407
0.60501408576965332 0.54281222820281982 0.12086838483810425
0.69576102495193481 0.53391724824905396 0.11160052567720413
0.77674853801727295 0.52270066738128662 0.10080768167972565
0.85242515802383423 0.51101833581924438 0.090000525116920471
0.92131036520004272 0.48945909738540649 0.078005291521549225
0.98199993371963501 0.46965444087982178 0.06868869811296463
0.99807173013687134 0.43923631310462952 0.056006144732236862
0.052133478224277496 0.66182762384414673 0.18250362575054169
0.11541987210512161 0.65926778316497803 0.18081960082054138
0.20934881269931793 0.6580016016960144 0.17977224290370941
0.31858125329017639 0.65734046697616577 0.17514167726039886
0.43154621124267578 0.65410655736923218 0.16525149345397949
0.53636282682418823 0.64862501621246338 0.15167468786239624
0.6305968165397644 0.64107853174209595 0.14233087003231049
0.71439063549041748 0.63381075859069824 0.13523544371128082
0.79240155220031738 0.62856000661849976 0.12505428493022919
0.86568295955657959 0.62016361951828003 0.11376457661390305
0.93310731649398804 0.60507124662399292 0.10294647514820099
0.98622006177902222 0.58943307399749756 0.093909457325935364
0.99830782413482666 0.57455044984817505 0.085341662168502808
0.16893757879734039 0.73855018615722656 0.21316391229629517
0.22383172810077667 0.73493015766143799 0.21250611543655396
0.29553654789924622 0.73326098918914795 0.21094846725463867
0.38664475083351135 0.73307555913925171 0.20575867593288422
0.48647779226303101 0.73107022047042847 0.19534923136234283
0.57895535230636597 0.72853124141693115 0.18083098530769348
0.65810489654541016 0.72508889436721802 0.17099878191947937
0.73726809024810791 0.72101795673370361 0.1601104736328125
0.81066739559173584 0.71600198745727539 0.14784282445907593
0.88016045093536377 0.70835083723068237 0.13538935780525208
0.94604235887527466 0.70059108734130859 0.12517121434211731
0.99187833070755005 0.69112521409988403 0.11526636034250259
0.99833410978317261 0.67586320638656616 0.10763370245695114
0.29882380366325378 0.80594867467880249 0.24671289324760437
0.33067494630813599 0.8048744797706604 0.24417385458946228
0.38856199383735657 0.80257785320281982 0.2414497584104538
0.45685479044914246 0.80354815721511841 0.23673421144485474
0.53994941711425781 0.80018502473831177 0.22935926914215088
0.61737596988677979 0.7980690598487854 0.22138479351997375
0.68635338544845581 0.79634624719619751 0.21157708764076233
0.75981426239013672 0.79291790723800659 0.20058603584766388
0.82887184619903564 0.7884899377822876 0.1879766583442688
0.89304113388061523 0.78447562456130981 0.17670999467372894
0.95585769414901733 0.78037697076797485 0.16288360953330994
0.993580162525177 0.77244067192077637 0.14725445210933685
0.99926763772964478 0.76371479034423828 0.13239163160324097
0.41288924217224121 0.8703494668006897 0.28002643585205078
0.43257239460945129 0.87065821886062622 0.27723768353462219
0.47974225878715515 0.86638379096984863 0.27489092946052551
0.52951353788375854 0.86413401365280151 0.27155822515487671
0.58704757690429688 0.86492788791656494 0.26809769868850708
0.65181386470794678 0.86372774839401245 0.26043713092803955
0.71605956554412842 0.86363041400909424 0.2512718141078949
0.78044277429580688 0.86246949434280396 0.24193456768989563
0.84411895275115967 0.85813421010971069 0.2336711585521698
0.90511572360992432 0.85459643602371216 0.22699767351150513
0.96657681465148926 0.85086846351623535 0.21144543588161469
0.99521064758300781 0.84490257501602173 0.194804847240448
0.99931091070175171 0.84047836065292358 0.17800050973892212
0.50984358787536621 0.92382043600082397 0.30975359678268433
0.52207267284393311 0.92384856939315796 0.30742108821868896
0.55778074264526367 0.91968852281570435 0.30574098229408264
0.59768837690353394 0.91699427366256714 0.302835613489151
0.63966608047485352 0.91725736856460571 0.2983553409576416
0.69286853075027466 0.917868971824646 0.29405540227890015
0.75220263004302979 0.91875588893890381 0.28629317879676819
0.80951976776123047 0.91882944107055664 0.27808043360710144
0.86606937646865845 0.91461288928985596 0.27248135209083557
0.92344683408737183 0.91085410118103027 0.26635062694549561
0.97693252563476562 0.90740829706192017 0.25194936990737915
0.99518454074859619 0.90445625782012939 0.23879311978816986
0.99904292821884155 0.90072900056838989 0.22499574720859528
0.59217125177383423 0.96771776676177979 0.33289065957069397
0.60263335704803467 0.96705502271652222 0.33266487717628479
0.62865263223648071 0.96631705760955811 0.32978934049606323
0.65777122974395752 0.96353828907012939 0.32657378911972046
0.69557613134384155 0.96357917785644531 0.32282432913780212
0.73681479692459106 0.96254438161849976 0.32241743803024292
0.78598999977111816 0.96280908584594727 0.31661579012870789
0.84085339307785034 0.96352332830429077 0.30811178684234619
0.8928719162940979 0.95784074068069458 0.30107033252716064
0.94172215461730957 0.95269578695297241 0.29751154780387878
0.98291337490081787 0.94793742895126343 0.28896093368530273
0.99516171216964722 0.94598168134689331 0.27340152859687805
0.99888306856155396 0.95214605331420898 0.26052737236022949
0.007932041771709919 0.013224269263446331 0.06812555342912674
0.031299859285354614 0.010296421125531197 0.064677156507968903
0.078201323747634888 0.0087115718051791191 0.059595804661512375
0.14844478666782379 0.0078209973871707916 0.050575211644172668
0.23840229213237762 0.0058336444199085236 0.041524983942508698
0.34674721956253052 0.0051723853684961796 0.028901208192110062
0.4632570743560791 0.0037778217811137438 0.019242649897933006
0.57598406076431274 0.0025297575630247593 0.011446919292211533
0.67300927639007568 0.0038774528075009584 0.0081521729007363319
0.75458502769470215 0.00352629111148417 0.0041216532699763775
0.82748067378997803 0.0021875717211514711 0.005963014904409647
0.89783096313476562 0.00046310425386764109 0.0057236314751207829
0.9648672342300415 0 0.0031171762384474277
0.018575360998511314 0.047737479209899902 0.090241707861423492
0.043486829847097397 0.044335354119539261 0.085322484374046326
0.092090219259262085 0.040636714547872543 0.080486565828323364
0.16236929595470428 0.03510633111000061 0.072762429714202881
0.25384083390235901 0.030745547264814377 0.062221001833677292
0.35969448089599609 0.025925610214471817 0.046406149864196777
0.47239279747009277 0.020167885348200798 0.033707652240991592
0.58383679389953613 0.011922873556613922 0.019001230597496033
0.67898905277252197 0.0092085143551230431 0.013723365962505341
0.75867617130279541 0.0072920406237244606 0.0067736608907580376
0.83096730709075928 0.0044857696630060673 0.0050267386250197887
0.90070760250091553 0.0013984530232846737 0.0071558333002030849
0.9616473913192749 2.5670668037491851e-05 0.0052298600785434246
0.040858834981918335 0.1187589019536972 0.11564616858959198
0.062600530683994293 0.11438582092523575 0.11037369072437286
0.10728825628757477 0.10515585541725159 0.10299523919820786
0.18114127218723297 0.099494293332099915 0.095638766884803772
0.27729728817939758 0.093847401440143585 0.086977563798427582
0.38104110956192017 0.080824233591556549 0.067844301462173462
0.49109384417533875 0.069438040256500244 0.054533325135707855
0.59876996278762817 0.05535188689827919 0.036848045885562897
0.6883665919303894 0.043449386954307556 0.024931110441684723
0.76723223924636841 0.029731405898928642 0.014730894938111305
0.83861875534057617 0.018556602299213409 0.007956785149872303
0.90621596574783325 0.0091971606016159058 0.0060452776961028576
0.96686458587646484 0.0023168826010078192 0.0047529633156955242
0.062223784625530243 0.2168644517660141 0.14190937578678131
0.082324892282485962 0.21400995552539825 0.13824759423732758
0.12652537226676941 0.20278662443161011 0.1318964809179306
0.19900870323181152 0.19314393401145935 0.12291046977043152
0.29891893267631531 0.18473900854587555 0.11352486908435822
0.4045579731464386 0.17270068824291229 0.09737098217010498
0.51111817359924316 0.15822583436965942 0.084018930792808533
0.61700236797332764 0.14266981184482574 0.064559459686279297
0.70539319515228271 0.12348203361034393 0.049514934420585632
0.78202205896377563 0.10215707123279572 0.035852156579494476
0.85168415307998657 0.078677460551261902 0.023379860445857048
0.91822987794876099 0.051253598183393478 0.013492509722709656
0.97657555341720581 0.025805005803704262 0.0064111296087503433
0.038647551089525223 0.32973453402519226 0.16844427585601807
0.053780723363161087 0.32822233438491821 0.16416500508785248
0.10485050082206726 0.32462817430496216 0.16077437996864319
0.20803545415401459 0.31512665748596191 0.15457585453987122
