luts/negative_color/agfa_vista_200.cube
# Created by: G'MIC (https://gmic.eu)
TITLE "agfa_vista_200"
# LUT size
LUT_3D_SIZE 7
# Data domain
DOMAIN_MIN 0.0 0.0 0.0
DOMAIN_MAX 1.0 1.0 1.0
# LUT data points
0.017169682309031487 0.01687641441822052 0.013846707530319691
0.095151655375957489 0.013369317166507244 0.0084635121747851372
0.26476076245307922 0.014103444293141365 0.0019069297704845667
0.48590520024299622 0.013707194477319717 0.0014546562451869249
0.69643265008926392 0.013933608308434486 0.0011630787048488855
0.84157180786132812 0.0098420986905694008 0
0.96898007392883301 0.0018933913670480251 0
0.058185577392578125 0.13208393752574921 0.044890191406011581
0.12596882879734039 0.12234559655189514 0.035451162606477737
0.29537078738212585 0.11079531162977219 0.024550627917051315
0.5096772313117981 0.084374956786632538 0.0060024484992027283
0.70429092645645142 0.053004290908575058 0.00047945507685653865
0.85142523050308228 0.026557113975286484 0
0.97567307949066162 0.0059472774155437946 0
0.041894502937793732 0.34501641988754272 0.095620565116405487
0.12883599102497101 0.33267733454704285 0.085624024271965027
0.34152618050575256 0.31814810633659363 0.064943902194499969
0.55621391534805298 0.29752755165100098 0.042159121483564377
0.74382251501083374 0.26331350207328796 0.018578354269266129
0.88588929176330566 0.2103852778673172 0.0075177662074565887
0.99197888374328613 0.13346482813358307 0.0020929074380546808
0.015882380306720734 0.57035690546035767 0.13029970228672028
0.15771980583667755 0.56800276041030884 0.1250356137752533
0.39839693903923035 0.55688750743865967 0.11027140915393829
0.61058402061462402 0.54360401630401611 0.089791238307952881
0.78404223918914795 0.52373224496841431 0.068978987634181976
0.92909318208694458 0.49194508790969849 0.048225834965705872
0.99675941467285156 0.44525405764579773 0.029881659895181656
0.1980750560760498 0.73789823055267334 0.16674366593360901
0.31419128179550171 0.73134249448776245 0.16274590790271759
0.48994156718254089 0.73242491483688354 0.14459079504013062
0.66664528846740723 0.72448790073394775 0.12347211688756943
0.81765621900558472 0.71551483869552612 0.10882065445184708
0.95118129253387451 0.69782334566116333 0.092861577868461609
0.99911248683929443 0.67914414405822754 0.077512525022029877
0.43227049708366394 0.86814683675765991 0.23778229951858521
0.489187091588974 0.86641663312911987 0.22769120335578918
0.59845763444900513 0.86603736877441406 0.21665959060192108
0.72455793619155884 0.86357450485229492 0.20347042381763458
0.85313713550567627 0.85672628879547119 0.17958049476146698
0.97412168979644775 0.84851753711700439 0.15189658105373383
0.99984633922576904 0.83884817361831665 0.1138053759932518
0.6052863597869873 0.96467792987823486 0.29543870687484741
0.63646209239959717 0.96439266204833984 0.2865084707736969
0.70627516508102417 0.96307235956192017 0.27791237831115723
0.79549491405487061 0.96144169569015503 0.2712460458278656
0.90081477165222168 0.95932459831237793 0.25648334622383118
0.99120146036148071 0.95288395881652832 0.23727098107337952
0.99956339597702026 0.95243483781814575 0.20675422251224518
0.007932041771709919 0.013224269263446331 0.06812555342912674
0.078201323747634888 0.0087115718051791191 0.059595804661512375
0.23840229213237762 0.0058336444199085236 0.041524983942508698
0.4632570743560791 0.0037778217811137438 0.019242649897933006
0.67300927639007568 0.0038774528075009584 0.0081521729007363319
0.82748067378997803 0.0021875717211514711 0.005963014904409647
0.9648672342300415 0 0.0031171762384474277
0.040858834981918335 0.1187589019536972 0.11564616858959198
0.10728825628757477 0.10515585541725159 0.10299523919820786
0.27729728817939758 0.093847401440143585 0.086977563798427582
0.49109384417533875 0.069438040256500244 0.054533325135707855
0.6883665919303894 0.043449386954307556 0.024931110441684723
0.83861875534057617 0.018556602299213409 0.007956785149872303
0.96686458587646484 0.0023168826010078192 0.0047529633156955242
0.038647551089525223 0.32973453402519226 0.16844427585601807
0.10485050082206726 0.32462817430496216 0.16077437996864319
0.31893491744995117 0.30549505352973938 0.14493978023529053
0.53474563360214233 0.2811533510684967 0.11636219173669815
0.72533339262008667 0.24822680652141571 0.089012324810028076
0.87108105421066284 0.19640906155109406 0.057747665792703629
0.98773074150085449 0.11419142037630081 0.024899860844016075
0.0055849114432930946 0.56096887588500977 0.22375765442848206
0.11615472286939621 0.56398212909698486 0.21582196652889252
0.37291175127029419 0.55428558588027954 0.20340223610401154
0.59037560224533081 0.5393606424331665 0.1767546683549881
0.76148980855941772 0.5165945291519165 0.16000182926654816
0.90858727693557739 0.48252308368682861 0.13186319172382355
0.99672621488571167 0.43668380379676819 0.10899777710437775
0.12620255351066589 0.7391781210899353 0.28311923146247864
0.26911035180091858 0.73580008745193481 0.28005287051200867
0.46666783094406128 0.72943472862243652 0.27060061693191528
0.64483696222305298 0.72006392478942871 0.24635109305381775
0.79682916402816772 0.7090415358543396 0.22360578179359436
0.93295502662658691 0.69585001468658447 0.20115596055984497
0.99533224105834961 0.67638105154037476 0.1773219108581543
0.37380596995353699 0.86839449405670166 0.34840548038482666
0.45494106411933899 0.86865419149398804 0.34575960040092468
0.57252466678619385 0.86674654483795166 0.33122473955154419
0.70198303461074829 0.86218082904815674 0.31888628005981445
0.82955586910247803 0.85680490732192993 0.30598700046539307
0.95335358381271362 0.85080540180206299 0.28861239552497864
0.99624752998352051 0.84065443277359009 0.26554924249649048
0.56601214408874512 0.96533912420272827 0.39970880746841431
0.6123930811882019 0.96592986583709717 0.39318081736564636
0.6791611909866333 0.96633058786392212 0.38688391447067261
0.77353090047836304 0.9654659628868103 0.3795415461063385
0.87973886728286743 0.95869404077529907 0.36621582508087158
0.97806328535079956 0.95574122667312622 0.35723429918289185
0.99825358390808105 0.9544253945350647 0.3365652859210968
0.0026870279107242823 0.010008509270846844 0.18079282343387604
0.052639756351709366 0.0072105708532035351 0.17068403959274292
0.21573379635810852 0.0045516965910792351 0.15457001328468323
0.44239610433578491 0.0034335267264395952 0.12668682634830475
0.65307199954986572 0.001881139469332993 0.09590478241443634
0.81036281585693359 0.00033193849958479404 0.070245452225208282
0.94996762275695801 0 0.045410290360450745
0.020408645272254944 0.094674095511436462 0.23715013265609741
0.078499764204025269 0.087976343929767609 0.23020690679550171
0.24504731595516205 0.072948038578033447 0.21329808235168457
0.46151271462440491 0.052618496119976044 0.18900145590305328
0.66103595495223999 0.029569214209914207 0.15582440793514252
0.81260573863983154 0.011892909184098244 0.12707877159118652
0.94502401351928711 0.0023518879897892475 0.10176249593496323
0.031719718128442764 0.31030255556106567 0.31207141280174255
0.081365741789340973 0.30418577790260315 0.30577009916305542
0.27871614694595337 0.29156920313835144 0.28862214088439941
0.50028878450393677 0.26342782378196716 0.26477685570716858
0.69296407699584961 0.22124782204627991 0.23322650790214539
0.83863604068756104 0.16687043011188507 0.20504955947399139
0.96332424879074097 0.091322876513004303 0.17384877800941467
0.0040993485599756241 0.55004775524139404 0.38427260518074036
0.043436489999294281 0.55614989995956421 0.37948516011238098
0.31386089324951172 0.54371887445449829 0.36564621329307556
0.55303448438644409 0.53137421607971191 0.34333562850952148
0.73372900485992432 0.50657147169113159 0.32208839058876038
0.8771827220916748 0.47648003697395325 0.30190068483352661
0.99021178483963013 0.42064347863197327 0.27248901128768921
0.032380707561969757 0.73285484313964844 0.44934484362602234
0.17074118554592133 0.73502868413925171 0.44740110635757446
0.40512546896934509 0.72699105739593506 0.43398785591125488
0.60412365198135376 0.71822673082351685 0.41348960995674133
0.76165157556533813 0.70437467098236084 0.39485469460487366
0.89937734603881836 0.68858104944229126 0.37810739874839783
0.9912111759185791 0.67216050624847412 0.36636701226234436
0.29609248042106628 0.87076312303543091 0.50941634178161621
0.38693267107009888 0.87128740549087524 0.50744771957397461
0.52386337518692017 0.86643195152282715 0.49377885460853577
0.65933841466903687 0.86443543434143066 0.48487487435340881
0.79378098249435425 0.85646963119506836 0.47253343462944031
0.92053002119064331 0.84760838747024536 0.4563906192779541
0.9913628101348877 0.83436739444732666 0.44511395692825317
0.51781159639358521 0.97022974491119385 0.55275845527648926
0.5580323338508606 0.97058737277984619 0.55035555362701416
0.63494414091110229 0.97021591663360596 0.54297912120819092
0.73147058486938477 0.96419191360473633 0.53309386968612671
0.84259968996047974 0.96683669090270996 0.52270090579986572
0.9571223258972168 0.96440285444259644 0.512623131275177
0.9973415732383728 0.95999038219451904 0.50447869300842285
0.00057534611551091075 0.0061165755614638329 0.34223893284797668
0.019882410764694214 0.0036375457420945168 0.33578726649284363
0.17575255036354065 0.00091709807747974992 0.31924152374267578
0.40915006399154663 0.0034921683836728334 0.29820570349693298
0.62347739934921265 0.0021973554976284504 0.26748669147491455
0.77934044599533081 0.00095054775010794401 0.24747973680496216
0.92029380798339844 0 0.22442810237407684
0.0049237869679927826 0.071389049291610718 0.4008098840713501
0.03388812392950058 0.060752090066671371 0.3961702287197113
0.19980141520500183 0.050818469375371933 0.38144582509994507
0.42118486762046814 0.033168807625770569 0.35618665814399719
0.62422138452529907 0.01976795494556427 0.33026066422462463
0.77897971868515015 0.0077841663733124733 0.30878564715385437
0.9049217700958252 0.0041254977695643902 0.28470677137374878
0.019021457061171532 0.27610886096954346 0.47922810912132263
0.063458509743213654 0.26625663042068481 0.47251355648040771
0.23203720152378082 0.25068232417106628 0.46039626002311707
0.45848762989044189 0.22090634703636169 0.43229407072067261
0.65207916498184204 0.18158355355262756 0.40562322735786438
0.80229467153549194 0.12984316051006317 0.37879058718681335
0.92770516872406006 0.063581712543964386 0.3516974151134491
0.00021829044271726161 0.53842979669570923 0.55738574266433716
0.0072080874815583229 0.53686738014221191 0.55143177509307861
0.24866645038127899 0.52330344915390015 0.53424477577209473
0.51146364212036133 0.50628721714019775 0.51404440402984619
0.69566124677658081 0.48491320013999939 0.49475941061973572
0.84314841032028198 0.44810879230499268 0.47364521026611328
0.97013717889785767 0.38262787461280823 0.44859826564788818
0.0055931690149009228 0.72833281755447388 0.61209011077880859
0.050971012562513351 0.72835737466812134 0.61194145679473877
0.33725747466087341 0.72166091203689575 0.5962710976600647
0.5594906210899353 0.71200799942016602 0.57835894823074341
0.72148525714874268 0.7020154595375061 0.56185638904571533
0.86613637208938599 0.68180221319198608 0.54685300588607788
0.98493349552154541 0.65921664237976074 0.5329400897026062
0.19054093956947327 0.87499403953552246 0.66142749786376953
0.31358259916305542 0.87078982591629028 0.65351194143295288
0.47055554389953613 0.8662344217300415 0.64471197128295898
0.61777657270431519 0.86383438110351562 0.63378876447677612
0.75799781084060669 0.85809975862503052 0.61997348070144653
0.89027386903762817 0.84753513336181641 0.60633039474487305
0.99328124523162842 0.83651578426361084 0.59550231695175171
0.46591973304748535 0.97426104545593262 0.6862066388130188
0.50626218318939209 0.96986180543899536 0.68057489395141602
0.59010767936706543 0.97261440753936768 0.6802370548248291
0.6958547830581665 0.96788918972015381 0.66779643297195435
0.81004828214645386 0.97058051824569702 0.65879219770431519
0.92519640922546387 0.96650844812393188 0.64760494232177734
0.99621188640594482 0.96176350116729736 0.63778650760650635
0 0.0036301705986261368 0.50700414180755615
0.0066024628467857838 0.0025098314508795738 0.50719338655471802
0.12650451064109802 6.4086911152116954e-05 0.49182972311973572
0.3578009307384491 0 0.46589779853820801
0.57927185297012329 0 0.43731421232223511
0.74601072072982788 0 0.42719319462776184
0.87789970636367798 0 0.40396970510482788
0 0.036848194897174835 0.55981332063674927
0.0090703330934047699 0.033213507384061813 0.55846101045608521
0.14502836763858795 0.027585003525018692 0.53779464960098267
0.37687602639198303 0.015419425442814827 0.51316624879837036
0.582652747631073 0.005025915801525116 0.49025684595108032
0.74265372753143311 0.0036870620679110289 0.47225868701934814
0.87894463539123535 0.00060574401868507266 0.45161813497543335
0.0024163490161299706 0.21663115918636322 0.62366020679473877
0.037102360278367996 0.20690497756004333 0.61849582195281982
0.19052577018737793 0.19025428593158722 0.60188639163970947
0.42049786448478699 0.15843769907951355 0.5759960412979126
0.61494076251983643 0.12080664187669754 0.54464280605316162
0.762947678565979 0.076092787086963654 0.52216541767120361
0.89096444845199585 0.027734778821468353 0.49803805351257324
0 0.49474266171455383 0.69086313247680664
0.0047150258906185627 0.50113570690155029 0.68633931875228882
0.19335204362869263 0.48862555623054504 0.67210298776626587
0.47466689348220825 0.46459493041038513 0.64569741487503052
0.65855008363723755 0.43669608235359192 0.62168985605239868
0.81085598468780518 0.39994531869888306 0.60502541065216064
0.94049102067947388 0.32567635178565979 0.57951545715332031
0.0025739632546901703 0.70333737134933472 0.73779404163360596
0.0099579757079482079 0.71204227209091187 0.73812687397003174
0.26809883117675781 0.71086424589157104 0.72410094738006592
0.51705610752105713 0.70073515176773071 0.70631867647171021
0.68813192844390869 0.6866685152053833 0.68722611665725708
0.8373715877532959 0.6654784083366394 0.6711774468421936
0.96811151504516602 0.63360905647277832 0.6550905704498291
0.073763705790042877 0.87077081203460693 0.78042346239089966
0.20949308574199677 0.86893767118453979 0.77513980865478516
0.40956127643585205 0.86334073543548584 0.76397258043289185
0.57333207130432129 0.8539961576461792 0.7506445050239563
0.72250831127166748 0.8473394513130188 0.7365526556968689
0.86123484373092651 0.84627455472946167 0.72701114416122437
0.97702419757843018 0.83087867498397827 0.71316927671432495
0.40849956870079041 0.97804003953933716 0.8055528998374939
0.44413822889328003 0.97201776504516602 0.79762184619903564
0.54407238960266113 0.97400295734405518 0.79517120122909546
0.65757590532302856 0.9702918529510498 0.78680843114852905
0.78047335147857666 0.96916937828063965 0.77759021520614624
0.89748454093933105 0.96988844871520996 0.76813465356826782
0.990134596824646 0.96217352151870728 0.75821882486343384
0 0.0017202788731083274 0.64914512634277344
0.0062331552617251873 8.5269704868551344e-05 0.64420682191848755
0.074430115520954132 0 0.63608759641647339
0.32854273915290833 0 0.60118681192398071
0.54911965131759644 6.7677217884920537e-05 0.57615906000137329
0.71612060070037842 0 0.56061053276062012
0.86047416925430298 0 0.54105323553085327
0 0.01259822491556406 0.68558061122894287
0.003238677978515625 0.010287400335073471 0.68049472570419312
0.086493536829948425 0.0041422527283430099 0.66621190309524536
0.33955726027488708 0.0041519165970385075 0.63876283168792725
0.5495607852935791 0.0070548411458730698 0.61287444829940796
0.71765053272247314 0.0031644634436815977 0.59267264604568481
0.85318928956985474 0 0.57422387599945068
0 0.1355292797088623 0.73383194208145142
0.011440920643508434 0.12541621923446655 0.72889131307601929
0.13892941176891327 0.10849945992231369 0.71069318056106567
0.37804019451141357 0.087848350405693054 0.68287581205368042
0.57785427570343018 0.053749144077301025 0.65608328580856323
0.72897469997406006 0.02334950678050518 0.63445144891738892
0.86064392328262329 0.0055342582054436207 0.61247044801712036
0 0.44252565503120422 0.8004152774810791
0.0034358005505055189 0.44179511070251465 0.79575961828231812
0.15138688683509827 0.42661654949188232 0.77854627370834351
0.43795353174209595 0.39731037616729736 0.75323963165283203
0.63061928749084473 0.36723566055297852 0.7286946177482605
0.7781258225440979 0.31578466296195984 0.70747464895248413
0.90604454278945923 0.22618937492370605 0.6809920072555542
3.7219477235339582e-05 0.68843573331832886 0.85079479217529297
0.0040138843469321728 0.68396615982055664 0.84624612331390381
0.19466736912727356 0.68277347087860107 0.83300703763961792
0.48208943009376526 0.67064893245697021 0.81320172548294067
0.66005849838256836 0.65047329664230347 0.79607242345809937
0.81354993581771851 0.62826597690582275 0.7793155312538147
0.947357177734375 0.59617143869400024 0.76229286193847656
0.011308063752949238 0.85872137546539307 0.88962799310684204
0.084515079855918884 0.85971212387084961 0.88514447212219238
0.34554970264434814 0.8534662127494812 0.87413883209228516
0.5337100625038147 0.84520888328552246 0.86089920997619629
0.6920962929725647 0.83341866731643677 0.84743857383728027
0.8372381329536438 0.82892012596130371 0.83457714319229126
0.9579232931137085 0.81180292367935181 0.81870967149734497
0.31950405240058899 0.97814971208572388 0.91616004705429077
0.38126325607299805 0.97713732719421387 0.91241657733917236
0.49043995141983032 0.97561585903167725 0.90669745206832886
0.61604219675064087 0.97327208518981934 0.89825588464736938
0.74347198009490967 0.96685695648193359 0.88531184196472168
0.87050503492355347 0.96706515550613403 0.87548947334289551
0.97615593671798706 0.96565884351730347 0.86674195528030396
0 0 0.77010589838027954
0.0037064496427774429 0 0.75982141494750977
0.031077666208148003 0 0.74868786334991455
0.2864869236946106 0 0.71620255708694458
0.51691454648971558 0 0.691142737865448
0.69203662872314453 0 0.67265182733535767
0.83260244131088257 0 0.65367996692657471
0 0.0048049776814877987 0.79088670015335083
0 0.0015265820547938347 0.78660893440246582
0.035064950585365295 1.4361213288793806e-05 0.77651309967041016
0.28750330209732056 0.0014404446119442582 0.74511784315109253
0.51374608278274536 0.0012461942387744784 0.7160724401473999
0.69046437740325928 0 0.69549167156219482
0.83320361375808716 0 0.68369156122207642
0 0.043785065412521362 0.83020031452178955
0.0019957749173045158 0.042798358947038651 0.82289093732833862
0.07527904212474823 0.027324317023158073 0.80805832147598267
0.32211920619010925 0.0199153833091259 0.77992761135101318
0.5339505672454834 0.0094331474974751472 0.75278729200363159
0.69564926624298096 0.0049449545331299305 0.73285472393035889
0.83497786521911621 0.00060344021767377853 0.71635681390762329
0 0.32747867703437805 0.89443540573120117
0.0073886346071958542 0.32029569149017334 0.88689905405044556
0.12578786909580231 0.30152833461761475 0.86814433336257935
0.39731773734092712 0.27299806475639343 0.8406299352645874
0.58991563320159912 0.22659328579902649 0.81514477729797363
0.73685026168823242 0.16722461581230164 0.79027318954467773
0.86465293169021606 0.082633137702941895 0.76343148946762085
0 0.63433569669723511 0.94942724704742432
0.0015197753673419356 0.63392430543899536 0.94167172908782959
0.11019343882799149 0.63340121507644653 0.92896193265914917
0.43885767459869385 0.61090123653411865 0.90930640697479248
0.62698101997375488 0.59384655952453613 0.8890388011932373
0.78707361221313477 0.56545174121856689 0.87185359001159668
0.9233696460723877 0.50772303342819214 0.84977877140045166
0.0018238441552966833 0.83479505777359009 0.97722572088241577
0.0089285755529999733 0.83825117349624634 0.97766381502151489
0.24063768982887268 0.83060550689697266 0.968799889087677
0.48400339484214783 0.82230585813522339 0.95607227087020874
0.65857279300689697 0.81161081790924072 0.94078385829925537
0.80857175588607788 0.79669392108917236 0.92582494020462036
0.94296556711196899 0.77669024467468262 0.90845143795013428
0.14839234948158264 0.97657901048660278 0.99794852733612061
0.25831466913223267 0.97469180822372437 0.99605494737625122
0.40840283036231995 0.97101855278015137 0.98918479681015015
0.55811285972595215 0.96867328882217407 0.986625075340271
0.70071530342102051 0.9645073413848877 0.97468024492263794
0.83963572978973389 0.96276575326919556 0.96789318323135376
0.96167236566543579 0.95675128698348999 0.95991027355194092
