luts/negative_color/fuji_superia_200.cube
# Created by: G'MIC (https://gmic.eu)
TITLE "fuji_superia_200"
# LUT size
LUT_3D_SIZE 7
# Data domain
DOMAIN_MIN 0.0 0.0 0.0
DOMAIN_MAX 1.0 1.0 1.0
# LUT data points
0.031278900802135468 0.032790374010801315 0.027503009885549545
0.13543280959129333 0.01607869379222393 0.010311141610145569
0.29504042863845825 0.0037871864624321461 0.0018917756387963891
0.46422326564788818 0.00027429917827248573 0
0.61203140020370483 1.8669577912078239e-05 0
0.71352928876876831 0 0
0.78341418504714966 0 0
0.10569044947624207 0.20952467620372772 0.089189238846302032
0.19044724106788635 0.18217524886131287 0.059391021728515625
0.35462388396263123 0.12257440388202667 0.011012552306056023
0.51931124925613403 0.054831679910421371 0.00085272698197513819
0.65739649534225464 0.010774918831884861 0
0.74454355239868164 0.00079402548726648092 0
0.79145246744155884 0.00085331039736047387 0
0.10490288585424423 0.44558635354042053 0.15672130882740021
0.25556012988090515 0.41907548904418945 0.12334724515676498
0.43067800998687744 0.37120804190635681 0.066262997686862946
0.59984254837036133 0.3189447820186615 0.017356617376208305
0.73491984605789185 0.23872749507427216 0.0037360098212957382
0.81327742338180542 0.14642240107059479 0.0031672159675508738
0.85698932409286499 0.034438952803611755 0.0010476803872734308
0.23424223065376282 0.64752054214477539 0.17077741026878357
0.3575584888458252 0.63264966011047363 0.14422449469566345
0.51148825883865356 0.59693652391433716 0.10742254555225372
0.67819231748580933 0.5626223087310791 0.064554758369922638
0.81194841861724854 0.51602637767791748 0.034259121865034103
0.89836549758911133 0.46454989910125732 0.037143439054489136
0.95709490776062012 0.37954196333885193 0.054621394723653793
0.41731396317481995 0.78333765268325806 0.11741151660680771
0.48608487844467163 0.77519357204437256 0.10990986227989197
0.60747367143630981 0.75232285261154175 0.08010324090719223
0.75414371490478516 0.71832168102264404 0.056698579341173172
0.86893194913864136 0.69413888454437256 0.051190409809350967
0.95432054996490479 0.66334205865859985 0.064190030097961426
0.99428969621658325 0.61643898487091064 0.099009692668914795
0.58060157299041748 0.88446927070617676 0.018300898373126984
0.63770520687103271 0.87588047981262207 0.018891502171754837
0.73191624879837036 0.85985875129699707 0.020372159779071808
0.83658409118652344 0.83951795101165771 0.020595191046595573
0.933460533618927 0.81639766693115234 0.020595595240592957
0.99528026580810547 0.79726302623748779 0.029410103335976601
1 0.77190005779266357 0.068668603897094727
0.74786001443862915 0.97818362712860107 0
0.78030157089233398 0.97177565097808838 0
0.85504984855651855 0.965736985206604 5.4572610679315403e-05
0.94187271595001221 0.95576882362365723 0.0021880206186324358
0.99431723356246948 0.93794816732406616 1.7233456674148329e-05
1 0.91983771324157715 0.0038369570393115282
1 0.89493489265441895 0.0073892329819500446
0.020723754540085793 0.034200511872768402 0.14584565162658691
0.11924365162849426 0.019526507705450058 0.11094602942466736
0.28084823489189148 0.0035609225742518902 0.038934729993343353
0.44433152675628662 0.0003079283342231065 0.01129443570971489
0.58290702104568481 0 0.0042051877826452255
0.67790466547012329 0 0.0026443481910973787
0.75357788801193237 0 0.0021442188881337643
0.091756351292133331 0.20718446373939514 0.21482031047344208
0.17452529072761536 0.17636358737945557 0.17976328730583191
0.34163722395896912 0.12380038946866989 0.10793907195329666
0.49630081653594971 0.056739851832389832 0.044585015624761581
0.62614566087722778 0.010040552355349064 0.012033050879836082
0.7067144513130188 0.0021817823871970177 0.0061467639170587063
0.76124078035354614 0.00011488970631035045 0.0061972076073288918
0.081073805689811707 0.44540855288505554 0.28017407655715942
0.23272630572319031 0.41435366868972778 0.24728204309940338
0.41068485379219055 0.3770897388458252 0.19239851832389832
0.5720716118812561 0.3163890540599823 0.13530534505844116
0.70230388641357422 0.24029158055782318 0.089444957673549652
0.78570866584777832 0.15142233669757843 0.060874700546264648
0.82680040597915649 0.037846464663743973 0.046292249113321304
0.20293737947940826 0.6477658748626709 0.30707502365112305
0.32945206761360168 0.6240113377571106 0.28417965769767761
0.48708805441856384 0.59903538227081299 0.24139465391635895
0.64740633964538574 0.56065112352371216 0.19628927111625671
0.77865982055664062 0.51581794023513794 0.16704878211021423
0.86696577072143555 0.46798208355903625 0.15826228260993958
0.93022942543029785 0.38014331459999084 0.16527007520198822
0.37669157981872559 0.78390252590179443 0.28432720899581909
0.45156198740005493 0.77265548706054688 0.27272942662239075
0.58346176147460938 0.75427234172821045 0.22954648733139038
0.72360777854919434 0.72652828693389893 0.19103449583053589
0.83475714921951294 0.69673711061477661 0.18105912208557129
0.91987484693527222 0.66901618242263794 0.19393010437488556
0.98330402374267578 0.62611657381057739 0.2211422324180603
0.55490571260452271 0.88638949394226074 0.16183781623840332
0.60889977216720581 0.87830126285552979 0.14145766198635101
0.70612800121307373 0.86565732955932617 0.11806721240282059
0.81032997369766235 0.84583526849746704 0.1043432205915451
0.90025103092193604 0.82436513900756836 0.11799979209899902
0.97404021024703979 0.80273723602294922 0.15028345584869385
0.99837851524353027 0.77527332305908203 0.21859197318553925
0.74235326051712036 0.97868859767913818 0.0066490024328231812
0.77417802810668945 0.97517114877700806 0.0040162778459489346
0.84328842163085938 0.96896636486053467 0.0036855959333479404
0.93006742000579834 0.95905786752700806 0.0021035736426711082
0.98670250177383423 0.9403146505355835 0.004055666271597147
1 0.92167586088180542 0.0070546166971325874
1 0.90002226829528809 0.033348441123962402
0.011193683370947838 0.037235349416732788 0.32706126570701599
0.099201202392578125 0.014033972285687923 0.27986186742782593
0.26027765870094299 0.0045891255140304565 0.21075919270515442
0.4203849732875824 0.00076087500201538205 0.14862315356731415
0.5448647141456604 0 0.09171682596206665
0.64322555065155029 0 0.068737223744392395
0.72123271226882935 0 0.072112798690795898
0.061921391636133194 0.20823448896408081 0.39529258012771606
0.14833968877792358 0.17440633475780487 0.35323396325111389
0.31487703323364258 0.11910256743431091 0.28806722164154053
0.46536046266555786 0.053534816950559616 0.21664120256900787
0.59082686901092529 0.0089990207925438881 0.15592773258686066
0.66997432708740234 0.0034587187692523003 0.12485912442207336
0.72516167163848877 0.00034125833190046251 0.095860213041305542
0.049598183482885361 0.44411957263946533 0.46582311391830444
0.19856972992420197 0.41675198078155518 0.42673209309577942
0.38234752416610718 0.37775155901908875 0.37609145045280457
0.54116588830947876 0.3182508647441864 0.31528750061988831
0.66387832164764404 0.24073423445224762 0.26090243458747864
0.74367266893386841 0.147515669465065 0.22331683337688446
0.79262882471084595 0.038068883121013641 0.18966482579708099
0.13917386531829834 0.65006476640701294 0.50670719146728516
0.28414145112037659 0.62160331010818481 0.47923007607460022
0.44497412443161011 0.60819751024246216 0.44596162438392639
0.6107056736946106 0.57041245698928833 0.39488309621810913
0.73223674297332764 0.51852929592132568 0.35429894924163818
0.82240158319473267 0.46683481335639954 0.33553031086921692
0.89335179328918457 0.38533630967140198 0.32163572311401367
0.31756889820098877 0.78829717636108398 0.5120471715927124
0.3983103334903717 0.77898538112640381 0.49856868386268616
0.53113067150115967 0.7591472864151001 0.46571347117424011
0.66609048843383789 0.7304387092590332 0.43018630146980286
0.78038507699966431 0.70170754194259644 0.4106174111366272
0.87234020233154297 0.67006790637969971 0.39824378490447998
0.9488910436630249 0.62755608558654785 0.39852899312973022
0.48656246066093445 0.89065349102020264 0.47490036487579346
0.54207366704940796 0.88539880514144897 0.46212941408157349
0.63492435216903687 0.87026351690292358 0.43889832496643066
0.7396196722984314 0.85295683145523071 0.41531336307525635
0.83430624008178711 0.83355569839477539 0.41143402457237244
0.91984540224075317 0.81079751253128052 0.40260225534439087
0.98527580499649048 0.78150105476379395 0.41380128264427185
0.68720865249633789 0.9880639910697937 0.22558625042438507
0.72032886743545532 0.98515349626541138 0.21718741953372955
0.78180068731307983 0.97813123464584351 0.20930065214633942
0.85687434673309326 0.9676632285118103 0.20722675323486328
0.93300753831863403 0.95394009351730347 0.22292415797710419
0.98805087804794312 0.93744337558746338 0.25405800342559814
0.99994540214538574 0.91566592454910278 0.32594668865203857
0.0045593110844492912 0.032365463674068451 0.48945879936218262
0.085882402956485748 0.013633713126182556 0.43824058771133423
0.24605825543403625 0.0064921509474515915 0.37589314579963684
0.39392486214637756 0.0026038524229079485 0.30486252903938293
0.51660168170928955 0.00013535443576984107 0.25184476375579834
0.610889732837677 0 0.22264713048934937
0.69342029094696045 0 0.20848332345485687
0.054930668324232101 0.19651380181312561 0.55609357357025146
0.14489033818244934 0.15777349472045898 0.50755441188812256
0.29774758219718933 0.10891395807266235 0.44802594184875488
0.44098412990570068 0.045400343835353851 0.37475210428237915
0.55597716569900513 0.0069557041861116886 0.3160325288772583
0.632892906665802 0.0031374464742839336 0.26960203051567078
0.69384849071502686 0 0.23465354740619659
0.049308478832244873 0.4350142776966095 0.6300235390663147
0.19691531360149384 0.40920385718345642 0.59233111143112183
0.36670434474945068 0.37016171216964722 0.54223769903182983
0.51855093240737915 0.31134161353111267 0.4761718213558197
0.62895882129669189 0.23678244650363922 0.42408347129821777
0.70395684242248535 0.15189322829246521 0.37568631768226624
0.75719231367111206 0.028594791889190674 0.31887674331665039
0.11728077381849289 0.64726370573043823 0.68346810340881348
0.26234972476959229 0.63735413551330566 0.6585688591003418
0.42374604940414429 0.60900628566741943 0.61967211961746216
0.57655197381973267 0.57028526067733765 0.57082223892211914
0.69637483358383179 0.52314633131027222 0.52796739339828491
0.78831213712692261 0.47343155741691589 0.49492496252059937
0.85980713367462158 0.38173344731330872 0.4567682147026062
0.28617367148399353 0.79112464189529419 0.70572686195373535
0.3709036111831665 0.78131282329559326 0.68423199653625488
0.49901148676872253 0.76233804225921631 0.65602308511734009
0.63055706024169922 0.73519116640090942 0.6168864369392395
0.73843634128570557 0.70826399326324463 0.58799248933792114
0.83464199304580688 0.67247164249420166 0.55807209014892578
0.91341423988342285 0.63241350650787354 0.53885501623153687
0.44228759407997131 0.89448028802871704 0.68820691108703613
0.49450457096099854 0.88856613636016846 0.68367564678192139
0.58455187082290649 0.87678158283233643 0.66146683692932129
0.68546873331069946 0.85849845409393311 0.63204693794250488
0.78370660543441772 0.84006756544113159 0.61086142063140869
0.87352126836776733 0.81664139032363892 0.59306937456130981
0.95899432897567749 0.78316414356231689 0.58069503307342529
0.59093523025512695 0.99209451675415039 0.61125719547271729
0.62357455492019653 0.98946988582611084 0.60376304388046265
0.68583095073699951 0.9844670295715332 0.588512122631073
0.75860822200775146 0.97379016876220703 0.58131247758865356
0.84629219770431519 0.96458059549331665 0.56553059816360474
0.92985552549362183 0.94856178760528564 0.56018131971359253
0.99160647392272949 0.92705023288726807 0.5563167929649353
0.0084719639271497726 0.02429618127644062 0.63707894086837769
0.10140790790319443 0.008374800905585289 0.56980699300765991
0.24318641424179077 0.0038710799999535084 0.50213277339935303
0.3816131055355072 0.0023410723078995943 0.44129094481468201
0.49123945832252502 0 0.38485017418861389
0.58518606424331665 0 0.3444797694683075
0.67042738199234009 0 0.31742504239082336
0.074762500822544098 0.17072723805904388 0.67700076103210449
0.16742458939552307 0.13604390621185303 0.63169270753860474
0.30031818151473999 0.087710604071617126 0.57051795721054077
0.42668738961219788 0.03009471483528614 0.50250434875488281
0.52847278118133545 0.005686142947524786 0.44068196415901184
0.60582464933395386 0.0020042420364916325 0.38867989182472229
0.67177462577819824 0 0.34200611710548401
0.10549463331699371 0.41740542650222778 0.74478042125701904
0.22735971212387085 0.39156770706176758 0.70945805311203003
0.37184533476829529 0.35476553440093994 0.66330909729003906
0.50206893682479858 0.30230417847633362 0.60457462072372437
0.60822606086730957 0.22610172629356384 0.54403448104858398
0.67845720052719116 0.12446381896734238 0.4858456552028656
0.72838234901428223 0.021022781729698181 0.42036622762680054
0.18584500253200531 0.63720732927322388 0.79884040355682373
0.29400324821472168 0.62689489126205444 0.77812284231185913
0.43081912398338318 0.59786140918731689 0.73790735006332397
0.56649374961853027 0.56118041276931763 0.69034343957901001
0.67755389213562012 0.51930350065231323 0.64574640989303589
0.76229125261306763 0.46378323435783386 0.60455310344696045
0.83199131488800049 0.36786702275276184 0.55491530895233154
0.32937657833099365 0.78434479236602783 0.82316941022872925
0.39060458540916443 0.77782154083251953 0.80929756164550781
0.49991732835769653 0.75608736276626587 0.77522623538970947
0.61611014604568481 0.73034369945526123 0.74085444211959839
0.71570861339569092 0.70838844776153564 0.7116132378578186
0.80720061063766479 0.67435026168823242 0.67823559045791626
0.89262348413467407 0.63126063346862793 0.6453738808631897
0.45145615935325623 0.89345884323120117 0.81865966320037842
0.49512270092964172 0.88788843154907227 0.81484675407409668
0.57101345062255859 0.8756670355796814 0.79929095506668091
0.66351217031478882 0.857124924659729 0.77119803428649902
0.7555544376373291 0.84239619970321655 0.744148850440979
0.84871500730514526 0.82160842418670654 0.71123790740966797
0.93190944194793701 0.78574866056442261 0.68834525346755981
0.55517750978469849 0.99173158407211304 0.81427919864654541
0.58035504817962646 0.99092197418212891 0.81059211492538452
0.63347840309143066 0.9870607852935791 0.79545766115188599
0.71632093191146851 0.97103971242904663 0.77044838666915894
0.79840075969696045 0.96671551465988159 0.74843692779541016
0.89150893688201904 0.95682734251022339 0.71794766187667847
0.97599285840988159 0.93429338932037354 0.70413655042648315
0.021000253036618233 0.011262661777436733 0.71359908580780029
0.13338176906108856 0.0051632001996040344 0.64760863780975342
0.26389166712760925 0.0010849896352738142 0.586445152759552
0.3855631947517395 0.00029374664882197976 0.53010952472686768
0.4812408983707428 0 0.48349457979202271
0.57097595930099487 0 0.44536033272743225
0.65386098623275757 0 0.408458411693573
0.11411897093057632 0.13148804008960724 0.74527287483215332
0.20686957240104675 0.10176978260278702 0.70539766550064087
0.31775635480880737 0.055621068924665451 0.64982026815414429
0.42755642533302307 0.015522990375757217 0.58673620223999023
0.51495051383972168 0.0048897834494709969 0.53020870685577393
0.5853583812713623 0.00060767377726733685 0.47466149926185608
0.65428721904754639 0 0.43206852674484253
0.20668742060661316 0.37595763802528381 0.80682873725891113
0.28796085715293884 0.35741397738456726 0.78151208162307739
0.40291786193847656 0.32342588901519775 0.73770403861999512
0.50875049829483032 0.26579132676124573 0.68137443065643311
0.59290558099746704 0.18936538696289062 0.62427359819412231
0.65741932392120361 0.088454574346542358 0.56464219093322754
0.7040104866027832 0.011841658502817154 0.49762830138206482
0.29188254475593567 0.61728024482727051 0.87017369270324707
0.35717332363128662 0.60417300462722778 0.85069006681442261
0.46421542763710022 0.57820993661880493 0.81437200307846069
0.57262921333312988 0.549457848072052 0.77447032928466797
0.66763734817504883 0.50346630811691284 0.73284363746643066
0.7474246621131897 0.44985300302505493 0.68984699249267578
0.81556445360183716 0.34979438781738281 0.63529181480407715
0.39187532663345337 0.77135002613067627 0.90244507789611816
0.4402519166469574 0.76183903217315674 0.88510584831237793
0.52943390607833862 0.74418306350708008 0.86111831665039062
0.61924701929092407 0.72459352016448975 0.83196675777435303
0.70760464668273926 0.69834017753601074 0.79937416315078735
0.79168105125427246 0.66384094953536987 0.76335269212722778
0.86887508630752563 0.61950170993804932 0.72928369045257568
0.48112726211547852 0.88940423727035522 0.91865831613540649
0.51573854684829712 0.88471478223800659 0.91201221942901611
0.58546179533004761 0.87038284540176392 0.89284056425094604
0.66297703981399536 0.86040204763412476 0.87127292156219482
0.74259322881698608 0.84308135509490967 0.84550046920776367
0.82915937900543213 0.82240837812423706 0.81462937593460083
0.91077125072479248 0.79089808464050293 0.78959208726882935
0.55986154079437256 0.99017453193664551 0.93708771467208862
0.58548581600189209 0.98805898427963257 0.93133628368377686
0.63627028465270996 0.98703551292419434 0.91732847690582275
0.70147645473480225 0.98177480697631836 0.89941620826721191
0.77364194393157959 0.97322916984558105 0.87838560342788696
0.86189645528793335 0.96445333957672119 0.85114437341690063
0.96062159538269043 0.94122052192687988 0.82231748104095459
0.07039228081703186 0.0017714407294988632 0.75471252202987671
0.18415045738220215 0.0025188073050230742 0.70017540454864502
0.29417639970779419 0.0015310848830267787 0.6499030590057373
0.38997960090637207 1.4002182979311328e-05 0.59952807426452637
0.48054817318916321 0 0.55282139778137207
0.56125390529632568 0 0.51658087968826294
0.64196109771728516 0 0.48517727851867676
0.19028277695178986 0.077759578824043274 0.78120404481887817
0.25894692540168762 0.052399728447198868 0.7469666600227356
0.34663024544715881 0.021498421207070351 0.69735521078109741
0.43544256687164307 0.0085679749026894569 0.64725691080093384
0.50760835409164429 0.005656522698700428 0.59313637018203735
0.5715821385383606 0.00075287162326276302 0.54207438230514526
0.63747906684875488 0 0.50278723239898682
0.29734566807746887 0.32438197731971741 0.84205996990203857
0.35085761547088623 0.3067983090877533 0.82090693712234497
0.43632331490516663 0.27712228894233704 0.78608697652816772
0.51697081327438354 0.21771834790706635 0.73660153150558472
0.58294641971588135 0.14584222435951233 0.68412297964096069
0.63820368051528931 0.053511839359998703 0.62782818078994751
0.68091773986816406 0.0062151439487934113 0.56113690137863159
0.39363306760787964 0.58606916666030884 0.91407942771911621
0.4297788143157959 0.57287043333053589 0.90102958679199219
0.50464826822280884 0.55494976043701172 0.8753160834312439
0.58794987201690674 0.52544909715652466 0.83748722076416016
0.66878408193588257 0.48438775539398193 0.80231791734695435
0.73698943853378296 0.42136600613594055 0.75831937789916992
0.79469311237335205 0.31207934021949768 0.69995379447937012
0.46577796339988708 0.7509734034538269 0.96097570657730103
0.49846938252449036 0.7435535192489624 0.94681239128112793
0.56189537048339844 0.7353399395942688 0.93158978223800659
0.63423585891723633 0.71708887815475464 0.90672552585601807
0.70918643474578857 0.68852216005325317 0.87667417526245117
0.78397810459136963 0.65521502494812012 0.84318488836288452
0.85947436094284058 0.61558789014816284 0.8108019232749939
0.52915948629379272 0.87912112474441528 0.98324680328369141
0.5597151517868042 0.87391752004623413 0.98104274272918701
0.60830795764923096 0.86478155851364136 0.9737471342086792
0.67282748222351074 0.85082316398620605 0.95455068349838257
0.74001151323318481 0.83524924516677856 0.93256634473800659
0.8183789849281311 0.81519198417663574 0.90572017431259155
0.90035301446914673 0.78095954656600952 0.87117898464202881
0.5900733470916748 0.9859384298324585 0.99540764093399048
0.6199876070022583 0.98018902540206909 0.99633926153182983
0.65168476104736328 0.98346811532974243 0.99314415454864502
0.70568621158599854 0.976723313331604 0.99220991134643555
0.77267718315124512 0.96853727102279663 0.98065304756164551
0.84826785326004028 0.96060675382614136 0.96053421497344971
0.94465857744216919 0.94120579957962036 0.94015133380889893
