luts/negative_color/fuji_superia_200.cube
# Created by: G'MIC (https://gmic.eu)
TITLE "fuji_superia_200"
# LUT size
LUT_3D_SIZE 13
# Data domain
DOMAIN_MIN 0.0 0.0 0.0
DOMAIN_MAX 1.0 1.0 1.0
# LUT data points
0.031278900802135468 0.032790374010801315 0.027503009885549545
0.074763491749763489 0.025314271450042725 0.017977172508835793
0.13543280959129333 0.01607869379222393 0.010311141610145569
0.20992867648601532 0.0091825593262910843 0.0055260602384805679
0.29504042863845825 0.0037871864624321461 0.0018917756387963891
0.38095614314079285 0.0002034205972449854 4.6673943870700896e-05
0.46422326564788818 0.00027429917827248573 0
0.54294556379318237 0.00044934143079444766 0
0.61203140020370483 1.8669577912078239e-05 0
0.67520374059677124 0 0
0.71352928876876831 0 0
0.74914896488189697 0 0
0.78341418504714966 0 0
0.070729367434978485 0.10765799880027771 0.052239540964365005
0.1042906641960144 0.093488581478595734 0.038234036415815353
0.16345000267028809 0.077924646437168121 0.028514517471194267
0.23914438486099243 0.056457877159118652 0.015297804027795792
0.32132166624069214 0.033538684248924255 0.0031243716366589069
0.40660563111305237 0.01582254096865654 0.00010905546514550224
0.48914036154747009 0.0050946553237736225 0
0.56408500671386719 0.0036682577338069677 0
0.63160353899002075 0.0038221769500523806 0
0.68930286169052124 0.0018604203360155225 0
0.72457981109619141 0 0
0.75299882888793945 0 0
0.78592556715011597 0 0
0.10569044947624207 0.20952467620372772 0.089189238846302032
0.13155902922153473 0.19736705720424652 0.074761301279067993
0.19044724106788635 0.18217524886131287 0.059391021728515625
0.27168262004852295 0.15331834554672241 0.035110145807266235
0.35462388396263123 0.12257440388202667 0.011012552306056023
0.4380856454372406 0.091757051646709442 0.0024592231493443251
0.51931124925613403 0.054831679910421371 0.00085272698197513819
0.59114885330200195 0.026674456894397736 1.2566061741381418e-05
0.65739649534225464 0.010774918831884861 0
0.71074444055557251 0.0035590825136750937 0
0.74454355239868164 0.00079402548726648092 0
0.76858872175216675 0.0016369539080187678 0
0.79145246744155884 0.00085331039736047387 0
0.092139884829521179 0.33114638924598694 0.12903168797492981
0.13899385929107666 0.32129254937171936 0.1171259731054306
0.21893154084682465 0.30238941311836243 0.093028128147125244
0.30812945961952209 0.27492475509643555 0.063163489103317261
0.39445546269416809 0.24785046279430389 0.032812725752592087
0.47948381304740906 0.21485164761543274 0.0125261340290308
0.55831164121627808 0.18054254353046417 0.0056753568351268768
0.62832969427108765 0.13367807865142822 0.001928486512042582
0.6902461051940918 0.090102255344390869 0.00049604527885094285
0.74044066667556763 0.048892587423324585 0.00048418232472613454
0.77202999591827393 0.024930033832788467 5.466236689244397e-05
0.79967725276947021 0.010128260590136051 0
0.81759387254714966 0.0045440825633704662 0
0.10490288585424423 0.44558635354042053 0.15672130882740021
0.16669435799121857 0.43712085485458374 0.14530886709690094
0.25556012988090515 0.41907548904418945 0.12334724515676498
0.34513396024703979 0.39304670691490173 0.094003848731517792
0.43067800998687744 0.37120804190635681 0.066262997686862946
0.51769369840621948 0.35035049915313721 0.03763275220990181
0.59984254837036133 0.3189447820186615 0.017356617376208305
0.67210769653320312 0.28020748496055603 0.010238213464617729
0.73491984605789185 0.23872749507427216 0.0037360098212957382
0.78366661071777344 0.19741962850093842 0.0036097806878387928
0.81327742338180542 0.14642240107059479 0.0031672159675508738
0.83839797973632812 0.087145589292049408 0.0017312591662630439
0.85698932409286499 0.034438952803611755 0.0010476803872734308
0.15316286683082581 0.5531725287437439 0.17129658162593842
0.21913017332553864 0.54545527696609497 0.15977504849433899
0.30091050267219543 0.53353750705718994 0.14272616803646088
0.3853144645690918 0.51491677761077881 0.11914541572332382
0.46780145168304443 0.49069753289222717 0.095344856381416321
0.5533490777015686 0.46990132331848145 0.068827338516712189
0.63855350017547607 0.44593262672424316 0.043046358972787857
0.7166593074798584 0.41860315203666687 0.023749317973852158
0.77735030651092529 0.387266606092453 0.014198392629623413
0.82438772916793823 0.35402226448059082 0.013172553852200508
0.85972285270690918 0.31367394328117371 0.01405181922018528
0.88753968477249146 0.26111674308776855 0.011882931925356388
0.90923082828521729 0.19996379315853119 0.015534389764070511
0.23424223065376282 0.64752054214477539 0.17077741026878357
0.28784054517745972 0.64059436321258545 0.1591496616601944
0.3575584888458252 0.63264966011047363 0.14422449469566345
0.43244406580924988 0.61791491508483887 0.12466167658567429
0.51148825883865356 0.59693652391433716 0.10742254555225372
0.59570735692977905 0.58158808946609497 0.086980901658535004
0.67819231748580933 0.5626223087310791 0.064554758369922638
0.75337105989456177 0.53831863403320312 0.044966336339712143
0.81194841861724854 0.51602637767791748 0.034259121865034103
0.85821467638015747 0.49233829975128174 0.034878000617027283
0.89836549758911133 0.46454989910125732 0.037143439054489136
0.93131381273269653 0.42584505677223206 0.043491661548614502
0.95709490776062012 0.37954196333885193 0.054621394723653793
0.32911673188209534 0.72055047750473022 0.1529940664768219
0.37124386429786682 0.71569532155990601 0.14373765885829926
0.4209536612033844 0.71183639764785767 0.13150681555271149
0.48520609736442566 0.70218050479888916 0.114063560962677
0.5579342246055603 0.68488770723342896 0.098610565066337585
0.63804292678833008 0.66721785068511963 0.082303032279014587
0.71638315916061401 0.6509554386138916 0.067079462110996246
0.7853996753692627 0.63456892967224121 0.056123096495866776
0.84005457162857056 0.61442512273788452 0.05006776750087738
0.88483595848083496 0.59481608867645264 0.051780611276626587
0.92765706777572632 0.57577288150787354 0.056828070431947708
0.95998489856719971 0.54660719633102417 0.069399379193782806
0.98632979393005371 0.51600486040115356 0.087554648518562317
0.41731396317481995 0.78333765268325806 0.11741151660680771
0.44784343242645264 0.7798275351524353 0.11445718258619308
0.48608487844467163 0.77519357204437256 0.10990986227989197
0.54478287696838379 0.76526802778244019 0.092351309955120087
0.60747367143630981 0.75232285261154175 0.08010324090719223
0.68244612216949463 0.73509311676025391 0.068521387875080109
0.75414371490478516 0.71832168102264404 0.056698579341173172
0.81353771686553955 0.70460563898086548 0.05137982964515686
0.86893194913864136 0.69413888454437256 0.051190409809350967
0.91251826286315918 0.67966866493225098 0.057171165943145752
0.95432054996490479 0.66334205865859985 0.064190030097961426
0.98224347829818726 0.63974875211715698 0.078560739755630493
0.99428969621658325 0.61643898487091064 0.099009692668914795
0.4955785870552063 0.8382449746131897 0.06704026460647583
0.52162104845046997 0.83501905202865601 0.067628584802150726
0.55863654613494873 0.82939255237579346 0.067187197506427765
0.61069899797439575 0.81965655088424683 0.054669354110956192
0.66920143365859985 0.80749225616455078 0.051259525120258331
0.73600053787231445 0.79659515619277954 0.044418022036552429
0.79331308603286743 0.78185564279556274 0.03992798924446106
0.847217857837677 0.76686006784439087 0.036169283092021942
0.89847773313522339 0.75516438484191895 0.036808028817176819
0.94235116243362427 0.74546903371810913 0.043192695826292038
0.97957861423492432 0.73279321193695068 0.053175803273916245
0.99622195959091187 0.71785277128219604 0.070336990058422089
0.99956643581390381 0.70179849863052368 0.096163637936115265
0.58060157299041748 0.88446927070617676 0.018300898373126984
0.60284411907196045 0.88015931844711304 0.02319914847612381
0.63770520687103271 0.87588047981262207 0.018891502171754837
0.67961537837982178 0.86984699964523315 0.016313455998897552
0.73191624879837036 0.85985875129699707 0.020372159779071808
0.78773432970046997 0.85018086433410645 0.021228894591331482
0.83658409118652344 0.83951795101165771 0.020595191046595573
0.88504898548126221 0.82787072658538818 0.019609054550528526
0.933460533618927 0.81639766693115234 0.020595595240592957
0.97329223155975342 0.80695784091949463 0.022841000929474831
0.99528026580810547 0.79726302623748779 0.029410103335976601
0.99904036521911621 0.78368937969207764 0.046146854758262634
1 0.77190005779266357 0.068668603897094727
0.6672661304473877 0.93022274971008301 0.0018678702181205153
0.68675857782363892 0.925761878490448 0.0033198187593370676
0.71206659078598022 0.92259865999221802 0.0016389734810218215
0.74610549211502075 0.91802436113357544 0.0014874028274789453
0.79390484094619751 0.91027790307998657 0.0048639033921062946
0.84497946500778198 0.90279883146286011 0.0082132229581475258
0.88875871896743774 0.89650404453277588 0.0090538924559950829
0.93212324380874634 0.88812506198883057 0.0077651077881455421
0.97516894340515137 0.87533688545227051 0.0052986443042755127
0.99290114641189575 0.86796975135803223 0.0079407040029764175
0.99801439046859741 0.85966837406158447 0.012373486533761024
1 0.84633743762969971 0.019583249464631081
1 0.83482962846755981 0.030613694339990616
0.74786001443862915 0.97818362712860107 0
0.76061922311782837 0.97475790977478027 0
0.78030157089233398 0.97177565097808838 0
0.81093013286590576 0.96867775917053223 0
0.85504984855651855 0.965736985206604 5.4572610679315403e-05
0.89977407455444336 0.96051973104476929 0.0010569554287940264
0.94187271595001221 0.95576882362365723 0.0021880206186324358
0.97845333814620972 0.94820547103881836 0.0015100815799087286
0.99431723356246948 0.93794816732406616 1.7233456674148329e-05
0.99879390001296997 0.93069761991500854 0.0018079271540045738
1 0.91983771324157715 0.0038369570393115282
1 0.90828388929367065 0.0045773223973810673
1 0.89493489265441895 0.0073892329819500446
0.026123629882931709 0.031256940215826035 0.07693665474653244
0.06648748368024826 0.025459544733166695 0.060601342469453812
0.12666177749633789 0.018132751807570457 0.044642191380262375
0.20724759995937347 0.0094616161659359932 0.020947864279150963
0.29257854819297791 0.0034651812165975571 0.0071679507382214069
0.37555333971977234 0.00022185083071235567 0.0011482388945296407
0.45734906196594238 0.00085326551925390959 0.0030040366109460592
0.53286242485046387 0.00033030789927579463 0.0035979477688670158
0.59638941287994385 0 0.0024172912817448378
0.65346044301986694 0 0.0016510607674717903
0.69714105129241943 0 0.0015581018524244428
0.73495781421661377 0 0.0028118807822465897
0.76784640550613403 0 0.00085527007468044758
0.06632937490940094 0.10895209014415741 0.11241500079631805
0.097214236855506897 0.092186510562896729 0.09471072256565094
0.1558883935213089 0.07577177882194519 0.07361101359128952
0.23514318466186523 0.052750874310731888 0.041461106389760971
0.31777474284172058 0.029379481449723244 0.014550153166055679
0.39927411079406738 0.013795455917716026 0.0034728255122900009
0.48024070262908936 0.0083245076239109039 0.00295282993465662
0.55552428960800171 0.0041900184005498886 0.0026199340354651213
0.61775606870651245 0.0023758681491017342 0.0030499177519232035
0.66982012987136841 0.00062978407368063927 0.00293731689453125
0.70767205953598022 0 0.0028910317923873663
0.73895853757858276 0 0.0025456447619944811
0.76813238859176636 0 0.001812474918551743
0.10187389701604843 0.20777414739131927 0.14362019300460815
0.12876707315444946 0.19626305997371674 0.13085077702999115
0.1832101047039032 0.17725467681884766 0.1061396598815918
0.26656919717788696 0.14941148459911346 0.071591667830944061
0.35077604651451111 0.11941664665937424 0.038593951612710953
0.43182417750358582 0.087238892912864685 0.014995066449046135
0.51037752628326416 0.056067150086164474 0.0049921972677111626
0.58489334583282471 0.02632700651884079 0.0023252749815583229
0.64512407779693604 0.011421383358538151 0.0024614371359348297
0.69262701272964478 0.0040641785599291325 0.0025380603037774563
0.72798353433609009 0.0029076968785375357 0.0025514790322631598
0.75487935543060303 0.0027172612026333809 0.0029534583445638418
0.77635973691940308 0.00047622382408007979 0.0013704337179660797
0.086716853082180023 0.33005490899085999 0.17710877954959869
0.13470946252346039 0.31911516189575195 0.16641344130039215
0.21313188970088959 0.30059784650802612 0.14369037747383118
0.30146908760070801 0.27626022696495056 0.11286887526512146
0.38701930642127991 0.24506303668022156 0.080797113478183746
0.47010990977287292 0.21410971879959106 0.049183521419763565
0.55036240816116333 0.18149682879447937 0.025051087141036987
0.62337625026702881 0.13974592089653015 0.010279711335897446
0.68051737546920776 0.096436820924282074 0.0066500646062195301
0.72330731153488159 0.055330388247966766 0.0062201856635510921
0.75829440355300903 0.025777494534850121 0.0014992657816037536
0.78544187545776367 0.010767035186290741 0.0026524860877543688
0.80477613210678101 0.0047726649791002274 0.0030278223566710949
0.10211864113807678 0.44499191641807556 0.20373058319091797
0.161981001496315 0.43490433692932129 0.19211491942405701
0.25025102496147156 0.41872337460517883 0.17058007419109344
0.3379518985748291 0.3986542820930481 0.14443744719028473
0.42327061295509338 0.3737887442111969 0.11793408542871475
0.50933182239532471 0.34932008385658264 0.086922168731689453
0.58955752849578857 0.31812533736228943 0.059354789555072784
0.6657833456993103 0.28350919485092163 0.035441979765892029
0.72362548112869263 0.24254795908927917 0.024126762524247169
0.76887989044189453 0.20002980530261993 0.018293658271431923
0.80214148759841919 0.1492607444524765 0.012962386012077332
0.82661467790603638 0.088887237012386322 0.010186737403273582
0.84427320957183838 0.035183761268854141 0.0090017132461071014
0.14700010418891907 0.55039584636688232 0.21837440133094788
0.21519814431667328 0.54135620594024658 0.20766542851924896
0.29478520154953003 0.53240418434143066 0.18936651945114136
0.37813633680343628 0.51654362678527832 0.16407337784767151
0.4620768129825592 0.49439594149589539 0.14274267852306366
0.54631835222244263 0.47229045629501343 0.11864721029996872
0.62648868560791016 0.44332772493362427 0.095178984105587006
0.70470547676086426 0.41687795519828796 0.069584593176841736
0.76291346549987793 0.38551071286201477 0.057740334421396255
0.80971759557723999 0.35384893417358398 0.049492210149765015
0.84700626134872437 0.31640797853469849 0.047034155577421188
0.87639808654785156 0.26434111595153809 0.04614194855093956
0.89700806140899658 0.19613221287727356 0.047100994735956192
0.23055741190910339 0.64736747741699219 0.21998369693756104
0.28397157788276672 0.63716524839401245 0.21041540801525116
0.35226011276245117 0.62841004133224487 0.19410504400730133
0.42565169930458069 0.6186254620552063 0.17191265523433685
0.5064195990562439 0.60037195682525635 0.15195603668689728
0.58663386106491089 0.58204799890518188 0.13356944918632507
0.66472792625427246 0.55924522876739502 0.11718986183404922
0.74038028717041016 0.53994041681289673 0.095308206975460052
0.79716438055038452 0.51649856567382812 0.086655698716640472
0.84345299005508423 0.49272739887237549 0.083347409963607788
0.88343775272369385 0.46417343616485596 0.085017785429954529
0.91956841945648193 0.42857992649078369 0.090898312628269196
0.94701266288757324 0.37753593921661377 0.097463585436344147
0.31824150681495667 0.72187429666519165 0.20894800126552582
0.35566258430480957 0.71375507116317749 0.19890445470809937
0.41055980324745178 0.7058565616607666 0.18485541641712189
0.47851473093032837 0.70033210515975952 0.16334828734397888
0.55130672454833984 0.68452215194702148 0.14407207071781158
0.62840360403060913 0.66368812322616577 0.12852151691913605
0.70312416553497314 0.65166747570037842 0.11703939735889435
0.77120262384414673 0.63612222671508789 0.10430486500263214
0.82554411888122559 0.61724632978439331 0.098948217928409576
0.87012243270874023 0.59856629371643066 0.10171951353549957
0.91221177577972412 0.57675075531005859 0.10541452467441559
0.94930022954940796 0.55036139488220215 0.11581133306026459
0.97818619012832642 0.52259516716003418 0.12961108982563019
0.40375083684921265 0.78476250171661377 0.1816103458404541
0.43301147222518921 0.7796396017074585 0.17437267303466797
0.47432419657707214 0.77342879772186279 0.16168805956840515
0.53741902112960815 0.76527529954910278 0.13940100371837616
0.60189628601074219 0.75284826755523682 0.12115421891212463
0.67390137910842896 0.73695975542068481 0.10846297442913055
0.74298149347305298 0.72311782836914062 0.09958406537771225
0.8018723726272583 0.70923727750778198 0.09456055611371994
0.85440391302108765 0.69608521461486816 0.093680165708065033
0.89835983514785767 0.68232512474060059 0.10164228081703186
0.94029903411865234 0.66648972034454346 0.10934476554393768
0.97482389211654663 0.64243149757385254 0.12191615253686905
0.99048858880996704 0.6239134669303894 0.13701894879341125
0.48526635766029358 0.83780032396316528 0.13021713495254517
0.51056903600692749 0.8337935209274292 0.12122245877981186
0.54857331514358521 0.8288995623588562 0.11162982881069183
0.60189282894134521 0.82093513011932373 0.090391315519809723
0.6609300971031189 0.8102421760559082 0.079592414200305939
0.72497737407684326 0.79897314310073853 0.075861446559429169
0.78357499837875366 0.78533035516738892 0.071801953017711639
0.83693182468414307 0.77085381746292114 0.070421956479549408
0.88606089353561401 0.7590324878692627 0.07415974885225296
0.92711430788040161 0.74753814935684204 0.084576748311519623
0.96580702066421509 0.73594748973846436 0.095404967665672302
0.99201518297195435 0.72039687633514404 0.11454560607671738
0.99755585193634033 0.70784473419189453 0.13656190037727356
0.57357829809188843 0.88647305965423584 0.041361581534147263
0.59596526622772217 0.88115757703781128 0.040768131613731384
0.62887799739837646 0.87652283906936646 0.039538979530334473
0.67160272598266602 0.87113213539123535 0.031680192798376083
0.72531312704086304 0.86245673894882202 0.031098952516913414
0.7804340124130249 0.85308593511581421 0.031696468591690063
0.8312758207321167 0.84243285655975342 0.031839154660701752
0.87965971231460571 0.83042579889297485 0.032408185303211212
0.92490917444229126 0.8197866678237915 0.038448482751846313
0.95907676219940186 0.80856454372406006 0.051900211721658707
0.98739391565322876 0.79944097995758057 0.061118464916944504
0.99631023406982422 0.78488367795944214 0.08244679868221283
0.99945282936096191 0.77244150638580322 0.11748261004686356
0.66226017475128174 0.93191325664520264 0.0040189856663346291
0.67673605680465698 0.92809027433395386 0.0036747052799910307
0.70412355661392212 0.92404288053512573 0.0050250631757080555
0.74240630865097046 0.91915673017501831 0.0053827175870537758
0.78766649961471558 0.91320627927780151 0.0042408062145113945
0.83554291725158691 0.90584796667098999 0.0071287867613136768
0.88257360458374023 0.89821839332580566 0.0087860105559229851
0.92597538232803345 0.88808327913284302 0.0080023966729640961
0.96611350774765015 0.8776436448097229 0.0085164234042167664
0.99068522453308105 0.86897921562194824 0.013328821398317814
0.99832397699356079 0.85904520750045776 0.018001018092036247
1 0.8466188907623291 0.030798818916082382
1 0.8342176079750061 0.057894419878721237
0.74602818489074707 0.97818928956985474 0.00096164777642115951
0.75441873073577881 0.97444206476211548 0.0020875968039035797
0.77889180183410645 0.97418290376663208 0.0008564968011341989
0.81154423952102661 0.97179388999938965 0.00085215846775099635
0.84905815124511719 0.96644788980484009 0.00054943608120083809
0.8951340913772583 0.96197491884231567 0.00089904188644140959
0.94123834371566772 0.95642107725143433 0.0019624298438429832
0.97499018907546997 0.94643110036849976 0.0010999791556969285
0.99347156286239624 0.93759804964065552 0.00011812098091468215
0.99944853782653809 0.93142330646514893 0.0013790205121040344
1 0.9199899435043335 0.0039680479094386101
1 0.90880078077316284 0.0045436783693730831
1 0.89573246240615845 0.0081156715750694275
0.020723754540085793 0.034200511872768402 0.14584565162658691
0.056060329079627991 0.026531683281064034 0.13239757716655731
0.11924365162849426 0.019526507705450058 0.11094602942466736
0.19917359948158264 0.013715616427361965 0.075813904404640198
0.28084823489189148 0.0035609225742518902 0.038934729993343353
0.36422076821327209 0.00068941304925829172 0.020675944164395332
0.44433152675628662 0.0003079283342231065 0.01129443570971489
0.51870423555374146 0 0.0068950727581977844
0.58290702104568481 0 0.0042051877826452255
0.63395673036575317 0 0.0033132815733551979
0.67790466547012329 0 0.0026443481910973787
0.71744078397750854 0 0.0045648464001715183
0.75357788801193237 0 0.0021442188881337643
0.057114992290735245 0.10938651859760284 0.18227477371692657
0.08609173446893692 0.092414453625679016 0.16568322479724884
0.14714354276657104 0.07394815981388092 0.14080512523651123
0.22681845724582672 0.05406685546040535 0.10710886120796204
0.30912652611732483 0.030745098367333412 0.067509837448596954
0.38829317688941956 0.013354522176086903 0.039071265608072281
0.46670976281166077 0.0054235421121120453 0.020380984991788864
0.53873294591903687 0.0012147941160947084 0.0087907677516341209
0.60061120986938477 5.1984599849674851e-05 0.0085325203835964203
0.64752471446990967 2.9620002806041157e-06 0.0062117334455251694
0.68833965063095093 0 0.0030480627901852131
0.72174900770187378 0 0.0076248170807957649
0.75322204828262329 0 0.0060869106091558933
0.091756351292133331 0.20718446373939514 0.21482031047344208
0.11634974926710129 0.19560724496841431 0.20382776856422424
0.17452529072761536 0.17636358737945557 0.17976328730583191
0.25829797983169556 0.15148302912712097 0.14419232308864594
0.34163722395896912 0.12380038946866989 0.10793907195329666
0.4198630154132843 0.089863784611225128 0.074852615594863892
0.49630081653594971 0.056739851832389832 0.044585015624761581
0.56822532415390015 0.025127081200480461 0.021473992615938187
0.62614566087722778 0.010040552355349064 0.012033050879836082
0.67094016075134277 0.002242982154712081 0.0082429321482777596
0.7067144513130188 0.0021817823871970177 0.0061467639170587063
0.73671382665634155 0.0018581465119495988 0.011047333478927612
0.76124078035354614 0.00011488970631035045 0.0061972076073288918
0.074389651417732239 0.33012163639068604 0.2515673041343689
0.12011236697435379 0.3183368444442749 0.24279029667377472
0.2015252411365509 0.29932177066802979 0.21848365664482117
0.2921048104763031 0.27937382459640503 0.1843961775302887
0.37538176774978638 0.25001120567321777 0.15240120887756348
0.45549583435058594 0.21572396159172058 0.12201356887817383
0.53329694271087646 0.18084535002708435 0.090802319347858429
0.60753113031387329 0.14021646976470947 0.058369297534227371
0.66144734621047974 0.094487056136131287 0.041310343891382217
0.70469045639038086 0.053304426372051239 0.026442732661962509
0.7399754524230957 0.022872490808367729 0.018430238589644432
0.76734787225723267 0.0081525761634111404 0.018202343955636024
0.78617709875106812 0.0042126374319195747 0.015447085723280907
0.081073805689811707 0.44540855288505554 0.28017407655715942
0.14346314966678619 0.43220677971839905 0.27110177278518677
0.23272630572319031 0.41435366868972778 0.24728204309940338
0.32515010237693787 0.39958015084266663 0.21877418458461761
0.41068485379219055 0.3770897388458252 0.19239851832389832
0.49314859509468079 0.34820154309272766 0.16386587917804718
0.5720716118812561 0.3163890540599823 0.13530534505844116
0.64750832319259644 0.28275439143180847 0.10600136965513229
0.70230388641357422 0.24029158055782318 0.089444957673549652
0.74899643659591675 0.19793285429477692 0.072978883981704712
0.78570866584777832 0.15142233669757843 0.060874700546264648
0.80914413928985596 0.090469419956207275 0.051778636872768402
0.82680040597915649 0.037846464663743973 0.046292249113321304
0.12004604190587997 0.55085045099258423 0.29930311441421509
0.18987558782100677 0.53863567113876343 0.29129981994628906
0.27416706085205078 0.52554559707641602 0.27177298069000244
0.36210700869560242 0.51191860437393188 0.2480943500995636
