luts/negative_color/fuji_superia_hg_1600.cube
# Created by: G'MIC (https://gmic.eu)
TITLE "fuji_superia_hg_1600"
# LUT size
LUT_3D_SIZE 13
# Data domain
DOMAIN_MIN 0.0 0.0 0.0
DOMAIN_MAX 1.0 1.0 1.0
# LUT data points
0.091529622673988342 0.073744378983974457 0.075635261833667755
0.15879571437835693 0.075481623411178589 0.081248939037322998
0.21189136803150177 0.071569614112377167 0.083896532654762268
0.26574081182479858 0.069319374859333038 0.085631966590881348
0.32567709684371948 0.064731627702713013 0.082640871405601501
0.38954898715019226 0.055114131420850754 0.083474144339561462
0.45585614442825317 0.047070179134607315 0.088202774524688721
0.53353631496429443 0.045437518507242203 0.08301544189453125
0.60863065719604492 0.056667029857635498 0.080517202615737915
0.67830395698547363 0.070210553705692291 0.075897127389907837
0.74546140432357788 0.085047163069248199 0.066917538642883301
0.80997169017791748 0.09908168762922287 0.062312360852956772
0.87812256813049316 0.11503786593675613 0.042204178869724274
0.13326255977153778 0.15474711358547211 0.11241427809000015
0.18079452216625214 0.15465123951435089 0.12286538630723953
0.23285332322120667 0.1543944925069809 0.1249518021941185
0.28484860062599182 0.15146695077419281 0.1273597925901413
0.34607034921646118 0.14686019718647003 0.12162932008504868
0.40996658802032471 0.14108465611934662 0.12344661355018616
0.47730749845504761 0.12910522520542145 0.12056297063827515
0.54419940710067749 0.10805747658014297 0.1193917989730835
0.60821652412414551 0.08291308581829071 0.11478320509195328
0.66802734136581421 0.07225298136472702 0.11167288571596146
0.73238444328308105 0.080085903406143188 0.10419930517673492
0.79745841026306152 0.091466926038265228 0.096196494996547699
0.86427360773086548 0.1066293939948082 0.079200044274330139
0.16659550368785858 0.21684923768043518 0.14995510876178741
0.19934727251529694 0.21385985612869263 0.15471681952476501
0.25046488642692566 0.21309202909469604 0.15751157701015472
0.30377548933029175 0.21108686923980713 0.15829856693744659
0.36292791366577148 0.21056444942951202 0.15745624899864197
0.42840132117271423 0.20662955939769745 0.15476794540882111
0.49810963869094849 0.19943444430828094 0.15304645895957947
0.56599587202072144 0.18970422446727753 0.15142427384853363
0.62830054759979248 0.16986033320426941 0.14789730310440063
0.67806947231292725 0.12555640935897827 0.14451071619987488
0.7281537652015686 0.089699074625968933 0.13576129078865051
0.78875511884689331 0.089940570294857025 0.12613998353481293
0.85207796096801758 0.10057032108306885 0.115753173828125
0.19147425889968872 0.27625355124473572 0.18257901072502136
0.22050391137599945 0.27624422311782837 0.18342575430870056
0.26685252785682678 0.27449801564216614 0.1844571977853775
0.32083550095558167 0.27313053607940674 0.18483646214008331
0.38041806221008301 0.27288296818733215 0.18471083045005798
0.44317516684532166 0.27020525932312012 0.18309454619884491
0.51437073945999146 0.2652418315410614 0.18325148522853851
0.58330672979354858 0.25733384490013123 0.18165458738803864
0.64635342359542847 0.24237151443958282 0.17775695025920868
0.70316791534423828 0.21980889141559601 0.17363832890987396
0.75016683340072632 0.1773286759853363 0.16718587279319763
0.7912629246711731 0.12089409679174423 0.15701210498809814
0.84530901908874512 0.098204560577869415 0.14451302587985992
0.22068504989147186 0.34410539269447327 0.20982782542705536
0.25071534514427185 0.3440309464931488 0.21049857139587402
0.28672909736633301 0.34162452816963196 0.20898301899433136
0.33841186761856079 0.33913895487785339 0.20949523150920868
0.40060910582542419 0.3388822078704834 0.21109500527381897
0.4648992121219635 0.33985337615013123 0.21088477969169617
0.53533947467803955 0.33920738101005554 0.2114318460226059
0.60385257005691528 0.33200135827064514 0.21015776693820953
0.66529631614685059 0.3173658549785614 0.20719866454601288
0.72165477275848389 0.30070924758911133 0.20404566824436188
0.77182590961456299 0.26772111654281616 0.19677625596523285
0.81750613451004028 0.2195737212896347 0.18656763434410095
0.85485458374023438 0.14553666114807129 0.1736140251159668
0.25452372431755066 0.4176669716835022 0.23599614202976227
0.28181955218315125 0.41715791821479797 0.23883956670761108
0.31379413604736328 0.41477289795875549 0.23882254958152771
0.36243742704391479 0.41270613670349121 0.23834078013896942
0.4246518611907959 0.41360297799110413 0.24180616438388824
0.49132886528968811 0.41670048236846924 0.24304185807704926
0.55858868360519409 0.41554489731788635 0.23996298015117645
0.62332862615585327 0.40937477350234985 0.23635582625865936
0.68387120962142944 0.3972337543964386 0.2352529913187027
0.7410162091255188 0.3829042911529541 0.23109807074069977
0.7926560640335083 0.35467085242271423 0.2242886871099472
0.84039610624313354 0.30937421321868896 0.21482750773429871
0.88605648279190063 0.26508903503417969 0.20417484641075134
0.2890656590461731 0.49156779050827026 0.26936379075050354
0.31230306625366211 0.49392485618591309 0.27873840928077698
0.34413567185401917 0.49363863468170166 0.28076654672622681
0.39166989922523499 0.49334093928337097 0.27318313717842102
0.44770675897598267 0.49370157718658447 0.27295961976051331
0.51460170745849609 0.49606472253799438 0.2735724151134491
0.58300817012786865 0.4969465434551239 0.27140587568283081
0.64564067125320435 0.49137598276138306 0.26829585433006287
0.70331466197967529 0.47995719313621521 0.26618897914886475
0.76101410388946533 0.46819889545440674 0.26095271110534668
0.81596285104751587 0.44919493794441223 0.25417450070381165
0.86655110120773315 0.41034820675849915 0.24520276486873627
0.91681784391403198 0.3738284707069397 0.23574495315551758
0.32627385854721069 0.56533360481262207 0.30644470453262329
0.34883159399032593 0.56475698947906494 0.31325438618659973
0.38066434860229492 0.56463974714279175 0.31510081887245178
0.4243927001953125 0.56908798217773438 0.3089069128036499
0.47280469536781311 0.57227456569671631 0.30376389622688293
0.5376589298248291 0.57525640726089478 0.30419376492500305
0.60605502128601074 0.57809031009674072 0.30287003517150879
0.66741096973419189 0.57489311695098877 0.3017973005771637
0.72418749332427979 0.56652921438217163 0.30027207732200623
0.78142809867858887 0.55829894542694092 0.29568085074424744
0.8391880989074707 0.5480617880821228 0.2880670428276062
0.89196360111236572 0.52152484655380249 0.28064844012260437
0.94482970237731934 0.49153584241867065 0.27134329080581665
0.36187553405761719 0.63310253620147705 0.34185642004013062
0.38219192624092102 0.63017326593399048 0.34512791037559509
0.41495060920715332 0.6301581859588623 0.34630921483039856
0.45731109380722046 0.63493776321411133 0.34550172090530396
0.50440484285354614 0.63875079154968262 0.34352141618728638
0.56422936916351318 0.64153176546096802 0.34356066584587097
0.6283908486366272 0.64450186491012573 0.34104898571968079
0.68745750188827515 0.64595609903335571 0.3394046425819397
0.74434763193130493 0.64334022998809814 0.3365790843963623
0.80071079730987549 0.64256352186203003 0.33350387215614319
0.85570257902145386 0.63580560684204102 0.32835027575492859
0.91322016716003418 0.62349921464920044 0.32049185037612915
0.9686858057975769 0.60104542970657349 0.30988201498985291
0.40322014689445496 0.69330167770385742 0.3823903501033783
0.41755318641662598 0.69337403774261475 0.38177043199539185
0.44730386137962341 0.69471317529678345 0.38247352838516235
0.48915433883666992 0.6981053352355957 0.3853701651096344
0.53822416067123413 0.70144444704055786 0.38447320461273193
0.59330755472183228 0.70324110984802246 0.38443699479103088
0.65033191442489624 0.70664352178573608 0.38141396641731262
0.70709699392318726 0.71211504936218262 0.37814849615097046
0.7610238790512085 0.71053636074066162 0.37719428539276123
0.81390869617462158 0.71002435684204102 0.3784334659576416
0.87048321962356567 0.70866596698760986 0.37457963824272156
0.93063992261886597 0.70357239246368408 0.3645845353603363
0.98472398519515991 0.69418609142303467 0.35198137164115906
0.44679668545722961 0.75332468748092651 0.42549979686737061
0.46064901351928711 0.75437110662460327 0.42680796980857849
0.48659005761146545 0.75626510381698608 0.42653968930244446
0.52295416593551636 0.75974559783935547 0.42400220036506653
0.56740778684616089 0.76393002271652222 0.42742308974266052
0.61755412817001343 0.76691347360610962 0.4306110143661499
0.66908645629882812 0.77133756875991821 0.42980876564979553
0.72004634141921997 0.77673012018203735 0.42871490120887756
0.77369999885559082 0.77892911434173584 0.42683595418930054
0.8277246356010437 0.77963262796401978 0.42746102809906006
0.88463437557220459 0.77851742506027222 0.42216432094573975
0.94427663087844849 0.77508789300918579 0.41075661778450012
0.99127936363220215 0.77159601449966431 0.40099793672561646
0.48502519726753235 0.81720429658889771 0.47671252489089966
0.50036847591400146 0.81989860534667969 0.48170897364616394
0.52291512489318848 0.82008957862854004 0.47967895865440369
0.55370277166366577 0.82116144895553589 0.47547560930252075
0.59499138593673706 0.82607990503311157 0.47580051422119141
0.64041429758071899 0.83180457353591919 0.47964400053024292
0.68432354927062988 0.83850562572479248 0.48253709077835083
0.72999364137649536 0.84393000602722168 0.4855896532535553
0.78330534696578979 0.8484538197517395 0.48175898194313049
0.83938413858413696 0.85066878795623779 0.47890588641166687
0.89618843793869019 0.85049492120742798 0.47277292609214783
0.95347970724105835 0.84933537244796753 0.4639187753200531
0.99193054437637329 0.8488280177116394 0.45810285210609436
0.51648217439651489 0.88093549013137817 0.53067785501480103
0.52905386686325073 0.88658130168914795 0.53137660026550293
0.55172824859619141 0.88530325889587402 0.52766412496566772
0.58178079128265381 0.88515394926071167 0.52481073141098022
0.61865228414535522 0.89292550086975098 0.52584296464920044
0.65775245428085327 0.89926809072494507 0.52854388952255249
0.69718050956726074 0.90354388952255249 0.53321331739425659
0.7409098744392395 0.90820199251174927 0.53490519523620605
0.7927175760269165 0.91376614570617676 0.53166216611862183
0.84929406642913818 0.91984188556671143 0.52762395143508911
0.90565824508666992 0.92070603370666504 0.52273547649383545
0.96371567249298096 0.92460137605667114 0.51946169137954712
0.99408066272735596 0.92483478784561157 0.51612770557403564
0.074685119092464447 0.078222356736660004 0.13280017673969269
0.14176173508167267 0.075503133237361908 0.13529220223426819
0.19476084411144257 0.072180427610874176 0.13680870831012726
0.24955332279205322 0.070520319044589996 0.1366904079914093
0.31087413430213928 0.070039995014667511 0.13735781610012054
0.37352102994918823 0.057751242071390152 0.14044202864170074
0.44223949313163757 0.048773568123579025 0.1422092616558075
0.51700180768966675 0.040140070021152496 0.13787123560905457
0.5905768871307373 0.047161251306533813 0.13543027639389038
0.65854591131210327 0.060341209173202515 0.13147076964378357
0.72282451391220093 0.073242992162704468 0.1286531388759613
0.7888340950012207 0.087134391069412231 0.11949639767408371
0.85423588752746582 0.1023247241973877 0.099166840314865112
0.12190289795398712 0.15616600215435028 0.15842677652835846
0.16804271936416626 0.1516624242067337 0.16052474081516266
0.21877671778202057 0.15117207169532776 0.16160339117050171
0.27183222770690918 0.1546596884727478 0.16375927627086639
0.33300125598907471 0.15126504004001617 0.16471168398857117
0.39822012186050415 0.14266040921211243 0.16564470529556274
0.46668088436126709 0.13219869136810303 0.16443057358264923
0.53479069471359253 0.11307208240032196 0.16295263171195984
0.59719061851501465 0.085270553827285767 0.15913528203964233
0.65529954433441162 0.06835656613111496 0.15422379970550537
0.71795779466629028 0.071231842041015625 0.14881183207035065
0.78282088041305542 0.083464227616786957 0.14049424231052399
0.84561055898666382 0.097035035490989685 0.12771095335483551
0.15816235542297363 0.21730916202068329 0.18506011366844177
0.18985962867736816 0.21532291173934937 0.18584170937538147
0.23807480931282043 0.21537604928016663 0.18732054531574249
0.29047927260398865 0.21558506786823273 0.18878322839736938
0.35102406144142151 0.2129395604133606 0.18951611220836639
0.41718831658363342 0.20667764544487 0.19000734388828278
0.48691266775131226 0.19827386736869812 0.18872168660163879
0.55745577812194824 0.18939177691936493 0.18715742230415344
0.61972588300704956 0.17008283734321594 0.18414855003356934
0.67258971929550171 0.13490739464759827 0.17810018360614777
0.71900373697280884 0.090309649705886841 0.17136961221694946
0.77737915515899658 0.083383090794086456 0.16291911900043488
0.83937084674835205 0.093727782368659973 0.15274585783481598
0.18364644050598145 0.27835232019424438 0.20994418859481812
0.21232546865940094 0.27949732542037964 0.21108321845531464
0.25722315907478333 0.27798280119895935 0.21246872842311859
0.30989545583724976 0.2773347795009613 0.21333552896976471
0.37088131904602051 0.27520501613616943 0.21436473727226257
0.43578371405601501 0.27074962854385376 0.21576771140098572
0.5070069432258606 0.26510745286941528 0.21390213072299957
0.57636308670043945 0.25638151168823242 0.21115060150623322
0.63814687728881836 0.23993277549743652 0.20788298547267914
0.69450783729553223 0.21914611756801605 0.20309500396251678
0.74350690841674805 0.18067720532417297 0.19615538418292999
0.78393363952636719 0.12015452980995178 0.18649914860725403
0.83562672138214111 0.093176744878292084 0.1755983978509903
0.21080368757247925 0.34551051259040833 0.23498523235321045
0.24012452363967896 0.34852296113967896 0.23643407225608826
0.27848279476165771 0.34550067782402039 0.23756279051303864
0.33007436990737915 0.34236085414886475 0.23848846554756165
0.39268261194229126 0.34132158756256104 0.23970568180084229
0.45768630504608154 0.33997151255607605 0.24063140153884888
0.52787619829177856 0.33691346645355225 0.23834078013896942
0.59691190719604492 0.32949921488761902 0.23528768122196198
0.65700316429138184 0.31352180242538452 0.23133084177970886
0.71376729011535645 0.29764392971992493 0.22862435877323151
0.76438271999359131 0.26690259575843811 0.2220829576253891
0.81225335597991943 0.22113338112831116 0.21161238849163055
0.85035431385040283 0.1457526832818985 0.19995985925197601
0.24296072125434875 0.41754037141799927 0.26194563508033752
0.26960837841033936 0.42025730013847351 0.26148527860641479
0.30515867471694946 0.41827872395515442 0.26227906346321106
0.35544982552528381 0.41461670398712158 0.26559382677078247
0.41638690233230591 0.41321548819541931 0.26707771420478821
0.48197779059410095 0.41425877809524536 0.26761892437934875
0.55059128999710083 0.41294363141059875 0.26399937272071838
0.61807459592819214 0.40950024127960205 0.25968760251998901
0.67746263742446899 0.39423051476478577 0.25691816210746765
0.73335474729537964 0.37963381409645081 0.25436538457870483
0.78703641891479492 0.35760399699211121 0.2485082596540451
0.83711981773376465 0.31637158989906311 0.23889173567295074
0.87852603197097778 0.26942965388298035 0.23138181865215302
0.27733176946640015 0.4902990460395813 0.29269221425056458
0.30171048641204834 0.49300530552864075 0.29129883646965027
0.33527430891990662 0.49367740750312805 0.29129880666732788
0.38550096750259399 0.49357602000236511 0.29473710060119629
0.44110217690467834 0.4923911988735199 0.29788154363632202
0.50533348321914673 0.49390888214111328 0.29789572954177856
0.57405203580856323 0.49369919300079346 0.29482537508010864
0.63997620344161987 0.4907664954662323 0.29038527607917786
0.69874089956283569 0.47971555590629578 0.28727549314498901
0.75549900531768799 0.466290682554245 0.28258493542671204
0.81255489587783813 0.45298689603805542 0.27651384472846985
0.86157220602035522 0.41764387488365173 0.2690373957157135
0.90524488687515259 0.3786986768245697 0.26451122760772705
0.31384485960006714 0.56156975030899048 0.32972016930580139
0.3379662036895752 0.56275427341461182 0.3294578492641449
0.37012597918510437 0.56335794925689697 0.32896459102630615
0.41294431686401367 0.56666165590286255 0.32939198613166809
0.46592509746551514 0.56823247671127319 0.3286774754524231
0.53081309795379639 0.57138288021087646 0.32764169573783875
0.59792447090148926 0.57350760698318481 0.32621130347251892
0.66176044940948486 0.57393699884414673 0.3253958523273468
0.7198217511177063 0.56746309995651245 0.32303312420845032
0.77585560083389282 0.55667001008987427 0.31721594929695129
0.83199304342269897 0.54705244302749634 0.31034252047538757
0.88523823022842407 0.52273625135421753 0.30398991703987122
0.93603521585464478 0.49359473586082458 0.2977299690246582
0.35219922661781311 0.62968999147415161 0.36738702654838562
0.37174198031425476 0.62749636173248291 0.36796534061431885
0.40426802635192871 0.62821763753890991 0.36735522747039795
0.44515746831893921 0.63213956356048584 0.3672369122505188
0.49834966659545898 0.63585412502288818 0.36481651663780212
0.5592193603515625 0.64090478420257568 0.36300644278526306
0.61956816911697388 0.64436531066894531 0.36151492595672607
0.68125367164611816 0.64607030153274536 0.36210563778877258
0.73896121978759766 0.64480495452880859 0.36046713590621948
0.7940329909324646 0.63876926898956299 0.35504931211471558
0.85073930025100708 0.63451355695724487 0.34825617074966431
0.90643233060836792 0.61963903903961182 0.34177875518798828
0.96415406465530396 0.59878891706466675 0.33210915327072144
0.39726436138153076 0.69193321466445923 0.40697726607322693
0.41026642918586731 0.68987250328063965 0.40610805153846741
0.43951278924942017 0.69065546989440918 0.40508189797401428
0.47999671101570129 0.69390493631362915 0.40551787614822388
0.53298640251159668 0.6975666880607605 0.40415254235267639
0.58629328012466431 0.70226466655731201 0.4041827917098999
0.63990354537963867 0.70602065324783325 0.40298706293106079
0.69760453701019287 0.70989501476287842 0.40243181586265564
0.75455969572067261 0.70949310064315796 0.40025252103805542
0.80860918760299683 0.70571845769882202 0.39654529094696045
0.86461466550827026 0.70436280965805054 0.39353775978088379
0.92246454954147339 0.69895201921463013 0.38558200001716614
0.97840368747711182 0.69060707092285156 0.37345311045646667
0.44394007325172424 0.75285732746124268 0.44566872715950012
0.45593234896659851 0.75236397981643677 0.44443994760513306
0.48115301132202148 0.75285327434539795 0.44346228241920471
0.5177949070930481 0.75562393665313721 0.44294297695159912
0.56332802772521973 0.75931143760681152 0.44587627053260803
0.61014974117279053 0.76494824886322021 0.45037749409675598
0.66016250848770142 0.76977658271789551 0.44853037595748901
0.71379697322845459 0.77378314733505249 0.44419729709625244
0.76833420991897583 0.77509617805480957 0.44266822934150696
0.82306689023971558 0.77575331926345825 0.44228604435920715
0.87916308641433716 0.77632135152816772 0.44016915559768677
0.93671810626983643 0.77330493927001953 0.4322478175163269
0.9843021035194397 0.76861488819122314 0.42326420545578003
0.48573878407478333 0.81731104850769043 0.48880177736282349
0.49682658910751343 0.81784701347351074 0.48767915368080139
0.52037054300308228 0.818320631980896 0.48776707053184509
0.54967916011810303 0.81982475519180298 0.48656857013702393
0.58903628587722778 0.82560461759567261 0.49282035231590271
0.63250041007995605 0.83211028575897217 0.49857130646705627
0.67816966772079468 0.83726042509078979 0.49674013257026672
0.72786927223205566 0.84114032983779907 0.49350824952125549
0.78019559383392334 0.8449397087097168 0.49205434322357178
0.83497661352157593 0.84788179397583008 0.49167421460151672
0.89079838991165161 0.84943538904190063 0.48867031931877136
0.94811570644378662 0.84876590967178345 0.48172169923782349
0.98823016881942749 0.84784626960754395 0.47719138860702515
0.51727873086929321 0.88605409860610962 0.54027646780014038
0.52805078029632568 0.88783413171768188 0.53910315036773682
0.54904556274414062 0.88466459512710571 0.53534233570098877
0.57714259624481201 0.88417452573776245 0.5337982177734375
0.61203360557556152 0.89465856552124023 0.53969597816467285
0.65236610174179077 0.90001004934310913 0.54249203205108643
0.69584709405899048 0.90534812211990356 0.54269617795944214
0.74105304479598999 0.90850150585174561 0.54110473394393921
0.7914925217628479 0.91386008262634277 0.54058200120925903
0.84473615884780884 0.9151117205619812 0.53827619552612305
0.90215116739273071 0.92014861106872559 0.53665202856063843
0.96058493852615356 0.92403215169906616 0.53281617164611816
0.99254542589187622 0.92481487989425659 0.529407799243927
0.071375720202922821 0.082909740507602692 0.17268356680870056
0.13277341425418854 0.082071341574192047 0.17519073188304901
0.18483874201774597 0.07745099812746048 0.17567458748817444
0.23910330235958099 0.07486356794834137 0.17732484638690948
0.30060791969299316 0.07493755966424942 0.1789160817861557
0.36425572633743286 0.063805900514125824 0.17999599874019623
0.43319758772850037 0.053743802011013031 0.18197351694107056
0.50512194633483887 0.042496208101511002 0.18035109341144562
0.57731878757476807 0.040428251028060913 0.17656953632831573
0.64535129070281982 0.053042065352201462 0.17483164370059967
0.70861905813217163 0.065141342580318451 0.17391102015972137
0.77437001466751099 0.078856915235519409 0.16420312225818634
0.83363062143325806 0.091531820595264435 0.15111555159091949
0.11689240485429764 0.15877795219421387 0.19690024852752686
0.15978753566741943 0.15607514977455139 0.19814586639404297
0.20796911418437958 0.15361689031124115 0.19869361817836761
0.26047292351722717 0.15354862809181213 0.20139394700527191
0.32152578234672546 0.15378788113594055 0.20315238833427429
0.38813585042953491 0.15039171278476715 0.20476159453392029
0.45793443918228149 0.13863702118396759 0.20290854573249817
0.52780759334564209 0.12238757312297821 0.19958174228668213
0.58818358182907104 0.088671907782554626 0.19639803469181061
0.6437801718711853 0.061999049037694931 0.19195197522640228
0.70628446340560913 0.064976632595062256 0.18683551251888275
0.76995408535003662 0.077145010232925415 0.18052500486373901
0.83040851354598999 0.088181637227535248 0.17095470428466797
0.15128138661384583 0.2174113541841507 0.2192048579454422
0.17804506421089172 0.21664279699325562 0.21883399784564972
0.22538758814334869 0.21617014706134796 0.22117553651332855
0.27813583612442017 0.21730484068393707 0.22323107719421387
0.33954194188117981 0.21550576388835907 0.22564230859279633
0.40692830085754395 0.21106638014316559 0.22754299640655518
0.47829169034957886 0.20191654562950134 0.22433611750602722
0.549152672290802 0.19433788955211639 0.22191138565540314
0.6102297306060791 0.17289426922798157 0.21963056921958923
0.66403388977050781 0.14005999267101288 0.21360418200492859
0.71041405200958252 0.091986939311027527 0.20657661557197571
0.76531046628952026 0.075215362012386322 0.19899530708789825
0.82776451110839844 0.086131662130355835 0.18992771208286285
0.17172405123710632 0.27986630797386169 0.24247291684150696
0.19831804931163788 0.28030544519424438 0.24289475381374359
0.24531669914722443 0.28085717558860779 0.24472630023956299
0.2994249165058136 0.2810828685760498 0.24645020067691803
0.36020252108573914 0.27670761942863464 0.24861954152584076
0.42624977231025696 0.27207958698272705 0.24990656971931458
0.49772751331329346 0.2664942741394043 0.24741184711456299
0.56674212217330933 0.25895488262176514 0.24489738047122955
0.62649989128112793 0.24106521904468536 0.2419629842042923
0.68417954444885254 0.22157539427280426 0.23650401830673218
0.7351754903793335 0.18522997200489044 0.23111653327941895
0.77641505002975464 0.12325289845466614 0.22184610366821289
0.82497471570968628 0.088321447372436523 0.21086001396179199
0.19759179651737213 0.34643250703811646 0.2673799991607666
0.22859376668930054 0.35027164220809937 0.26852890849113464
0.26807647943496704 0.34899029135704041 0.26882463693618774
0.31962352991104126 0.34636819362640381 0.26981684565544128
0.38238775730133057 0.34287524223327637 0.27213087677955627
0.44768831133842468 0.34053254127502441 0.27369222044944763
0.51723170280456543 0.33670696616172791 0.27067303657531738
