luts/negative_color/fuji_superia_200.cube
# Created by: G'MIC (https://gmic.eu)
TITLE "fuji_superia_200"
# LUT size
LUT_3D_SIZE 5
# Data domain
DOMAIN_MIN 0.0 0.0 0.0
DOMAIN_MAX 1.0 1.0 1.0
# LUT data points
0.031278900802135468 0.032790374010801315 0.027503009885549545
0.20992867648601532 0.0091825593262910843 0.0055260602384805679
0.46422326564788818 0.00027429917827248573 0
0.67520374059677124 0 0
0.78341418504714966 0 0
0.092139884829521179 0.33114638924598694 0.12903168797492981
0.30812945961952209 0.27492475509643555 0.063163489103317261
0.55831164121627808 0.18054254353046417 0.0056753568351268768
0.74044066667556763 0.048892587423324585 0.00048418232472613454
0.81759387254714966 0.0045440825633704662 0
0.23424223065376282 0.64752054214477539 0.17077741026878357
0.43244406580924988 0.61791491508483887 0.12466167658567429
0.67819231748580933 0.5626223087310791 0.064554758369922638
0.85821467638015747 0.49233829975128174 0.034878000617027283
0.95709490776062012 0.37954196333885193 0.054621394723653793
0.4955785870552063 0.8382449746131897 0.06704026460647583
0.61069899797439575 0.81965655088424683 0.054669354110956192
0.79331308603286743 0.78185564279556274 0.03992798924446106
0.94235116243362427 0.74546903371810913 0.043192695826292038
0.99956643581390381 0.70179849863052368 0.096163637936115265
0.74786001443862915 0.97818362712860107 0
0.81093013286590576 0.96867775917053223 0
0.94187271595001221 0.95576882362365723 0.0021880206186324358
0.99879390001296997 0.93069761991500854 0.0018079271540045738
1 0.89493489265441895 0.0073892329819500446
0.016854902729392052 0.038996394723653793 0.23349624872207642
0.19227063655853271 0.010951652191579342 0.16138428449630737
0.43119579553604126 0.002491251565515995 0.065144062042236328
0.61474609375 0 0.015345510095357895
0.73704051971435547 0 0.017281940206885338
0.057673420757055283 0.32876387238502502 0.34020039439201355
0.27760493755340576 0.28059196472167969 0.27694597840309143
0.51718324422836304 0.18009224534034729 0.17715586721897125
0.68577682971954346 0.053936902433633804 0.097412437200546265
0.76895451545715332 0.0056329467333853245 0.064595192670822144
0.16860091686248779 0.64948034286499023 0.4091983437538147
0.38270321488380432 0.61038112640380859 0.36670041084289551
0.62900400161743164 0.56698203086853027 0.29663759469985962
0.80502688884735107 0.49582782387733459 0.2499525249004364
0.91322249174118042 0.38580545783042908 0.24547414481639862
0.43197542428970337 0.83946621417999268 0.37504962086677551
0.55214762687683105 0.82389384508132935 0.34775474667549133
0.73179894685745239 0.79295116662979126 0.30515015125274658
0.88020837306976318 0.75280475616455078 0.2878870964050293
0.9846535325050354 0.70726978778839111 0.32044294476509094
0.72498732805252075 0.98402023315429688 0.049730248749256134
0.78895276784896851 0.97730183601379395 0.04068196564912796
0.90190821886062622 0.96187323331832886 0.038161035627126694
0.9912794828414917 0.9357839822769165 0.054578952491283417
1 0.90967839956283569 0.15834751725196838
0.0045593110844492912 0.032365463674068451 0.48945879936218262
0.17081305384635925 0.011575407348573208 0.41219455003738403
0.39392486214637756 0.0026038524229079485 0.30486252903938293
0.56234818696975708 0 0.23928453028202057
0.69342029094696045 0 0.20848332345485687
0.055666591972112656 0.31487435102462769 0.59381395578384399
0.25357580184936523 0.2629544734954834 0.52729994058609009
0.47984588146209717 0.16688986122608185 0.42175495624542236
0.62920677661895752 0.048456646502017975 0.33769440650939941
0.71914303302764893 0.0033610176760703325 0.26982614398002625
0.11728077381849289 0.64726370573043823 0.68346810340881348
0.34233435988426208 0.62553459405899048 0.64164108037948608
0.57655197381973267 0.57028526067733765 0.57082223892211914
0.74593710899353027 0.50514167547225952 0.51275551319122314
0.85980713367462158 0.38173344731330872 0.4567682147026062
0.3659152090549469 0.84439963102340698 0.7032928466796875
0.4852372407913208 0.83096647262573242 0.6750558614730835
0.65783518552780151 0.80019211769104004 0.62824386358261108
0.80774742364883423 0.76557368040084839 0.59426498413085938
0.93548142910003662 0.70761364698410034 0.55928868055343628
0.59093523025512695 0.99209451675415039 0.61125719547271729
0.65159016847610474 0.98797893524169922 0.59958124160766602
0.75860822200775146 0.97379016876220703 0.58131247758865356
0.88836061954498291 0.95788347721099854 0.56056421995162964
0.99160647392272949 0.92705023288726807 0.5563167929649353
0.012502677738666534 0.016927517950534821 0.68197828531265259
0.18102771043777466 0.0030384587589651346 0.58126252889633179
0.38566821813583374 0.0012542275944724679 0.48900267481803894
0.53131949901580811 0 0.41920182108879089
0.66112738847732544 0 0.36490932106971741
0.12423188239336014 0.27436164021492004 0.74900215864181519
0.28279125690460205 0.22834229469299316 0.68806570768356323
0.46235474944114685 0.13499443233013153 0.59443163871765137
0.59339576959609985 0.025252547115087509 0.50287103652954102
0.67888396978378296 0.0010479646734893322 0.41370669007301331
0.24049153923988342 0.62847942113876343 0.83672571182250977
0.38178101181983948 0.6040571928024292 0.80074185132980347
0.56818532943725586 0.55463021993637085 0.73554486036300659
0.71291285753250122 0.4853060245513916 0.67046988010406494
0.82286250591278076 0.36355963349342346 0.59700471162796021
0.41926789283752441 0.83820664882659912 0.86767852306365967
0.50016140937805176 0.82423830032348633 0.85211175680160522
0.63774150609970093 0.79658502340316772 0.81060880422592163
0.77243882417678833 0.76558423042297363 0.76594239473342896
0.89933055639266968 0.71395289897918701 0.71998018026351929
0.55391401052474976 0.9922671914100647 0.88188201189041138
0.60299223661422729 0.98861730098724365 0.86956250667572021
0.7063363790512085 0.97561824321746826 0.83919692039489746
0.82982474565505981 0.96375954151153564 0.80306035280227661
0.96759748458862305 0.94093692302703857 0.76467865705490112
0.07039228081703186 0.0017714407294988632 0.75471252202987671
0.23778006434440613 0.0021221386268734932 0.67517739534378052
0.38997960090637207 1.4002182979311328e-05 0.59952807426452637
0.51980686187744141 0 0.53294259309768677
0.64196109771728516 0 0.48517727851867676
0.24692384898662567 0.18597924709320068 0.80645501613616943
0.34812825918197632 0.15108126401901245 0.76251053810119629
0.46977236866950989 0.0637483149766922 0.68449819087982178
0.5711405873298645 0.010187963955104351 0.60689926147460938
0.64748620986938477 0.00063606712501496077 0.5194658637046814
0.39363306760787964 0.58606916666030884 0.91407942771911621
0.46280115842819214 0.56452435255050659 0.89029937982559204
0.58794987201690674 0.52544909715652466 0.83748722076416016
0.70423024892807007 0.4565485417842865 0.78114789724349976
0.79469311237335205 0.31207934021949768 0.69995379447937012
0.49930182099342346 0.81765115261077881 0.97547787427902222
0.55663836002349854 0.80857974290847778 0.95942860841751099
0.65407717227935791 0.78828567266464233 0.93349474668502808
0.76326757669448853 0.75594311952590942 0.89216715097427368
0.88042759895324707 0.70284038782119751 0.84288841485977173
0.5900733470916748 0.9859384298324585 0.99540764093399048
0.63196581602096558 0.98473185300827026 0.99665695428848267
0.70568621158599854 0.976723313331604 0.99220991134643555
0.80838924646377563 0.9664844274520874 0.97500109672546387
0.94465857744216919 0.94120579957962036 0.94015133380889893
