luts/negative_color/fuji_superia_x-tra_800.cube
# Created by: G'MIC (https://gmic.eu)
TITLE "fuji_superia_x-tra_800"
# LUT size
LUT_3D_SIZE 5
# Data domain
DOMAIN_MIN 0.0 0.0 0.0
DOMAIN_MAX 1.0 1.0 1.0
# LUT data points
0.055197428911924362 0.044232595711946487 0.037496019154787064
0.26728126406669617 0.033364001661539078 0.03093394823372364
0.47854018211364746 0.011788670904934406 0.030305091291666031
0.68476098775863647 0.0039215688593685627 0.048689734190702438
0.85466498136520386 0 0.12562340497970581
0.13653595745563507 0.27206972241401672 0.12566860020160675
0.30521729588508606 0.25986284017562866 0.11514019221067429
0.51480972766876221 0.22485972940921783 0.11011874675750732
0.70461976528167725 0.14951422810554504 0.12231490015983582
0.86562108993530273 0.017273576930165291 0.13264362514019012
0.26105886697769165 0.49468958377838135 0.13487614691257477
0.40393263101577759 0.49213948845863342 0.13058722019195557
0.58195871114730835 0.46919146180152893 0.14883412420749664
0.75691866874694824 0.43091800808906555 0.22659344971179962
0.91965442895889282 0.33534947037696838 0.28098967671394348
0.36845928430557251 0.69866323471069336 0.1235373243689537
0.49482810497283936 0.70050662755966187 0.097607582807540894
0.71039336919784546 0.69597554206848145 0.054651118814945221
0.87523496150970459 0.67888659238815308 0.14749319851398468
0.98375684022903442 0.63792330026626587 0.34096869826316833
0.29359155893325806 0.91106027364730835 0.21265821158885956
0.44777077436447144 0.91395854949951172 0.16919155418872833
0.71729981899261475 0.91476935148239136 0.03646150603890419
0.97497504949569702 0.91122108697891235 0.0045091067440807819
1 0.89543408155441284 0.042064756155014038
0.038384217768907547 0.049942601472139359 0.20975883305072784
0.24439150094985962 0.039651010185480118 0.17427273094654083
0.45409467816352844 0.023192731663584709 0.16029505431652069
0.66066426038742065 0.0043546040542423725 0.1516249030828476
0.83968895673751831 0 0.18518741428852081
0.10484401881694794 0.28143328428268433 0.28331616520881653
0.27418738603591919 0.26801109313964844 0.2665102481842041
0.48039296269416809 0.22953711450099945 0.24333815276622772
0.68093669414520264 0.14756256341934204 0.2242809534072876
0.85259336233139038 0.020323958247900009 0.19268974661827087
0.20240403711795807 0.49847504496574402 0.28931900858879089
0.33044636249542236 0.49878108501434326 0.29671534895896912
0.52425801753997803 0.47314488887786865 0.30614081025123596
0.72204583883285522 0.42339813709259033 0.33033099770545959
0.90057277679443359 0.33852604031562805 0.34515967965126038
0.40490871667861938 0.70776772499084473 0.14084367454051971
0.50077587366104126 0.70357197523117065 0.15125980973243713
0.66505295038223267 0.69743341207504272 0.19138886034488678
0.81429839134216309 0.67806762456893921 0.30513274669647217
0.95648288726806641 0.63303643465042114 0.42713293433189392
0.38168269395828247 0.9176669716835022 0.19367368519306183
0.51376998424530029 0.91866427659988403 0.14757148921489716
0.75541150569915771 0.91819816827774048 0.027665905654430389
0.98480784893035889 0.91792964935302734 0.0042084190063178539
1 0.8995165228843689 0.17558658123016357
0.046477001160383224 0.056043587625026703 0.35410013794898987
0.23862367868423462 0.046402785927057266 0.30917543172836304
0.4367671012878418 0.023774284869432449 0.27876335382461548
0.64078980684280396 0.0053609362803399563 0.24806737899780273
0.82517445087432861 0.00073529413202777505 0.25946033000946045
0.096262358129024506 0.29227820038795471 0.44232353568077087
0.25849232077598572 0.27242040634155273 0.41442734003067017
0.46610337495803833 0.23884724080562592 0.38261112570762634
0.66549491882324219 0.17227955162525177 0.34432005882263184
0.84110480546951294 0.026381189003586769 0.27237328886985779
0.10222493857145309 0.50442641973495483 0.50839173793792725
0.27453821897506714 0.49618276953697205 0.49624946713447571
0.4882315993309021 0.47738939523696899 0.47869974374771118
0.6938740611076355 0.43571919202804565 0.45863446593284607
0.88468325138092041 0.35094353556632996 0.43650847673416138
0.25623282790184021 0.70320051908493042 0.47791701555252075
0.37895971536636353 0.70223230123519897 0.47933769226074219
0.56005311012268066 0.69675219058990479 0.49298441410064697
0.73807239532470703 0.67801260948181152 0.51508814096450806
0.92765957117080688 0.64401006698608398 0.53695648908615112
0.52884399890899658 0.92644327878952026 0.15296870470046997
0.62768661975860596 0.92845577001571655 0.10658617317676544
0.80634588003158569 0.92527526617050171 0.057193037122488022
0.94217109680175781 0.92255920171737671 0.17770831286907196
0.99635076522827148 0.90280288457870483 0.47621434926986694
0.076168924570083618 0.075242377817630768 0.49385249614715576
0.25855350494384766 0.05754312127828598 0.44235110282897949
0.44196280837059021 0.036422669887542725 0.39291512966156006
0.63282197713851929 0.010108858346939087 0.35153418779373169
0.82480800151824951 0.0023900798987597227 0.33144053816795349
0.11415987461805344 0.30225542187690735 0.59216135740280151
0.2770993709564209 0.28740221261978149 0.56260514259338379
0.46467268466949463 0.25860452651977539 0.52346909046173096
0.6574743390083313 0.19368526339530945 0.46268317103385925
0.83218228816986084 0.039495266973972321 0.36712861061096191
0.11906006932258606 0.51836574077606201 0.67841309309005737
0.27719506621360779 0.50651544332504272 0.65954798460006714
0.47483041882514954 0.48335552215576172 0.6270032525062561
0.67267584800720215 0.45136743783950806 0.58934497833251953
0.86595422029495239 0.36937087774276733 0.53834611177444458
0.19065655767917633 0.7117236852645874 0.72560280561447144
0.32371747493743896 0.7080237865447998 0.71186584234237671
0.50779151916503906 0.70288974046707153 0.69637978076934814
0.69719547033309937 0.68132174015045166 0.673389732837677
0.8966490626335144 0.65072274208068848 0.66390091180801392
0.40184330940246582 0.93046075105667114 0.56729662418365479
0.47737303376197815 0.92917770147323608 0.57406151294708252
0.61084121465682983 0.92716836929321289 0.60270768404006958
0.76785445213317871 0.92242217063903809 0.64707744121551514
0.96462690830230713 0.90611129999160767 0.70436805486679077
0.16573362052440643 0.11203616112470627 0.60458612442016602
0.31483739614486694 0.08542855829000473 0.55674725770950317
0.47178488969802856 0.047969639301300049 0.49493741989135742
0.63872790336608887 0.012759444303810596 0.44199985265731812
0.81620568037033081 0.00073529413202777505 0.40792033076286316
0.22863341867923737 0.3312060534954071 0.70408892631530762
0.33383405208587646 0.31317293643951416 0.67787021398544312
0.49357423186302185 0.28019049763679504 0.63261699676513672
0.65807193517684937 0.22094003856182098 0.57577502727508545
0.82662266492843628 0.057319343090057373 0.46686080098152161
0.26363018155097961 0.53311717510223389 0.80097061395645142
0.35186061263084412 0.52567392587661743 0.78784465789794922
0.5054699182510376 0.51375627517700195 0.76006871461868286
0.67002326250076294 0.47803843021392822 0.71596020460128784
0.85820817947387695 0.39674222469329834 0.65368843078613281
0.30063942074775696 0.71981197595596313 0.88641029596328735
0.38071677088737488 0.71493101119995117 0.87437397241592407
0.51771724224090576 0.7151915431022644 0.85380661487579346
0.68043112754821777 0.6906275749206543 0.83119243383407593
0.87878429889678955 0.66397356986999512 0.79345905780792236
0.29109722375869751 0.93669688701629639 0.94514679908752441
0.36588248610496521 0.9365915060043335 0.94471848011016846
0.50443536043167114 0.94105082750320435 0.93675690889358521
0.68378943204879761 0.93940436840057373 0.92829185724258423
0.92035102844238281 0.93134409189224243 0.91893857717514038
