luts/negative_color/fuji_superia_hg_1600.cube
# Created by: G'MIC (https://gmic.eu)
TITLE "fuji_superia_hg_1600"
# LUT size
LUT_3D_SIZE 5
# Data domain
DOMAIN_MIN 0.0 0.0 0.0
DOMAIN_MAX 1.0 1.0 1.0
# LUT data points
0.091529622673988342 0.073744378983974457 0.075635261833667755
0.26574081182479858 0.069319374859333038 0.085631966590881348
0.45585614442825317 0.047070179134607315 0.088202774524688721
0.67830395698547363 0.070210553705692291 0.075897127389907837
0.87812256813049316 0.11503786593675613 0.042204178869724274
0.19147425889968872 0.27625355124473572 0.18257901072502136
0.32083550095558167 0.27313053607940674 0.18483646214008331
0.51437073945999146 0.2652418315410614 0.18325148522853851
0.70316791534423828 0.21980889141559601 0.17363832890987396
0.84530901908874512 0.098204560577869415 0.14451302587985992
0.2890656590461731 0.49156779050827026 0.26936379075050354
0.39166989922523499 0.49334093928337097 0.27318313717842102
0.58300817012786865 0.4969465434551239 0.27140587568283081
0.76101410388946533 0.46819889545440674 0.26095271110534668
0.91681784391403198 0.3738284707069397 0.23574495315551758
0.40322014689445496 0.69330167770385742 0.3823903501033783
0.48915433883666992 0.6981053352355957 0.3853701651096344
0.65033191442489624 0.70664352178573608 0.38141396641731262
0.81390869617462158 0.71002435684204102 0.3784334659576416
0.98472398519515991 0.69418609142303467 0.35198137164115906
0.51648217439651489 0.88093549013137817 0.53067785501480103
0.58178079128265381 0.88515394926071167 0.52481073141098022
0.69718050956726074 0.90354388952255249 0.53321331739425659
0.84929406642913818 0.91984188556671143 0.52762395143508911
0.99408066272735596 0.92483478784561157 0.51612770557403564
0.066436409950256348 0.089560352265834808 0.21183221042156219
0.23145726323127747 0.08183065801858902 0.2156020849943161
0.42710965871810913 0.061660662293434143 0.21724860370159149
0.63267630338668823 0.04480293020606041 0.21622966229915619
0.821125328540802 0.083162657916545868 0.1963815838098526
0.15336224436759949 0.2805202305316925 0.27727767825126648
0.28622016310691833 0.28202959895133972 0.28495216369628906
0.48543712496757507 0.26843985915184021 0.28394195437431335
0.67495143413543701 0.22572533786296844 0.27548924088478088
0.81083285808563232 0.081599324941635132 0.25144779682159424
0.24100393056869507 0.4895368218421936 0.35947111248970032
0.35588270425796509 0.49395391345024109 0.36356732249259949
0.54512536525726318 0.49547961354255676 0.36574959754943848
0.73556578159332275 0.47085624933242798 0.36349305510520935
0.89035773277282715 0.38222536444664001 0.3381597101688385
0.37648150324821472 0.6864503026008606 0.46402600407600403
0.4574076235294342 0.6923944354057312 0.4620668888092041
0.62099826335906982 0.70719784498214722 0.4668239951133728
0.7920377254486084 0.70473283529281616 0.46220576763153076
0.9624137282371521 0.68587863445281982 0.44416370987892151
0.49981066584587097 0.88459974527359009 0.58645576238632202
0.55861067771911621 0.88288962841033936 0.57989275455474854
0.67905563116073608 0.89421051740646362 0.58454084396362305
0.83042371273040771 0.90790021419525146 0.58327627182006836
0.98896485567092896 0.92108756303787231 0.57892662286758423
0.038458865135908127 0.10514984279870987 0.34288674592971802
0.1967228502035141 0.10028325766324997 0.34828770160675049
0.39460974931716919 0.079334154725074768 0.35268253087997437
0.58449113368988037 0.025498483330011368 0.35195496678352356
0.76922893524169922 0.050806846469640732 0.34346482157707214
0.10295017063617706 0.29264438152313232 0.41589781641960144
0.22627772390842438 0.29216057062149048 0.42180773615837097
0.43977600336074829 0.28164783120155334 0.42544659972190857
0.63515126705169678 0.23850160837173462 0.42310035228729248
0.76244795322418213 0.072960861027240753 0.40597242116928101
0.16245654225349426 0.49189102649688721 0.49968558549880981
0.29413324594497681 0.4969668984413147 0.50289535522460938
0.49615755677223206 0.5017399787902832 0.50488960742950439
0.69181537628173828 0.48184967041015625 0.50384044647216797
0.84883242845535278 0.39787036180496216 0.49310204386711121
0.3136332631111145 0.68272769451141357 0.58530914783477783
0.40891879796981812 0.69001597166061401 0.58321452140808105
0.57848954200744629 0.70065504312515259 0.58189612627029419
0.74969792366027832 0.69762814044952393 0.58907532691955566
0.92234104871749878 0.68119508028030396 0.58205556869506836
0.46118661761283875 0.87948703765869141 0.67467796802520752
0.52398693561553955 0.87677574157714844 0.66804343461990356
0.64974880218505859 0.89702492952346802 0.67570394277572632
0.79807442426681519 0.91075438261032104 0.68104755878448486
0.97405040264129639 0.91601693630218506 0.67516875267028809
0.017951516434550285 0.1311798095703125 0.50285190343856812
0.15003764629364014 0.1356058269739151 0.51068204641342163
0.35989978909492493 0.12189630419015884 0.5172889232635498
0.53962051868438721 0.051392454653978348 0.51763308048248291
0.71093952655792236 0.019447311758995056 0.50934755802154541
0.049337767064571381 0.31223905086517334 0.56626379489898682
0.16112974286079407 0.31465792655944824 0.57235890626907349
0.39765855669975281 0.31382027268409729 0.57780784368515015
0.59867262840270996 0.27407190203666687 0.58131355047225952
0.72868055105209351 0.11759229004383087 0.5727875828742981
0.048006769269704819 0.50434243679046631 0.630237877368927
0.21937961876392365 0.50841951370239258 0.63387912511825562
0.45745062828063965 0.51815116405487061 0.6388542652130127
0.65433794260025024 0.50863432884216309 0.64280968904495239
0.81164765357971191 0.42488241195678711 0.6394118070602417
0.24651068449020386 0.68547791242599487 0.70100301504135132
0.36591994762420654 0.6917797327041626 0.69979679584503174
0.5355905294418335 0.70112591981887817 0.70393699407577515
0.70659571886062622 0.70118468999862671 0.7102246880531311
0.88615173101425171 0.69151145219802856 0.708670973777771
0.41759517788887024 0.8809821605682373 0.77242255210876465
0.4852910041809082 0.88830864429473877 0.77350831031799316
0.60728460550308228 0.89669007062911987 0.77546781301498413
0.76137262582778931 0.90742665529251099 0.78312408924102783
0.9566272497177124 0.92427748441696167 0.78209710121154785
0.0085886940360069275 0.18788263201713562 0.64118438959121704
0.1225493922829628 0.1952228844165802 0.64938938617706299
0.33604127168655396 0.18648582696914673 0.65662640333175659
0.52811270952224731 0.1312430202960968 0.66030740737915039
0.65377545356750488 0.0070957406423985958 0.66011941432952881
0.012148404493927956 0.35926985740661621 0.69247394800186157
0.088947847485542297 0.36374345421791077 0.69906085729598999
0.36580803990364075 0.36681860685348511 0.70719009637832642
0.57226461172103882 0.33721011877059937 0.71167707443237305
0.71868044137954712 0.21722537279129028 0.7117496132850647
0.0063146254979074001 0.52941977977752686 0.74954426288604736
0.14911644160747528 0.53741270303726196 0.75588136911392212
0.42072829604148865 0.54814273118972778 0.76235330104827881
0.61932373046875 0.54202097654342651 0.76995217800140381
0.78856766223907471 0.48809215426445007 0.7728346586227417
0.16360965371131897 0.69111049175262451 0.81559199094772339
0.30618831515312195 0.70077824592590332 0.82009553909301758
0.4936249852180481 0.71377956867218018 0.82512831687927246
0.67050248384475708 0.71930581331253052 0.83263683319091797
0.85035258531570435 0.70922410488128662 0.83826649188995361
0.36000624299049377 0.88199377059936523 0.89371168613433838
0.42708194255828857 0.88646674156188965 0.89498788118362427
0.55735516548156738 0.90120047330856323 0.90217208862304688
0.71401798725128174 0.91427743434906006 0.91219824552536011
0.92025262117385864 0.92258250713348389 0.92349964380264282
