luts/negative_color/fuji_superia_reala_100.cube
# Created by: G'MIC (https://gmic.eu)
TITLE "fuji_superia_reala_100"
# LUT size
LUT_3D_SIZE 7
# Data domain
DOMAIN_MIN 0.0 0.0 0.0
DOMAIN_MAX 1.0 1.0 1.0
# LUT data points
0.056049421429634094 0.048758398741483688 0.041386846452951431
0.21813471615314484 0.040439456701278687 0.036905836313962936
0.37964314222335815 0.032823808491230011 0.030841004103422165
0.54936903715133667 0.013989811763167381 0.024799900129437447
0.71107882261276245 0.0050329770892858505 0.03238716721534729
0.85010999441146851 0.002268682699650526 0.053069081157445908
0.96909451484680176 0 0.11785297840833664
0.11190377175807953 0.22103005647659302 0.095938950777053833
0.22790913283824921 0.20926740765571594 0.085095077753067017
0.39529484510421753 0.18844245374202728 0.07500583678483963
0.57003545761108398 0.15257200598716736 0.068053886294364929
0.72284847497940063 0.10559739917516708 0.069293707609176636
0.85568588972091675 0.044557161629199982 0.086745105683803558
0.96868234872817993 0.0040455088019371033 0.12479446828365326
0.11081340909004211 0.38761505484580994 0.14209665358066559
0.24364964663982391 0.38085395097732544 0.13785938918590546
0.41184538602828979 0.36380437016487122 0.13065139949321747
0.5807114839553833 0.34059050679206848 0.12700213491916656
0.73657375574111938 0.30834367871284485 0.13424244523048401
0.86855357885360718 0.24586547911167145 0.1540522575378418
0.9787217378616333 0.14123763144016266 0.18398670852184296
0.16884909570217133 0.54477912187576294 0.13352504372596741
0.28823256492614746 0.54113447666168213 0.12800249457359314
0.44517350196838379 0.53677403926849365 0.1263132244348526
0.60815894603729248 0.52086257934570312 0.13226412236690521
0.76062428951263428 0.50016921758651733 0.14673440158367157
0.89307951927185059 0.46407467126846313 0.19514758884906769
0.99139463901519775 0.40751397609710693 0.25061994791030884
0.27867808938026428 0.6879812479019165 0.080864652991294861
0.37340715527534485 0.68704497814178467 0.07113754004240036
0.51162457466125488 0.67906439304351807 0.070471756160259247
0.66771113872528076 0.66823554039001465 0.075726374983787537
0.81116247177124023 0.65760505199432373 0.095019415020942688
0.93022364377975464 0.64091730117797852 0.16252358257770538
0.99685251712799072 0.61469972133636475 0.25959905982017517
0.35406166315078735 0.80753332376480103 0.034558825194835663
0.43064028024673462 0.80875235795974731 0.031578347086906433
0.56486046314239502 0.80389761924743652 0.025378776714205742
0.72042697668075562 0.80155742168426514 0.014994333498179913
0.87560683488845825 0.79705172777175903 0.015026960521936417
0.98991245031356812 0.78611916303634644 0.037173669785261154
0.99985986948013306 0.77422988414764404 0.14713697135448456
0.34452769160270691 0.93003791570663452 0.0013825061032548547
0.42838484048843384 0.9295814037322998 0.00057660270249471068
0.56086963415145874 0.92940068244934082 0.0014420752413570881
0.71802949905395508 0.92813563346862793 0.0023801615461707115
0.88453364372253418 0.92502039670944214 0.002329209353774786
0.99648576974868774 0.91808855533599854 0.0027049344498664141
1 0.9097258448600769 0.0083594527095556259
0.050448548048734665 0.048204101622104645 0.18104319274425507
0.20660635828971863 0.039557766169309616 0.16635036468505859
0.36519056558609009 0.03513336181640625 0.1548164039850235
0.52851313352584839 0.016733042895793915 0.1428728848695755
0.68609702587127686 0.0034267052542418242 0.13843543827533722
0.82537144422531128 0.0073492014780640602 0.16689403355121613
0.94937115907669067 0.0002446791622787714 0.2042868584394455
0.10288091748952866 0.22139085829257965 0.21972265839576721
0.21877284348011017 0.21261602640151978 0.20995143055915833
0.38083663582801819 0.18927490711212158 0.19618144631385803
0.54820334911346436 0.15521422028541565 0.18464916944503784
0.70193064212799072 0.10497019439935684 0.17957012355327606
0.83545619249343872 0.038044814020395279 0.17798504233360291
0.95306628942489624 0.0022205428685992956 0.19543269276618958
0.08659081906080246 0.39035496115684509 0.25235000252723694
0.2250264585018158 0.38183394074440002 0.25231358408927917
0.39637768268585205 0.36451515555381775 0.23861831426620483
0.56771618127822876 0.33673828840255737 0.23121941089630127
0.71639418601989746 0.30196166038513184 0.23472779989242554
0.85087907314300537 0.24787122011184692 0.23475238680839539
0.96672427654266357 0.13685327768325806 0.24575099349021912
0.1348920464515686 0.54979401826858521 0.24220839142799377
0.25923833250999451 0.54661327600479126 0.24291583895683289
0.42170986533164978 0.53622180223464966 0.23575057089328766
0.58543401956558228 0.52115762233734131 0.23880217969417572
0.73835456371307373 0.4966205358505249 0.25221109390258789
0.8736148476600647 0.47143951058387756 0.2826445996761322
0.98543798923492432 0.41405746340751648 0.31610170006752014
0.26089075207710266 0.69357115030288696 0.15881690382957458
0.3482336699962616 0.68893581628799438 0.16584755480289459
0.49002310633659363 0.68022394180297852 0.16308702528476715
0.63755649328231812 0.67372214794158936 0.17572043836116791
0.78101497888565063 0.66448402404785156 0.20995275676250458
0.90599274635314941 0.64642614126205444 0.26930639147758484
0.99436300992965698 0.62152004241943359 0.3328852653503418
0.39252808690071106 0.8108707070350647 0.043208613991737366
0.46500673890113831 0.81022757291793823 0.040103208273649216
0.58579999208450317 0.80628448724746704 0.040444169193506241
0.72779542207717896 0.80437648296356201 0.039480604231357574
0.86039108037948608 0.79751616716384888 0.060769848525524139
0.96800953149795532 0.78865146636962891 0.11898241192102432
0.99968326091766357 0.7743600606918335 0.26949697732925415
0.38850352168083191 0.93185663223266602 0.0014781877398490906
0.46078631281852722 0.93278986215591431 0.0013617571676149964
0.58079653978347778 0.93141442537307739 0.0047297906130552292
0.74489825963973999 0.9214666485786438 0.0030806597787886858
0.89966118335723877 0.92301070690155029 0.0015604505315423012
0.99844026565551758 0.91976940631866455 0.0027743920218199492
1 0.91252309083938599 0.012452173978090286
0.056367896497249603 0.04676302894949913 0.30253458023071289
0.20632070302963257 0.042755622416734695 0.28633463382720947
0.36394205689430237 0.029032988473773003 0.26786214113235474
0.51614797115325928 0.016490606591105461 0.25351786613464355
0.66762840747833252 0.0033661786001175642 0.24008430540561676
0.80840551853179932 0.0033889322075992823 0.25502780079841614
0.93320930004119873 0.0014585457975044847 0.27236592769622803
0.10548046231269836 0.2240404337644577 0.34962180256843567
0.21552596986293793 0.21125373244285583 0.33610546588897705
0.3803240954875946 0.18834137916564941 0.31681159138679504
0.53479510545730591 0.15684197843074799 0.29887455701828003
0.68055182695388794 0.10267535597085953 0.28271970152854919
0.81706684827804565 0.035022959113121033 0.26741212606430054
0.93958377838134766 0.0050650052726268768 0.27372217178344727
0.081659428775310516 0.39411148428916931 0.39156624674797058
0.21341466903686523 0.38267627358436584 0.38014659285545349
0.3840077817440033 0.3655599057674408 0.3645232617855072
0.54726886749267578 0.34288665652275085 0.35265174508094788
0.69590193033218384 0.30220827460289001 0.34714752435684204
0.83160322904586792 0.25056648254394531 0.34155464172363281
0.95546233654022217 0.1360192745923996 0.32838594913482666
0.089203029870986938 0.55624151229858398 0.40689003467559814
0.22494654357433319 0.54633921384811401 0.40036839246749878
0.39408028125762939 0.54114270210266113 0.39285719394683838
0.55898863077163696 0.52508002519607544 0.38845551013946533
0.71218323707580566 0.50054258108139038 0.39055049419403076
0.84853905439376831 0.47195336222648621 0.39807882905006409
0.9717898964881897 0.41492202877998352 0.40729603171348572
0.18576197326183319 0.69627916812896729 0.37173852324485779
0.28933301568031311 0.69124412536621094 0.36834579706192017
0.43835073709487915 0.68664687871932983 0.36762127280235291
0.59254616498947144 0.67805331945419312 0.3787047266960144
0.73793143033981323 0.66662240028381348 0.38885059952735901
0.86927896738052368 0.65381461381912231 0.41494739055633545
0.97700738906860352 0.62011140584945679 0.44974610209465027
0.36652722954750061 0.8166314959526062 0.21222700178623199
0.43149641156196594 0.81566828489303589 0.21387360990047455
0.54074347019195557 0.8130456805229187 0.22459760308265686
0.66684061288833618 0.80944812297821045 0.25430411100387573
0.79298436641693115 0.80396854877471924 0.29179921746253967
0.91290086507797241 0.79605293273925781 0.35584613680839539
0.99293535947799683 0.77948510646820068 0.43629196286201477
0.46125635504722595 0.93589091300964355 0.0022068845573812723
0.52287977933883667 0.93281263113021851 0.0034241320099681616
0.63042289018630981 0.93352627754211426 0.0025327196344733238
0.77080899477005005 0.93020814657211304 0.0030357360374182463
0.91083157062530518 0.92854028940200806 0.0058783139102160931
0.99787551164627075 0.92286926507949829 0.024633670225739479
1 0.91772282123565674 0.14528736472129822
0.058639973402023315 0.043530646711587906 0.41575580835342407
0.21760417520999908 0.035238977521657944 0.3920096755027771
0.36729437112808228 0.021700376644730568 0.37205609679222107
0.51430642604827881 0.013465582393109798 0.35230922698974609
0.66194838285446167 0.0038201576098799706 0.33299985527992249
0.79594630002975464 0.0049803638830780983 0.34155777096748352
0.92180818319320679 0.00074181647505611181 0.34584948420524597
0.11764737218618393 0.21984028816223145 0.47207757830619812
0.22256292402744293 0.20362205803394318 0.45462909340858459
0.37956494092941284 0.18002410233020782 0.42876163125038147
0.52336788177490234 0.15866011381149292 0.40417811274528503
0.66783756017684937 0.10023467242717743 0.38227501511573792
0.80202025175094604 0.031646296381950378 0.35657966136932373
0.92266106605529785 0.0017502129776403308 0.34940755367279053
0.10054329037666321 0.39350154995918274 0.52133560180664062
0.22681862115859985 0.37969896197319031 0.50436878204345703
0.37943854928016663 0.36600524187088013 0.49197357892990112
0.53494131565093994 0.3435291051864624 0.46976712346076965
0.67759543657302856 0.29969650506973267 0.45283284783363342
0.81492018699645996 0.23684029281139374 0.43280443549156189
0.94091373682022095 0.12283721566200256 0.40568476915359497
0.085848823189735413 0.55686277151107788 0.5618097186088562
0.217211052775383 0.54956269264221191 0.54893708229064941
0.3776479959487915 0.53544819355010986 0.53587967157363892
0.5366634726524353 0.52626031637191772 0.52669596672058105
0.68868166208267212 0.49721059203147888 0.51094669103622437
0.8282279372215271 0.4684734046459198 0.50526398420333862
0.95266109704971313 0.40662804245948792 0.49834409356117249
0.12129554152488708 0.70041215419769287 0.57036304473876953
0.24018211662769318 0.69458222389221191 0.56811678409576416
0.39546492695808411 0.68559688329696655 0.55836164951324463
0.55220144987106323 0.67922186851501465 0.54945188760757446
0.70110148191452026 0.66582632064819336 0.5385703444480896
0.83734619617462158 0.65496671199798584 0.5511246919631958
0.96291971206665039 0.6156964898109436 0.55717843770980835
0.255239337682724 0.82160252332687378 0.51631408929824829
0.33246451616287231 0.81941628456115723 0.51932096481323242
0.45819017291069031 0.81663447618484497 0.51512187719345093
0.59401386976242065 0.81214696168899536 0.51981079578399658
0.7291988730430603 0.80711609125137329 0.52620691061019897
0.86292409896850586 0.79854261875152588 0.54072481393814087
0.97561866044998169 0.77873259782791138 0.57193452119827271
0.49260523915290833 0.93887341022491455 0.13702087104320526
0.53744232654571533 0.93863463401794434 0.14175467193126678
0.62550407648086548 0.93850827217102051 0.15408623218536377
0.73607063293457031 0.93729788064956665 0.18100777268409729
0.85324442386627197 0.93603205680847168 0.22569534182548523
0.95398557186126709 0.9328911304473877 0.30601876974105835
0.99880945682525635 0.92622202634811401 0.44454815983772278
0.080902397632598877 0.038845032453536987 0.51167100667953491
0.2451779842376709 0.037061981856822968 0.48806008696556091
0.38182452321052551 0.024501994252204895 0.46835404634475708
0.51678466796875 0.0097367381677031517 0.44780710339546204
0.65815114974975586 0.0040326286107301712 0.42735069990158081
0.7863466739654541 0.0039215688593685627 0.42236495018005371
0.90246874094009399 0.00018992704281117767 0.42067572474479675
0.14349184930324554 0.20722478628158569 0.56788873672485352
0.25485485792160034 0.19657911360263824 0.55098617076873779
0.38942670822143555 0.17999318242073059 0.53040885925292969
0.52299708127975464 0.14853395521640778 0.50427925586700439
0.66215759515762329 0.08684171736240387 0.47191965579986572
0.79132908582687378 0.027281023561954498 0.44072264432907104
0.9094243049621582 0.0017805660609155893 0.42693516612052917
0.16067880392074585 0.38037675619125366 0.62560367584228516
0.26457127928733826 0.37710320949554443 0.6142084002494812
0.39284154772758484 0.36619573831558228 0.60200375318527222
0.53340202569961548 0.33401021361351013 0.57224071025848389
0.67141574621200562 0.29443821310997009 0.5464400053024292
0.80357849597930908 0.22780969738960266 0.51819872856140137
0.92427247762680054 0.10889231413602829 0.48138552904129028
0.1573842465877533 0.54923325777053833 0.67933446168899536
0.25768503546714783 0.54990071058273315 0.67137664556503296
0.39283522963523865 0.53465020656585693 0.65238481760025024
0.5342400074005127 0.52474230527877808 0.63999724388122559
0.67811316251754761 0.49453622102737427 0.61935335397720337
0.81309592723846436 0.45901459455490112 0.60139274597167969
0.94025039672851562 0.3985130786895752 0.5837557315826416
0.163278728723526 0.69710856676101685 0.71106559038162231
0.26211413741111755 0.69395601749420166 0.70366418361663818
0.3977779746055603 0.68757498264312744 0.6932101845741272
0.53683078289031982 0.67869341373443604 0.68135511875152588
0.67861306667327881 0.66625690460205078 0.66872423887252808
0.81563848257064819 0.6447184681892395 0.65262454748153687
0.94570595026016235 0.61055612564086914 0.64628946781158447
0.22609804570674896 0.82495379447937012 0.71044087409973145
0.30522868037223816 0.82263040542602539 0.7025110125541687
0.42778578400611877 0.82076334953308105 0.69298797845840454
0.55743491649627686 0.81555503606796265 0.68745696544647217
0.69175171852111816 0.81055587530136108 0.68387776613235474
0.82597976922988892 0.80136120319366455 0.68149703741073608
0.96009933948516846 0.78216570615768433 0.69019049406051636
0.33834072947502136 0.94910711050033569 0.57085639238357544
0.39190122485160828 0.94809097051620483 0.57355219125747681
0.4926447868347168 0.94772964715957642 0.57333636283874512
0.61219865083694458 0.94582033157348633 0.58034414052963257
0.73931437730789185 0.94278204441070557 0.59488046169281006
0.86807912588119507 0.93939632177352905 0.61475563049316406
0.98436850309371948 0.92841142416000366 0.65034115314483643
0.15134099125862122 0.031065532937645912 0.59498077630996704
0.28333890438079834 0.030176663771271706 0.57637614011764526
0.40445590019226074 0.020704098045825958 0.55296504497528076
0.52528184652328491 0.0073900707066059113 0.53068035840988159
0.66028714179992676 0.0033130121883004904 0.50929337739944458
0.78590500354766846 0 0.50044584274291992
0.89824312925338745 0 0.49324148893356323
0.21537622809410095 0.19512936472892761 0.65191727876663208
0.30176988244056702 0.18705670535564423 0.638619065284729
0.41328603029251099 0.16319721937179565 0.61429649591445923
0.53879296779632568 0.12568952143192291 0.58633923530578613
0.66390252113342285 0.071931950747966766 0.552440345287323
0.78692805767059326 0.01419620867818594 0.51657330989837646
0.90353167057037354 0.00098996632732450962 0.50043505430221558
0.25926387310028076 0.36771240830421448 0.70625001192092896
0.32692435383796692 0.36431050300598145 0.70398354530334473
0.43004664778709412 0.35465586185455322 0.68625730276107788
0.54859054088592529 0.32819005846977234 0.66088676452636719
0.6729661226272583 0.28553265333175659 0.63319104909896851
0.79585319757461548 0.20697371661663055 0.59679275751113892
0.91495883464813232 0.0847763791680336 0.54929220676422119
0.25683024525642395 0.54507648944854736 0.76667821407318115
0.3229486346244812 0.54131293296813965 0.76411449909210205
0.42655208706855774 0.53282821178436279 0.75035220384597778
0.55510497093200684 0.51901865005493164 0.73020452260971069
0.677520751953125 0.49338719248771667 0.70941162109375
0.80520784854888916 0.45237648487091064 0.68480861186981201
0.92845642566680908 0.38357439637184143 0.65549278259277344
0.26448586583137512 0.69600540399551392 0.81317555904388428
0.32734593749046326 0.69220525026321411 0.80745404958724976
0.42861631512641907 0.68765711784362793 0.79834437370300293
0.55313974618911743 0.67542600631713867 0.78298097848892212
0.67646276950836182 0.66376215219497681 0.76624363660812378
0.8076777458190918 0.64365774393081665 0.75021696090698242
0.9341815710067749 0.61151206493377686 0.73466771841049194
0.28274935483932495 0.82613903284072876 0.84208166599273682
0.34026005864143372 0.82552093267440796 0.83390086889266968
0.44091254472732544 0.82118231058120728 0.82374089956283569
0.55418282747268677 0.81654852628707886 0.8179735541343689
0.6795189380645752 0.81217002868652344 0.80722570419311523
0.808033287525177 0.8005252480506897 0.79757034778594971
0.93939471244812012 0.78242099285125732 0.7890620231628418
0.28367021679878235 0.95551985502243042 0.81594425439834595
0.33799517154693604 0.95282864570617676 0.81415325403213501
0.43749156594276428 0.94978386163711548 0.81286013126373291
0.55727189779281616 0.95065939426422119 0.80353444814682007
0.695201575756073 0.9459613561630249 0.79415076971054077
0.82338887453079224 0.94285482168197632 0.79878109693527222
0.95821517705917358 0.93593692779541016 0.80378502607345581
0.24621826410293579 0.023909909650683403 0.66039919853210449
0.34322300553321838 0.015591565519571304 0.63919377326965332
0.43976175785064697 0.011635215952992439 0.6153101921081543
0.55171525478363037 0.0049096797592937946 0.60776108503341675
0.67090952396392822 0.0056180916726589203 0.58725357055664062
0.78440338373184204 0 0.56660181283950806
0.89286935329437256 0 0.55619043111801147
0.31588223576545715 0.17732247710227966 0.71308332681655884
0.37033030390739441 0.16216526925563812 0.70133394002914429
0.46222120523452759 0.13496673107147217 0.67982727289199829
0.56593412160873413 0.10047993063926697 0.64918875694274902
0.67726641893386841 0.044508915394544601 0.61662113666534424
0.78966104984283447 0.0083105945959687233 0.58514147996902466
0.9003416895866394 0.00028097114409320056 0.566383957862854
0.34911426901817322 0.35772436857223511 0.77953428030014038
0.39664173126220703 0.34871354699134827 0.77064001560211182
0.47722402215003967 0.33645406365394592 0.75250214338302612
0.58058685064315796 0.31569620966911316 0.73083144426345825
0.6909949779510498 0.26595059037208557 0.70181983709335327
0.80120748281478882 0.18568858504295349 0.66314345598220825
0.9099891185760498 0.057526607066392899 0.60498946905136108
0.3635154664516449 0.54152882099151611 0.84307992458343506
0.40584716200828552 0.5329774022102356 0.83902597427368164
0.48672077059745789 0.52845817804336548 0.82439506053924561
0.59262406826019287 0.515281081199646 0.8098214864730835
0.699390709400177 0.48463362455368042 0.78218626976013184
0.81252855062484741 0.4407275915145874 0.75688010454177856
0.92935407161712646 0.36496308445930481 0.72211259603500366
0.37777447700500488 0.69385379552841187 0.89622241258621216
0.41379940509796143 0.6888006329536438 0.89198607206344604
0.49197280406951904 0.68461620807647705 0.87922918796539307
0.59169089794158936 0.67671382427215576 0.866252601146698
0.69774675369262695 0.66326028108596802 0.84809446334838867
0.81374317407608032 0.63955312967300415 0.83337289094924927
0.92880314588546753 0.6028631329536438 0.81211698055267334
0.39536970853805542 0.82478088140487671 0.93893676996231079
0.42468491196632385 0.82260704040527344 0.93442744016647339
0.50108832120895386 0.82278358936309814 0.92703545093536377
0.59138458967208862 0.81886518001556396 0.92048937082290649
0.69564646482467651 0.81027358770370483 0.90802472829818726
0.80997532606124878 0.79917114973068237 0.88717418909072876
0.93124812841415405 0.78087633848190308 0.87302666902542114
0.37953358888626099 0.96006757020950317 0.96760636568069458
0.41156217455863953 0.95741283893585205 0.97047173976898193
0.48152688145637512 0.95946627855300903 0.96550923585891724
0.57947814464569092 0.95649981498718262 0.95366048812866211
0.68614810705184937 0.95683783292770386 0.95198684930801392
0.80112040042877197 0.95353728532791138 0.94637846946716309
0.94331926107406616 0.94631874561309814 0.93520998954772949
