luts/negative_color/fuji_superia_reala_100.cube
# Created by: G'MIC (https://gmic.eu)
TITLE "fuji_superia_reala_100"
# LUT size
LUT_3D_SIZE 5
# Data domain
DOMAIN_MIN 0.0 0.0 0.0
DOMAIN_MAX 1.0 1.0 1.0
# LUT data points
0.056049421429634094 0.048758398741483688 0.041386846452951431
0.29749384522438049 0.038772612810134888 0.033789016306400299
0.54936903715133667 0.013989811763167381 0.024799900129437447
0.78097653388977051 0.0039935093373060226 0.042475186288356781
0.96909451484680176 0 0.11785297840833664
0.10211730748414993 0.30561965703964233 0.1253352165222168
0.31655403971672058 0.28656789660453796 0.10951635241508484
0.57631289958953857 0.24291551113128662 0.10042145848274231
0.79571574926376343 0.17596003413200378 0.11051458865404129
0.97280979156494141 0.03580201044678688 0.14616638422012329
0.16884909570217133 0.54477912187576294 0.13352504372596741
0.36459338665008545 0.53898578882217407 0.12600795924663544
0.60815894603729248 0.52086257934570312 0.13226412236690521
0.82832300662994385 0.48377391695976257 0.16791193187236786
0.99139463901519775 0.40751397609710693 0.25061994791030884
0.32377740740776062 0.7510794997215271 0.054082579910755157
0.47482025623321533 0.74776393175125122 0.045971110463142395
0.70513015985488892 0.73890966176986694 0.03417346253991127
0.90708154439926147 0.72419768571853638 0.070658661425113678
0.9981456995010376 0.69971990585327148 0.22901695966720581
0.34452769160270691 0.93003791570663452 0.0013825061032548547
0.48805901408195496 0.92990481853485107 0.0025045657530426979
0.71802949905395508 0.92813563346862793 0.0023801615461707115
0.9635881781578064 0.92278540134429932 0.00066742242779582739
1 0.9097258448600769 0.0083594527095556259
0.053810898214578629 0.047724869102239609 0.24420684576034546
0.28486937284469604 0.041363436728715897 0.22173292934894562
0.51912772655487061 0.016584165394306183 0.19867719709873199
0.74636846780776978 0.0049920775927603245 0.20162390172481537
0.93995398283004761 0.00090444227680563927 0.23686671257019043
0.081483639776706696 0.3099532425403595 0.30460721254348755
0.2993181049823761 0.28800356388092041 0.28943109512329102
0.55043476819992065 0.24690404534339905 0.26770210266113281
0.76683264970779419 0.16763177514076233 0.25939241051673889
0.95368200540542603 0.032003425061702728 0.25075682997703552
0.11509517580270767 0.55417287349700928 0.32371640205383301
0.32577794790267944 0.54301518201828003 0.31386101245880127
0.57259416580200195 0.52479475736618042 0.31385335326194763
0.79452717304229736 0.4859156608581543 0.33338987827301025
0.97654688358306885 0.41714280843734741 0.35887458920478821
0.31402420997619629 0.75606620311737061 0.19152951240539551
0.44762417674064636 0.75181519985198975 0.18466648459434509
0.65107625722885132 0.74186855554580688 0.21576432883739471
0.84970951080322266 0.73192751407623291 0.28016588091850281
0.99292904138565063 0.70214265584945679 0.38017398118972778
0.42340737581253052 0.93248647451400757 0.0012273152824491262
0.54381603002548218 0.93290287256240845 0.0023381400387734175
0.75684899091720581 0.92713397741317749 0.0022030251566320658
0.97747218608856201 0.92425787448883057 0.0018860760610550642
1 0.91353636980056763 0.043302156031131744
0.058639973402023315 0.043530646711587906 0.41575580835342407
0.2952907383441925 0.029783435165882111 0.38304135203361511
0.51430642604827881 0.013465582393109798 0.35230922698974609
0.72993391752243042 0.0032404433004558086 0.33428645133972168
0.92180818319320679 0.00074181647505611181 0.34584948420524597
0.098758429288864136 0.30820566415786743 0.49776282906532288
0.30559682846069336 0.28089568018913269 0.47022366523742676
0.52950823307037354 0.25150477886199951 0.43625861406326294
0.74004638195037842 0.1616818904876709 0.40545180439949036
0.93174582719802856 0.022976774722337723 0.36466452479362488
0.085848823189735413 0.55686277151107788 0.5618097186088562
0.29746347665786743 0.54228818416595459 0.54360449314117432
0.5366634726524353 0.52626031637191772 0.52669596672058105
0.7601315975189209 0.4831138551235199 0.50623506307601929
0.95266109704971313 0.40662804245948792 0.49834409356117249
0.17795068025588989 0.76265698671340942 0.55887192487716675
0.34560418128967285 0.75697189569473267 0.55136829614639282
0.5695071816444397 0.74816715717315674 0.54747843742370605
0.78002172708511353 0.73497682809829712 0.54617655277252197
0.97206836938858032 0.70319318771362305 0.5718497633934021
0.49260523915290833 0.93887341022491455 0.13702087104320526
0.57675653696060181 0.93796223402023315 0.15008039772510529
0.73607063293457031 0.93729788064956665 0.18100777268409729
0.90691721439361572 0.93474709987640381 0.26380166411399841
0.99880945682525635 0.92622202634811401 0.44454815983772278
0.11778830736875534 0.034895040094852448 0.55664163827896118
0.32977092266082764 0.032439406961202621 0.52320253849029541
0.5193932056427002 0.0079747363924980164 0.49133068323135376
0.72257781028747559 0.00074242986738681793 0.46170791983604431
0.89921849966049194 0 0.45698529481887817
0.20025455951690674 0.28711670637130737 0.63854902982711792
0.34598344564437866 0.27765905857086182 0.62101501226425171
0.53264278173446655 0.23305097222328186 0.58365511894226074
0.73025494813919067 0.14504393935203552 0.53309851884841919
0.90887713432312012 0.013021446764469147 0.47776848077774048
0.20681647956371307 0.54807043075561523 0.72632426023483276
0.34389588236808777 0.5405922532081604 0.71384745836257935
0.53837984800338745 0.52332639694213867 0.68956315517425537
0.74414879083633423 0.4753774106502533 0.65402567386627197
0.93364053964614868 0.39383634924888611 0.62075984477996826
0.22463469207286835 0.76300466060638428 0.77924996614456177
0.35443958640098572 0.76062977313995361 0.76733410358428955
0.5454593300819397 0.75007444620132446 0.75272440910339355
0.74425804615020752 0.7318611741065979 0.73068320751190186
0.94320464134216309 0.70050430297851562 0.71648043394088745
0.28980833292007446 0.95243316888809204 0.71271544694900513
0.39464262127876282 0.95058655738830566 0.70848745107650757
0.57574307918548584 0.94899934530258179 0.70745253562927246
0.77209621667861938 0.9443095326423645 0.71341866254806519
0.97234869003295898 0.92895317077636719 0.73021501302719116
0.24621826410293579 0.023909909650683403 0.66039919853210449
0.39616358280181885 0.015819938853383064 0.63585376739501953
0.55171525478363037 0.0049096797592937946 0.60776108503341675
0.72745394706726074 0.0015606001252308488 0.57471871376037598
0.89286935329437256 0 0.55619043111801147
0.3329046368598938 0.26905432343482971 0.74772447347640991
0.42396414279937744 0.24428065121173859 0.72430980205535889
0.57385694980621338 0.20601047575473785 0.68894374370574951
0.73843103647232056 0.10377279669046402 0.63654166460037231
0.90263658761978149 0.0051038851961493492 0.57400310039520264
0.3635154664516449 0.54152882099151611 0.84307992458343506
0.44352000951766968 0.53082609176635742 0.83161872625350952
0.59262406826019287 0.515281081199646 0.8098214864730835
0.7559514045715332 0.46551766991615295 0.77193880081176758
0.92935407161712646 0.36496308445930481 0.72211259603500366
0.38625842332839966 0.76091104745864868 0.91767460107803345
0.45593160390853882 0.75853240489959717 0.91407132148742676
0.59226351976394653 0.74996691942214966 0.89689463376998901
0.75419598817825317 0.73137962818145752 0.87285959720611572
0.92988401651382446 0.6982235312461853 0.84754198789596558
0.37953358888626099 0.96006757020950317 0.96760636568069458
0.44507142901420593 0.95830893516540527 0.96767961978912354
0.57947814464569092 0.95649981498718262 0.95366048812866211
0.74233591556549072 0.95599627494812012 0.95069509744644165
0.94331926107406616 0.94631874561309814 0.93520998954772949
