luts/negative_color/fuji_superia_x-tra_800.cube
# Created by: G'MIC (https://gmic.eu)
TITLE "fuji_superia_x-tra_800"
# LUT size
LUT_3D_SIZE 7
# Data domain
DOMAIN_MIN 0.0 0.0 0.0
DOMAIN_MAX 1.0 1.0 1.0
# LUT data points
0.055197428911924362 0.044232595711946487 0.037496019154787064
0.19575825333595276 0.041354622691869736 0.03274289146065712
0.33963263034820557 0.024690590798854828 0.030379919335246086
0.47854018211364746 0.011788670904934406 0.030305091291666031
0.61643856763839722 0.0042640836909413338 0.039201758801937103
0.74600714445114136 0.0023472656030207872 0.066811569035053253
0.85466498136520386 0 0.12562340497970581
0.115006223320961 0.19942739605903625 0.096384264528751373
0.22008170187473297 0.19148682057857513 0.088691651821136475
0.36149844527244568 0.17306964099407196 0.074859395623207092
0.50083720684051514 0.14689910411834717 0.082829676568508148
0.63179928064346313 0.10199927538633347 0.080622516572475433
0.75257903337478638 0.035725776106119156 0.084996558725833893
0.85945659875869751 0.00072554044891148806 0.12310419976711273
0.16472038626670837 0.34615626931190491 0.13868281245231628
0.26718625426292419 0.34383460879325867 0.13560017943382263
0.39339044690132141 0.32952043414115906 0.13695131242275238
0.52880913019180298 0.303953617811203 0.13622568547725677
0.65473347902297974 0.25994652509689331 0.15531250834465027
0.77295869588851929 0.20141734182834625 0.17362536489963531
0.88036906719207764 0.097262196242809296 0.17523594200611115
0.26105886697769165 0.49468958377838135 0.13487614691257477
0.34320220351219177 0.49722331762313843 0.12728387117385864
0.46484649181365967 0.48373419046401978 0.13290190696716309
0.58195871114730835 0.46919146180152893 0.14883412420749664
0.69676268100738525 0.44967448711395264 0.20815388858318329
0.81442499160766602 0.40524151921272278 0.24204429984092712
0.91965442895889282 0.33534947037696838 0.28098967671394348
0.33951407670974731 0.63465362787246704 0.12052377313375473
0.41367805004119873 0.63441503047943115 0.10686081647872925
0.54061639308929443 0.63179284334182739 0.091623343527317047
0.66976469755172729 0.62275940179824829 0.087279587984085083
0.77745383977890015 0.60951429605484009 0.1544654369354248
0.86849063634872437 0.59085166454315186 0.25084200501441956
0.96012383699417114 0.55084496736526489 0.3449043333530426
0.37690144777297974 0.76436835527420044 0.13960827887058258
0.44683995842933655 0.7678525447845459 0.11379684507846832
0.56943148374557495 0.76809680461883545 0.078643083572387695
0.7211795449256897 0.76497966051101685 0.040319494903087616
0.88367342948913574 0.76142454147338867 0.035073358565568924
0.95939213037490845 0.74486684799194336 0.11930307000875473
0.99544745683670044 0.71916639804840088 0.31095945835113525
0.29359155893325806 0.91106027364730835 0.21265821158885956
0.37800264358520508 0.91361987590789795 0.1916627436876297
0.53048074245452881 0.91525435447692871 0.13712514936923981
0.71729981899261475 0.91476935148239136 0.03646150603890419
0.89634579420089722 0.91141229867935181 0.0049411100335419178
0.9958617091178894 0.90468293428421021 0.005928458645939827
1 0.89543408155441284 0.042064756155014038
0.042873024940490723 0.050360407680273056 0.15766534209251404
0.17717786133289337 0.039438899606466293 0.13801394402980804
0.3167203962802887 0.031991127878427505 0.12799465656280518
0.45527365803718567 0.016410497948527336 0.12047741562128067
0.59765541553497314 0.0080174319446086884 0.11769583076238632
0.73202675580978394 0.0011160457506775856 0.1280180960893631
0.84074181318283081 0 0.16382981836795807
0.099174410104751587 0.20767013728618622 0.21039482951164246
0.20305705070495605 0.19621680676937103 0.19699202477931976
0.33749508857727051 0.17676845192909241 0.18389703333377838
0.4766499400138855 0.14275212585926056 0.16988642513751984
0.61251556873321533 0.092754468321800232 0.15827576816082001
0.73993515968322754 0.031664710491895676 0.14841948449611664
0.84796220064163208 0.001892149681225419 0.16223762929439545
0.14727111160755157 0.34945401549339294 0.23710642755031586
0.24584813416004181 0.34862270951271057 0.23206470906734467
0.37087798118591309 0.33846887946128845 0.22944885492324829
0.50807648897171021 0.30914923548698425 0.21936812996864319
0.63794219493865967 0.26190665364265442 0.22156482934951782
0.76182913780212402 0.20601889491081238 0.22896802425384521
0.87140554189682007 0.10057718306779861 0.21607257425785065
0.23252370953559875 0.49750664830207825 0.22154988348484039
0.30856835842132568 0.49997621774673462 0.23100967705249786
0.42046165466308594 0.4897628128528595 0.23585833609104156
0.54470467567443848 0.47238361835479736 0.24937616288661957
0.6717333197593689 0.44630339741706848 0.28103834390640259
0.79387384653091431 0.39725753664970398 0.29922977089881897
0.90855264663696289 0.33265742659568787 0.31670424342155457
0.35671636462211609 0.64253431558609009 0.14250241219997406
0.41473761200904846 0.63816756010055542 0.14099280536174774
0.51332205533981323 0.63190257549285889 0.15979760885238647
0.63144630193710327 0.62389296293258667 0.18733976781368256
0.74248868227005005 0.61106157302856445 0.24680562317371368
0.8441280722618103 0.58689022064208984 0.31367763876914978
0.94645136594772339 0.55004501342773438 0.38493147492408752
0.40405857563018799 0.77472317218780518 0.14232435822486877
0.4758942723274231 0.76957505941390991 0.10691423714160919
0.59728109836578369 0.76881462335586548 0.077524103224277496
0.74845618009567261 0.76638424396514893 0.05038948729634285
0.87300145626068115 0.76255911588668823 0.08157755434513092
0.93575239181518555 0.74613708257675171 0.21411581337451935
0.98595041036605835 0.71802824735641479 0.37678703665733337
0.34141805768013 0.91465073823928833 0.20392002165317535
0.42033034563064575 0.91543173789978027 0.18080182373523712
0.56406289339065552 0.9136427640914917 0.12103859335184097
0.73966401815414429 0.91583245992660522 0.03196302056312561
0.90948879718780518 0.91619133949279785 0.0074067655950784683
0.99897235631942749 0.91225296258926392 0.0064717908389866352
1 0.89960938692092896 0.10225100070238113
0.041343104094266891 0.050349786877632141 0.25832581520080566
0.17535366117954254 0.041865929961204529 0.22536630928516388
0.30761578679084778 0.033126905560493469 0.20862941443920135
0.44850099086761475 0.024463444948196411 0.1984134316444397
0.58658468723297119 0.0087578119710087776 0.1830676943063736
0.71561998128890991 0.0039215688593685627 0.18760399520397186
0.83933186531066895 3.7339155824156478e-05 0.20796190202236176
0.085894025862216949 0.21237735450267792 0.3126472532749176
0.1925235241651535 0.20088304579257965 0.29639503359794617
0.32391256093978882 0.18256646394729614 0.27474144101142883
0.46229779720306396 0.15425670146942139 0.25625789165496826
0.59848958253860474 0.10335147380828857 0.23516298830509186
0.72384154796600342 0.038078680634498596 0.20931324362754822
0.84353601932525635 0.0021475998219102621 0.20443649590015411
0.10328374803066254 0.35535961389541626 0.35437688231468201
0.21143053472042084 0.3528289794921875 0.34698906540870667
0.34320086240768433 0.33604788780212402 0.32754361629486084
0.48377907276153564 0.31488814949989319 0.3164885938167572
0.61830270290374756 0.27121922373771667 0.30860432982444763
0.7464367151260376 0.2115461677312851 0.29379153251647949
0.86477416753768921 0.10245389491319656 0.26403796672821045
0.16711843013763428 0.50322902202606201 0.3658083975315094
0.25121602416038513 0.50357711315155029 0.36368995904922485
0.37452459335327148 0.49150139093399048 0.35800307989120483
0.50975185632705688 0.47487714886665344 0.35929524898529053
0.64956843852996826 0.45061430335044861 0.36956736445426941
0.77491277456283569 0.40567690134048462 0.37323537468910217
0.89620810747146606 0.3490319550037384 0.37636253237724304
0.28049242496490479 0.63982552289962769 0.31506586074829102
0.34427401423454285 0.64028894901275635 0.32060897350311279
0.4480455219745636 0.63471198081970215 0.33300304412841797
0.57454520463943481 0.62769919633865356 0.35056307911872864
0.69819056987762451 0.61151552200317383 0.37127146124839783
0.80848973989486694 0.59157580137252808 0.41411858797073364
0.92991697788238525 0.55208462476730347 0.44979715347290039
0.45458614826202393 0.77180951833724976 0.14067259430885315
0.5080147385597229 0.7725222110748291 0.13450469076633453
0.59996259212493896 0.77101945877075195 0.14692409336566925
0.70273071527481079 0.76807260513305664 0.19300909340381622
0.79076415300369263 0.75800001621246338 0.28046900033950806
0.87887847423553467 0.74398219585418701 0.37409350275993347
0.97394704818725586 0.71899223327636719 0.47033029794692993
0.43287777900695801 0.9183354377746582 0.17775721848011017
0.49090883135795593 0.91938024759292603 0.15718407928943634
0.61962449550628662 0.91984766721725464 0.094412572681903839
0.77662128210067749 0.92138385772705078 0.022855781018733978
0.93244266510009766 0.92096871137619019 0.0049375495873391628
0.99795573949813843 0.91541409492492676 0.033124331384897232
0.99993610382080078 0.90093100070953369 0.27093356847763062
0.046477001160383224 0.056043587625026703 0.35410013794898987
0.17898692190647125 0.046806350350379944 0.3177390992641449
0.30023974180221558 0.038968045264482498 0.29719612002372742
0.4367671012878418 0.023774284869432449 0.27876335382461548
0.57509404420852661 0.010627926327288151 0.2575995922088623
0.70702767372131348 0.0062749823555350304 0.25337830185890198
0.82517445087432861 0.00073529413202777505 0.25946033000946045
0.10555288195610046 0.22219257056713104 0.41307401657104492
0.19337394833564758 0.20663566887378693 0.39382272958755493
0.31816843152046204 0.18810807168483734 0.37051111459732056
0.45510339736938477 0.15927848219871521 0.3455943763256073
0.58997529745101929 0.11272919923067093 0.31888288259506226
0.714244544506073 0.050210855901241302 0.280140221118927
0.82948392629623413 0.0046829222701489925 0.25694796442985535
0.094319768249988556 0.36152812838554382 0.47009566426277161
0.19706521928310394 0.35546058416366577 0.4549853503704071
0.3330821692943573 0.33667096495628357 0.43294119834899902
0.47321984171867371 0.31560546159744263 0.4162699282169342
0.60863769054412842 0.28532698750495911 0.39464926719665527
0.73956394195556641 0.233474001288414 0.3740612268447876
0.85753613710403442 0.11246952414512634 0.32262486219406128
0.10222493857145309 0.50442641973495483 0.50839173793792725
0.20862694084644318 0.49896460771560669 0.50300854444503784
0.34655791521072388 0.49095571041107178 0.48884528875350952
0.4882315993309021 0.47738939523696899 0.47869974374771118
0.6293213963508606 0.45452764630317688 0.46162125468254089
0.75834399461746216 0.41577732563018799 0.4539298415184021
0.88468325138092041 0.35094353556632996 0.43650847673416138
0.18172216415405273 0.63876014947891235 0.50727909803390503
0.26631572842597961 0.63657784461975098 0.50531101226806641
0.38944548368453979 0.63674062490463257 0.50561892986297607
0.5268787145614624 0.62803977727890015 0.50028777122497559
0.65824490785598755 0.61254799365997314 0.4983508288860321
0.78105556964874268 0.59189945459365845 0.50826102495193481
0.90994447469711304 0.55799883604049683 0.51784789562225342
0.35056376457214355 0.77099299430847168 0.41526541113853455
0.40234720706939697 0.77242213487625122 0.4232647716999054
0.49568244814872742 0.76898694038391113 0.43519672751426697
0.61020863056182861 0.76728111505508423 0.44708344340324402
0.71644514799118042 0.75913745164871216 0.48116090893745422
0.82871019840240479 0.74439436197280884 0.51642191410064697
0.94856029748916626 0.72522813081741333 0.55602574348449707
0.52884399890899658 0.92644327878952026 0.15296870470046997
0.58261239528656006 0.92722481489181519 0.12836362421512604
0.6844860315322876 0.92839735746383667 0.075946003198623657
0.80634588003158569 0.92527526617050171 0.057193037122488022
0.91083550453186035 0.9236140251159668 0.11835043132305145
0.96348631381988525 0.9192085862159729 0.25655150413513184
0.99635076522827148 0.90280288457870483 0.47621434926986694
0.068081587553024292 0.064908824861049652 0.44626897573471069
0.18918362259864807 0.056046519428491592 0.41291806101799011
0.3089483380317688 0.04622223973274231 0.38253885507583618
0.43824982643127441 0.032642006874084473 0.35653004050254822
0.57012087106704712 0.011165648698806763 0.32651242613792419
0.69924598932266235 0.0063928044401109219 0.31255528330802917
0.82481169700622559 0.0012008666526526213 0.30411794781684875
0.10780352354049683 0.22720979154109955 0.51302206516265869
0.19948948919773102 0.21960647404193878 0.49820426106452942
0.3249850869178772 0.20271019637584686 0.47171923518180847
0.45424485206604004 0.17462639510631561 0.44274860620498657
0.58558690547943115 0.13201197981834412 0.40307420492172241
0.7074466347694397 0.060280624777078629 0.35045930743217468
0.82675647735595703 0.0070179058238863945 0.31176331639289856
0.10368549078702927 0.36767038702964783 0.57760047912597656
0.20134741067886353 0.3593066930770874 0.5584447979927063
0.33331197500228882 0.34630024433135986 0.53790187835693359
0.47031870484352112 0.325481116771698 0.51451915502548218
0.60268890857696533 0.29275113344192505 0.48341980576515198
0.72906482219696045 0.24491964280605316 0.44847968220710754
0.84845417737960815 0.12531132996082306 0.38640603423118591
0.089066445827484131 0.51120972633361816 0.63255900144577026
0.1992746889591217 0.50426286458969116 0.6196935772895813
0.33741432428359985 0.4947071373462677 0.60124707221984863
0.47534731030464172 0.48152151703834534 0.58271414041519165
0.61186790466308594 0.4608970582485199 0.55814272165298462
0.7439531683921814 0.42351773381233215 0.53290057182312012
0.86992305517196655 0.3599553108215332 0.50216788053512573
0.13418404757976532 0.64359486103057861 0.65919488668441772
0.231781005859375 0.64213031530380249 0.6531912088394165
0.3636053204536438 0.63777869939804077 0.64171808958053589
0.49706494808197021 0.63052505254745483 0.62503498792648315
0.63413703441619873 0.61841702461242676 0.60598325729370117
0.75967162847518921 0.5953865647315979 0.60247302055358887
0.89246964454650879 0.56709825992584229 0.59797418117523193
0.25018826127052307 0.77319902181625366 0.64109265804290771
0.31910404562950134 0.77331095933914185 0.63482725620269775
0.42454749345779419 0.77146965265274048 0.6366574764251709
0.54367607831954956 0.76786673069000244 0.62998408079147339
0.66529595851898193 0.76009714603424072 0.62874013185501099
0.78915810585021973 0.74630230665206909 0.63511502742767334
0.92512315511703491 0.72826659679412842 0.64943152666091919
0.50124281644821167 0.93091964721679688 0.35858631134033203
0.53795927762985229 0.93088263273239136 0.36108553409576416
0.60869032144546509 0.93035447597503662 0.37640249729156494
0.6933819055557251 0.92876535654067993 0.41390413045883179
0.77840709686279297 0.92541825771331787 0.47629156708717346
0.87160563468933105 0.91830533742904663 0.55623060464859009
0.97563987970352173 0.9050028920173645 0.6364368200302124
0.10012099146842957 0.086542002856731415 0.53308618068695068
0.21649883687496185 0.069177024066448212 0.49721068143844604
0.32968512177467346 0.053825661540031433 0.46377146244049072
0.45142829418182373 0.040666975080966949 0.42676842212677002
0.57208353281021118 0.024117354303598404 0.39349284768104553
0.69716387987136841 0.0092824902385473251 0.3780810534954071
0.81908655166625977 0.0016139311483129859 0.35870596766471863
0.13595488667488098 0.24314668774604797 0.60329592227935791
0.22804760932922363 0.23134483397006989 0.58286070823669434
0.3483574390411377 0.21460892260074615 0.55399096012115479
0.46569696068763733 0.18867436051368713 0.51704776287078857
0.59001666307449341 0.1449853777885437 0.4766274094581604
0.70529359579086304 0.076193824410438538 0.42346808314323425
0.82069164514541626 0.008761327713727951 0.37227526307106018
0.15486446022987366 0.38052910566329956 0.66166907548904419
0.234514981508255 0.37417861819267273 0.64841276407241821
0.35588467121124268 0.35793891549110413 0.62449616193771362
0.47719910740852356 0.33621910214424133 0.5966111421585083
0.60593259334564209 0.30817502737045288 0.56453990936279297
0.72457349300384521 0.25997748970985413 0.52458202838897705
0.83971786499023438 0.13716639578342438 0.45305463671684265
0.16716569662094116 0.52366667985916138 0.72038179636001587
0.23795138299465179 0.51939719915390015 0.71347838640213013
0.35648247599601746 0.50881540775299072 0.69529145956039429
0.48213282227516174 0.49036329984664917 0.67079579830169678
0.61001622676849365 0.4742395281791687 0.64460080862045288
0.73351871967315674 0.43772557377815247 0.61689251661300659
0.86525589227676392 0.37927231192588806 0.57683813571929932
0.19342078268527985 0.65374422073364258 0.76824593544006348
0.26733407378196716 0.65054243803024292 0.75956869125366211
0.37037679553031921 0.64415210485458374 0.74793821573257446
0.49693739414215088 0.63753920793533325 0.72751480340957642
0.61735755205154419 0.62380838394165039 0.71341651678085327
0.74254107475280762 0.60716146230697632 0.69515568017959595
0.87943726778030396 0.57235217094421387 0.67193412780761719
0.25073197484016418 0.7791936993598938 0.79292184114456177
0.30990666151046753 0.77533137798309326 0.78354513645172119
0.40848386287689209 0.77525120973587036 0.77532505989074707
0.52138489484786987 0.7752259373664856 0.76228898763656616
0.63273751735687256 0.7645643949508667 0.75855016708374023
0.76105600595474243 0.74817579984664917 0.74489122629165649
0.8984074592590332 0.73664551973342896 0.73274272680282593
0.31706398725509644 0.92949146032333374 0.72995650768280029
0.36525511741638184 0.93026530742645264 0.72899407148361206
0.44873765110969543 0.92974257469177246 0.73353719711303711
0.55272740125656128 0.92809253931045532 0.73647886514663696
0.66966837644577026 0.92680102586746216 0.73879355192184448
0.79672956466674805 0.92419427633285522 0.74555337429046631
0.94885623455047607 0.9138791561126709 0.76780492067337036
0.16573362052440643 0.11203616112470627 0.60458612442016602
0.2642521858215332 0.094523832201957703 0.57389450073242188
0.36550465226173401 0.075165584683418274 0.54000759124755859
0.47178488969802856 0.047969639301300049 0.49493741989135742
0.5836520791053772 0.021513801068067551 0.45358610153198242
0.69577705860137939 0.0083016194403171539 0.43462720513343811
0.81620568037033081 0.00073529413202777505 0.40792033076286316
0.20735627412796021 0.26634478569030762 0.67369234561920166
0.2818814218044281 0.25505527853965759 0.65483832359313965
0.37887835502624512 0.23656235635280609 0.62831848859786987
0.4878389835357666 0.20788531005382538 0.59159243106842041
0.59682238101959229 0.16568538546562195 0.54601919651031494
0.70379751920700073 0.097118720412254333 0.49630600214004517
0.81831753253936768 0.013493257574737072 0.42985677719116211
0.23995037376880646 0.39892441034317017 0.73724138736724854
0.29410895705223083 0.38957706093788147 0.72260808944702148
0.38910043239593506 0.37737172842025757 0.70560586452484131
0.49872913956642151 0.35477077960968018 0.67232149839401245
0.60824596881866455 0.32929953932762146 0.64029312133789062
0.72007030248641968 0.27549615502357483 0.59988713264465332
0.83765393495559692 0.16525162756443024 0.52933973073959351
0.26363018155097961 0.53311717510223389 0.80097061395645142
0.31103095412254333 0.52848356962203979 0.79166793823242188
0.40052372217178345 0.52017825841903687 0.77582705020904541
0.5054699182510376 0.51375627517700195 0.76006871461868286
0.61563456058502197 0.48874476552009583 0.72646111249923706
0.72976213693618774 0.45624813437461853 0.69899833202362061
0.85820817947387695 0.39674222469329834 0.65368843078613281
0.28483596444129944 0.6575198769569397 0.85494577884674072
0.3303782045841217 0.65384596586227417 0.84864479303359985
0.41252842545509338 0.64860814809799194 0.82865947484970093
0.51436710357666016 0.65088587999343872 0.82088011503219604
0.62142801284790039 0.63078653812408447 0.80174028873443604
0.73744553327560425 0.61471235752105713 0.7821582555770874
0.87070834636688232 0.58632564544677734 0.75465160608291626
0.31600892543792725 0.78373485803604126 0.9123418927192688
0.35441574454307556 0.78373020887374878 0.90430319309234619
0.42826718091964722 0.78114694356918335 0.897411048412323
0.52096295356750488 0.78050893545150757 0.88856607675552368
0.62701642513275146 0.77122610807418823 0.87339550256729126
0.75243663787841797 0.75539088249206543 0.84956324100494385
0.8881639838218689 0.74225634336471558 0.83504712581634521
0.29109722375869751 0.93669688701629639 0.94514679908752441
0.32732957601547241 0.93720746040344238 0.94772708415985107
0.40535780787467957 0.93793332576751709 0.94336551427841187
0.50443536043167114 0.94105082750320435 0.93675690889358521
0.62115287780761719 0.94086700677871704 0.92977195978164673
0.75017476081848145 0.93492728471755981 0.92340201139450073
0.92035102844238281 0.93134409189224243 0.91893857717514038
