luts/negative_color/fuji_superia_reala_100.cube
# Created by: G'MIC (https://gmic.eu)
TITLE "fuji_superia_reala_100"
# LUT size
LUT_3D_SIZE 13
# Data domain
DOMAIN_MIN 0.0 0.0 0.0
DOMAIN_MAX 1.0 1.0 1.0
# LUT data points
0.056049421429634094 0.048758398741483688 0.041386846452951431
0.1371920257806778 0.044132068753242493 0.038536295294761658
0.21813471615314484 0.040439456701278687 0.036905836313962936
0.29749384522438049 0.038772612810134888 0.033789016306400299
0.37964314222335815 0.032823808491230011 0.030841004103422165
0.46505445241928101 0.025411104783415794 0.029561584815382957
0.54936903715133667 0.013989811763167381 0.024799900129437447
0.63262742757797241 0.008273046463727951 0.028063291683793068
0.71107882261276245 0.0050329770892858505 0.03238716721534729
0.78097653388977051 0.0039935093373060226 0.042475186288356781
0.85010999441146851 0.002268682699650526 0.053069081157445908
0.91322219371795654 0.00029654407990165055 0.080163456499576569
0.96909451484680176 0 0.11785297840833664
0.088777147233486176 0.13742654025554657 0.066096827387809753
0.1439935714006424 0.13067775964736938 0.05735180526971817
0.22166790068149567 0.12456323951482773 0.054775778204202652
0.30337539315223694 0.11693215370178223 0.047954019159078598
0.38846215605735779 0.10556408762931824 0.048888307064771652
0.47615012526512146 0.089307494461536407 0.044018689543008804
0.56103456020355225 0.068663127720355988 0.037390045821666718
0.6405799388885498 0.047538995742797852 0.041565284132957458
0.71812039613723755 0.028569448739290237 0.039808806031942368
0.78545254468917847 0.017371084541082382 0.04983806237578392
0.85237044095993042 0.0067754257470369339 0.062411557883024216
0.91153138875961304 0.0022058673202991486 0.08824622631072998
0.9664115309715271 7.9704732343088835e-05 0.12293227016925812
0.11190377175807953 0.22103005647659302 0.095938950777053833
0.15873502194881439 0.21422457695007324 0.09098159521818161
0.22790913283824921 0.20926740765571594 0.085095077753067017
0.30894750356674194 0.20193676650524139 0.07800745964050293
0.39529484510421753 0.18844245374202728 0.07500583678483963
0.48444333672523499 0.17147019505500793 0.070841766893863678
0.57003545761108398 0.15257200598716736 0.068053886294364929
0.64734703302383423 0.13029572367668152 0.071347765624523163
0.72284847497940063 0.10559739917516708 0.069293707609176636
0.79180246591567993 0.078526578843593597 0.074513785541057587
0.85568588972091675 0.044557161629199982 0.086745105683803558
0.91421014070510864 0.014960045926272869 0.099635675549507141
0.96868234872817993 0.0040455088019371033 0.12479446828365326
0.10211730748414993 0.30561965703964233 0.1253352165222168
0.16479024291038513 0.30037567019462585 0.12291472405195236
0.23664259910583496 0.29502791166305542 0.11560001969337463
0.31655403971672058 0.28656789660453796 0.10951635241508484
0.40195456147193909 0.27511128783226013 0.10490962117910385
0.49089241027832031 0.26098677515983582 0.10117515176534653
0.57631289958953857 0.24291551113128662 0.10042145848274231
0.65391427278518677 0.22511763870716095 0.10343722254037857
0.72808408737182617 0.20542924106121063 0.104048952460289
0.79571574926376343 0.17596003413200378 0.11051458865404129
0.86016958951950073 0.13442476093769073 0.12285195291042328
0.92259252071380615 0.083614781498908997 0.13180556893348694
0.97280979156494141 0.03580201044678688 0.14616638422012329
0.11081340909004211 0.38761505484580994 0.14209665358066559
0.17298741638660431 0.38611748814582825 0.14337325096130371
0.24364964663982391 0.38085395097732544 0.13785938918590546
0.32666894793510437 0.37280896306037903 0.13441489636898041
0.41184538602828979 0.36380437016487122 0.13065139949321747
0.49724656343460083 0.35526394844055176 0.12684907019138336
0.5807114839553833 0.34059050679206848 0.12700213491916656
0.66185981035232544 0.32581660151481628 0.13103510439395905
0.73657375574111938 0.30834367871284485 0.13424244523048401
0.80315285921096802 0.28145328164100647 0.14241071045398712
0.86855357885360718 0.24586547911167145 0.1540522575378418
0.9313240647315979 0.20264269411563873 0.16984571516513824
0.9787217378616333 0.14123763144016266 0.18398670852184296
0.13763920962810516 0.46764567494392395 0.1464192122220993
0.19246821105480194 0.46507158875465393 0.14557322859764099
0.25777509808540344 0.46368935704231262 0.14256663620471954
0.3418373167514801 0.46061888337135315 0.1414451003074646
0.42642331123352051 0.45449787378311157 0.13807336986064911
0.50925916433334351 0.44643723964691162 0.13470195233821869
0.5915672779083252 0.43497779965400696 0.13695593178272247
0.67309302091598511 0.42194250226020813 0.1417103111743927
0.74712145328521729 0.40854933857917786 0.15065112709999084
0.81428617238998413 0.38955801725387573 0.1659216582775116
0.88115489482879639 0.36226490139961243 0.18097116053104401
0.94107317924499512 0.323293536901474 0.20079086720943451
0.98396933078765869 0.27246367931365967 0.22049358487129211
0.16884909570217133 0.54477912187576294 0.13352504372596741
0.21972577273845673 0.54379743337631226 0.13051186501979828
0.28823256492614746 0.54113447666168213 0.12800249457359314
0.36459338665008545 0.53898578882217407 0.12600795924663544
0.44517350196838379 0.53677403926849365 0.1263132244348526
0.5249868631362915 0.5311431884765625 0.12693324685096741
0.60815894603729248 0.52086257934570312 0.13226412236690521
0.68914860486984253 0.51285016536712646 0.13565221428871155
0.76062428951263428 0.50016921758651733 0.14673440158367157
0.82832300662994385 0.48377391695976257 0.16791193187236786
0.89307951927185059 0.46407467126846313 0.19514758884906769
0.95307308435440063 0.43985778093338013 0.22384969890117645
0.99139463901519775 0.40751397609710693 0.25061994791030884
0.22063060104846954 0.61711478233337402 0.11133324354887009
0.26242172718048096 0.61844050884246826 0.10586485266685486
0.32577639818191528 0.61573606729507446 0.10429303348064423
0.39232063293457031 0.61521613597869873 0.10113731771707535
0.47110438346862793 0.61043262481689453 0.10240011662244797
0.55101966857910156 0.60689562559127808 0.10397610813379288
0.63137978315353394 0.59847193956375122 0.11089330911636353
0.71237093210220337 0.59271186590194702 0.11550968885421753
0.7828255295753479 0.58578288555145264 0.13070701062679291
0.84703922271728516 0.57414424419403076 0.15876103937625885
0.90688413381576538 0.55505800247192383 0.19130910933017731
0.96653139591217041 0.53742074966430664 0.22258804738521576
0.9950716495513916 0.51605319976806641 0.26077774167060852
0.27867808938026428 0.6879812479019165 0.080864652991294861
0.31895676255226135 0.68899184465408325 0.073512688279151917
0.37340715527534485 0.68704497814178467 0.07113754004240036
0.4384104311466217 0.68272572755813599 0.07089175283908844
0.51162457466125488 0.67906439304351807 0.070471756160259247
0.58842700719833374 0.67569679021835327 0.071022093296051025
0.66771113872528076 0.66823554039001465 0.075726374983787537
0.74427223205566406 0.66247338056564331 0.079345181584358215
0.81116247177124023 0.65760505199432373 0.095019415020942688
0.87276375293731689 0.65009337663650513 0.12289358675479889
0.93022364377975464 0.64091730117797852 0.16252358257770538
0.98233944177627563 0.63203024864196777 0.20486287772655487
0.99685251712799072 0.61469972133636475 0.25959905982017517
0.32377740740776062 0.7510794997215271 0.054082579910755157
0.3575056791305542 0.75189632177352905 0.051674786955118179
0.40864211320877075 0.74879932403564453 0.04857451468706131
0.47482025623321533 0.74776393175125122 0.045971110463142395
0.54929268360137939 0.74397760629653931 0.041368104517459869
0.62915897369384766 0.74236965179443359 0.03464171290397644
0.70513015985488892 0.73890966176986694 0.03417346253991127
0.77926290035247803 0.73403257131576538 0.037783589214086533
0.84540367126464844 0.72968196868896484 0.050255525857210159
0.90708154439926147 0.72419768571853638 0.070658661425113678
0.96328246593475342 0.71629178524017334 0.10077499598264694
0.99205130338668823 0.71109038591384888 0.1494809091091156
0.9981456995010376 0.69971990585327148 0.22901695966720581
0.35406166315078735 0.80753332376480103 0.034558825194835663
0.38277500867843628 0.8100355863571167 0.03380134329199791
0.43064028024673462 0.80875235795974731 0.031578347086906433
0.49293044209480286 0.80615013837814331 0.029144063591957092
0.56486046314239502 0.80389761924743652 0.025378776714205742
0.6447177529335022 0.80210483074188232 0.01774127408862114
0.72042697668075562 0.80155742168426514 0.014994333498179913
0.79896402359008789 0.80051541328430176 0.012813612818717957
0.87560683488845825 0.79705172777175903 0.015026960521936417
0.94781959056854248 0.79171919822692871 0.021703427657485008
0.98991245031356812 0.78611916303634644 0.037173669785261154
0.99677687883377075 0.78147590160369873 0.069501064717769623
0.99985986948013306 0.77422988414764404 0.14713697135448456
0.37369254231452942 0.86654794216156006 0.014501429162919521
0.39671516418457031 0.86796879768371582 0.015178201720118523
0.44690331816673279 0.86791908740997314 0.012074279598891735
0.50521421432495117 0.8662903904914856 0.012758636847138405
0.57633399963378906 0.86553001403808594 0.010511704720556736
0.65218812227249146 0.86339771747589111 0.0069700502790510654
0.72328722476959229 0.8634108304977417 0.0074133030138909817
0.79871851205825806 0.8648756742477417 0.0078358966857194901
0.88243240118026733 0.8615952730178833 0.0070180105976760387
0.9632796049118042 0.85703861713409424 0.0035498973447829485
0.9942745566368103 0.85066896677017212 0.0091014187783002853
0.99955642223358154 0.8472474217414856 0.015647290274500847
1 0.84248286485671997 0.041805088520050049
0.34452769160270691 0.93003791570663452 0.0013825061032548547
0.37818902730941772 0.93051624298095703 0.00073529413202777505
0.42838484048843384 0.9295814037322998 0.00057660270249471068
0.48805901408195496 0.92990481853485107 0.0025045657530426979
0.56086963415145874 0.92940068244934082 0.0014420752413570881
0.64059370756149292 0.92855638265609741 0.0010493708541616797
0.71802949905395508 0.92813563346862793 0.0023801615461707115
0.79864805936813354 0.92626547813415527 0.0028795727994292974
0.88453364372253418 0.92502039670944214 0.002329209353774786
0.9635881781578064 0.92278540134429932 0.00066742242779582739
0.99648576974868774 0.91808855533599854 0.0027049344498664141
1 0.9151800274848938 0.0044560153037309647
1 0.9097258448600769 0.0083594527095556259
0.053016588091850281 0.048295352607965469 0.11328032612800598
0.13248209655284882 0.045118503272533417 0.10690997540950775
0.21275468170642853 0.040783032774925232 0.10189126431941986
0.29178225994110107 0.039983339607715607 0.097985602915287018
0.37098509073257446 0.035652518272399902 0.092836089432239532
0.45531639456748962 0.027911646291613579 0.086727529764175415
0.53985428810119629 0.017605291679501534 0.082332462072372437
0.62027573585510254 0.010041180998086929 0.082416653633117676
0.69680726528167725 0.0057098688557744026 0.085424028337001801
0.76656144857406616 0.0047583039849996567 0.096684776246547699
0.8370063304901123 0.0055768927559256554 0.11310240626335144
0.9009246826171875 0.0033758874051272869 0.13662263751029968
0.95950400829315186 0.00036208209348842502 0.16568407416343689
0.084846928715705872 0.13884678483009338 0.13679997622966766
0.14359335601329803 0.13025881350040436 0.12646481394767761
0.21839047968387604 0.12460297346115112 0.12119955569505692
0.29759129881858826 0.1171375960111618 0.11426044255495071
0.37866014242172241 0.10546891391277313 0.10866132378578186
0.46543830633163452 0.090469136834144592 0.10349016636610031
0.55060398578643799 0.071935303509235382 0.099777832627296448
0.63055717945098877 0.049875371158123016 0.097727753221988678
0.70440077781677246 0.031308762729167938 0.097729355096817017
0.77188056707382202 0.017893174663186073 0.10715269297361374
0.8402743935585022 0.01201165933161974 0.12168975174427032
0.9016222357749939 0.0057135787792503834 0.14012168347835541
0.95657968521118164 0.0012825611047446728 0.16143803298473358
0.10416820645332336 0.22094196081161499 0.15574349462985992
0.15427367389202118 0.21488793194293976 0.14883588254451752
0.22328446805477142 0.21052773296833038 0.14370203018188477
0.30466634035110474 0.20264667272567749 0.13659258186817169
0.388051837682724 0.1887081116437912 0.13166922330856323
0.47505152225494385 0.17279745638370514 0.12774227559566498
0.56057900190353394 0.15289819240570068 0.12372905015945435
0.63962304592132568 0.12972138822078705 0.12375097721815109
0.71263366937637329 0.1067507416009903 0.1245209202170372
0.78022688627243042 0.075708098709583282 0.12929773330688477
0.84551811218261719 0.040129628032445908 0.13377144932746887
0.90345138311386108 0.016831476241350174 0.14324308931827545
0.95764648914337158 0.0047765397466719151 0.16004544496536255
0.095826886594295502 0.30509129166603088 0.17634153366088867
0.15603373944759369 0.29993611574172974 0.17371444404125214
0.23026274144649506 0.29554998874664307 0.17016616463661194
0.3123718798160553 0.28705963492393494 0.16311898827552795
0.3975430428981781 0.27553856372833252 0.15773044526576996
0.48285064101219177 0.26173850893974304 0.15385489165782928
0.56759768724441528 0.24171534180641174 0.1503366231918335
0.64613884687423706 0.22249896824359894 0.15210671722888947
0.71890437602996826 0.20164336264133453 0.15341576933860779
0.78707253932952881 0.17249196767807007 0.15737758576869965
0.85246723890304565 0.13810083270072937 0.16257686913013458
0.91200035810470581 0.087551340460777283 0.16966991126537323
0.9632677435874939 0.039502087980508804 0.17836616933345795
0.10018300265073776 0.38739979267120361 0.19165870547294617
0.16315692663192749 0.38533413410186768 0.1937853991985321
0.2365630567073822 0.38127252459526062 0.19228358566761017
0.32008028030395508 0.37340620160102844 0.18620298802852631
0.4060918390750885 0.36406782269477844 0.17933404445648193
0.49174261093139648 0.3539336621761322 0.17518997192382812
0.57469326257705688 0.33698776364326477 0.17375721037387848
0.65287941694259644 0.32268759608268738 0.17788465321063995
0.72612851858139038 0.30532974004745483 0.18201351165771484
0.79492342472076416 0.28255027532577515 0.18466727435588837
0.86067378520965576 0.24966293573379517 0.19116508960723877
0.91978800296783447 0.19966766238212585 0.20270228385925293
0.96997636556625366 0.14114773273468018 0.21341508626937866
0.12064146250486374 0.4675324559211731 0.19193366169929504
0.178953617811203 0.46695950627326965 0.1949908435344696
0.24969074130058289 0.46465286612510681 0.19603560864925385
0.33252391219139099 0.45780518651008606 0.18838568031787872
0.41626036167144775 0.45179510116577148 0.18123573064804077
0.50171619653701782 0.44358131289482117 0.17639365792274475
0.58392083644866943 0.43115869164466858 0.17941860854625702
0.66351306438446045 0.41813758015632629 0.18299639225006104
0.73573398590087891 0.40578955411911011 0.19454661011695862
0.80521506071090698 0.39089158177375793 0.20692990720272064
0.87161284685134888 0.36417123675346375 0.2189164012670517
0.92944693565368652 0.32131078839302063 0.23388299345970154
0.97580742835998535 0.27312281727790833 0.24901172518730164
0.1543995589017868 0.54604744911193848 0.17121578752994537
0.20690062642097473 0.54572522640228271 0.17072433233261108
0.27783718705177307 0.54197096824645996 0.17232297360897064
0.35554364323616028 0.5383489727973938 0.16678063571453094
0.43424481153488159 0.53453463315963745 0.16670875251293182
0.51509547233581543 0.53079760074615479 0.16451035439968109
0.59575545787811279 0.51991307735443115 0.171046182513237
0.67848473787307739 0.51155120134353638 0.17474921047687531
0.75055277347564697 0.49939063191413879 0.18890552222728729
0.81931155920028687 0.48618733882904053 0.21127481758594513
0.88439774513244629 0.46808427572250366 0.23595888912677765
0.94236963987350464 0.44019865989685059 0.25902518630027771
0.98559701442718506 0.40563061833381653 0.28025370836257935
0.20903743803501129 0.62151634693145752 0.13947567343711853
0.25021612644195557 0.62092411518096924 0.14252763986587524
0.31486278772354126 0.61806619167327881 0.14390519261360168
0.38452622294425964 0.61698830127716064 0.13764770328998566
0.46177217364311218 0.60985910892486572 0.14015950262546539
0.54077649116516113 0.60497075319290161 0.14044316112995148
0.61909377574920654 0.59804803133010864 0.14734950661659241
0.6992037296295166 0.59389793872833252 0.15483559668064117
0.77106577157974243 0.58664488792419434 0.17463214695453644
0.83817219734191895 0.57675182819366455 0.2036939412355423
0.89795076847076416 0.55881083011627197 0.23529589176177979
0.95456939935684204 0.54038244485855103 0.26519513130187988
0.99303913116455078 0.52170675992965698 0.29399850964546204
0.27946028113365173 0.69072943925857544 0.10048937052488327
0.3139532208442688 0.69051188230514526 0.1069989949464798
0.36812180280685425 0.687355637550354 0.10484900325536728
0.43286892771720886 0.68395566940307617 0.098866857588291168
0.50404661893844604 0.67922490835189819 0.10028626769781113
0.57819342613220215 0.6762968897819519 0.10396695882081985
0.65407490730285645 0.67047762870788574 0.10948296636343002
0.72823500633239746 0.66568255424499512 0.11672744899988174
0.79913812875747681 0.66152691841125488 0.13270330429077148
0.86313563585281372 0.65293842554092407 0.16669417917728424
0.92000401020050049 0.64202690124511719 0.2101542055606842
0.97239160537719727 0.6318519115447998 0.24952180683612823
0.99596279859542847 0.61913347244262695 0.29209509491920471
0.33983361721038818 0.75214463472366333 0.059466253966093063
0.37014460563659668 0.75212389230728149 0.060785330832004547
0.41866844892501831 0.74987101554870605 0.058221735060214996
0.47931993007659912 0.74801075458526611 0.053415499627590179
0.54859215021133423 0.74615621566772461 0.052709855139255524
0.62396848201751709 0.74316126108169556 0.053193829953670502
0.69590729475021362 0.73970311880111694 0.058701131492853165
0.76681900024414062 0.73611724376678467 0.069152370095252991
0.83398991823196411 0.73267155885696411 0.081450492143630981
0.8939787745475769 0.72650021314620972 0.10737539827823639
0.95171952247619629 0.71959114074707031 0.14338856935501099
0.98883271217346191 0.71347504854202271 0.19826735556125641
0.99776947498321533 0.70129305124282837 0.26863572001457214
0.367829829454422 0.80999183654785156 0.036596246063709259
0.39803114533424377 0.81004899740219116 0.035754948854446411
0.44498381018638611 0.80950832366943359 0.034605048596858978
0.50357401371002197 0.80635273456573486 0.03300769254565239
0.57258981466293335 0.80607837438583374 0.029601003974676132
0.65046113729476929 0.80518126487731934 0.022235168144106865
0.7267688512802124 0.80247586965560913 0.019792040809988976
0.80191755294799805 0.79966163635253906 0.021414065733551979
0.87279939651489258 0.79566580057144165 0.029250441119074821
0.93774360418319702 0.79129362106323242 0.043469671159982681
0.98262107372283936 0.78766143321990967 0.061859790235757828
0.99592441320419312 0.78331905603408813 0.10081049799919128
0.99980688095092773 0.77429348230361938 0.19074857234954834
0.38459581136703491 0.86791616678237915 0.015719814226031303
0.41503602266311646 0.86819720268249512 0.013529579155147076
0.46276494860649109 0.86844110488891602 0.012458248063921928
0.51708030700683594 0.86788976192474365 0.014420557767152786
0.581470787525177 0.86578786373138428 0.014719540253281593
0.65813815593719482 0.86392319202423096 0.011090671643614769
0.73723864555358887 0.86241716146469116 0.007824975997209549
0.8122374415397644 0.86175692081451416 0.0079914769157767296
0.88944751024246216 0.85856246948242188 0.0077065411023795605
0.96471977233886719 0.85518121719360352 0.0053428052924573421
0.99644649028778076 0.85191744565963745 0.01040985994040966
0.99960476160049438 0.84821021556854248 0.023278959095478058
1 0.84216153621673584 0.06587713211774826
0.36351525783538818 0.93060594797134399 0.0011427187127992511
0.39273801445960999 0.93146669864654541 0.00071201700484380126
0.44437825679779053 0.93047744035720825 0.00067222444340586662
0.49815818667411804 0.93111687898635864 0.0025899400934576988
0.5660402774810791 0.92813307046890259 0.0038749994710087776
0.64801716804504395 0.92605197429656982 0.0037498024757951498
0.7289392352104187 0.92807835340499878 0.0024437548127025366
0.80816501379013062 0.92375415563583374 0.0023284314665943384
0.88996177911758423 0.91984689235687256 0.0022094128653407097
0.96170008182525635 0.91951841115951538 0.00074015598511323333
0.99742543697357178 0.91749465465545654 0.0022182241082191467
1 0.91544294357299805 0.0054538953118026257
1 0.90675872564315796 0.0093803554773330688
0.050448548048734665 0.048204101622104645 0.18104319274425507
0.12689179182052612 0.044300664216279984 0.17302486300468445
0.20660635828971863 0.039557766169309616 0.16635036468505859
0.28678044676780701 0.038580533117055893 0.16160127520561218
0.36519056558609009 0.03513336181640625 0.1548164039850235
0.44659620523452759 0.024264570325613022 0.14664743840694427
0.52851313352584839 0.016733042895793915 0.1428728848695755
0.60961711406707764 0.010279202833771706 0.13907520473003387
0.68609702587127686 0.0034267052542418242 0.13843543827533722
0.7552606463432312 0.0056409048847854137 0.15260538458824158
0.82537144422531128 0.0073492014780640602 0.16689403355121613
0.88984781503677368 0.0038806840311735868 0.18391862511634827
0.94937115907669067 0.0002446791622787714 0.2042868584394455
0.080362580716609955 0.13927273452281952 0.20360980927944183
0.14334508776664734 0.13174779713153839 0.19532951712608337
0.21351470053195953 0.12580449879169464 0.18833586573600769
0.29255205392837524 0.11611180007457733 0.18084490299224854
0.37171781063079834 0.1048039123415947 0.17259097099304199
0.45394039154052734 0.089092910289764404 0.16518999636173248
0.53800743818283081 0.071034751832485199 0.16016785800457001
0.6193535327911377 0.048930179327726364 0.15521796047687531
0.69270604848861694 0.028247952461242676 0.15278688073158264
0.76131880283355713 0.01658192090690136 0.15951269865036011
0.82913005352020264 0.009858270175755024 0.16771142184734344
0.89212250709533691 0.0028471704572439194 0.17767861485481262
0.95064049959182739 0.00021220189228188246 0.19692565500736237
0.10288091748952866 0.22139085829257965 0.21972265839576721
0.15230488777160645 0.2174958735704422 0.21526117622852325
0.21877284348011017 0.21261602640151978 0.20995143055915833
0.30009850859642029 0.20256641507148743 0.20304161310195923
0.38083663582801819 0.18927490711212158 0.19618144631385803
0.46308514475822449 0.17591671645641327 0.19010612368583679
0.54820334911346436 0.15521422028541565 0.18464916944503784
0.62996476888656616 0.13135050237178802 0.1804887056350708
0.70193064212799072 0.10497019439935684 0.17957012355327606
0.76974111795425415 0.070461869239807129 0.1788751482963562
0.83545619249343872 0.038044814020395279 0.17798504233360291
0.8960455060005188 0.013370079919695854 0.18138343095779419
0.95306628942489624 0.0022205428685992956 0.19543269276618958
0.08740127831697464 0.30673298239707947 0.23680508136749268
0.14253264665603638 0.30416616797447205 0.23554787039756775
0.22244337201118469 0.29746836423873901 0.23169544339179993
0.30608826875686646 0.28750842809677124 0.22629414498806
0.3894866406917572 0.27591797709465027 0.22014600038528442
0.47356399893760681 0.26404827833175659 0.21359533071517944
0.55865222215652466 0.24401392042636871 0.20847150683403015
0.6379820704460144 0.22427865862846375 0.20695731043815613
0.70867115259170532 0.19897037744522095 0.20721985399723053
0.77602285146713257 0.16912809014320374 0.20673008263111115
0.84233099222183228 0.13151851296424866 0.20570310950279236
0.90378248691558838 0.086099453270435333 0.20835362374782562
0.9588807225227356 0.034811072051525116 0.21213816106319427
0.08659081906080246 0.39035496115684509 0.25235000252723694
0.14649179577827454 0.38864260911941528 0.25493830442428589
0.2250264585018158 0.38183394074440002 0.25231358408927917
0.30894345045089722 0.37223118543624878 0.24734917283058167
0.39637768268585205 0.36451515555381775 0.23861831426620483
0.48364722728729248 0.3551490306854248 0.2323477566242218
