luts/negative_color/fuji_superia_hg_1600.cube
# Created by: G'MIC (https://gmic.eu)
TITLE "fuji_superia_hg_1600"
# LUT size
LUT_3D_SIZE 7
# Data domain
DOMAIN_MIN 0.0 0.0 0.0
DOMAIN_MAX 1.0 1.0 1.0
# LUT data points
0.091529622673988342 0.073744378983974457 0.075635261833667755
0.21189136803150177 0.071569614112377167 0.083896532654762268
0.32567709684371948 0.064731627702713013 0.082640871405601501
0.45585614442825317 0.047070179134607315 0.088202774524688721
0.60863065719604492 0.056667029857635498 0.080517202615737915
0.74546140432357788 0.085047163069248199 0.066917538642883301
0.87812256813049316 0.11503786593675613 0.042204178869724274
0.16659550368785858 0.21684923768043518 0.14995510876178741
0.25046488642692566 0.21309202909469604 0.15751157701015472
0.36292791366577148 0.21056444942951202 0.15745624899864197
0.49810963869094849 0.19943444430828094 0.15304645895957947
0.62830054759979248 0.16986033320426941 0.14789730310440063
0.7281537652015686 0.089699074625968933 0.13576129078865051
0.85207796096801758 0.10057032108306885 0.115753173828125
0.22068504989147186 0.34410539269447327 0.20982782542705536
0.28672909736633301 0.34162452816963196 0.20898301899433136
0.40060910582542419 0.3388822078704834 0.21109500527381897
0.53533947467803955 0.33920738101005554 0.2114318460226059
0.66529631614685059 0.3173658549785614 0.20719866454601288
0.77182590961456299 0.26772111654281616 0.19677625596523285
0.85485458374023438 0.14553666114807129 0.1736140251159668
0.2890656590461731 0.49156779050827026 0.26936379075050354
0.34413567185401917 0.49363863468170166 0.28076654672622681
0.44770675897598267 0.49370157718658447 0.27295961976051331
0.58300817012786865 0.4969465434551239 0.27140587568283081
0.70331466197967529 0.47995719313621521 0.26618897914886475
0.81596285104751587 0.44919493794441223 0.25417450070381165
0.91681784391403198 0.3738284707069397 0.23574495315551758
0.36187553405761719 0.63310253620147705 0.34185642004013062
0.41495060920715332 0.6301581859588623 0.34630921483039856
0.50440484285354614 0.63875079154968262 0.34352141618728638
0.6283908486366272 0.64450186491012573 0.34104898571968079
0.74434763193130493 0.64334022998809814 0.3365790843963623
0.85570257902145386 0.63580560684204102 0.32835027575492859
0.9686858057975769 0.60104542970657349 0.30988201498985291
0.44679668545722961 0.75332468748092651 0.42549979686737061
0.48659005761146545 0.75626510381698608 0.42653968930244446
0.56740778684616089 0.76393002271652222 0.42742308974266052
0.66908645629882812 0.77133756875991821 0.42980876564979553
0.77369999885559082 0.77892911434173584 0.42683595418930054
0.88463437557220459 0.77851742506027222 0.42216432094573975
0.99127936363220215 0.77159601449966431 0.40099793672561646
0.51648217439651489 0.88093549013137817 0.53067785501480103
0.55172824859619141 0.88530325889587402 0.52766412496566772
0.61865228414535522 0.89292550086975098 0.52584296464920044
0.69718050956726074 0.90354388952255249 0.53321331739425659
0.7927175760269165 0.91376614570617676 0.53166216611862183
0.90565824508666992 0.92070603370666504 0.52273547649383545
0.99408066272735596 0.92483478784561157 0.51612770557403564
0.071375720202922821 0.082909740507602692 0.17268356680870056
0.18483874201774597 0.07745099812746048 0.17567458748817444
0.30060791969299316 0.07493755966424942 0.1789160817861557
0.43319758772850037 0.053743802011013031 0.18197351694107056
0.57731878757476807 0.040428251028060913 0.17656953632831573
0.70861905813217163 0.065141342580318451 0.17391102015972137
0.83363062143325806 0.091531820595264435 0.15111555159091949
0.15128138661384583 0.2174113541841507 0.2192048579454422
0.22538758814334869 0.21617014706134796 0.22117553651332855
0.33954194188117981 0.21550576388835907 0.22564230859279633
0.47829169034957886 0.20191654562950134 0.22433611750602722
0.6102297306060791 0.17289426922798157 0.21963056921958923
0.71041405200958252 0.091986939311027527 0.20657661557197571
0.82776451110839844 0.086131662130355835 0.18992771208286285
0.19759179651737213 0.34643250703811646 0.2673799991607666
0.26807647943496704 0.34899029135704041 0.26882463693618774
0.38238775730133057 0.34287524223327637 0.27213087677955627
0.51723170280456543 0.33670696616172791 0.27067303657531738
0.64573913812637329 0.3142966628074646 0.26486527919769287
0.75668644905090332 0.26787778735160828 0.25624039769172668
0.84178107976913452 0.14999225735664368 0.23531718552112579
0.26084637641906738 0.48925870656967163 0.32187864184379578
0.32271146774291992 0.49485230445861816 0.32276827096939087
0.43114551901817322 0.49198785424232483 0.32657343149185181
0.56086969375610352 0.49512311816215515 0.32414421439170837
0.69084864854812622 0.48171526193618774 0.32235008478164673
0.80194181203842163 0.45301976799964905 0.31328132748603821
0.89818006753921509 0.37887552380561829 0.29716977477073669
0.3390030562877655 0.62596225738525391 0.39427918195724487
0.39211112260818481 0.62681025266647339 0.39320564270019531
0.48714166879653931 0.63408154249191284 0.389412522315979
0.60933178663253784 0.64584469795227051 0.39025789499282837
0.73201477527618408 0.64770704507827759 0.38903707265853882
0.84264129400253296 0.63128536939620972 0.38079914450645447
0.95482677221298218 0.59783142805099487 0.36578398942947388
0.43492317199707031 0.75179934501647949 0.47380083799362183
0.46997937560081482 0.75245237350463867 0.47076058387756348
0.55444806814193726 0.75801151990890503 0.47078153491020203
0.65189331769943237 0.76847273111343384 0.47314560413360596
0.7609068751335144 0.77429294586181641 0.4702015221118927
0.87303751707077026 0.77422899007797241 0.46527299284934998
0.98007678985595703 0.76607418060302734 0.45197415351867676
0.50915586948394775 0.88482844829559326 0.56161004304885864
0.54001742601394653 0.88080394268035889 0.55533629655838013
0.60398709774017334 0.89281719923019409 0.55974143743515015
0.68749707937240601 0.89788854122161865 0.56100749969482422
0.78363204002380371 0.90488177537918091 0.55763590335845947
0.89516735076904297 0.91797596216201782 0.55769151449203491
0.99135488271713257 0.92471301555633545 0.54907691478729248
0.055449645966291428 0.093472577631473541 0.25165548920631409
0.16598618030548096 0.088449977338314056 0.25325107574462891
0.28133878111839294 0.080086410045623779 0.25604343414306641
0.41697365045547485 0.06357961893081665 0.25597906112670898
0.55414390563964844 0.035148307681083679 0.25627169013023376
0.6802869439125061 0.04636656865477562 0.26129600405693054
0.81120479106903076 0.075832575559616089 0.23753289878368378
0.12724865972995758 0.22493752837181091 0.29863020777702332
0.20142675936222076 0.22205351293087006 0.3007570207118988
0.3173651397228241 0.21719752252101898 0.30324509739875793
0.45665094256401062 0.20977270603179932 0.30339369177818298
0.59028393030166626 0.18414232134819031 0.30071446299552917
0.68959581851959229 0.10377397388219833 0.29136931896209717
0.7965085506439209 0.067133240401744843 0.27600899338722229
0.15662682056427002 0.34907692670822144 0.34557896852493286
0.23485122621059418 0.35086289048194885 0.34768545627593994
0.35179290175437927 0.34758558869361877 0.35040482878684998
0.48475095629692078 0.33687186241149902 0.34835970401763916
0.62277066707611084 0.32854372262954712 0.3519158661365509
0.73320978879928589 0.27243340015411377 0.34367480874061584
0.8178398609161377 0.15903091430664062 0.32477679848670959
0.219553142786026 0.48999181389808655 0.4041353166103363
0.28912511467933655 0.49746343493461609 0.40876075625419617
0.39818695187568665 0.49609637260437012 0.40836799144744873
0.52933591604232788 0.49762573838233948 0.41093650460243225
0.66171658039093018 0.48882326483726501 0.41327065229415894
0.77587372064590454 0.45868366956710815 0.4045664370059967
0.87512493133544922 0.38976997137069702 0.38843664526939392
0.30574041604995728 0.62298893928527832 0.46881267428398132
0.36032217741012573 0.62697970867156982 0.46900415420532227
0.46100938320159912 0.63612252473831177 0.46834146976470947
0.58146268129348755 0.64485627412796021 0.47046759724617004
0.70106518268585205 0.64073187112808228 0.47292205691337585
0.81483155488967896 0.62374776601791382 0.46580338478088379
0.92800146341323853 0.59831440448760986 0.45522662997245789
0.40513089299201965 0.74820971488952637 0.5381476879119873
0.44714325666427612 0.7521129846572876 0.53540563583374023
0.52908629179000854 0.75736826658248901 0.53518134355545044
0.63307362794876099 0.76701581478118896 0.53982305526733398
0.73931658267974854 0.77074480056762695 0.54376769065856934
0.84800475835800171 0.77004694938659668 0.53715729713439941
0.96550029516220093 0.76085567474365234 0.52594125270843506
0.48911175131797791 0.88466167449951172 0.61527115106582642
0.52043133974075317 0.88418883085250854 0.61013144254684448
0.58325701951980591 0.88612091541290283 0.61092615127563477
0.67071139812469482 0.8986695408821106 0.61454671621322632
0.76698309183120728 0.9044189453125 0.61582392454147339
0.87522619962692261 0.91194576025009155 0.61406004428863525
0.98433494567871094 0.91891610622406006 0.60786789655685425
0.038458865135908127 0.10514984279870987 0.34288674592971802
0.13882631063461304 0.10392918437719345 0.34588810801506042
0.25952225923538208 0.099622748792171478 0.35171937942504883
0.39460974931716919 0.079334154725074768 0.35268253087997437
0.52517962455749512 0.041099190711975098 0.35420578718185425
0.6480451226234436 0.031350303441286087 0.34607937932014465
0.76922893524169922 0.050806846469640732 0.34346482157707214
0.098423928022384644 0.23382321000099182 0.39144089818000793
0.16044659912586212 0.23240797221660614 0.39405173063278198
0.28156557679176331 0.22773164510726929 0.39998626708984375
0.42665493488311768 0.21873927116394043 0.40105050802230835
0.56305855512619019 0.19655245542526245 0.40059429407119751
0.66622769832611084 0.12304399907588959 0.39539965987205505
0.75934290885925293 0.044034022837877274 0.38279184699058533
0.098592095077037811 0.35504120588302612 0.44253829121589661
0.18410764634609222 0.35891494154930115 0.44526779651641846
0.31055733561515808 0.35401931405067444 0.44687771797180176
0.45518758893013 0.35260167717933655 0.45141032338142395
0.5935128927230835 0.33912697434425354 0.45161715149879456
0.70409893989562988 0.2845466136932373 0.44451504945755005
0.79064261913299561 0.17676272988319397 0.43411645293235779
0.16245654225349426 0.49189102649688721 0.49968558549880981
0.23886489868164062 0.49749624729156494 0.50261491537094116
0.35943371057510376 0.4956585168838501 0.50257498025894165
0.49615755677223206 0.5017399787902832 0.50488960742950439
0.63098150491714478 0.49544426798820496 0.50660353899002075
0.74789083003997803 0.46714422106742859 0.50180703401565552
0.84883242845535278 0.39787036180496216 0.49310204386711121
0.25858381390571594 0.61990469694137573 0.55761039257049561
0.31503793597221375 0.62431508302688599 0.55634379386901855
0.42557719349861145 0.6345335841178894 0.55560803413391113
0.55081957578659058 0.63693547248840332 0.55607861280441284
0.67077648639678955 0.63442367315292358 0.56023871898651123
0.78630203008651733 0.62682735919952393 0.56119042634963989
0.89966839551925659 0.59992003440856934 0.55401229858398438
0.37009155750274658 0.74503856897354126 0.61402195692062378
0.41615039110183716 0.74766308069229126 0.61233866214752197
0.49934032559394836 0.75348448753356934 0.61068260669708252
0.60564738512039185 0.76411128044128418 0.61259490251541138
0.71170759201049805 0.76833349466323853 0.61779767274856567
0.82538884878158569 0.76692014932632446 0.6187090277671814
0.94337135553359985 0.75681942701339722 0.61032843589782715
0.46118661761283875 0.87948703765869141 0.67467796802520752
0.49673527479171753 0.88246899843215942 0.67079693078994751
0.55894201993942261 0.87865340709686279 0.66720312833786011
0.64974880218505859 0.89702492952346802 0.67570394277572632
0.74505949020385742 0.90347909927368164 0.67824727296829224
0.85512125492095947 0.90999740362167358 0.67882817983627319
0.97405040264129639 0.91601693630218506 0.67516875267028809
0.023460851982235909 0.12149948626756668 0.4497261643409729
0.10715137422084808 0.12067452073097229 0.45415335893630981
0.22986097633838654 0.12120217829942703 0.45973098278045654
0.37015822529792786 0.10228914767503738 0.46262755990028381
0.5003732442855835 0.062705814838409424 0.46275156736373901
0.60553276538848877 0.014847070910036564 0.46273475885391235
0.73061555624008179 0.029268227517604828 0.45312699675559998
0.07025127112865448 0.2438291609287262 0.49665802717208862
0.10982381552457809 0.24482356011867523 0.4997953474521637
0.24217185378074646 0.24389992654323578 0.50690597295761108
0.39520135521888733 0.23412732779979706 0.50951427221298218
0.53770136833190918 0.21610875427722931 0.51079165935516357
0.64025479555130005 0.15454430878162384 0.5067983865737915
0.71806085109710693 0.027760958299040794 0.49832174181938171
0.040905296802520752 0.36622768640518188 0.54219275712966919
0.11920227110385895 0.36737838387489319 0.54506725072860718
0.26587057113647461 0.36572226881980896 0.54833012819290161
0.42503085732460022 0.36522179841995239 0.55128616094589233
0.56685614585876465 0.35189011693000793 0.55513632297515869
0.67687427997589111 0.30328148603439331 0.55190002918243408
0.76636010408401489 0.20401346683502197 0.54551565647125244
0.085882224142551422 0.49863022565841675 0.58844119310379028
0.17473238706588745 0.50201022624969482 0.59181863069534302
0.31474381685256958 0.50272142887115479 0.59346020221710205
0.46907749772071838 0.50922912359237671 0.59483343362808228
0.6020357608795166 0.50441914796829224 0.59746450185775757
0.7221258282661438 0.47834008932113647 0.59684312343597412
0.82393544912338257 0.41385680437088013 0.59572619199752808
0.21032921969890594 0.6249082088470459 0.63832521438598633
0.27571392059326172 0.62585049867630005 0.63665765523910522
0.39657065272331238 0.6363452672958374 0.63785737752914429
0.52008277177810669 0.63547682762145996 0.63965052366256714
0.6425178050994873 0.63864856958389282 0.64456748962402344
0.75946080684661865 0.63043582439422607 0.64669978618621826
0.87297672033309937 0.60560369491577148 0.64095211029052734
0.33384346961975098 0.7425270676612854 0.68568354845046997
0.38260552287101746 0.74638134241104126 0.68530285358428955
0.47380310297012329 0.75488919019699097 0.6855851411819458
0.57525759935379028 0.75831758975982666 0.68700766563415527
0.68564474582672119 0.76419228315353394 0.69194787740707397
0.7992132306098938 0.76915067434310913 0.69799405336380005
0.9174124002456665 0.76132148504257202 0.69305634498596191
0.43392616510391235 0.88162291049957275 0.73807895183563232
0.46837767958641052 0.88117396831512451 0.73608595132827759
0.53613263368606567 0.88648182153701782 0.73677283525466919
0.62189626693725586 0.89343476295471191 0.73883849382400513
0.72160321474075317 0.89908170700073242 0.74334621429443359
0.83362215757369995 0.91438746452331543 0.74941682815551758
0.96190780401229858 0.92167466878890991 0.74591481685638428
0.015610130503773689 0.14663985371589661 0.55098062753677368
0.084008097648620605 0.14895662665367126 0.55705094337463379
0.20393151044845581 0.14876742660999298 0.56194478273391724
0.3490806519985199 0.13811853528022766 0.566966712474823
0.48418918251991272 0.10291004925966263 0.5692133903503418
0.57633918523788452 0.033756658434867859 0.56672149896621704
0.689342200756073 0.010944576002657413 0.5631592869758606
0.04537239670753479 0.26836028695106506 0.5914267897605896
0.082738615572452545 0.26987314224243164 0.5957409143447876
0.21693192422389984 0.27262592315673828 0.59872210025787354
0.37347149848937988 0.26997083425521851 0.60337179899215698
0.5123409628868103 0.24536077678203583 0.60557210445404053
0.62196594476699829 0.1878608912229538 0.60610395669937134
0.69231820106506348 0.052332919090986252 0.59988385438919067
0.010134648531675339 0.38652536273002625 0.63097995519638062
0.076095134019851685 0.38844546675682068 0.63187962770462036
0.24299821257591248 0.39333030581474304 0.63630247116088867
0.402311772108078 0.39480632543563843 0.64135652780532837
0.54521876573562622 0.38005292415618896 0.64460152387619019
0.65780174732208252 0.3406842052936554 0.64413547515869141
0.75098097324371338 0.2432931512594223 0.64016306400299072
0.029311640188097954 0.51182359457015991 0.67023158073425293
0.12053316831588745 0.51548010110855103 0.67229920625686646
0.2812328040599823 0.52268415689468384 0.67715835571289062
0.4439358115196228 0.52762198448181152 0.68009757995605469
0.5800546407699585 0.52216559648513794 0.6841435432434082
0.69886600971221924 0.50370889902114868 0.68519246578216553
0.80189019441604614 0.439400315284729 0.68335294723510742
0.14537049829959869 0.62763100862503052 0.71469181776046753
0.23010048270225525 0.63162577152252197 0.71484869718551636
0.36816859245300293 0.64328819513320923 0.72061395645141602
0.49529615044593811 0.64892494678497314 0.72409725189208984
0.61649751663208008 0.64707458019256592 0.72654861211776733
0.73654639720916748 0.64208698272705078 0.72957736253738403
0.85095769166946411 0.62267833948135376 0.72883695363998413
0.29478898644447327 0.74338233470916748 0.75941616296768188
0.34312993288040161 0.74526816606521606 0.76006799936294556
0.44143226742744446 0.75599688291549683 0.76325529813766479
0.5479128360748291 0.76265329122543335 0.76594340801239014
0.65583121776580811 0.76344352960586548 0.76807212829589844
0.77214890718460083 0.76766395568847656 0.77517247200012207
0.89615249633789062 0.76268422603607178 0.77278906106948853
0.3975454568862915 0.88028854131698608 0.80893880128860474
0.43734806776046753 0.88370484113693237 0.80984985828399658
0.50511795282363892 0.88977622985839844 0.81153017282485962
0.59318006038665771 0.89729017019271851 0.81387174129486084
0.69403952360153198 0.90707260370254517 0.81785112619400024
0.80677229166030884 0.91357618570327759 0.82084125280380249
0.94740062952041626 0.92129290103912354 0.82134079933166504
0.0085886940360069275 0.18788263201713562 0.64118438959121704
0.071137972176074982 0.19497525691986084 0.64592522382736206
0.18466003239154816 0.19336681067943573 0.65136027336120605
0.33604127168655396 0.18648582696914673 0.65662640333175659
0.47394898533821106 0.15575304627418518 0.65689933300018311
0.57251971960067749 0.091300740838050842 0.65928483009338379
0.65377545356750488 0.0070957406423985958 0.66011941432952881
0.019466893747448921 0.30627310276031494 0.67464840412139893
0.056174799799919128 0.30806848406791687 0.68038332462310791
0.18115885555744171 0.3111824095249176 0.68385326862335205
0.35494658350944519 0.30816152691841125 0.68905496597290039
0.49527692794799805 0.28897938132286072 0.69264107942581177
0.60959279537200928 0.24191606044769287 0.69537639617919922
0.6939510703086853 0.13010364770889282 0.69206506013870239
0.0058643566444516182 0.41410598158836365 0.71214532852172852
0.036210034042596817 0.41779741644859314 0.71448987722396851
0.20689848065376282 0.42264965176582336 0.71792519092559814
0.38359165191650391 0.42717206478118896 0.72311699390411377
0.52662539482116699 0.41622966527938843 0.72695571184158325
0.64204269647598267 0.38335978984832764 0.72974091768264771
0.74289196729660034 0.30232638120651245 0.72990387678146362
0.0063146254979074001 0.52941977977752686 0.74954426288604736
0.056660983711481094 0.53321206569671631 0.75158369541168213
0.24349504709243774 0.53968000411987305 0.75615012645721436
0.42072829604148865 0.54814273118972778 0.76235330104827881
0.55728274583816528 0.54702842235565186 0.76800727844238281
0.67749488353729248 0.52948498725891113 0.76961541175842285
0.78856766223907471 0.48809215426445007 0.7728346586227417
0.076633170247077942 0.63733160495758057 0.793224036693573
0.16819928586483002 0.64278864860534668 0.79604381322860718
0.32754343748092651 0.64992457628250122 0.79689902067184448
0.46951457858085632 0.65961122512817383 0.80287867784500122
0.59277439117431641 0.66550970077514648 0.80981349945068359
0.71186429262161255 0.65738755464553833 0.8115728497505188
0.82969993352890015 0.6431039571762085 0.81575947999954224
0.24739395081996918 0.74694609642028809 0.83894699811935425
0.30783581733703613 0.75363898277282715 0.84200060367584229
0.40890416502952576 0.76079684495925903 0.84363317489624023
0.51609569787979126 0.76859587430953979 0.84903526306152344
0.62768083810806274 0.77499794960021973 0.85339593887329102
0.74337100982666016 0.77440911531448364 0.85843551158905029
0.87242108583450317 0.77528625726699829 0.86013108491897583
0.36000624299049377 0.88199377059936523 0.89371168613433838
0.39492234587669373 0.88617658615112305 0.89716297388076782
0.46421036124229431 0.88862448930740356 0.8967551589012146
0.55735516548156738 0.90120047330856323 0.90217208862304688
0.65965276956558228 0.909187912940979 0.90757077932357788
0.77374875545501709 0.91998302936553955 0.91748058795928955
0.92025262117385864 0.92258250713348389 0.92349964380264282
