luts/negative_color/fuji_superia_x-tra_800.cube
# Created by: G'MIC (https://gmic.eu)
TITLE "fuji_superia_x-tra_800"
# LUT size
LUT_3D_SIZE 13
# Data domain
DOMAIN_MIN 0.0 0.0 0.0
DOMAIN_MAX 1.0 1.0 1.0
# LUT data points
0.055197428911924362 0.044232595711946487 0.037496019154787064
0.12542816996574402 0.042895808815956116 0.035032279789447784
0.19575825333595276 0.041354622691869736 0.03274289146065712
0.26728126406669617 0.033364001661539078 0.03093394823372364
0.33963263034820557 0.024690590798854828 0.030379919335246086
0.41015279293060303 0.015941007062792778 0.03020210936665535
0.47854018211364746 0.011788670904934406 0.030305091291666031
0.5470924973487854 0.0048050526529550552 0.029063476249575615
0.61643856763839722 0.0042640836909413338 0.039201758801937103
0.68476098775863647 0.0039215688593685627 0.048689734190702438
0.74600714445114136 0.0023472656030207872 0.066811569035053253
0.80118930339813232 0 0.097978286445140839
0.85466498136520386 0 0.12562340497970581
0.087242022156715393 0.12583066523075104 0.061674859374761581
0.14279937744140625 0.12222674489021301 0.058603774756193161
0.2063230574131012 0.11604545265436172 0.052340190857648849
0.2779601514339447 0.106134332716465 0.050386689603328705
0.3501623272895813 0.092869415879249573 0.046424686908721924
0.41936519742012024 0.079693891108036041 0.05291912704706192
0.48790949583053589 0.0698065385222435 0.053403217345476151
0.55503982305526733 0.053129892796278 0.050750717520713806
0.62164944410324097 0.032855883240699768 0.051807239651679993
0.68835997581481934 0.013951455242931843 0.051205743104219437
0.74874997138977051 0.0021535537671297789 0.063628748059272766
0.80295884609222412 0.001338898902758956 0.095809534192085266
0.85461890697479248 0 0.12376270443201065
0.115006223320961 0.19942739605903625 0.096384264528751373
0.15714153647422791 0.19803793728351593 0.094876080751419067
0.22008170187473297 0.19148682057857513 0.088691651821136475
0.29066076874732971 0.18218620121479034 0.081853531301021576
0.36149844527244568 0.17306964099407196 0.074859395623207092
0.43086433410644531 0.15944336354732513 0.078528791666030884
0.50083720684051514 0.14689910411834717 0.082829676568508148
0.56731665134429932 0.12854377925395966 0.082700274884700775
0.63179928064346313 0.10199927538633347 0.080622516572475433
0.69620335102081299 0.072283439338207245 0.079760335385799408
0.75257903337478638 0.035725776106119156 0.084996558725833893
0.80542451143264771 0.0077781975269317627 0.098465308547019958
0.85945659875869751 0.00072554044891148806 0.12310419976711273
0.13653595745563507 0.27206972241401672 0.12566860020160675
0.17492355406284332 0.27237951755523682 0.12447845190763474
0.23670247197151184 0.26698023080825806 0.12238030880689621
0.30521729588508606 0.25986284017562866 0.11514019221067429
0.37506994605064392 0.25231006741523743 0.10810983926057816
0.44534677267074585 0.2399708479642868 0.10721468180418015
0.51480972766876221 0.22485972940921783 0.11011874675750732
0.57934403419494629 0.2042136937379837 0.11134912818670273
0.64278090000152588 0.17867381870746613 0.1147172823548317
0.70461976528167725 0.14951422810554504 0.12231490015983582
0.7594602108001709 0.10680972784757614 0.12723343074321747
0.81394326686859131 0.062290117144584656 0.12813571095466614
0.86562108993530273 0.017273576930165291 0.13264362514019012
0.16472038626670837 0.34615626931190491 0.13868281245231628
0.21232186257839203 0.34749838709831238 0.13412551581859589
0.26718625426292419 0.34383460879325867 0.13560017943382263
0.32848048210144043 0.33725464344024658 0.13861764967441559
0.39339044690132141 0.32952043414115906 0.13695131242275238
0.46096819639205933 0.31983420252799988 0.13451708853244781
0.52880913019180298 0.303953617811203 0.13622568547725677
0.59214538335800171 0.28279015421867371 0.14390252530574799
0.65473347902297974 0.25994652509689331 0.15531250834465027
0.71530330181121826 0.23417629301548004 0.16633841395378113
0.77295869588851929 0.20141734182834625 0.17362536489963531
0.82906031608581543 0.16002076864242554 0.1768144965171814
0.88036906719207764 0.097262196242809296 0.17523594200611115
0.21200144290924072 0.41975793242454529 0.13893568515777588
0.25254899263381958 0.42260125279426575 0.13488577306270599
0.30525752902030945 0.42134422063827515 0.13460886478424072
0.36445707082748413 0.41555601358413696 0.13997401297092438
0.42542615532875061 0.407033771276474 0.14532846212387085
0.48469513654708862 0.39804297685623169 0.1487467885017395
0.54572325944900513 0.38705140352249146 0.1600683331489563
0.60930603742599487 0.3706786036491394 0.17729833722114563
0.67210942506790161 0.35102802515029907 0.19056254625320435
0.73231029510498047 0.32746851444244385 0.20331816375255585
0.79095923900604248 0.30188333988189697 0.21651676297187805
0.84878253936767578 0.26922124624252319 0.22652442753314972
0.90069699287414551 0.21547031402587891 0.23288789391517639
0.26105886697769165 0.49468958377838135 0.13487614691257477
0.29561203718185425 0.49760377407073975 0.12842409312725067
0.34320220351219177 0.49722331762313843 0.12728387117385864
0.40393263101577759 0.49213948845863342 0.13058722019195557
0.46484649181365967 0.48373419046401978 0.13290190696716309
0.52404564619064331 0.47506815195083618 0.13449344038963318
0.58195871114730835 0.46919146180152893 0.14883412420749664
0.63839644193649292 0.46175625920295715 0.1807149350643158
0.69676268100738525 0.44967448711395264 0.20815388858318329
0.75691866874694824 0.43091800808906555 0.22659344971179962
0.81442499160766602 0.40524151921272278 0.24204429984092712
0.86849117279052734 0.37660121917724609 0.26339823007583618
0.91965442895889282 0.33534947037696838 0.28098967671394348
0.30827799439430237 0.56940525770187378 0.12199446558952332
0.34010797739028931 0.5697363018989563 0.1146857887506485
0.38275077939033508 0.56842184066772461 0.10963606089353561
0.44364297389984131 0.5645376443862915 0.10953675955533981
0.50506460666656494 0.55896097421646118 0.10975314676761627
0.56525462865829468 0.55267536640167236 0.11033613979816437
0.62473416328430176 0.54649871587753296 0.12021536380052567
0.67984741926193237 0.54023712873458862 0.1519152969121933
0.73195874691009521 0.53353476524353027 0.19228772819042206
0.78504449129104614 0.52368420362472534 0.23000390827655792
0.83855390548706055 0.50692307949066162 0.25869324803352356
0.88991308212280273 0.47972360253334045 0.29034289717674255
0.93979716300964355 0.45078632235527039 0.32053422927856445
0.33951407670974731 0.63465362787246704 0.12052377313375473
0.36695435643196106 0.63489174842834473 0.11447905004024506
0.41367805004119873 0.63441503047943115 0.10686081647872925
0.47472238540649414 0.63310748338699341 0.10081829130649567
0.54061639308929443 0.63179284334182739 0.091623343527317047
0.60582005977630615 0.62859976291656494 0.084920696914196014
0.66976469755172729 0.62275940179824829 0.087279587984085083
0.72665077447891235 0.61576336622238159 0.11410483717918396
0.77745383977890015 0.60951429605484009 0.1544654369354248
0.82164931297302246 0.60269522666931152 0.20600450038909912
0.86849063634872437 0.59085166454315186 0.25084200501441956
0.91392898559570312 0.57238614559173584 0.30253991484642029
0.96012383699417114 0.55084496736526489 0.3449043333530426
0.36845928430557251 0.69866323471069336 0.1235373243689537
0.38608112931251526 0.69923049211502075 0.11750296503305435
0.43682202696800232 0.69962936639785767 0.10748961567878723
0.49482810497283936 0.70050662755966187 0.097607582807540894
0.55902791023254395 0.70062905550003052 0.085202880203723907
0.63188952207565308 0.69962543249130249 0.069787956774234772
0.71039336919784546 0.69597554206848145 0.054651118814945221
0.78098952770233154 0.69193810224533081 0.060931410640478134
0.83766138553619385 0.68594032526016235 0.090569518506526947
0.87523496150970459 0.67888659238815308 0.14749319851398468
0.9071076512336731 0.66839921474456787 0.21096530556678772
0.94707173109054565 0.65222108364105225 0.27395409345626831
0.98375684022903442 0.63792330026626587 0.34096869826316833
0.37690144777297974 0.76436835527420044 0.13960827887058258
0.39387577772140503 0.76625901460647583 0.13178235292434692
0.44683995842933655 0.7678525447845459 0.11379684507846832
0.50656110048294067 0.76815187931060791 0.094402506947517395
0.56943148374557495 0.76809680461883545 0.078643083572387695
0.64181739091873169 0.76721173524856567 0.058628380298614502
0.7211795449256897 0.76497966051101685 0.040319494903087616
0.80255460739135742 0.76435238122940063 0.033088564872741699
0.88367342948913574 0.76142454147338867 0.035073358565568924
0.93943232297897339 0.75298362970352173 0.064127184450626373
0.95939213037490845 0.74486684799194336 0.11930307000875473
0.98546123504638672 0.73403245210647583 0.21364502608776093
0.99544745683670044 0.71916639804840088 0.31095945835113525
0.36519661545753479 0.83388805389404297 0.1686723381280899
0.38725221157073975 0.83623546361923218 0.16096487641334534
0.43863382935523987 0.83820366859436035 0.14294949173927307
0.49820986390113831 0.83818650245666504 0.11515717208385468
0.5698244571685791 0.83778434991836548 0.081448391079902649
0.64878886938095093 0.83745747804641724 0.046177312731742859
0.72528892755508423 0.83728015422821045 0.027698157355189323
0.80515050888061523 0.84062290191650391 0.021190732717514038
0.89421117305755615 0.8358076810836792 0.017964607104659081
0.97502517700195312 0.83040845394134521 0.013086207211017609
0.99465304613113403 0.82492583990097046 0.028670515865087509
0.99923056364059448 0.81782549619674683 0.078942105174064636
0.99992495775222778 0.80417269468307495 0.23006023466587067
0.29359155893325806 0.91106027364730835 0.21265821158885956
0.32163944840431213 0.91235804557800293 0.20625230669975281
0.37800264358520508 0.91361987590789795 0.1916627436876297
0.44777077436447144 0.91395854949951172 0.16919155418872833
0.53048074245452881 0.91525435447692871 0.13712514936923981
0.62572157382965088 0.91374307870864868 0.085608735680580139
0.71729981899261475 0.91476935148239136 0.03646150603890419
0.80361121892929077 0.91674947738647461 0.011642875149846077
0.89634579420089722 0.91141229867935181 0.0049411100335419178
0.97497504949569702 0.91122108697891235 0.0045091067440807819
0.9958617091178894 0.90468293428421021 0.005928458645939827
1 0.90196764469146729 0.0059798145666718483
1 0.89543408155441284 0.042064756155014038
0.050095666199922562 0.046876676380634308 0.097235657274723053
0.11801812797784805 0.047214895486831665 0.09152405709028244
0.18682014942169189 0.043117433786392212 0.085418552160263062
0.25541585683822632 0.037623878568410873 0.083306752145290375
0.32566630840301514 0.03036906011402607 0.081195950508117676
0.39378452301025391 0.020322507247328758 0.077750369906425476
0.46320191025733948 0.012811234220862389 0.075882583856582642
0.53612011671066284 0.008734564296901226 0.075129732489585876
0.60728055238723755 0.0054132048971951008 0.075961634516716003
0.67606538534164429 0.0039393408223986626 0.081692025065422058
0.73800110816955566 0.0020059621892869473 0.098343178629875183
0.79406380653381348 0 0.12406674772500992
0.84575170278549194 0 0.14406841993331909
0.08053869754076004 0.12961411476135254 0.12517538666725159
0.13440456986427307 0.12585753202438354 0.11855889111757278
0.1974734365940094 0.1185324415564537 0.11036189645528793
0.26590260863304138 0.10767440497875214 0.10560324043035507
0.33555644750595093 0.095064304769039154 0.10135117918252945
0.40509530901908875 0.079792112112045288 0.099337451159954071
0.47454392910003662 0.064943380653858185 0.097944252192974091
0.54347044229507446 0.04845796525478363 0.092933148145675659
0.6119391918182373 0.031824581325054169 0.089723609387874603
0.67968964576721191 0.015249933116137981 0.088508397340774536
0.74059748649597168 0.0049651949666440487 0.099031828343868256
0.79535073041915894 0.002020218875259161 0.12221111357212067
0.84867823123931885 0 0.14380896091461182
0.10928619652986526 0.20370814204216003 0.15313681960105896
0.15083439648151398 0.20048263669013977 0.14806009829044342
0.21151405572891235 0.19449436664581299 0.14110678434371948
0.2794431746006012 0.18604280054569244 0.13420678675174713
0.34857434034347534 0.17603427171707153 0.12769244611263275
0.41930368542671204 0.16154341399669647 0.12531021237373352
0.48858210444450378 0.14358885586261749 0.12463264912366867
0.55591422319412231 0.12268614023923874 0.12040198594331741
0.62287628650665283 0.09738534688949585 0.11654116958379745
0.688262939453125 0.067808546125888824 0.11518704146146774
0.74560946226119995 0.036148969084024429 0.1180957704782486
0.79920846223831177 0.009915999136865139 0.12420836836099625
0.8549918532371521 0.00041904824320226908 0.14278145134449005
0.13030213117599487 0.27454456686973572 0.17335137724876404
0.17143973708152771 0.27332821488380432 0.170538529753685
0.22895483672618866 0.27004525065422058 0.16825118660926819
0.29503911733627319 0.26506334543228149 0.16300776600837708
0.3642430305480957 0.2575581967830658 0.15523478388786316
0.43519687652587891 0.24417789280414581 0.15106861293315887
0.50413763523101807 0.22539350390434265 0.14920113980770111
0.56984490156173706 0.20261934399604797 0.14694245159626007
0.63471078872680664 0.17584776878356934 0.14823110401630402
0.69790613651275635 0.14644809067249298 0.15378502011299133
0.75344538688659668 0.11057547479867935 0.15560285747051239
0.80798733234405518 0.06754080206155777 0.15274667739868164
0.86131030321121216 0.018888959661126137 0.15050585567951202
0.15759800374507904 0.34620597958564758 0.18324300646781921
0.20262244343757629 0.34744244813919067 0.17956794798374176
0.25546860694885254 0.34686830639839172 0.18014872074127197
0.31759598851203918 0.34225791692733765 0.1816449761390686
0.38323524594306946 0.33584600687026978 0.17946998775005341
0.45187586545944214 0.32458087801933289 0.17447473108768463
0.51999849081039429 0.30631989240646362 0.17229141294956207
0.58431845903396606 0.28433531522750854 0.17617110908031464
0.64731442928314209 0.2598278820514679 0.18420965969562531
0.70906990766525269 0.23317904770374298 0.19286292791366577
0.76753097772598267 0.20259034633636475 0.19812558591365814
0.82344096899032593 0.15926317870616913 0.19850018620491028
0.87699908018112183 0.091730527579784393 0.19299890100955963
0.19998371601104736 0.42022544145584106 0.18239028751850128
0.24143840372562408 0.42258745431900024 0.18124619126319885
0.29007905721664429 0.42407554388046265 0.18226958811283112
0.34868565201759338 0.41923290491104126 0.18534955382347107
0.41083559393882751 0.41183161735534668 0.18813745677471161
0.47155827283859253 0.40132430195808411 0.18918107450008392
0.53538328409194946 0.38856932520866394 0.19548878073692322
0.60046380758285522 0.37248954176902771 0.20752690732479095
0.66315490007400513 0.35094282031059265 0.21823284029960632
0.72435885667800903 0.32594355940818787 0.22852641344070435
0.78433519601821899 0.2997174859046936 0.23898908495903015
0.84214788675308228 0.26810368895530701 0.24759553372859955
0.89539015293121338 0.21518208086490631 0.24979282915592194
0.25032588839530945 0.49570941925048828 0.1735391765832901
0.28526690602302551 0.49810239672660828 0.17271037399768829
0.32788857817649841 0.49912914633750916 0.17551803588867188
0.38545131683349609 0.4946344792842865 0.17619055509567261
0.44788554310798645 0.48653370141983032 0.17511898279190063
0.50803333520889282 0.47816804051399231 0.1758054792881012
0.567393958568573 0.47181993722915649 0.19031140208244324
0.62617242336273193 0.46309807896614075 0.21819409728050232
0.68553042411804199 0.44854617118835449 0.24103803932666779
0.74622446298599243 0.42700716853141785 0.25568920373916626
0.80600434541702271 0.400890052318573 0.26705330610275269
0.86152428388595581 0.37388265132904053 0.28330597281455994
0.91387373208999634 0.33365985751152039 0.2964249849319458
0.30904856324195862 0.57189857959747314 0.14307935535907745
0.33903977274894714 0.57243847846984863 0.14298388361930847
0.37498867511749268 0.56907010078430176 0.14203163981437683
0.43132933974266052 0.56377023458480835 0.13954009115695953
0.49003925919532776 0.55865269899368286 0.14468620717525482
0.55053138732910156 0.55461794137954712 0.14654514193534851
0.609669029712677 0.54899996519088745 0.16128548979759216
0.66446715593338013 0.54132556915283203 0.19495779275894165
0.71724724769592285 0.5332908034324646 0.2338145524263382
0.77237671613693237 0.52085995674133301 0.26540151238441467
0.82727140188217163 0.50118649005889893 0.28667902946472168
0.88006782531738281 0.47601732611656189 0.3098682165145874
0.93131488561630249 0.44678732752799988 0.33527094125747681
0.34806492924690247 0.63999086618423462 0.1304248571395874
0.37877902388572693 0.63832730054855347 0.12218994647264481
0.41787821054458618 0.63583207130432129 0.11233843863010406
0.47274523973464966 0.6330406665802002 0.10742241144180298
0.53442305326461792 0.63094449043273926 0.1072201281785965
0.59743678569793701 0.62897801399230957 0.10697672516107559
0.65602201223373413 0.62348556518554688 0.12325950711965561
0.71119147539138794 0.61607933044433594 0.15399473905563354
0.76454567909240723 0.61008346080780029 0.1891147643327713
0.80874228477478027 0.60071617364883423 0.24138236045837402
0.85747718811035156 0.58753049373626709 0.27810752391815186
0.90377765893936157 0.57147884368896484 0.32163062691688538
0.95155733823776245 0.54942941665649414 0.36089703440666199
0.37996077537536621 0.70460242033004761 0.1285279393196106
0.40432971715927124 0.70268893241882324 0.11796620488166809
0.44372996687889099 0.70137518644332886 0.10587536543607712
0.49922853708267212 0.70093834400177002 0.095739893615245819
0.56626403331756592 0.70074701309204102 0.08533979207277298
0.6386033296585083 0.69991827011108398 0.070989929139614105
0.70824790000915527 0.69484657049179077 0.072233311831951141
0.77062308788299561 0.69041091203689575 0.089648395776748657
0.82565766572952271 0.68615388870239258 0.12010765820741653
0.86250478029251099 0.67901039123535156 0.18087464570999146
0.8973768949508667 0.66743606328964233 0.24363160133361816
0.93844646215438843 0.65287232398986816 0.2929902970790863
0.97276830673217773 0.63594585657119751 0.36157554388046265
0.38831245899200439 0.77075153589248657 0.1425260603427887
0.41400399804115295 0.77025860548019409 0.12929879128932953
0.45622783899307251 0.76890510320663452 0.10981491953134537
0.51503866910934448 0.76815301179885864 0.092232391238212585
0.58086079359054565 0.76813220977783203 0.077836088836193085
0.65358275175094604 0.76753324270248413 0.05810241773724556
0.73451739549636841 0.76440715789794922 0.044209349900484085
0.81486910581588745 0.7637401819229126 0.038105159997940063
0.88783067464828491 0.76224356889724731 0.045185163617134094
0.93308907747268677 0.7554246187210083 0.08507181704044342
0.95470112562179565 0.74526166915893555 0.1552920788526535
0.9800606369972229 0.73371225595474243 0.24271160364151001
0.99334138631820679 0.71924453973770142 0.33120441436767578
0.37739866971969604 0.83863997459411621 0.16805672645568848
0.40061149001121521 0.83990830183029175 0.15926077961921692
0.45142057538032532 0.83857572078704834 0.13892243802547455
0.51090395450592041 0.83781659603118896 0.11057659983634949
0.58206045627593994 0.83763867616653442 0.077828332781791687
0.65978562831878662 0.83703160285949707 0.044902458786964417
0.73723846673965454 0.83711832761764526 0.029226131737232208
0.81704819202423096 0.84051871299743652 0.022579433396458626
0.90517878532409668 0.83661407232284546 0.016583342105150223
0.97750711441040039 0.8313065767288208 0.015453503467142582
0.99291861057281494 0.82638406753540039 0.038838449865579605
0.99874168634414673 0.81821626424789429 0.11194842308759689
0.99940723180770874 0.80436694622039795 0.25717014074325562
0.31048816442489624 0.91234719753265381 0.20988386869430542
0.34280365705490112 0.91333514451980591 0.20256897807121277
0.39495599269866943 0.91341102123260498 0.1877419501543045
0.46012917160987854 0.91311627626419067 0.16498638689517975
0.54372799396514893 0.91444164514541626 0.13184657692909241
0.63637048006057739 0.91479682922363281 0.08115183562040329
0.72544735670089722 0.91548502445220947 0.03476511687040329
0.81092137098312378 0.91708105802536011 0.011324863880872726
0.90295565128326416 0.91211658716201782 0.0050539504736661911
0.97502332925796509 0.90902233123779297 0.004682488739490509
0.99535506963729858 0.90550905466079712 0.0058229332789778709
1 0.90521425008773804 0.0087217297405004501
1 0.89949929714202881 0.059347730129957199
0.042873024940490723 0.050360407680273056 0.15766534209251404
0.11158420145511627 0.047995023429393768 0.14847970008850098
0.17717786133289337 0.039438899606466293 0.13801394402980804
0.24715690314769745 0.037796244025230408 0.13246217370033264
0.3167203962802887 0.031991127878427505 0.12799465656280518
0.38502216339111328 0.022459575906395912 0.12368415296077728
0.45527365803718567 0.016410497948527336 0.12047741562128067
0.52688497304916382 0.012266077101230621 0.11902230978012085
0.59765541553497314 0.0080174319446086884 0.11769583076238632
0.66827201843261719 0.0041189007461071014 0.11736686527729034
0.73202675580978394 0.0011160457506775856 0.1280180960893631
0.78864890336990356 0 0.14680613577365875
0.84074181318283081 0 0.16382981836795807
0.070755228400230408 0.13527859747409821 0.18874838948249817
0.12749901413917542 0.12723775207996368 0.17781130969524384
0.19022601842880249 0.11742478609085083 0.16718745231628418
0.25669082999229431 0.10884881019592285 0.16041998565196991
0.32515549659729004 0.096991613507270813 0.15497720241546631
0.39371562004089355 0.080982372164726257 0.1487916111946106
0.46315005421638489 0.062586918473243713 0.14186663925647736
0.53252840042114258 0.046246934682130814 0.13632796704769135
0.60205847024917603 0.031712953001260757 0.13125616312026978
0.67115193605422974 0.014782161451876163 0.12384950369596481
0.73366320133209229 0.0037407968193292618 0.12914884090423584
0.78972983360290527 0.0026784709189087152 0.14668063819408417
0.84307044744491577 6.8754306994378567e-05 0.16305269300937653
0.099174410104751587 0.20767013728618622 0.21039482951164246
0.14490476250648499 0.20259161293506622 0.20481780171394348
0.20305705070495605 0.19621680676937103 0.19699202477931976
0.26932543516159058 0.18781565129756927 0.19068686664104462
0.33749508857727051 0.17676845192909241 0.18389703333377838
0.40771549940109253 0.16234657168388367 0.1763785183429718
0.4766499400138855 0.14275212585926056 0.16988642513751984
0.54398202896118164 0.11856909096240997 0.16423040628433228
0.61251556873321533 0.092754468321800232 0.15827576816082001
0.68033325672149658 0.061241567134857178 0.15077713131904602
0.73993515968322754 0.031664710491895676 0.14841948449611664
0.79417926073074341 0.012741283513605595 0.15147991478443146
0.84796220064163208 0.001892149681225419 0.16223762929439545
0.12116121500730515 0.27758321166038513 0.22793550789356232
0.16697962582111359 0.27481162548065186 0.22391532361507416
0.22134131193161011 0.27293726801872253 0.22123043239116669
0.28518238663673401 0.26818022131919861 0.21700091660022736
0.35312697291374207 0.2589239776134491 0.20951251685619354
0.42325082421302795 0.24524576961994171 0.20132851600646973
0.49200624227523804 0.22627031803131104 0.1955544650554657
0.55823248624801636 0.20185208320617676 0.1914919912815094
0.62529605627059937 0.17442558705806732 0.18789780139923096
0.69045686721801758 0.14564678072929382 0.18688090145587921
0.74916642904281616 0.11254410445690155 0.18661898374557495
0.80262643098831177 0.068144612014293671 0.17883741855621338
0.85495012998580933 0.021781561896204948 0.17217111587524414
0.14727111160755157 0.34945401549339294 0.23710642755031586
0.1952652782201767 0.34864962100982666 0.2321660965681076
0.24584813416004181 0.34862270951271057 0.23206470906734467
0.30515626072883606 0.34569826722145081 0.23257297277450562
0.37087798118591309 0.33846887946128845 0.22944885492324829
0.43937644362449646 0.32621568441390991 0.2233908623456955
0.50807648897171021 0.30914923548698425 0.21936812996864319
0.57343178987503052 0.28672534227371216 0.21957416832447052
