luts/negative_color/kodak_elite_100_xpro.cube
# Created by: G'MIC (https://gmic.eu)
TITLE "kodak_elite_100_xpro"
# LUT size
LUT_3D_SIZE 7
# Data domain
DOMAIN_MIN 0.0 0.0 0.0
DOMAIN_MAX 1.0 1.0 1.0
# LUT data points
0.025589587166905403 0.013863223604857922 0.0035263809841126204
0.10638503730297089 0.02278665266931057 0.0077326754108071327
0.22132013738155365 0.023691408336162567 0.0068421605974435806
0.38845083117485046 0.032783776521682739 0.013705728575587273
0.61556327342987061 0.054259028285741806 0.025943666696548462
0.81594103574752808 0.088437788188457489 0.037926319986581802
0.94899457693099976 0.12677536904811859 0.046401709318161011
0.069614246487617493 0.086643978953361511 0.0057410146109759808
0.12717296183109283 0.095176741480827332 0.0078118718229234219
0.24248361587524414 0.11175427585840225 0.012953993864357471
0.40475839376449585 0.12901873886585236 0.017556030303239822
0.63200181722640991 0.16361403465270996 0.026671735569834709
0.83045214414596558 0.20321200788021088 0.035115513950586319
0.96481478214263916 0.26400738954544067 0.036231320351362228
0.10409161448478699 0.25402629375457764 0.0077593037858605385
0.13994845747947693 0.26164323091506958 0.011366765946149826
0.27206230163574219 0.28007063269615173 0.01586945541203022
0.44216936826705933 0.30939105153083801 0.01949240081012249
0.67895996570587158 0.33311048150062561 0.027706176042556763
0.85572969913482666 0.37589183449745178 0.032934706658124924
0.97843211889266968 0.42038372159004211 0.026021920144557953
0.045507155358791351 0.46548855304718018 0.007856062613427639
0.14618071913719177 0.4659087061882019 0.01172479335218668
0.30647739768028259 0.47484356164932251 0.015799444168806076
0.50264263153076172 0.49761399626731873 0.019498921930789948
0.72605216503143311 0.52495765686035156 0.024434572085738182
0.88503378629684448 0.55422043800354004 0.022230679169297218
0.98618859052658081 0.57296973466873169 0.016037287190556526
0.10859961062669754 0.6428254246711731 0.0095026353374123573
0.21777792274951935 0.64220553636550903 0.013216833584010601
0.37304285168647766 0.65005528926849365 0.015343595296144485
0.59683996438980103 0.66268128156661987 0.021206829696893692
0.77639561891555786 0.67416709661483765 0.020339487120509148
0.91034966707229614 0.69194161891937256 0.016463082283735275
0.98867803812026978 0.70221090316772461 0.013376692309975624
0.32222375273704529 0.77333360910415649 0.010277901776134968
0.39864280819892883 0.77265477180480957 0.010308239609003067
0.54664164781570435 0.77591222524642944 0.011795971542596817
0.69222897291183472 0.78261399269104004 0.012515678070485592
0.83323651552200317 0.79044526815414429 0.011625222861766815
0.94437509775161743 0.8036189079284668 0.0088145537301898003
0.99774682521820068 0.80807149410247803 0.0076110837981104851
0.60172772407531738 0.86378943920135498 0.0017469518352299929
0.64028662443161011 0.86538070440292358 0.0022759232670068741
0.71770727634429932 0.8659326434135437 0.0023370480630546808
0.8015630841255188 0.86771976947784424 0.002341356361284852
0.89966326951980591 0.87236517667770386 0.0020048252772539854
0.98049342632293701 0.87606567144393921 0.0013550851726904511
0.998779296875 0.87691777944564819 0.0020604452583938837
0.023447463288903236 0.016097648069262505 0.022201927378773689
0.097467176616191864 0.024438550695776939 0.028367269784212112
0.21308352053165436 0.028260070830583572 0.031026503071188927
0.38440918922424316 0.039643708616495132 0.039457626640796661
0.62201070785522461 0.064459875226020813 0.053310483694076538
0.8157888650894165 0.094863981008529663 0.05826384574174881
0.95152378082275391 0.13695569336414337 0.050192501395940781
0.064380079507827759 0.097045794129371643 0.028867892920970917
0.1162964329123497 0.1034587025642395 0.031334478408098221
0.23227247595787048 0.12145620584487915 0.038767438381910324
0.40346500277519226 0.14046883583068848 0.047137554734945297
0.63720512390136719 0.17591108381748199 0.057485334575176239
0.8254544734954834 0.21896162629127502 0.057208597660064697
0.96505570411682129 0.27504685521125793 0.042855042964220047
0.08956483006477356 0.26753473281860352 0.035062752664089203
0.1222943440079689 0.2741972804069519 0.036024533212184906
0.25753706693649292 0.29237851500511169 0.046413466334342957
0.43937790393829346 0.31062784790992737 0.049204073846340179
0.6764034628868103 0.34583157300949097 0.060420811176300049
0.85761308670043945 0.384113609790802 0.05812397226691246
0.97735464572906494 0.43122553825378418 0.039999630302190781
0.025651730597019196 0.47676244378089905 0.031992070376873016
0.1103006973862648 0.48089319467544556 0.035434454679489136
0.29188612103462219 0.49099382758140564 0.043984595686197281
0.4943021833896637 0.50988328456878662 0.048840183764696121
0.71955394744873047 0.53158116340637207 0.056408528238534927
0.88248252868652344 0.56271183490753174 0.051563862711191177
0.98246294260025024 0.58526003360748291 0.035919878631830215
0.067530706524848938 0.65149545669555664 0.035184897482395172
0.1756262332201004 0.65233957767486572 0.039196733385324478
0.35708680748939514 0.661659836769104 0.040274512022733688
0.58356529474258423 0.67296570539474487 0.045245122164487839
0.77278393507003784 0.68651562929153442 0.044370256364345551
0.90617233514785767 0.70261675119400024 0.037041112780570984
0.99092650413513184 0.71408158540725708 0.024935314431786537
0.28917399048805237 0.77687770128250122 0.038074404001235962
0.3699156641960144 0.78404539823532104 0.044079124927520752
0.53199905157089233 0.7857290506362915 0.036960989236831665
0.68680405616760254 0.79364538192749023 0.033272940665483475
0.82861745357513428 0.79894191026687622 0.026770064607262611
0.94025939702987671 0.80803418159484863 0.023426683619618416
0.99608570337295532 0.81335723400115967 0.01732737198472023
0.58345526456832886 0.87283682823181152 0.0080827903002500534
0.62402576208114624 0.87304937839508057 0.0095981219783425331
0.70314598083496094 0.87613856792449951 0.010057486593723297
0.79576236009597778 0.87706542015075684 0.0067950231023132801
0.89545357227325439 0.87916558980941772 0.0058583728969097137
0.97960513830184937 0.88112622499465942 0.0039316960610449314
0.99943047761917114 0.88318681716918945 0.0067795547656714916
0.019998243078589439 0.023466985672712326 0.07695896178483963
0.088564537465572357 0.031679265201091766 0.082910202443599701
0.20227132737636566 0.036288391798734665 0.084186568856239319
0.37926918268203735 0.050745781511068344 0.091925330460071564
0.61381423473358154 0.073063269257545471 0.10123024880886078
0.81486791372299194 0.10860203951597214 0.10719749331474304
0.95524328947067261 0.15027990937232971 0.085345402359962463
0.053740512579679489 0.11290895193815231 0.096226081252098083
0.10454384237527847 0.11994224786758423 0.098272494971752167
0.21770705282688141 0.13447406888008118 0.10130465775728226
0.39731854200363159 0.15896047651767731 0.10829982161521912
0.64153885841369629 0.19231106340885162 0.11340363323688507
0.82953804731369019 0.23947508633136749 0.11136498302221298
0.96565860509872437 0.29240655899047852 0.085615761578083038
0.066523246467113495 0.28629192709922791 0.11424687504768372
0.09504535049200058 0.29272910952568054 0.11260592937469482
0.23182648420333862 0.30627667903900146 0.11664063483476639
0.42404299974441528 0.33259862661361694 0.12218730896711349
0.66746830940246582 0.37117570638656616 0.12951408326625824
0.85303616523742676 0.40259045362472534 0.11440897732973099
0.97829568386077881 0.44684174656867981 0.087115131318569183
0.00804163608700037 0.49024286866188049 0.13109587132930756
0.035553712397813797 0.50079178810119629 0.12616315484046936
0.24049681425094604 0.51152718067169189 0.13481821119785309
0.46719709038734436 0.52654087543487549 0.13454210758209229
0.70561093091964722 0.54993206262588501 0.13315019011497498
0.87629514932632446 0.57529979944229126 0.11703751236200333
0.98704391717910767 0.59957146644592285 0.081630945205688477
0.010559755377471447 0.66733086109161377 0.14346405863761902
0.075211562216281891 0.67225325107574463 0.14016227424144745
0.30222037434577942 0.67916285991668701 0.14251087605953217
0.54645711183547974 0.68992215394973755 0.14715081453323364
0.75236213207244873 0.70329082012176514 0.14100833237171173
0.89515513181686401 0.71391063928604126 0.11354082822799683
0.99456882476806641 0.72849518060684204 0.071057550609111786
0.19338981807231903 0.800861656665802 0.17228241264820099
0.29646894335746765 0.80074918270111084 0.17263051867485046
0.47849738597869873 0.80574911832809448 0.17543667554855347
0.65573614835739136 0.81456440687179565 0.17632028460502625
0.80316132307052612 0.81687843799591064 0.15341977775096893
0.92780429124832153 0.82618528604507446 0.10967682301998138
0.99584674835205078 0.83226561546325684 0.046664383262395859
0.54092562198638916 0.89233320951461792 0.20964893698692322
0.58134585618972778 0.89019107818603516 0.20413456857204437
0.66791850328445435 0.89309728145599365 0.20136548578739166
0.77210921049118042 0.89718842506408691 0.19005106389522552
0.87067043781280518 0.89964383840560913 0.16161505877971649
0.9629395604133606 0.90135413408279419 0.091620683670043945
0.99995476007461548 0.89933890104293823 0.013444788753986359
0.0087627638131380081 0.036158870905637741 0.19826562702655792
0.06505177915096283 0.045379728078842163 0.20420099794864655
0.17550083994865417 0.052031602710485458 0.19813071191310883
0.35883131623268127 0.069204084575176239 0.2043478786945343
0.60211360454559326 0.09380786120891571 0.2073570042848587
0.81360375881195068 0.12426616996526718 0.19534121453762054
0.95214074850082397 0.17007765173912048 0.15770368278026581
0.035032264888286591 0.13690567016601562 0.24127481877803802
0.083201870322227478 0.14699684083461761 0.23957803845405579
0.18452271819114685 0.16139610111713409 0.24293053150177002
0.37147983908653259 0.18573766946792603 0.24821457266807556
0.61713147163391113 0.22249512374401093 0.25269690155982971
0.82466179132461548 0.26518034934997559 0.23176018893718719
0.96211713552474976 0.32172539830207825 0.18119436502456665
0.033963356167078018 0.32039657235145569 0.28482672572135925
0.04962572455406189 0.32677504420280457 0.28432077169418335
0.16364780068397522 0.34497174620628357 0.29267770051956177
0.38364943861961365 0.36570098996162415 0.29390767216682434
0.64538657665252686 0.40227752923965454 0.2915213406085968
0.83948266506195068 0.43815845251083374 0.27036303281784058
0.96752792596817017 0.4784693717956543 0.2137518972158432
0.00033030789927579463 0.51769554615020752 0.34508323669433594
0.010301387868821621 0.52787309885025024 0.33784839510917664
0.12675853073596954 0.54436153173446655 0.34935066103935242
0.40376105904579163 0.56046491861343384 0.35008284449577332
0.67126691341400146 0.58069980144500732 0.34308949112892151
0.85366261005401611 0.60031908750534058 0.31089991331100464
0.97225475311279297 0.62690079212188721 0.24566012620925903
0.0036022111307829618 0.69622403383255005 0.41264745593070984
0.0059232674539089203 0.70216143131256104 0.41079750657081604
0.15482871234416962 0.71106064319610596 0.41825145483016968
0.47701206803321838 0.72236067056655884 0.41668730974197388
0.71461409330368042 0.73523914813995361 0.40482136607170105
0.871224045753479 0.7449953556060791 0.37097898125648499
0.98118633031845093 0.7555772066116333 0.29031834006309509
0.021966403350234032 0.8310774564743042 0.49024838209152222
0.1171908974647522 0.83479177951812744 0.49437412619590759
0.37441563606262207 0.83809971809387207 0.49486765265464783
0.59887939691543579 0.84420883655548096 0.49313455820083618
0.76198506355285645 0.85165047645568848 0.47938716411590576
0.88814115524291992 0.85849392414093018 0.44826298952102661
0.98220419883728027 0.86019223928451538 0.34655183553695679
0.44698402285575867 0.92151010036468506 0.54878038167953491
0.50116610527038574 0.92314249277114868 0.54947566986083984
0.60300374031066895 0.92471945285797119 0.54724889993667603
0.71992295980453491 0.92844951152801514 0.53965276479721069
0.82474398612976074 0.93257266283035278 0.52659398317337036
0.92076820135116577 0.92999434471130371 0.48688766360282898
0.99110221862792969 0.92534345388412476 0.35259649157524109
0.0026062610559165478 0.06509900838136673 0.40397268533706665
0.030609758570790291 0.073085963726043701 0.41286155581474304
0.12664997577667236 0.086666151881217957 0.42011633515357971
0.31840378046035767 0.10327836871147156 0.42954090237617493
0.5725439190864563 0.13098578155040741 0.42874935269355774
0.7941436767578125 0.16196304559707642 0.40801379084587097
0.93864977359771729 0.21142889559268951 0.34826186299324036
0.011401068419218063 0.18207524716854095 0.48465785384178162
0.041977602988481522 0.19600743055343628 0.49149483442306519
0.13025198876857758 0.20756480097770691 0.49277579784393311
0.31438359618186951 0.23290106654167175 0.50137251615524292
0.57900065183639526 0.26982620358467102 0.50720727443695068
0.79949092864990234 0.31343406438827515 0.48301094770431519
0.94283229112625122 0.36838671565055847 0.42224317789077759
0.010225438512861729 0.36609625816345215 0.54807943105697632
0.015073694288730621 0.37550485134124756 0.55572307109832764
0.044332422316074371 0.39043721556663513 0.56511986255645752
0.30441245436668396 0.40965369343757629 0.56985229253768921
0.59329706430435181 0.44883987307548523 0.57508736848831177
0.80559313297271729 0.48204374313354492 0.55610811710357666
0.94563001394271851 0.52238315343856812 0.5029258131980896
0 0.56017935276031494 0.6042599081993103
0.00045852659968659282 0.56832706928253174 0.60967415571212769
0.012775092385709286 0.58365970849990845 0.61994367837905884
0.30798149108886719 0.60206085443496704 0.62947231531143188
0.61576759815216064 0.6227492094039917 0.63991850614547729
0.81184720993041992 0.64221477508544922 0.62247574329376221
0.94767892360687256 0.67069327831268311 0.57690858840942383
5.9898226027144119e-05 0.72929072380065918 0.65853095054626465
0.00015728520520497113 0.73190891742706299 0.65978354215621948
0.013258750550448895 0.74252194166183472 0.6698908805847168
0.38406682014465332 0.75611072778701782 0.68031173944473267
0.65855014324188232 0.77012401819229126 0.68698829412460327
0.82350450754165649 0.78209805488586426 0.6744081974029541
0.94384962320327759 0.79460608959197998 0.64090585708618164
0.0040915394201874733 0.85101878643035889 0.70831233263015747
0.011673333123326302 0.85943466424942017 0.71521604061126709
0.21815423667430878 0.86603152751922607 0.72515559196472168
0.51986265182495117 0.87518543004989624 0.73048418760299683
0.71105664968490601 0.88200098276138306 0.73443514108657837
0.84687787294387817 0.88882839679718018 0.72675526142120361
0.94777888059616089 0.89579057693481445 0.68891799449920654
0.32860162854194641 0.9466133713722229 0.76434516906738281
0.39776167273521423 0.9461824893951416 0.76449942588806152
0.52980327606201172 0.949973464012146 0.76791673898696899
0.66251844167709351 0.95091921091079712 0.77039366960525513
0.78216999769210815 0.95254093408584595 0.7666935920715332
0.88230317831039429 0.9591028094291687 0.76256877183914185
0.9643632173538208 0.95904487371444702 0.71772658824920654
0.00098380295094102621 0.10469245165586472 0.65522229671478271
0.0068767922930419445 0.11520945280790329 0.66484314203262329
0.073844194412231445 0.12728765606880188 0.67428189516067505
0.26070293784141541 0.14658495783805847 0.68610286712646484
0.53096461296081543 0.17921581864356995 0.7020753026008606
0.76328074932098389 0.21420417726039886 0.69952881336212158
0.91494220495223999 0.27238455414772034 0.66851091384887695
0.00035526050487533212 0.22742623090744019 0.70174401998519897
0.0111070666462183 0.2404848039150238 0.70974910259246826
0.06206493079662323 0.25269296765327454 0.71675688028335571
0.23525413870811462 0.27901965379714966 0.72645646333694458
0.5223991870880127 0.31928277015686035 0.74584305286407471
0.76147937774658203 0.36246761679649353 0.7483946681022644
0.9144102931022644 0.42377284169197083 0.7198483943939209
0.00020048851729370654 0.40923687815666199 0.74606448411941528
0.0036471497733145952 0.41670554876327515 0.74669927358627319
0.0087246615439653397 0.43060135841369629 0.75476062297821045
0.19934737682342529 0.45640653371810913 0.77131348848342896
0.53511857986450195 0.48857405781745911 0.78627955913543701
0.76748371124267578 0.52354556322097778 0.78903800249099731
0.91449427604675293 0.56714606285095215 0.77501916885375977
0 0.60180807113647461 0.77641063928604126
0 0.60251814126968384 0.77777725458145142
0.0034143785014748573 0.61400902271270752 0.78444719314575195
0.16114744544029236 0.63373315334320068 0.80431258678436279
0.55850481986999512 0.65421366691589355 0.8206208348274231
0.77759456634521484 0.67719954252243042 0.82359617948532104
0.91327458620071411 0.70763885974884033 0.81285977363586426
0.00025340061984024942 0.75035935640335083 0.79696738719940186
0 0.75156408548355103 0.79570764303207397
0.0045445458963513374 0.76466208696365356 0.81494772434234619
0.24123696982860565 0.78055894374847412 0.83382606506347656
0.59888523817062378 0.79344791173934937 0.84701764583587646
0.79102188348770142 0.80978912115097046 0.85357218980789185
0.91035199165344238 0.82645136117935181 0.84656453132629395
0.0038751938845962286 0.8665386438369751 0.83243864774703979
0.0018190421396866441 0.87193053960800171 0.83597087860107422
0.042835716158151627 0.88450378179550171 0.85051113367080688
0.4281286895275116 0.89382219314575195 0.86295008659362793
0.66316574811935425 0.8997923731803894 0.87167316675186157
0.81378853321075439 0.91078406572341919 0.87405431270599365
0.91557186841964722 0.91856116056442261 0.86574536561965942
0.13207991421222687 0.95896553993225098 0.87540656328201294
0.24177451431751251 0.96124362945556641 0.87859582901000977
0.43555065989494324 0.96187132596969604 0.88444918394088745
0.60748624801635742 0.96451824903488159 0.89091461896896362
0.74732345342636108 0.9667622447013855 0.89339298009872437
0.85694491863250732 0.97191578149795532 0.89129829406738281
0.94304841756820679 0.97849148511886597 0.88981401920318604
0 0.13753040134906769 0.80916726589202881
0.0011121113784611225 0.14617317914962769 0.81305384635925293
0.03415801003575325 0.15841931104660034 0.82524698972702026
0.19901485741138458 0.17931051552295685 0.84201514720916748
0.48265847563743591 0.21280057728290558 0.86421149969100952
0.73515325784683228 0.262308269739151 0.87564074993133545
0.89183109998703003 0.32709303498268127 0.8740425705909729
0 0.26442620158195496 0.83356696367263794
0.00063822127413004637 0.27371340990066528 0.8377983570098877
0.01860230416059494 0.29425293207168579 0.84653788805007935
0.14889021217823029 0.31950050592422485 0.86440825462341309
0.46067517995834351 0.35929390788078308 0.88073468208312988
0.73233401775360107 0.40737625956535339 0.89696848392486572
0.88853204250335693 0.46732920408248901 0.89127320051193237
0 0.44045165181159973 0.8498302698135376
0 0.45248556137084961 0.85362035036087036
0.0017120511038228869 0.46744173765182495 0.86142563819885254
0.061599776148796082 0.4931977391242981 0.88130468130111694
0.46408379077911377 0.52388870716094971 0.90031617879867554
0.73666787147521973 0.56319242715835571 0.914955735206604
0.89285647869110107 0.60425949096679688 0.91692912578582764
0 0.61929029226303101 0.86338585615158081
0 0.62839770317077637 0.86539995670318604
0.0041625527665019035 0.6419365406036377 0.87305551767349243
0.023143230006098747 0.6596255898475647 0.89380842447280884
0.47663706541061401 0.68141329288482666 0.91556012630462646
0.73679870367050171 0.70700430870056152 0.92987734079360962
0.89109534025192261 0.73804652690887451 0.93315309286117554
0 0.76835286617279053 0.87809419631958008
0.00017249911616090685 0.77242368459701538 0.87964999675750732
0.0042458628304302692 0.78285700082778931 0.89113134145736694
0.044446580111980438 0.7982407808303833 0.91317975521087646
0.52567756175994873 0.81509625911712646 0.93373006582260132
0.75492781400680542 0.82876253128051758 0.94351649284362793
0.88780218362808228 0.84693062305450439 0.94618475437164307
0.00064682308584451675 0.88018620014190674 0.89771848917007446
0.002950137248262763 0.88254058361053467 0.89793860912322998
0.0074910931289196014 0.89173638820648193 0.90992903709411621
0.22767181694507599 0.90630620718002319 0.93417274951934814
0.59925776720046997 0.91437321901321411 0.94689297676086426
0.78461939096450806 0.92374676465988159 0.95739907026290894
0.90081417560577393 0.93222379684448242 0.96266955137252808
0.0060609853826463223 0.96137809753417969 0.92901527881622314
0.022848989814519882 0.96249550580978394 0.93262267112731934
0.18785920739173889 0.9697798490524292 0.94287431240081787
0.49945852160453796 0.97509527206420898 0.9543081521987915
0.6951291561126709 0.9777408242225647 0.96239304542541504
0.82731622457504272 0.98317062854766846 0.97191911935806274
0.92653751373291016 0.9871441125869751 0.97812366485595703
