luts/negative_color/kodak_portra_160_nc.cube
# Created by: G'MIC (https://gmic.eu)
TITLE "kodak_portra_160_nc"
# LUT size
LUT_3D_SIZE 7
# Data domain
DOMAIN_MIN 0.0 0.0 0.0
DOMAIN_MAX 1.0 1.0 1.0
# LUT data points
0.022678360342979431 0.040231186896562576 0.03616802766919136
0.11371102184057236 0.044762540608644485 0.034692216664552689
0.28031054139137268 0.061610560864210129 0.028190119192004204
0.49781566858291626 0.066716000437736511 0.013718144968152046
0.69612079858779907 0.084182754158973694 0.0083588091656565666
0.85031479597091675 0.13337594270706177 0.0035450654104351997
0.97353237867355347 0.20464523136615753 0.0065652434714138508
0.010866142809391022 0.13978314399719238 0.058015815913677216
0.093480445444583893 0.15571194887161255 0.034335415810346603
0.321734219789505 0.17997746169567108 0.014175893738865852
0.53614449501037598 0.18439498543739319 0.0058787479065358639
0.71195900440216064 0.19797618687152863 0.0047414889559149742
0.85846716165542603 0.22650083899497986 0.0075285816565155983
0.97529113292694092 0.277578204870224 0.0060191885568201542
0.00022253896167967469 0.30961978435516357 0.10185645520687103
0.0048027937300503254 0.32566061615943909 0.092838168144226074
0.2785332202911377 0.38020002841949463 0.014472393319010735
0.57449764013290405 0.39515066146850586 0.00026810591225512326
0.74301010370254517 0.37586179375648499 0.0038233587983995676
0.87824183702468872 0.37128749489784241 0.0033233643043786287
0.98142713308334351 0.38999375700950623 0.0051223156042397022
0 0.49504274129867554 0.20502625405788422
0.0013593337498605251 0.49872925877571106 0.19851230084896088
0.12349598854780197 0.52247041463851929 0.16229723393917084
0.47730773687362671 0.56919258832931519 0.040187418460845947
0.74447649717330933 0.58706122636795044 0.00050814758287742734
0.88201898336410522 0.54419434070587158 0.0011810302967205644
0.98304027318954468 0.52413684129714966 0.0017760182963684201
5.5290671298280358e-05 0.64433795213699341 0.31292781233787537
0.0017100016120821238 0.64510297775268555 0.31680741906166077
0.13490408658981323 0.64911967515945435 0.31064188480377197
0.39182558655738831 0.67786478996276855 0.26310384273529053
0.63804733753204346 0.70914590358734131 0.15881334245204926
0.86609238386154175 0.73193764686584473 0.015036758966743946
0.98084884881973267 0.69869542121887207 0.048440057784318924
0.17300710082054138 0.7786441445350647 0.46334201097488403
0.23374232649803162 0.77864652872085571 0.46585801243782043
0.32279321551322937 0.77403169870376587 0.46426033973693848
0.43841150403022766 0.78340870141983032 0.44944187998771667
0.59030818939208984 0.80629688501358032 0.40933114290237427
0.76985204219818115 0.82664948701858521 0.33967423439025879
0.95567333698272705 0.85426682233810425 0.26601317524909973
0.54153990745544434 0.89944267272949219 0.67118465900421143
0.5552518367767334 0.8985406756401062 0.67269372940063477
0.58114629983901978 0.89825499057769775 0.6766822338104248
0.6259644627571106 0.89997285604476929 0.67805492877960205
0.6849592924118042 0.91387003660202026 0.6643490195274353
0.77563709020614624 0.92917704582214355 0.63876605033874512
0.89045655727386475 0.94342583417892456 0.59455764293670654
0.022253358736634254 0.043388515710830688 0.13033652305603027
0.11754333227872849 0.050000492483377457 0.13101606070995331
0.28935515880584717 0.038082916289567947 0.12594512104988098
0.5097847580909729 0.031104203313589096 0.12919934093952179
0.69425815343856812 0.097453400492668152 0.13878375291824341
0.84023964405059814 0.16002294421195984 0.13847832381725311
0.96837162971496582 0.23484040796756744 0.14810055494308472
0.0091210305690765381 0.15490013360977173 0.15140467882156372
0.11909588426351547 0.16633504629135132 0.1580183207988739
0.33245927095413208 0.17579734325408936 0.14521828293800354
0.53330087661743164 0.19095818698406219 0.14382545650005341
0.70951193571090698 0.21573573350906372 0.14063814282417297
0.85302633047103882 0.24667869508266449 0.13587115705013275
0.97467881441116333 0.29520696401596069 0.1516726166009903
0.013165073469281197 0.34142675995826721 0.22106759250164032
0.074294894933700562 0.34713312983512878 0.21723420917987823
0.32096049189567566 0.38705679774284363 0.17600041627883911
0.57841616868972778 0.38805052638053894 0.13290326297283173
0.74145323038101196 0.36950841546058655 0.12394276261329651
0.87308663129806519 0.37824183702468872 0.12976568937301636
0.97788351774215698 0.40261152386665344 0.14984303712844849
0.017156248912215233 0.51417368650436401 0.29733514785766602
0.038425475358963013 0.51588982343673706 0.28956830501556396
0.23456060886383057 0.52981120347976685 0.27539283037185669
0.50375235080718994 0.57085704803466797 0.19998361170291901
0.74545001983642578 0.57653975486755371 0.12222674489021301
0.88143080472946167 0.53755587339401245 0.12393299490213394
0.97878438234329224 0.53417003154754639 0.1579698771238327
0.036366764456033707 0.65581595897674561 0.37658339738845825
0.083916425704956055 0.65656417608261108 0.37619507312774658
0.23985083401203156 0.65197455883026123 0.37638098001480103
0.42671844363212585 0.67917084693908691 0.3450959324836731
0.65557223558425903 0.70946663618087769 0.27257540822029114
0.8642699122428894 0.72824913263320923 0.20371879637241364
0.9746706485748291 0.69730699062347412 0.21803189814090729
0.27769404649734497 0.77926367521286011 0.50259721279144287
0.30878540873527527 0.7786790132522583 0.5027959942817688
0.37301415205001831 0.7747613787651062 0.50124508142471313
0.46835362911224365 0.7834775447845459 0.49343469738960266
0.60455214977264404 0.8047451376914978 0.45903235673904419
0.77631646394729614 0.82691633701324463 0.40532857179641724
0.95567971467971802 0.85452163219451904 0.3479272723197937
0.55927413702011108 0.89801794290542603 0.68529832363128662
0.56903332471847534 0.89829343557357788 0.68719363212585449
0.59626847505569458 0.89753496646881104 0.69058734178543091
0.63614779710769653 0.89803576469421387 0.692951500415802
0.69358634948730469 0.91238349676132202 0.67962521314620972
0.78122961521148682 0.92942863702774048 0.66103202104568481
0.89181625843048096 0.94365423917770386 0.62185120582580566
0.0044265449978411198 0.060641389340162277 0.32413670420646667
0.15207886695861816 0.067213378846645355 0.32860878109931946
0.34115013480186462 0.067289270460605621 0.33057129383087158
0.53176939487457275 0.053711012005805969 0.31492546200752258
0.71763157844543457 0.03199787437915802 0.28909203410148621
0.8574453592300415 0.11181725561618805 0.28813713788986206
0.96233236789703369 0.25643318891525269 0.32056346535682678
0.0025323606096208096 0.18653982877731323 0.34115996956825256
0.13598619401454926 0.19515068829059601 0.35370421409606934
0.36469027400016785 0.21314948797225952 0.35344257950782776
0.55309736728668213 0.21158146858215332 0.3359246551990509
0.72024631500244141 0.21088375151157379 0.31608468294143677
0.8504188060760498 0.2687840461730957 0.32456538081169128
0.9641120433807373 0.33953055739402771 0.34160000085830688
0.013694224879145622 0.36947104334831238 0.36725163459777832
0.16985203325748444 0.38090324401855469 0.38250693678855896
0.37952017784118652 0.3963952362537384 0.38729152083396912
0.57629543542861938 0.39559698104858398 0.36575421690940857
0.72548514604568481 0.39698547124862671 0.35300347208976746
0.85493457317352295 0.41041454672813416 0.3388218879699707
0.96951287984848022 0.43653163313865662 0.34910264611244202
0.22778865694999695 0.5426030158996582 0.43697053194046021
0.3039548397064209 0.54629462957382202 0.44119915366172791
0.38172626495361328 0.54598110914230347 0.43444079160690308
0.54905766248703003 0.57197701930999756 0.4028436541557312
0.74343413114547729 0.56693822145462036 0.37038549780845642
0.86665260791778564 0.54754066467285156 0.35608693957328796
0.97351592779159546 0.55135542154312134 0.35660716891288757
0.34721541404724121 0.67334210872650146 0.5145108699798584
0.3610629141330719 0.67258989810943604 0.50508195161819458
0.39373409748077393 0.66877108812332153 0.48954319953918457
0.49029523134231567 0.67987889051437378 0.47383883595466614
0.67408573627471924 0.71144682168960571 0.43517324328422546
0.8590552806854248 0.72235620021820068 0.40304994583129883
0.97261697053909302 0.6941910982131958 0.39545929431915283
0.43870770931243896 0.78642553091049194 0.59592556953430176
0.44637641310691833 0.78161180019378662 0.58769387006759644
0.46772226691246033 0.78152573108673096 0.57742160558700562
0.52990758419036865 0.78472131490707397 0.57331717014312744
0.63353675603866577 0.80352622270584106 0.55125600099563599
0.79100775718688965 0.82843303680419922 0.51993095874786377
0.9534791111946106 0.85015869140625 0.48162895441055298
0.60564911365509033 0.89842683076858521 0.72284531593322754
0.60888445377349854 0.89803504943847656 0.72089773416519165
0.62583702802658081 0.89609336853027344 0.71987688541412354
0.66229337453842163 0.90093570947647095 0.7250669002532959
0.71184009313583374 0.91036558151245117 0.71531933546066284
0.79174149036407471 0.92611598968505859 0.69574970006942749
0.8962821364402771 0.94466656446456909 0.67392927408218384
0.011189254932105541 0.098628789186477661 0.53232818841934204
0.16498388350009918 0.10603552311658859 0.54196679592132568
0.39710819721221924 0.13154040277004242 0.54658222198486328
0.59161961078643799 0.15979360044002533 0.55107730627059937
0.72588026523590088 0.18532344698905945 0.50720453262329102
0.86748319864273071 0.23862998187541962 0.48618483543395996
0.97228372097015381 0.27160036563873291 0.46693465113639832
0.0059831356629729271 0.2222413569688797 0.54718267917633057
0.1732088029384613 0.23451718688011169 0.55644828081130981
0.41087466478347778 0.26198336482048035 0.55845659971237183
0.59889405965805054 0.28337514400482178 0.56241375207901001
0.72698694467544556 0.29238408803939819 0.52477699518203735
0.86038148403167725 0.31801807880401611 0.49848848581314087
0.97309786081314087 0.33834707736968994 0.47814783453941345
0.0048643373884260654 0.39715918898582458 0.55787605047225952
0.15958444774150848 0.40390503406524658 0.56648600101470947
0.40891888737678528 0.42264357209205627 0.56855237483978271
0.59320801496505737 0.43877872824668884 0.56914591789245605
0.72808045148849487 0.43347752094268799 0.5415228009223938
0.85744655132293701 0.43291687965393066 0.51739650964736938
0.96195197105407715 0.45340791344642639 0.5077139139175415
0.18252141773700714 0.55932432413101196 0.56385892629623413
0.30055803060531616 0.56532174348831177 0.57227283716201782
0.43788555264472961 0.56452757120132446 0.58340787887573242
0.5937122106552124 0.57845950126647949 0.58462941646575928
0.73685932159423828 0.58401024341583252 0.56546473503112793
0.84848296642303467 0.57236534357070923 0.54626047611236572
0.95501697063446045 0.57220900058746338 0.53190243244171143
0.41189393401145935 0.69186556339263916 0.61729305982589722
0.45508140325546265 0.69119197130203247 0.61954712867736816
0.5302966833114624 0.68984848260879517 0.62550431489944458
0.58529847860336304 0.68997836112976074 0.61687970161437988
0.70386546850204468 0.711647629737854 0.59660184383392334
0.85165619850158691 0.71308523416519165 0.57080388069152832
0.96162015199661255 0.69224941730499268 0.55320364236831665
0.55279648303985596 0.79828393459320068 0.69072228670120239
0.56769645214080811 0.79445987939834595 0.68935316801071167
0.59135693311691284 0.79440164566040039 0.68465369939804077
0.60850000381469727 0.79167038202285767 0.66604119539260864
0.67161327600479126 0.79973214864730835 0.65583348274230957
0.80723112821578979 0.82788044214248657 0.63760364055633545
0.9481697678565979 0.84410709142684937 0.62161564826965332
0.66879487037658691 0.90434068441390991 0.77902072668075562
0.67096281051635742 0.90248733758926392 0.77534013986587524
0.67443442344665527 0.90235286951065063 0.76741653680801392
0.69225513935089111 0.90307158231735229 0.76305723190307617
0.73678028583526611 0.90925806760787964 0.7676926851272583
0.80529308319091797 0.92673963308334351 0.75327932834625244
0.90656739473342896 0.94353717565536499 0.73218166828155518
0.032635513693094254 0.16084228456020355 0.71474939584732056
0.23737791180610657 0.18085826933383942 0.71836066246032715
0.43902957439422607 0.20961710810661316 0.71887379884719849
0.62509220838546753 0.2667025625705719 0.72011971473693848
0.76993757486343384 0.30060267448425293 0.71682554483413696
0.85930109024047852 0.33367455005645752 0.67524951696395874
0.96080255508422852 0.40599790215492249 0.6604839563369751
0.10225722193717957 0.27649831771850586 0.72283142805099487
0.26781487464904785 0.29158022999763489 0.72502154111862183
0.44842129945755005 0.31997758150100708 0.71647936105728149
0.62633591890335083 0.35978484153747559 0.71876418590545654
0.76868277788162231 0.38359794020652771 0.72151106595993042
0.85839515924453735 0.4027097225189209 0.68567097187042236
0.96030759811401367 0.46646052598953247 0.67394202947616577
0.1220378503203392 0.42317050695419312 0.71937417984008789
0.27674788236618042 0.4338625967502594 0.71902716159820557
0.44847533106803894 0.44996359944343567 0.71930778026580811
0.623008131980896 0.48386242985725403 0.7186545729637146
0.7611657977104187 0.50814127922058105 0.72418439388275146
0.85317462682723999 0.51626825332641602 0.69732826948165894
0.95284450054168701 0.54119032621383667 0.68009471893310547
0.17278189957141876 0.56695437431335449 0.70942246913909912
0.28438594937324524 0.57033276557922363 0.71025627851486206
0.43632122874259949 0.57419908046722412 0.71270763874053955
0.60397094488143921 0.5955774188041687 0.71895831823348999
0.74713337421417236 0.6208685040473938 0.72559702396392822
0.84812080860137939 0.61844736337661743 0.70717072486877441
0.94679921865463257 0.61620986461639404 0.69034749269485474
0.38938933610916138 0.70051044225692749 0.71273630857467651
0.44345787167549133 0.70387738943099976 0.71983194351196289
0.52204012870788574 0.70470678806304932 0.7216562032699585
0.6306837797164917 0.70803922414779663 0.73035550117492676
0.73517131805419922 0.71897584199905396 0.73437458276748657
0.83843064308166504 0.71479272842407227 0.71761399507522583
0.94198447465896606 0.71342200040817261 0.70122462511062622
0.57131820917129517 0.81073898077011108 0.75785088539123535
0.59335219860076904 0.80842345952987671 0.75878769159317017
0.63367825746536255 0.80791836977005005 0.76127654314041138
0.69106036424636841 0.80915123224258423 0.76742804050445557
0.73237365484237671 0.80937296152114868 0.75738799571990967
0.82787257432937622 0.82913333177566528 0.74791896343231201
0.94639700651168823 0.83445322513580322 0.73443382978439331
0.69639879465103149 0.9072222113609314 0.82641327381134033
0.70730763673782349 0.9092097282409668 0.82690280675888062
0.72912353277206421 0.91058683395385742 0.83082932233810425
0.74747234582901001 0.90935605764389038 0.82589155435562134
0.77435791492462158 0.91394299268722534 0.8195803165435791
0.82454586029052734 0.92317885160446167 0.81458461284637451
0.92002737522125244 0.94723886251449585 0.8046339750289917
0.27795341610908508 0.28130868077278137 0.8412243127822876
0.37392029166221619 0.29269975423812866 0.84335571527481079
0.50463563203811646 0.31677934527397156 0.84314811229705811
0.65342742204666138 0.36660954356193542 0.84155988693237305
0.78477436304092407 0.43273898959159851 0.83954930305480957
0.89061039686203003 0.46549990773200989 0.8365478515625
0.95301645994186401 0.48592045903205872 0.8058847188949585
0.31681621074676514 0.36989626288414001 0.83951759338378906
0.39322370290756226 0.37282568216323853 0.84339350461959839
0.51553159952163696 0.40031731128692627 0.83927303552627563
0.66003799438476562 0.43614169955253601 0.83838343620300293
0.7887648344039917 0.49087756872177124 0.83849769830703735
0.88832604885101318 0.51619923114776611 0.83741170167922974
0.95028668642044067 0.53336232900619507 0.81140100955963135
0.33732566237449646 0.47297430038452148 0.83847200870513916
0.41140279173851013 0.48599037528038025 0.83887314796447754
0.52408373355865479 0.50909560918807983 0.83464235067367554
0.6589353084564209 0.53836280107498169 0.83350825309753418
0.7850109338760376 0.57928693294525146 0.83803623914718628
0.87700349092483521 0.5986054539680481 0.83748823404312134
0.94240075349807739 0.60630965232849121 0.81495767831802368
0.30388787388801575 0.58634388446807861 0.8272632360458374
0.3829132616519928 0.59560054540634155 0.82896459102630615
0.50441014766693115 0.61436426639556885 0.82950025796890259
0.64063352346420288 0.63398605585098267 0.83114957809448242
0.77554821968078613 0.66210329532623291 0.83640420436859131
0.8633352518081665 0.67556184530258179 0.83414292335510254
0.93487298488616943 0.68339937925338745 0.82195478677749634
0.39836716651916504 0.70857036113739014 0.8221021294593811
0.4440174400806427 0.70769953727722168 0.82468008995056152
0.51723921298980713 0.70814907550811768 0.82715129852294922
0.61501359939575195 0.7138063907623291 0.82837247848510742
0.74803918600082397 0.73982638120651245 0.83417630195617676
0.85630875825881958 0.76006925106048584 0.84127336740493774
0.93474775552749634 0.76238858699798584 0.8328126072883606
0.54643911123275757 0.81488656997680664 0.83072155714035034
0.57179301977157593 0.81630080938339233 0.83216553926467896
0.62530398368835449 0.81958365440368652 0.83795881271362305
0.68829345703125 0.82290804386138916 0.84205639362335205
0.76796901226043701 0.82714128494262695 0.84604924917221069
0.84984475374221802 0.83947908878326416 0.84927582740783691
0.94195246696472168 0.84440094232559204 0.84101021289825439
0.70332908630371094 0.91546809673309326 0.87112712860107422
0.7168089747428894 0.91767913103103638 0.87242215871810913
0.73479580879211426 0.91725391149520874 0.87615478038787842
0.76787996292114258 0.91827130317687988 0.88069707155227661
0.82134068012237549 0.92243003845214844 0.88603997230529785
0.85890907049179077 0.92596375942230225 0.88277894258499146
0.93646234273910522 0.94761413335800171 0.87722182273864746
0.49991816282272339 0.44655933976173401 0.94303297996520996
0.53793752193450928 0.45523843169212341 0.94113039970397949
0.6157715916633606 0.4782024621963501 0.94169175624847412
0.71571975946426392 0.51215130090713501 0.93629258871078491
0.81263250112533569 0.55833584070205688 0.9313012957572937
0.90468931198120117 0.61849534511566162 0.93123096227645874
0.9788813591003418 0.64061135053634644 0.92903786897659302
0.51420688629150391 0.4976409375667572 0.94034963846206665
0.55002862215042114 0.50281000137329102 0.93760901689529419
0.63049209117889404 0.52644824981689453 0.94034355878829956
0.72081863880157471 0.55321294069290161 0.93674242496490479
0.81653118133544922 0.59587711095809937 0.9311414361000061
0.90440076589584351 0.64489847421646118 0.93078464269638062
0.97630017995834351 0.6609947681427002 0.92860287427902222
0.53673988580703735 0.57819461822509766 0.9385077953338623
0.57037019729614258 0.58330816030502319 0.93739598989486694
0.63291251659393311 0.59536206722259521 0.93599855899810791
0.72380161285400391 0.61856734752655029 0.93344372510910034
0.81774997711181641 0.65342062711715698 0.93159753084182739
0.89838486909866333 0.68810617923736572 0.93040668964385986
0.96985942125320435 0.70287990570068359 0.92876487970352173
0.52403616905212402 0.65734881162643433 0.93426334857940674
0.55836302042007446 0.66079270839691162 0.9346197247505188
0.62540966272354126 0.67201024293899536 0.9336274266242981
0.71313571929931641 0.69063818454742432 0.93075215816497803
0.81151503324508667 0.71074581146240234 0.93164283037185669
0.89282119274139404 0.73965024948120117 0.929859459400177
0.96162015199661255 0.75583767890930176 0.92915815114974976
0.49476516246795654 0.73821526765823364 0.93177121877670288
0.52014714479446411 0.73784041404724121 0.9289126992225647
0.5842738151550293 0.74302506446838379 0.93272954225540161
0.67798322439193726 0.75286632776260376 0.92882770299911499
0.78659296035766602 0.7717289924621582 0.93230324983596802
0.87907785177230835 0.79889863729476929 0.93299424648284912
0.95714694261550903 0.81509882211685181 0.93574303388595581
0.59241789579391479 0.84017318487167358 0.93127220869064331
0.60384488105773926 0.84118491411209106 0.93329209089279175
0.64030879735946655 0.84114319086074829 0.93524783849716187
0.69261312484741211 0.83978432416915894 0.93596822023391724
0.76350951194763184 0.84096485376358032 0.93681132793426514
0.86734509468078613 0.85792815685272217 0.94106495380401611
0.95683521032333374 0.88268983364105225 0.9447777271270752
0.69768929481506348 0.93426048755645752 0.94085180759429932
0.70725518465042114 0.93394619226455688 0.94137740135192871
0.73460292816162109 0.93451344966888428 0.94358104467391968
0.77081000804901123 0.93779230117797852 0.94508624076843262
0.82024961709976196 0.93712550401687622 0.94650709629058838
0.87829095125198364 0.94281858205795288 0.95216566324234009
0.9532092809677124 0.95125108957290649 0.95527976751327515
