luts/negative_color/kodak_portra_160_nc.cube
# Created by: G'MIC (https://gmic.eu)
TITLE "kodak_portra_160_nc"
# LUT size
LUT_3D_SIZE 5
# Data domain
DOMAIN_MIN 0.0 0.0 0.0
DOMAIN_MAX 1.0 1.0 1.0
# LUT data points
0.022678360342979431 0.040231186896562576 0.03616802766919136
0.19043028354644775 0.053102783858776093 0.033769793808460236
0.49781566858291626 0.066716000437736511 0.013718144968152046
0.77707368135452271 0.10696252435445786 0.0050241807475686073
0.97353237867355347 0.20464523136615753 0.0065652434714138508
0.0031308790203183889 0.21686825156211853 0.077452413737773895
0.1651928573846817 0.26205158233642578 0.02553291991353035
0.56382083892822266 0.27384161949157715 0.0018061918672174215
0.79909902811050415 0.28598260879516602 0.0058097690343856812
0.97847861051559448 0.32862555980682373 0.0047412649728357792
0 0.49504274129867554 0.20502625405788422
0.0064286775887012482 0.50696086883544922 0.18903002142906189
0.47730773687362671 0.56919258832931519 0.040187418460845947
0.81772685050964355 0.56529080867767334 0.00026200237334705889
0.98304027318954468 0.52413684129714966 0.0017760182963684201
0.0099640935659408569 0.71550101041793823 0.38180434703826904
0.12013283371925354 0.71408480405807495 0.38422873616218567
0.39573916792869568 0.73108136653900146 0.3539244532585144
0.70789092779159546 0.77033138275146484 0.24364396929740906
0.97068041563034058 0.78383451700210571 0.15560068190097809
0.54153990745544434 0.89944267272949219 0.67118465900421143
0.56339567899703979 0.89838647842407227 0.67348092794418335
0.6259644627571106 0.89997285604476929 0.67805492877960205
0.72722357511520386 0.92313903570175171 0.65605068206787109
0.89045655727386475 0.94342583417892456 0.59455764293670654
0.0095677841454744339 0.050690401345491409 0.21802675724029541
0.21261335909366608 0.060379102826118469 0.21964189410209656
0.52349996566772461 0.013138939626514912 0.20914308726787567
0.77617532014846802 0.10922247171401978 0.21624384820461273
0.96272426843643188 0.25505006313323975 0.24110375344753265
0.0029393662698566914 0.25192734599113464 0.24840497970581055
0.24665199220180511 0.27875259518623352 0.26921901106834412
0.56153023242950439 0.28474140167236328 0.24351887404918671
0.79263919591903687 0.31256771087646484 0.23583528399467468
0.97197157144546509 0.36159169673919678 0.25206130743026733
0.16949914395809174 0.52986693382263184 0.37429085373878479
0.24305061995983124 0.5307241678237915 0.35997205972671509
0.52624666690826416 0.57290875911712646 0.30296948552131653
0.81348001956939697 0.55154603719711304 0.25485503673553467
0.975799560546875 0.54239511489868164 0.25716051459312439
0.26969766616821289 0.725075364112854 0.48513466119766235
0.32048454880714417 0.7210879921913147 0.4797213077545166
0.45991435647010803 0.73114728927612305 0.46175938844680786
0.72150075435638428 0.76990008354187012 0.39826157689094543
0.9677308201789856 0.78069859743118286 0.35375514626502991
0.57768481969833374 0.89846211671829224 0.70024412870407104
0.59362208843231201 0.89779216051101685 0.70124286413192749
0.64672011137008667 0.89863693714141846 0.70657110214233398
0.7408214807510376 0.92110991477966309 0.68883723020553589
0.89507216215133667 0.94468331336975098 0.64650315046310425
0.011189254932105541 0.098628789186477661 0.53232818841934204
0.28487566113471985 0.11294441670179367 0.5434563159942627
0.59161961078643799 0.15979360044002533 0.55107730627059937
0.80321669578552246 0.2155909389257431 0.49593168497085571
0.97228372097015381 0.27160036563873291 0.46693465113639832
0.0039589526131749153 0.30728650093078613 0.55469626188278198
0.30014321208000183 0.32869952917098999 0.56469333171844482
0.59647625684738159 0.36103427410125732 0.56557685136795044
0.79731684923171997 0.3633442223072052 0.51896578073501587
0.97142970561981201 0.38879126310348511 0.49013739824295044
0.18252141773700714 0.55932432413101196 0.56385892629623413
0.36497169733047485 0.56463968753814697 0.57938194274902344
0.5937122106552124 0.57845950126647949 0.58462941646575928
0.79593169689178467 0.5772823691368103 0.55477190017700195
0.95501697063446045 0.57220900058746338 0.53190243244171143
0.48853090405464172 0.74716818332672119 0.65567529201507568
0.53937375545501709 0.7435566782951355 0.65472781658172607
0.59605282545089722 0.74127936363220215 0.64071691036224365
0.7547914981842041 0.77096796035766602 0.6126173734664917
0.95686501264572144 0.76896065473556519 0.58353394269943237
0.66879487037658691 0.90434068441390991 0.77902072668075562
0.67293387651443481 0.90256285667419434 0.77195990085601807
0.69225513935089111 0.90307158231735229 0.76305723190307617
0.76624363660812378 0.91785097122192383 0.76220196485519409
0.90656739473342896 0.94353717565536499 0.73218166828155518
0.16082769632339478 0.21406151354312897 0.78549337387084961
0.38035410642623901 0.23854708671569824 0.78890359401702881
0.63488394021987915 0.31119456887245178 0.78460443019866943
0.83526718616485596 0.38151884078979492 0.77989202737808228
0.95622146129608154 0.4479668140411377 0.73652929067611694
0.23734645545482635 0.37786298990249634 0.78697901964187622
0.40862569212913513 0.4039091169834137 0.78256267309188843
0.64535939693450928 0.45634597539901733 0.77842885255813599
0.82907390594482422 0.4982183575630188 0.78283429145812988
0.95142930746078491 0.53938031196594238 0.74942588806152344
0.21312116086483002 0.57141441106796265 0.76846122741699219
0.38955754041671753 0.58088505268096924 0.77347880601882935
0.62102103233337402 0.6150050163269043 0.7762371301651001
0.81045001745223999 0.64688462018966675 0.78503179550170898
0.94008922576904297 0.65760517120361328 0.76421970129013062
0.47189792990684509 0.76073974370956421 0.77320516109466553
0.53750354051589966 0.76203328371047974 0.78113770484924316
0.65882843732833862 0.76602625846862793 0.78800338506698608
0.79496961832046509 0.78014659881591797 0.7936934232711792
0.9405672550201416 0.77574509382247925 0.77175039052963257
0.70148187875747681 0.91086196899414062 0.84707611799240112
0.72228717803955078 0.91251963376998901 0.85063374042510986
0.76218324899673462 0.91315019130706787 0.85599440336227417
0.81945091485977173 0.91870361566543579 0.85227257013320923
0.92594897747039795 0.94512748718261719 0.83981013298034668
0.49991816282272339 0.44655933976173401 0.94303297996520996
0.5717584490776062 0.4646260142326355 0.9422377347946167
0.71571975946426392 0.51215130090713501 0.93629258871078491
0.85959434509277344 0.58854085206985474 0.93175309896469116
0.9788813591003418 0.64061135053634644 0.92903786897659302
0.52653878927230835 0.53589439392089844 0.9407462477684021
0.59408086538314819 0.54703456163406372 0.93873375654220581
0.72486674785614014 0.58420568704605103 0.93506550788879395
0.8601757287979126 0.64627683162689209 0.9301411509513855
0.97353851795196533 0.67982786893844604 0.92892205715179443
0.52403616905212402 0.65734881162643433 0.93426334857940674
0.58812481164932251 0.6658320426940918 0.9327271580696106
0.71313571929931641 0.69063818454742432 0.93075215816497803
0.85264110565185547 0.72483891248703003 0.92968952655792236
0.96162015199661255 0.75583767890930176 0.92915815114974976
0.54287236928939819 0.78905749320983887 0.92951953411102295
0.57026708126068115 0.78992873430252075 0.93177199363708496
0.66367608308792114 0.7886773943901062 0.9322284460067749
0.82419312000274658 0.81208950281143188 0.9367097020149231
0.95844662189483643 0.84779578447341919 0.93944811820983887
0.69768929481506348 0.93426048755645752 0.94085180759429932
0.72176778316497803 0.93599516153335571 0.94418692588806152
0.77081000804901123 0.93779230117797852 0.94508624076843262
0.84798747301101685 0.93860334157943726 0.94863390922546387
0.9532092809677124 0.95125108957290649 0.95527976751327515
