luts/negative_color/kodak_portra_160_vc.cube
# Created by: G'MIC (https://gmic.eu)
TITLE "kodak_portra_160_vc"
# LUT size
LUT_3D_SIZE 5
# Data domain
DOMAIN_MIN 0.0 0.0 0.0
DOMAIN_MAX 1.0 1.0 1.0
# LUT data points
0.025083623826503754 0.034956090152263641 0.037637300789356232
0.18404854834079742 0.03345215693116188 0.035378802567720413
0.53076183795928955 0.025781100615859032 0.014509193599224091
0.84546279907226562 0.036558575928211212 0.0018614974105730653
0.99360626935958862 0.16356353461742401 8.1858917837962508e-05
0.0023078618105500937 0.19633230566978455 0.073968686163425446
0.16413366794586182 0.22941315174102783 0.032714664936065674
0.55523234605789185 0.25247800350189209 0.0054358686320483685
0.83663731813430786 0.26333951950073242 0.0046691745519638062
0.99381619691848755 0.30004775524139404 0.0025928572285920382
0.00076154823182150722 0.50191634893417358 0.18929113447666168
0.049900203943252563 0.5105549693107605 0.19200171530246735
0.49009740352630615 0.5424235463142395 0.046865485608577728
0.80941092967987061 0.52954334020614624 0.0032162386924028397
0.99299025535583496 0.49368220567703247 0.0022323608864098787
0.12782920897006989 0.73585087060928345 0.37627521157264709
0.2788642942905426 0.73178368806838989 0.38754552602767944
0.47971212863922119 0.73698979616165161 0.35450246930122375
0.74225884675979614 0.75493192672729492 0.23034675419330597
0.97969543933868408 0.76264649629592896 0.04790027067065239
0.59364265203475952 0.91100507974624634 0.65687578916549683
0.62355184555053711 0.9119599461555481 0.6670684814453125
0.68678617477416992 0.90852129459381104 0.66830217838287354
0.78070986270904541 0.92414575815200806 0.63919973373413086
0.92436039447784424 0.9415820837020874 0.56981378793716431
0.0038170758634805679 0.053414124995470047 0.2353816032409668
0.19788309931755066 0.053082916885614395 0.22391390800476074
0.5448378324508667 0.0021509956568479538 0.21044132113456726
0.84993946552276611 0.044688746333122253 0.22512754797935486
0.99703240394592285 0.24139858782291412 0.24523714184761047
0.0023803561925888062 0.24265488982200623 0.25823500752449036
0.22525583207607269 0.25829410552978516 0.26656767725944519
0.57938593626022339 0.26551544666290283 0.2466987818479538
0.84229600429534912 0.29499480128288269 0.2322937548160553
0.9932560920715332 0.35235857963562012 0.22980190813541412
0.087111666798591614 0.54171645641326904 0.35595041513442993
0.24868804216384888 0.53606033325195312 0.35276627540588379
0.52950263023376465 0.54823869466781616 0.29501941800117493
0.81904947757720947 0.52501273155212402 0.19097025692462921
0.99281281232833862 0.51089131832122803 0.15060891211032867
0.31226640939712524 0.74095529317855835 0.47413215041160583
0.39309170842170715 0.73972499370574951 0.47917470335960388
0.53745752573013306 0.73600256443023682 0.46672916412353516
0.75518620014190674 0.75961410999298096 0.38540133833885193
0.97752726078033447 0.75905478000640869 0.28428643941879272
0.62543439865112305 0.9126320481300354 0.69188922643661499
0.64649444818496704 0.91123920679092407 0.69452363252639771
0.70524346828460693 0.90908420085906982 0.70455968379974365
0.79020673036575317 0.92233681678771973 0.68143969774246216
0.91920620203018188 0.94212263822555542 0.63083481788635254
0.002627144567668438 0.13013270497322083 0.57967871427536011
0.28260162472724915 0.15339142084121704 0.57288742065429688
0.61450529098510742 0.17722339928150177 0.56246590614318848
0.83464628458023071 0.029534613713622093 0.48436087369918823
0.99626678228378296 0.15470743179321289 0.45370602607727051
0.0044256174005568027 0.35650777816772461 0.59206652641296387
0.29772770404815674 0.35944166779518127 0.58612537384033203
0.61422979831695557 0.36944037675857544 0.56913822889328003
0.8317752480506897 0.30284112691879272 0.50087660551071167
0.99611330032348633 0.36894196271896362 0.49523055553436279
0.056116439402103424 0.58344739675521851 0.57349711656570435
0.33474224805831909 0.57803261280059814 0.57436656951904297
0.58439511060714722 0.56570762395858765 0.56724065542221069
0.81475687026977539 0.56278175115585327 0.54006445407867432
0.98254144191741943 0.5906946063041687 0.53824669122695923
0.47755473852157593 0.76117956638336182 0.64295566082000732
0.54716724157333374 0.75571948289871216 0.6467328667640686
0.63697159290313721 0.75331395864486694 0.63506299257278442
0.77796041965484619 0.7635723352432251 0.60192221403121948
0.97642034292221069 0.74857491254806519 0.52958482503890991
0.68260157108306885 0.91791802644729614 0.7654731273651123
0.69634926319122314 0.91270989179611206 0.76266419887542725
0.73990827798843384 0.91526061296463013 0.76708143949508667
0.81134319305419922 0.92027372121810913 0.75530660152435303
0.93244510889053345 0.94219720363616943 0.71871501207351685
0.10090982913970947 0.29822477698326111 0.82119137048721313
0.39411652088165283 0.33160075545310974 0.81326770782470703
0.67142599821090698 0.40745791792869568 0.80034607648849487
0.85911238193511963 0.44082680344581604 0.78849244117736816
0.97888374328613281 0.39377656579017639 0.72331017255783081
0.24938708543777466 0.45433470606803894 0.81766366958618164
0.43441462516784668 0.47438564896583557 0.80939388275146484
0.67638254165649414 0.52469068765640259 0.79758286476135254
0.8510056734085083 0.54005813598632812 0.78855639696121216
0.97667276859283447 0.4920036792755127 0.7364543080329895
0.28517049551010132 0.64380097389221191 0.79531377553939819
0.4447782039642334 0.64466452598571777 0.79289120435714722
0.65449273586273193 0.65351945161819458 0.78703659772872925
0.82849752902984619 0.66407173871994019 0.7822955846786499
0.97005599737167358 0.6267998218536377 0.75110870599746704
0.48456385731697083 0.79013335704803467 0.78803521394729614
0.55962830781936646 0.78751063346862793 0.78817743062973022
0.66951221227645874 0.78555262088775635 0.79243212938308716
0.80914437770843506 0.77654099464416504 0.78263431787490845
0.96246504783630371 0.77392148971557617 0.76062184572219849
0.69677591323852539 0.92983329296112061 0.85119253396987915
0.72065955400466919 0.92750447988510132 0.85191130638122559
0.7786831259727478 0.92549377679824829 0.85427027940750122
0.8468937873840332 0.92801094055175781 0.85251408815383911
0.94031554460525513 0.93907397985458374 0.83308619260787964
0.53508180379867554 0.54829239845275879 0.95575463771820068
0.609161376953125 0.5635257363319397 0.94756144285202026
0.75665277242660522 0.61640113592147827 0.94407457113265991
0.88521361351013184 0.67955249547958374 0.93707209825515747
0.985676109790802 0.69392579793930054 0.92929613590240479
0.56911176443099976 0.62080973386764526 0.95144391059875488
0.63540917634963989 0.63552713394165039 0.94846814870834351
0.76589453220367432 0.66845118999481201 0.94479560852050781
0.88634133338928223 0.71305811405181885 0.93633276224136353
0.98146474361419678 0.7269216775894165 0.93458390235900879
0.61271470785140991 0.73979467153549194 0.94801098108291626
0.65844041109085083 0.73634493350982666 0.94563442468643188
0.75517463684082031 0.74909871816635132 0.94076168537139893
0.8744049072265625 0.77874809503555298 0.93657350540161133
0.97469562292098999 0.78949671983718872 0.93465214967727661
0.60465258359909058 0.84614014625549316 0.94356971979141235
0.64641761779785156 0.84320676326751709 0.94308614730834961
0.72728127241134644 0.84366053342819214 0.94584780931472778
0.85761487483978271 0.85225176811218262 0.94440138339996338
0.96559864282608032 0.87039905786514282 0.93976545333862305
0.706520676612854 0.95340895652770996 0.94711786508560181
0.7264552116394043 0.9545670747756958 0.95017975568771362
0.78382575511932373 0.95128589868545532 0.94984167814254761
0.86642271280288696 0.95122802257537842 0.95491993427276611
0.96200841665267944 0.95822525024414062 0.95511823892593384
