luts/negative_color/kodak_elite_100_xpro.cube
# Created by: G'MIC (https://gmic.eu)
TITLE "kodak_elite_100_xpro"
# LUT size
LUT_3D_SIZE 5
# Data domain
DOMAIN_MIN 0.0 0.0 0.0
DOMAIN_MAX 1.0 1.0 1.0
# LUT data points
0.025589587166905403 0.013863223604857922 0.0035263809841126204
0.15951886773109436 0.021600909531116486 0.0062052109278738499
0.38845083117485046 0.032783776521682739 0.013705728575587273
0.72843176126480103 0.066497787833213806 0.031340163201093674
0.94899457693099976 0.12677536904811859 0.046401709318161011
0.099907517433166504 0.16361936926841736 0.0072624208405613899
0.18688380718231201 0.1743769645690918 0.012482781894505024
0.42191815376281738 0.21643993258476257 0.019212894141674042
0.75590139627456665 0.26343533396720886 0.031215982511639595
0.97414618730545044 0.33946537971496582 0.031911872327327728
0.045507155358791351 0.46548855304718018 0.007856062613427639
0.22581808269023895 0.46675264835357666 0.013957139104604721
0.50264263153076172 0.49761399626731873 0.019498921930789948
0.81649136543273926 0.53733861446380615 0.024379415437579155
0.98618859052658081 0.57296973466873169 0.016037287190556526
0.20089355111122131 0.71186679601669312 0.011490870267152786
0.36044669151306152 0.71489667892456055 0.012713099829852581
0.64588445425033569 0.73032653331756592 0.017188740894198418
0.86729961633682251 0.74535810947418213 0.014902675524353981
0.99342954158782959 0.75813436508178711 0.010772825218737125
0.60172772407531738 0.86378943920135498 0.0017469518352299929
0.67073792219161987 0.86530381441116333 0.002623584121465683
0.8015630841255188 0.86771976947784424 0.002341356361284852
0.94170016050338745 0.87340295314788818 0.0016230713808909059
0.998779296875 0.87691777944564819 0.0020604452583938837
0.021707227453589439 0.019946752116084099 0.043853174895048141
0.14293463528156281 0.029763359576463699 0.0520615354180336
0.38250631093978882 0.046176057308912277 0.062102988362312317
0.72840547561645508 0.081001549959182739 0.07800573855638504
0.95428138971328735 0.14278867840766907 0.062921158969402313
0.081588566303253174 0.18323042988777161 0.061532966792583466
0.16819316148757935 0.19348759949207306 0.064700543880462646
0.41773921251296997 0.23123900592327118 0.0770750492811203
0.7572827935218811 0.28592845797538757 0.088447973132133484
0.96941626071929932 0.35753855109214783 0.06206372007727623
0.016892781481146812 0.48471364378929138 0.069466657936573029
0.17502987384796143 0.4938606321811676 0.074182815849781036
0.48432904481887817 0.51694285869598389 0.080216392874717712
0.80884015560150146 0.5534672737121582 0.079612582921981812
0.9846075177192688 0.59127414226531982 0.053577587008476257
0.10312936455011368 0.72694635391235352 0.07492249459028244
0.31609460711479187 0.7318539023399353 0.079360693693161011
0.61831748485565186 0.7442592978477478 0.07952512800693512
0.85974723100662231 0.7606547474861145 0.065437108278274536
0.99566596746444702 0.77251070737838745 0.029731899499893188
0.56814181804656982 0.88230621814727783 0.052568010985851288
0.64486265182495117 0.88291835784912109 0.049733676016330719
0.78608644008636475 0.88767498731613159 0.039277467876672745
0.93142592906951904 0.89114868640899658 0.013056107796728611
0.99969422817230225 0.89114797115325928 0.0088117560371756554
0.0087627638131380081 0.036158870905637741 0.19826562702655792
0.11101750284433365 0.048678766936063766 0.20092283189296722
0.35883131623268127 0.069204084575176239 0.2043478786945343
0.71410113573074341 0.10863086581230164 0.20553649961948395
0.95214074850082397 0.17007765173912048 0.15770368278026581
0.047393515706062317 0.21943633258342743 0.25952938199043274
0.11718375980854034 0.23653891682624817 0.26217353343963623
0.38071858882904053 0.27250567078590393 0.27519941329956055
0.74208778142929077 0.32636699080467224 0.26512658596038818
0.96622508764266968 0.39951789379119873 0.19476526975631714
0.00033030789927579463 0.51769554615020752 0.34508323669433594
0.027059262618422508 0.53580594062805176 0.34160280227661133
0.40376105904579163 0.56046491861343384 0.35008284449577332
0.77121680974960327 0.59007370471954346 0.32873818278312683
0.97225475311279297 0.62690079212188721 0.24566012620925903
0.0048042298294603825 0.76712679862976074 0.448484867811203
0.090022355318069458 0.77594727277755737 0.45764762163162231
0.5356249213218689 0.78692460060119629 0.45775210857391357
0.81259888410568237 0.8026692271232605 0.43459850549697876
0.98362326622009277 0.81096702814102173 0.31963860988616943
0.44698402285575867 0.92151010036468506 0.54878038167953491
0.54711920022964478 0.92419576644897461 0.55023670196533203
0.71992295980453491 0.92844951152801514 0.53965276479721069
0.87479627132415771 0.93031346797943115 0.50843596458435059
0.99110221862792969 0.92534345388412476 0.35259649157524109
0.002419445663690567 0.086880072951316833 0.54073703289031982
0.04684174433350563 0.10144400596618652 0.55886960029602051
0.28909763693809509 0.12549518048763275 0.57023495435714722
0.67749381065368652 0.17119263112545013 0.5780298113822937
0.9275858998298645 0.24311612546443939 0.50679731369018555
0.0041663972660899162 0.28851449489593506 0.6336711049079895
0.031178254634141922 0.30725958943367004 0.64465165138244629
0.26829499006271362 0.33844274282455444 0.66042828559875488
0.68132990598678589 0.40176200866699219 0.67299151420593262
0.92892491817474365 0.47314274311065674 0.63008970022201538
0 0.58245575428009033 0.70018917322158813
0.0034757577814161777 0.59090548753738403 0.70276880264282227
0.24094501137733459 0.61811178922653198 0.72650843858718872
0.70053517818450928 0.64938580989837646 0.74158287048339844
0.92884021997451782 0.68953067064285278 0.70828402042388916
0.0036769791040569544 0.80029714107513428 0.76125222444534302
0.0036878548562526703 0.81098443269729614 0.76926839351654053
0.39750108122825623 0.83116507530212402 0.79132950305938721
0.74227869510650635 0.84648317098617554 0.79872804880142212
0.92635005712509155 0.86264693737030029 0.78125876188278198
0.2422948032617569 0.95396041870117188 0.82777935266494751
0.40875336527824402 0.95535629987716675 0.83208203315734863
0.63754951953887939 0.95859986543655396 0.8394315242767334
0.81716781854629517 0.96270567178726196 0.83808416128158569
0.9562380313873291 0.97001069784164429 0.82143658399581909
0 0.13753040134906769 0.80916726589202881
0.0061739753000438213 0.15118665993213654 0.82069748640060425
0.19901485741138458 0.17931051552295685 0.84201514720916748
0.62368124723434448 0.23539350926876068 0.87153208255767822
0.89183109998703003 0.32709303498268127 0.8740425705909729
0 0.3480888307094574 0.84227550029754639
0.0039328332059085369 0.36871308088302612 0.84803521633148193
0.10689172148704529 0.40223681926727295 0.87341392040252686
0.61770182847976685 0.46334335207939148 0.9014553427696228
0.8913874626159668 0.53981363773345947 0.90620923042297363
0 0.61929029226303101 0.86338585615158081
0.00029498830554075539 0.63369369506835938 0.86883556842803955
0.023143230006098747 0.6596255898475647 0.89380842447280884
0.62904912233352661 0.69568699598312378 0.92612844705581665
0.89109534025192261 0.73804652690887451 0.93315309286117554
4.434024594957009e-05 0.82911878824234009 0.88912159204483032
0.0043791676871478558 0.83354455232620239 0.89188104867935181
0.10553359985351562 0.8557431697845459 0.92399114370346069
0.67682206630706787 0.87378305196762085 0.94728797674179077
0.89520406723022461 0.89637571573257446 0.95550882816314697
0.0060609853826463223 0.96137809753417969 0.92901527881622314
0.067661389708518982 0.96670275926589966 0.9367179274559021
0.49945852160453796 0.97509527206420898 0.9543081521987915
0.76734638214111328 0.9804341197013855 0.96798980236053467
0.92653751373291016 0.9871441125869751 0.97812366485595703
