luts/negative_color/kodak_elite_color_200.cube
# Created by: G'MIC (https://gmic.eu)
TITLE "kodak_elite_color_200"
# LUT size
LUT_3D_SIZE 5
# Data domain
DOMAIN_MIN 0.0 0.0 0.0
DOMAIN_MAX 1.0 1.0 1.0
# LUT data points
0.02405751496553421 0.020073145627975464 0.022880943492054939
0.16056478023529053 0.023950899019837379 0.030848154798150063
0.36959785223007202 0.040513627231121063 0.037229619920253754
0.65959334373474121 0.066495455801486969 0.082146726548671722
0.92968940734863281 0.13058009743690491 0.11638132482767105
0.10706851631402969 0.15561333298683167 0.039471302181482315
0.19101499021053314 0.16551488637924194 0.04283764585852623
0.39630037546157837 0.17688335478305817 0.064577512443065643
0.67490619421005249 0.20777109265327454 0.089455999433994293
0.93916213512420654 0.26269665360450745 0.12962836027145386
0.12805312871932983 0.34581837058067322 0.03341224417090416
0.23584334552288055 0.34935775399208069 0.028463819995522499
0.4505249559879303 0.35668227076530457 0.04340222105383873
0.72063058614730835 0.38048088550567627 0.066932320594787598
0.96663051843643188 0.42546296119689941 0.11763060092926025
0.23288474977016449 0.54030966758728027 0.00023058723309077322
0.33455061912536621 0.54334616661071777 0
0.54205155372619629 0.54600852727890015 0.00078805664088577032
0.79006963968276978 0.55778586864471436 0.0070677213370800018
0.99497091770172119 0.58190947771072388 0.031718295067548752
0.43906137347221375 0.70029968023300171 0.001997839193791151
0.51734346151351929 0.69968903064727783 0.00022384045587386936
0.67583352327346802 0.69595789909362793 0
0.87413543462753296 0.69807928800582886 0
0.9978596568107605 0.70091414451599121 0.0023745368234813213
0.03421352431178093 0.048931524157524109 0.18084856867790222
0.1829957515001297 0.055537760257720947 0.20090736448764801
0.38810202479362488 0.074754767119884491 0.20811751484870911
0.66616696119308472 0.10531929135322571 0.24126818776130676
0.93443435430526733 0.16418085992336273 0.28176823258399963
0.10694208741188049 0.19334594905376434 0.19237832725048065
0.20683823525905609 0.19888433814048767 0.20268209278583527
0.41186368465423584 0.21058821678161621 0.21656157076358795
0.68448257446289062 0.24144887924194336 0.24550722539424896
0.94214677810668945 0.29775625467300415 0.28847786784172058
0.12120740115642548 0.38166335225105286 0.17324092984199524
0.23007924854755402 0.38835012912750244 0.17902535200119019
0.45497691631317139 0.39364218711853027 0.19552439451217651
0.72321510314941406 0.41913476586341858 0.22731286287307739
0.96309000253677368 0.46484380960464478 0.2787964940071106
0.20819619297981262 0.57849997282028198 0.08080793172121048
0.3287259042263031 0.58066642284393311 0.086881883442401886
0.54228419065475464 0.58482402563095093 0.10356038063764572
0.78477770090103149 0.60061061382293701 0.13488388061523438
0.98844689130783081 0.62973982095718384 0.19128119945526123
0.46886929869651794 0.7027888298034668 0
0.53205591440200806 0.7062719464302063 6.4760097302496433e-05
0.69020086526870728 0.70161944627761841 0
0.88550740480422974 0.69974291324615479 0.00024903242592699826
0.99542725086212158 0.70945101976394653 0.0042121587321162224
0.040466636419296265 0.091703854501247406 0.37023442983627319
0.18379558622837067 0.10633520781993866 0.39293262362480164
0.39576956629753113 0.12957903742790222 0.40626141428947449
0.6704220175743103 0.16153658926486969 0.43836897611618042
0.93200504779815674 0.21349373459815979 0.47738289833068848
0.1052841916680336 0.23940618336200714 0.40645876526832581
0.2059454470872879 0.24748997390270233 0.4230559766292572
0.42292898893356323 0.2642102837562561 0.4340461790561676
0.69267982244491577 0.29884982109069824 0.46297308802604675
0.94334059953689575 0.35460290312767029 0.50421851873397827
0.10472477972507477 0.43656781315803528 0.43042400479316711
0.21856015920639038 0.44845271110534668 0.43920537829399109
0.459759920835495 0.45596745610237122 0.45251017808914185
0.72324866056442261 0.48468747735023499 0.48427644371986389
0.95563113689422607 0.53005790710449219 0.5259978175163269
0.13834667205810547 0.65694135427474976 0.40809616446495056
0.28305655717849731 0.66267591714859009 0.40941885113716125
0.5229761004447937 0.66866010427474976 0.42985290288925171
0.7614561915397644 0.68260186910629272 0.46188861131668091
0.97188025712966919 0.71015530824661255 0.50963675975799561
0.46222710609436035 0.75682073831558228 0.12945199012756348
0.52988326549530029 0.76010239124298096 0.1430908739566803
0.68046665191650391 0.76460278034210205 0.14945603907108307
0.86497539281845093 0.77132987976074219 0.19173713028430939
0.99706459045410156 0.7895931601524353 0.26063907146453857
0.062905766069889069 0.15565137565135956 0.60956656932830811
0.20809012651443481 0.15970313549041748 0.62232142686843872
0.42297336459159851 0.17513132095336914 0.63761222362518311
0.68761801719665527 0.20848183333873749 0.65982705354690552
0.93165570497512817 0.26344683766365051 0.68672841787338257
0.10568208992481232 0.28417244553565979 0.65959590673446655
0.21720133721828461 0.28861507773399353 0.66675436496734619
0.43964588642120361 0.30783134698867798 0.67534017562866211
0.70448869466781616 0.33775526285171509 0.69147723913192749
0.94322884082794189 0.39207595586776733 0.71688807010650635
0.070716008543968201 0.49036049842834473 0.70126944780349731
0.23772560060024261 0.49555885791778564 0.70146006345748901
0.47472187876701355 0.50606012344360352 0.70719438791275024
0.72590869665145874 0.52852606773376465 0.72418272495269775
0.94755405187606812 0.56975042819976807 0.74861115217208862
0.10189083218574524 0.73060482740402222 0.72165286540985107
0.28180968761444092 0.7305377721786499 0.72845673561096191
0.52302700281143188 0.73431193828582764 0.73553043603897095
0.75094747543334961 0.74543881416320801 0.74714332818984985
0.95334821939468384 0.76923096179962158 0.77300542593002319
0.39152795076370239 0.87934160232543945 0.64150607585906982
0.46948570013046265 0.87980210781097412 0.64207077026367188
0.63551050424575806 0.87947791814804077 0.64562785625457764
0.81753039360046387 0.88701051473617554 0.67207628488540649
0.97875899076461792 0.90459239482879639 0.72267711162567139
0.10850241035223007 0.20387528836727142 0.81200981140136719
0.25358173251152039 0.19073599576950073 0.82249057292938232
0.46395659446716309 0.19138143956661224 0.83312004804611206
0.7087022066116333 0.21537639200687408 0.84189093112945557
0.93747609853744507 0.26071611046791077 0.84890192747116089
0.1614738255739212 0.29092365503311157 0.8554539680480957
0.28180751204490662 0.29790961742401123 0.85824555158615112
0.49083083868026733 0.31029736995697021 0.86570990085601807
0.73031842708587646 0.33382093906402588 0.87439268827438354
0.95053249597549438 0.39032894372940063 0.88999301195144653
0.21633900701999664 0.50161588191986084 0.89384382963180542
0.33138307929039001 0.50963902473449707 0.89173847436904907
0.53214019536972046 0.51840120553970337 0.89630776643753052
0.75101208686828613 0.53349947929382324 0.90427213907241821
0.95351672172546387 0.57655930519104004 0.92373991012573242
0.27805793285369873 0.76290750503540039 0.92205607891082764
0.39330804347991943 0.76250481605529785 0.92372000217437744
0.58068716526031494 0.76519966125488281 0.9306146502494812
0.7741926908493042 0.77192848920822144 0.93435335159301758
0.95420175790786743 0.79208731651306152 0.94667899608612061
0.45654040575027466 0.9575265645980835 0.9453960657119751
0.51626801490783691 0.95612072944641113 0.9445807933807373
0.65172511339187622 0.95718276500701904 0.94763600826263428
0.81589186191558838 0.95663034915924072 0.94066780805587769
0.96660327911376953 0.96637535095214844 0.96186041831970215
