luts/negative_color/kodak_ektar_100.cube
# Created by: G'MIC (https://gmic.eu)
TITLE "kodak_ektar_100"
# LUT size
LUT_3D_SIZE 7
# Data domain
DOMAIN_MIN 0.0 0.0 0.0
DOMAIN_MAX 1.0 1.0 1.0
# LUT data points
0.047844380140304565 0.037764202803373337 0.035041570663452148
0.19943554699420929 0.046056933701038361 0.034458775073289871
0.3489052951335907 0.053424626588821411 0.029902094975113869
0.53782320022583008 0.065045721828937531 0.02487945556640625
0.73731887340545654 0.077624812722206116 0.016880648210644722
0.89646780490875244 0.087612643837928772 0.013324243947863579
0.99903988838195801 0.10034430772066116 0.0063825869001448154
0.078622899949550629 0.16174347698688507 0.080945201218128204
0.17700089514255524 0.16708293557167053 0.075178883969783783
0.32186472415924072 0.17762203514575958 0.076584912836551666
0.50900024175643921 0.18620783090591431 0.065096944570541382
0.70309257507324219 0.19223204255104065 0.051279179751873016
0.87009334564208984 0.18139128386974335 0.039828192442655563
0.99488711357116699 0.15203195810317993 0.02474791556596756
0.089294403791427612 0.28382718563079834 0.1295313686132431
0.14608412981033325 0.29141372442245483 0.1286386251449585
0.29274111986160278 0.30037176609039307 0.12369254976511002
0.50031179189682007 0.31117045879364014 0.11435987055301666
0.67305612564086914 0.31919839978218079 0.10353559255599976
0.8338589072227478 0.31332498788833618 0.090846151113510132
0.97579514980316162 0.28945362567901611 0.069633156061172485
0.00094493792857974768 0.43856078386306763 0.16678535938262939
0.053353298455476761 0.44886469841003418 0.162570521235466
0.24735969305038452 0.45736077427864075 0.15592913329601288
0.45745867490768433 0.4700377881526947 0.14649495482444763
0.61697846651077271 0.47819554805755615 0.13837087154388428
0.77839159965515137 0.47662192583084106 0.13007283210754395
0.92811596393585205 0.4581952691078186 0.11309066414833069
0.0019943236839026213 0.58022934198379517 0.20008274912834167
0.054581496864557266 0.58371138572692871 0.19279226660728455
0.25700074434280396 0.58851289749145508 0.19080688059329987
0.42848056554794312 0.60093158483505249 0.18325519561767578
0.58331561088562012 0.60887891054153442 0.17146147787570953
0.72943687438964844 0.61722427606582642 0.15816126763820648
0.86577332019805908 0.61347442865371704 0.13875579833984375
0.016724260523915291 0.70437490940093994 0.23831179738044739
0.10296059399843216 0.70854294300079346 0.23683115839958191
0.26298832893371582 0.71243220567703247 0.23579622805118561
0.41503036022186279 0.71930497884750366 0.23028810322284698
0.55495834350585938 0.73042327165603638 0.22000525891780853
0.68715906143188477 0.73710167407989502 0.20386238396167755
0.82518547773361206 0.74176514148712158 0.18058894574642181
0.097284175455570221 0.8226088285446167 0.29200392961502075
0.16627632081508636 0.8283919095993042 0.2920774519443512
0.2869713306427002 0.83359938859939575 0.29016768932342529
0.41930210590362549 0.8395429253578186 0.28548327088356018
0.53714674711227417 0.85115581750869751 0.27960512042045593
0.65431714057922363 0.8582344651222229 0.26621639728546143
0.80987858772277832 0.86773967742919922 0.23652626574039459
0.05528298020362854 0.046662677079439163 0.1496962308883667
0.20959377288818359 0.055992200970649719 0.14590354263782501
0.3671678900718689 0.063840918242931366 0.13944576680660248
0.55410349369049072 0.073190517723560333 0.12766832113265991
0.74866503477096558 0.083675697445869446 0.11491663008928299
0.9131929874420166 0.090854942798614502 0.10401926934719086
0.99818861484527588 0.10381821542978287 0.082207702100276947
0.097431197762489319 0.16996833682060242 0.18079759180545807
0.18622738122940063 0.17772302031517029 0.1763426810503006
0.33178654313087463 0.18629592657089233 0.17189320921897888
0.52635431289672852 0.1947578638792038 0.16126176714897156
0.71335685253143311 0.19947661459445953 0.14987744390964508
0.88497060537338257 0.19235056638717651 0.13464072346687317
0.99357908964157104 0.16387125849723816 0.11966629326343536
0.086999364197254181 0.29202735424041748 0.20900748670101166
0.14373961091041565 0.29776313900947571 0.20591066777706146
0.30556783080101013 0.30875682830810547 0.20342408120632172
0.50556391477584839 0.31752315163612366 0.1917559802532196
0.67968767881393433 0.3238874077796936 0.18393976986408234
0.84742695093154907 0.31998264789581299 0.17083887755870819
0.98305666446685791 0.29641830921173096 0.15757928788661957
0.0033599254675209522 0.44626542925834656 0.23880885541439056
0.063470788300037384 0.45283356308937073 0.23520675301551819
0.25727570056915283 0.46350905299186707 0.2305791825056076
0.46311083436012268 0.47583448886871338 0.22470800578594208
0.62807148694992065 0.48205256462097168 0.21298523247241974
0.79103696346282959 0.47964835166931152 0.20129647850990295
0.93762648105621338 0.45880028605461121 0.18559244275093079
0.0050217574462294579 0.58111059665679932 0.27494674921035767
0.071372509002685547 0.58643531799316406 0.27184203267097473
0.27028959989547729 0.59463214874267578 0.26979023218154907
0.43859824538230896 0.60434824228286743 0.2663608193397522
0.59113723039627075 0.61085242033004761 0.25611487030982971
0.73663818836212158 0.61782300472259521 0.24723577499389648
0.87595659494400024 0.61679375171661377 0.22416800260543823
0.04055355116724968 0.70781201124191284 0.32023608684539795
0.13744467496871948 0.70935165882110596 0.32094284892082214
0.28864309191703796 0.71340376138687134 0.32256370782852173
0.43118748068809509 0.72318345308303833 0.31457483768463135
0.56942224502563477 0.73332589864730835 0.3095242977142334
0.70098185539245605 0.73758220672607422 0.29871663451194763
0.8339531421661377 0.7433515191078186 0.28013297915458679
0.13152444362640381 0.82826930284500122 0.38047853112220764
0.19669155776500702 0.82854735851287842 0.37939733266830444
0.30683720111846924 0.83748388290405273 0.37783294916152954
0.43143042922019958 0.84453248977661133 0.37669926881790161
0.55140441656112671 0.85230141878128052 0.36967155337333679
0.66940009593963623 0.86108487844467163 0.35828295350074768
0.82153970003128052 0.86977565288543701 0.3369174599647522
0.058093216270208359 0.054839473217725754 0.2541293203830719
0.21864938735961914 0.066016480326652527 0.25022017955780029
0.37024086713790894 0.073238730430603027 0.24597683548927307
0.56705862283706665 0.08505789190530777 0.2349497377872467
0.76310104131698608 0.091696031391620636 0.22229021787643433
0.9292415976524353 0.095747105777263641 0.21186546981334686
0.99796837568283081 0.1050274446606636 0.19384105503559113
0.094254739582538605 0.18416973948478699 0.28648188710212708
0.18913684785366058 0.18942004442214966 0.28846892714500427
0.34004569053649902 0.19769889116287231 0.28222092986106873
0.52955734729766846 0.20563572645187378 0.27294754981994629
0.72847282886505127 0.20836803317070007 0.26258617639541626
0.89641350507736206 0.19862818717956543 0.24684201180934906
0.99907010793685913 0.17553353309631348 0.23256635665893555
0.084730945527553558 0.30451804399490356 0.31939968466758728
0.15056028962135315 0.31090942025184631 0.31868207454681396
0.312246173620224 0.31423848867416382 0.31343424320220947
0.51705658435821533 0.32818835973739624 0.30596306920051575
0.69582545757293701 0.33116519451141357 0.29916530847549438
0.85471493005752563 0.32483527064323425 0.29001984000205994
0.99184656143188477 0.30409690737724304 0.27303609251976013
0.0055226641707122326 0.45506536960601807 0.36243733763694763
0.067960910499095917 0.46062842011451721 0.35897287726402283
0.27744260430335999 0.47217386960983276 0.3599640429019928
0.47927221655845642 0.48238399624824524 0.34840303659439087
0.6409764289855957 0.4875953197479248 0.34277805685997009
0.80230998992919922 0.48461043834686279 0.33288231492042542
0.94618737697601318 0.47287651896476746 0.31915268301963806
0.0058387606404721737 0.58745813369750977 0.41019606590270996
0.0994553342461586 0.59073084592819214 0.40674054622650146
0.29317328333854675 0.60168284177780151 0.40343382954597473
0.46529415249824524 0.61072278022766113 0.40106138586997986
0.61306345462799072 0.61100733280181885 0.39106050133705139
0.75241905450820923 0.61747342348098755 0.3806929886341095
0.89295852184295654 0.6206476092338562 0.36888992786407471
0.089401975274085999 0.71013742685317993 0.45709246397018433
0.18514318764209747 0.71109861135482788 0.45234709978103638
0.3129141628742218 0.71876388788223267 0.44759747385978699
0.4526648223400116 0.73013401031494141 0.44821202754974365
0.5949593186378479 0.73161762952804565 0.44194361567497253
0.72154778242111206 0.74031555652618408 0.4349115788936615
0.86021143198013306 0.75004607439041138 0.42285433411598206
0.172834113240242 0.83121079206466675 0.49016383290290833
0.23212093114852905 0.83294320106506348 0.49124562740325928
0.33302181959152222 0.84039986133575439 0.48729494214057922
0.45168033242225647 0.84998363256454468 0.48584768176078796
0.56987637281417847 0.85709542036056519 0.48377338051795959
0.68584400415420532 0.86368900537490845 0.47446596622467041
0.84243476390838623 0.87824803590774536 0.45950669050216675
0.068043231964111328 0.063540756702423096 0.37546736001968384
0.22401756048202515 0.079259790480136871 0.37245127558708191
0.38028827309608459 0.088556550443172455 0.37170079350471497
0.58292561769485474 0.098686844110488892 0.3626408576965332
0.78059846162796021 0.10311280936002731 0.35565048456192017
0.94673758745193481 0.10292874276638031 0.34252426028251648
0.99998599290847778 0.10219015926122665 0.33170750737190247
0.097050778567790985 0.19457624852657318 0.41893231868743896
0.19927333295345306 0.1988336592912674 0.41678163409233093
0.35115161538124084 0.20841185748577118 0.41631633043289185
0.55541908740997314 0.22081007063388824 0.41348418593406677
0.74408233165740967 0.22205668687820435 0.40131652355194092
0.91540038585662842 0.21170005202293396 0.38984501361846924
0.99698221683502197 0.1866476833820343 0.38121718168258667
0.079321064054965973 0.31689527630805969 0.4629385769367218
0.15945371985435486 0.32219099998474121 0.46188768744468689
0.31973624229431152 0.32800796627998352 0.46103224158287048
0.53485411405563354 0.34170246124267578 0.45357540249824524
0.70994716882705688 0.34823602437973022 0.44384023547172546
0.87371397018432617 0.34239614009857178 0.43704319000244141
0.99476712942123413 0.31907540559768677 0.43013694882392883
0.01965230330824852 0.46281284093856812 0.50435209274291992
0.083618342876434326 0.47000885009765625 0.5043330192565918
0.29241004586219788 0.48155266046524048 0.49782153964042664
0.49282756447792053 0.48673233389854431 0.48805192112922668
0.65462774038314819 0.49673736095428467 0.48317953944206238
0.8135342001914978 0.5005948543548584 0.4771430492401123
0.96224534511566162 0.48801085352897644 0.47136405110359192
0.015665406361222267 0.59372931718826294 0.53949993848800659
0.11403913050889969 0.59835910797119141 0.53700309991836548
0.31702601909637451 0.60927063226699829 0.53056704998016357
0.47900283336639404 0.61658775806427002 0.52544397115707397
0.62936156988143921 0.61991685628890991 0.52276492118835449
0.77028459310531616 0.62902384996414185 0.51539331674575806
0.91088050603866577 0.62995302677154541 0.50782525539398193
0.13389497995376587 0.7126154899597168 0.56746405363082886
0.21078245341777802 0.71660083532333374 0.56702899932861328
0.34076964855194092 0.72648054361343384 0.56320762634277344
0.47299650311470032 0.7333989143371582 0.56045269966125488
0.61470288038253784 0.7369835376739502 0.55963128805160522
0.74174940586090088 0.74674069881439209 0.55247682332992554
0.87864458560943604 0.75339353084564209 0.54320895671844482
0.19627740979194641 0.84099322557449341 0.59575933218002319
0.2548643946647644 0.83982795476913452 0.59561145305633545
0.34875878691673279 0.85032159090042114 0.59445291757583618
0.46729815006256104 0.85665547847747803 0.58910548686981201
0.58096778392791748 0.86634016036987305 0.58917021751403809
0.69760280847549438 0.87198454141616821 0.58336502313613892
0.86140149831771851 0.88522201776504517 0.57025748491287231
0.073136650025844574 0.080357901751995087 0.52247023582458496
0.2271997332572937 0.091776363551616669 0.51744663715362549
0.38637813925743103 0.10412710160017014 0.51595187187194824
0.59263598918914795 0.11471220850944519 0.50976896286010742
0.79383784532546997 0.11918681859970093 0.50153285264968872
0.95941716432571411 0.11273784190416336 0.49202892184257507
0.99998205900192261 0.10715606063604355 0.49314978718757629
0.097188480198383331 0.20782378315925598 0.55558270215988159
0.19684486091136932 0.21170423924922943 0.54914802312850952
0.35362106561660767 0.22043584287166595 0.5480995774269104
0.56369036436080933 0.23367643356323242 0.54385834932327271
0.75235730409622192 0.23481617867946625 0.53238260746002197
0.92034345865249634 0.22859005630016327 0.524261474609375
0.99639660120010376 0.20115022361278534 0.51665318012237549
0.060740765184164047 0.33362528681755066 0.586955726146698
0.14369410276412964 0.33752390742301941 0.58214765787124634
0.31817984580993652 0.34850671887397766 0.57856631278991699
0.53315877914428711 0.3561941385269165 0.57503646612167358
0.71137964725494385 0.36099895834922791 0.56776642799377441
0.88027077913284302 0.35786384344100952 0.55996465682983398
0.99520641565322876 0.33370807766914368 0.55624496936798096
0.0054080886766314507 0.4750424325466156 0.62039512395858765
0.065687023103237152 0.47968569397926331 0.61605370044708252
0.28881680965423584 0.49182480573654175 0.61136114597320557
0.49610424041748047 0.50271117687225342 0.60406917333602905
0.66227626800537109 0.51079881191253662 0.59822362661361694
0.82141828536987305 0.51666140556335449 0.59375965595245361
0.96890193223953247 0.49972283840179443 0.58897644281387329
0.0082017788663506508 0.6014140248298645 0.64874416589736938
0.11585830897092819 0.60719758272171021 0.64705395698547363
0.32110866904258728 0.61652946472167969 0.64162039756774902
0.48196589946746826 0.62618780136108398 0.63608366250991821
0.64157956838607788 0.63372641801834106 0.63385522365570068
0.7861362099647522 0.63689827919006348 0.62854427099227905
0.92667454481124878 0.63553857803344727 0.62313449382781982
0.14899604022502899 0.71730393171310425 0.67646497488021851
0.2298235148191452 0.72053909301757812 0.675567626953125
0.3496614396572113 0.73101145029067993 0.67340409755706787
0.48650065064430237 0.73769944906234741 0.66966545581817627
0.62418276071548462 0.74741542339324951 0.66704106330871582
0.75448477268218994 0.75279957056045532 0.66406333446502686
0.89729392528533936 0.7586250901222229 0.65740513801574707
0.21948456764221191 0.84420067071914673 0.70295929908752441
0.27120444178581238 0.84874194860458374 0.7033800482749939
0.36689978837966919 0.85569840669631958 0.70226514339447021
0.48316812515258789 0.86138921976089478 0.69839030504226685
0.59828251600265503 0.86953598260879517 0.69516706466674805
0.71370148658752441 0.87869471311569214 0.69149297475814819
0.88050186634063721 0.89102798700332642 0.68396371603012085
0.070707879960536957 0.10204711556434631 0.6359245777130127
0.21804830431938171 0.11499692499637604 0.63327926397323608
0.38450619578361511 0.12557971477508545 0.62780475616455078
0.5941321849822998 0.13966834545135498 0.62198269367218018
0.7993466854095459 0.14300915598869324 0.6150963306427002
0.96822762489318848 0.1342829167842865 0.60830068588256836
0.99999570846557617 0.11364834010601044 0.60260641574859619
0.093159288167953491 0.22051987051963806 0.66527771949768066
0.17547804117202759 0.23355478048324585 0.66333603858947754
0.34982609748840332 0.23999428749084473 0.65744233131408691
0.56182444095611572 0.25076159834861755 0.65359282493591309
0.76093566417694092 0.258037269115448 0.64508628845214844
0.92865145206451416 0.25283491611480713 0.63709169626235962
0.99874258041381836 0.22429315745830536 0.63219821453094482
0.035646043717861176 0.35088464617729187 0.69809997081756592
0.11061330884695053 0.35483753681182861 0.69492703676223755
0.30568438768386841 0.36444416642189026 0.68800264596939087
0.52767127752304077 0.37571650743484497 0.68656963109970093
0.71445471048355103 0.38330835103988647 0.67938238382339478
0.8865889310836792 0.37989073991775513 0.67188143730163574
0.99597597122192383 0.35683396458625793 0.66694408655166626
0.0042833662591874599 0.48268935084342957 0.72430342435836792
0.043866701424121857 0.49131202697753906 0.72792559862136841
0.27268251776695251 0.50178825855255127 0.72005689144134521
0.49212032556533813 0.5135573148727417 0.71405857801437378
0.66203147172927856 0.52573698759078979 0.7071220874786377
0.82890719175338745 0.53228086233139038 0.70478081703186035
0.97467887401580811 0.52228695154190063 0.69983363151550293
0.0035617155954241753 0.60845077037811279 0.75293678045272827
0.087662793695926666 0.61484360694885254 0.7518501877784729
0.31773829460144043 0.62387740612030029 0.74605041742324829
0.48475790023803711 0.63471758365631104 0.74013549089431763
0.6401781439781189 0.64678376913070679 0.73684084415435791
0.79106223583221436 0.65294152498245239 0.73269069194793701
0.93649852275848389 0.65170073509216309 0.72939294576644897
0.14556914567947388 0.72523432970046997 0.77769464254379272
0.22861713171005249 0.72800904512405396 0.77569258213043213
0.35438746213912964 0.73393762111663818 0.77323991060256958
0.49424609541893005 0.7429192066192627 0.76911115646362305
0.6303943395614624 0.75524449348449707 0.76384472846984863
0.76284182071685791 0.76558589935302734 0.7608756422996521
0.90677863359451294 0.7696717381477356 0.75591129064559937
0.21753768622875214 0.85265225172042847 0.79724788665771484
0.26644179224967957 0.85856491327285767 0.79687124490737915
0.36610880494117737 0.86396241188049316 0.79580545425415039
0.48504394292831421 0.86983788013458252 0.79249513149261475
0.60303908586502075 0.87701874971389771 0.7903934121131897
0.72032493352890015 0.88928651809692383 0.78818768262863159
0.90114831924438477 0.90054696798324585 0.7800484299659729
0.054058987647294998 0.13011936843395233 0.74665075540542603
0.19565531611442566 0.14303372800350189 0.7435377836227417
0.36605629324913025 0.15375405550003052 0.73847365379333496
0.58493530750274658 0.16742084920406342 0.73118668794631958
0.79680454730987549 0.17394837737083435 0.72373515367507935
0.9700433611869812 0.16755163669586182 0.71908599138259888
1 0.13694345951080322 0.71222889423370361
0.071807727217674255 0.24453482031822205 0.7693638801574707
0.14984051883220673 0.25257778167724609 0.76854991912841797
0.32713013887405396 0.2682950496673584 0.76396775245666504
0.54897195100784302 0.27869555354118347 0.75693023204803467
0.75023013353347778 0.28877538442611694 0.74784702062606812
0.92728292942047119 0.2845904529094696 0.74300879240036011
0.99871999025344849 0.25675293803215027 0.73967641592025757
0.01107183750718832 0.37534415721893311 0.79760974645614624
0.048858612775802612 0.37978515028953552 0.79788780212402344
0.26556360721588135 0.39072439074516296 0.79190528392791748
0.50811207294464111 0.40601140260696411 0.78462666273117065
0.70660972595214844 0.41059479117393494 0.77730035781860352
0.88381153345108032 0.41016736626625061 0.77036148309707642
0.99615275859832764 0.38670682907104492 0.76752293109893799
0.00053489534184336662 0.49921143054962158 0.82078015804290771
0.010332997888326645 0.50397247076034546 0.82122105360031128
0.23398810625076294 0.51727545261383057 0.81191742420196533
0.47948268055915833 0.53081214427947998 0.80841076374053955
0.65816318988800049 0.54211878776550293 0.80212962627410889
0.82782047986984253 0.54963862895965576 0.79721885919570923
0.97470766305923462 0.5428958535194397 0.79192650318145752
0.00082988367648795247 0.61839777231216431 0.84383904933929443
0.027074072510004044 0.62457013130187988 0.84031921625137329
0.27690151333808899 0.63481420278549194 0.83766919374465942
0.47044622898101807 0.64683228731155396 0.83256709575653076
0.62924009561538696 0.66014999151229858 0.83087670803070068
0.78606075048446655 0.66935282945632935 0.82612204551696777
0.93773150444030762 0.66820091009140015 0.82006418704986572
0.092360250651836395 0.73117035627365112 0.86993926763534546
0.19156403839588165 0.73373234272003174 0.86908000707626343
0.33443471789360046 0.74218064546585083 0.86925661563873291
0.47882252931594849 0.75687497854232788 0.86627811193466187
0.62899690866470337 0.76406013965606689 0.86679995059967041
0.7664141058921814 0.77411681413650513 0.86382663249969482
0.91895091533660889 0.77910274267196655 0.86101031303405762
0.17750117182731628 0.86515069007873535 0.91133278608322144
0.23848961293697357 0.86644679307937622 0.91221648454666138
0.34771597385406494 0.87392747402191162 0.91137886047363281
0.47563251852989197 0.88419348001480103 0.91383552551269531
0.59923416376113892 0.89653414487838745 0.91210073232650757
0.72380518913269043 0.90279996395111084 0.9136006236076355
0.91410410404205322 0.91574269533157349 0.91181397438049316
