luts/negative_color/kodak_elite_color_200.cube
# Created by: G'MIC (https://gmic.eu)
TITLE "kodak_elite_color_200"
# LUT size
LUT_3D_SIZE 13
# Data domain
DOMAIN_MIN 0.0 0.0 0.0
DOMAIN_MAX 1.0 1.0 1.0
# LUT data points
0.02405751496553421 0.020073145627975464 0.022880943492054939
0.061619434505701065 0.020152656361460686 0.025587419047951698
0.10698762536048889 0.021254954859614372 0.028554296121001244
0.16056478023529053 0.023950899019837379 0.030848154798150063
0.22156892716884613 0.028252067044377327 0.031715903431177139
0.29064199328422546 0.034016180783510208 0.033103000372648239
0.36959785223007202 0.040513627231121063 0.037229619920253754
0.46109661459922791 0.046524886041879654 0.049712266772985458
0.56075954437255859 0.0538204126060009 0.067519620060920715
0.65959334373474121 0.066495455801486969 0.082146726548671722
0.75415277481079102 0.085173331201076508 0.093359790742397308
0.84452259540557861 0.10732676088809967 0.10434053838253021
0.92968940734863281 0.13058009743690491 0.11638132482767105
0.048130199313163757 0.062693096697330475 0.028312204405665398
0.077703408896923065 0.063414826989173889 0.029854808002710342
0.11640357226133347 0.065155074000358582 0.032315436750650406
0.16686706244945526 0.068067722022533417 0.035121619701385498
0.22674418985843658 0.072110630571842194 0.03775474801659584
0.29559114575386047 0.077293828129768372 0.040496677160263062
0.37485897541046143 0.083641946315765381 0.045778669416904449
0.46549952030181885 0.090248480439186096 0.056789577007293701
0.56386739015579224 0.098656401038169861 0.07189604640007019
0.66253769397735596 0.11160331964492798 0.085761114954948425
0.75772029161453247 0.12955127656459808 0.097712919116020203
0.84800213575363159 0.15144573152065277 0.10995016992092133
0.93262475728988647 0.17474034428596497 0.1236749067902565
0.076975248754024506 0.10724982619285583 0.033852566033601761
0.097993053495883942 0.10885541141033173 0.034059099853038788
0.12952344119548798 0.11165541410446167 0.035826828330755234
0.17679604887962341 0.11472322046756744 0.039564408361911774
0.23548312485218048 0.11833827942609787 0.044007543474435806
0.30460354685783386 0.12269078940153122 0.049520798027515411
0.38420897722244263 0.12820401787757874 0.056623302400112152
0.47376668453216553 0.13541391491889954 0.065758377313613892
0.5698164701461792 0.14506880939006805 0.076754957437515259
0.66704010963439941 0.15823587775230408 0.088320650160312653
0.76162999868392944 0.17509946227073669 0.10007344931364059
0.85129410028457642 0.19541528820991516 0.11289626359939575
0.93527817726135254 0.21751764416694641 0.12757879495620728
0.10706851631402969 0.15561333298683167 0.039471302181482315
0.12279212474822998 0.15835724771022797 0.038461394608020782
0.14829458296298981 0.16200600564479828 0.039504494518041611
0.19101499021053314 0.16551488637924194 0.04283764585852623
0.24788038432598114 0.16874448955059052 0.048556428402662277
0.3166593611240387 0.17220297455787659 0.055971480906009674
0.39630037546157837 0.17688335478305817 0.064577512443065643
0.4851127564907074 0.18438749015331268 0.072058670222759247
0.57942628860473633 0.19469931721687317 0.079987622797489166
0.67490619421005249 0.20777109265327454 0.089455999433994293
0.76809573173522949 0.2235114723443985 0.10075469315052032
0.85650402307510376 0.24181702733039856 0.11397482454776764
0.93916213512420654 0.26269665360450745 0.12962836027145386
0.12713329493999481 0.21121694147586823 0.042709935456514359
0.14110033214092255 0.21447359025478363 0.040816094726324081
0.16565127670764923 0.2184227854013443 0.040303744375705719
0.20637868344783783 0.22178663313388824 0.04319285973906517
0.26234728097915649 0.22469361126422882 0.048615653067827225
0.33132103085517883 0.2274944931268692 0.056309208273887634
0.4114939272403717 0.23165722191333771 0.064651146531105042
0.49963834881782532 0.23895949125289917 0.071463339030742645
0.59270018339157104 0.24906867742538452 0.07841847836971283
0.68668955564498901 0.26150351762771606 0.087313905358314514
0.77818900346755981 0.27629348635673523 0.098909817636013031
0.86487776041030884 0.2933361828327179 0.11393813788890839
0.94583332538604736 0.31303149461746216 0.13150511682033539
0.12737132608890533 0.2762526273727417 0.041130784898996353
0.14769731462001801 0.27840098738670349 0.038162350654602051
0.17713034152984619 0.2811722457408905 0.036948453634977341
0.2203541100025177 0.28368344902992249 0.038397170603275299
0.27814480662345886 0.28600978851318359 0.042737249284982681
0.34872257709503174 0.28852757811546326 0.049338862299919128
0.42944258451461792 0.29246789216995239 0.056534949690103531
0.51767641305923462 0.29896336793899536 0.063564375042915344
0.6095428466796875 0.30802473425865173 0.070877924561500549
0.70212078094482422 0.31959739327430725 0.080303162336349487
0.79200780391693115 0.33351808786392212 0.092841178178787231
0.8770681619644165 0.35012367367744446 0.10962431877851486
0.95544606447219849 0.36913400888442993 0.12976187467575073
0.12805312871932983 0.34581837058067322 0.03341224417090416
0.15381556749343872 0.34666916728019714 0.029916979372501373
0.18870304524898529 0.34798553586006165 0.027918154373764992
0.23584334552288055 0.34935775399208069 0.028463819995522499
0.29641550779342651 0.35115265846252441 0.031805913895368576
0.36879253387451172 0.35328385233879089 0.037187688052654266
0.4505249559879303 0.35668227076530457 0.04340222105383873
0.53845274448394775 0.36221611499786377 0.05007610097527504
0.62961661815643311 0.37019526958465576 0.057526756078004837
0.72063058614730835 0.38048088550567627 0.066932320594787598
0.80947184562683105 0.39336925745010376 0.079745814204216003
0.89154905080795288 0.40848314762115479 0.096918411552906036
0.96663051843643188 0.42546296119689941 0.11763060092926025
0.14705635607242584 0.41421365737915039 0.020453164353966713
0.17219902575016022 0.41454598307609558 0.016797652468085289
0.20797787606716156 0.41577714681625366 0.014599489979445934
0.25695297122001648 0.4165133535861969 0.014712673611938953
0.31985640525817871 0.41744297742843628 0.017457999289035797
0.39378112554550171 0.41901096701622009 0.021894238889217377
0.47575893998146057 0.42179283499717712 0.027180107310414314
0.56297224760055542 0.42641803622245789 0.033113770186901093
0.65259641408920288 0.43312430381774902 0.039722263813018799
0.74222230911254883 0.4418119490146637 0.048044811934232712
0.82868045568466187 0.45298680663108826 0.059335522353649139
0.90880805253982544 0.46608403325080872 0.074730083346366882
0.97806757688522339 0.48048576712608337 0.093245923519134521
0.18281951546669006 0.4790005087852478 0.0065062278881669044
0.20609307289123535 0.48024046421051025 0.0040916590951383114
0.24037198722362518 0.48110061883926392 0.0027732998132705688
0.28883081674575806 0.48176050186157227 0.0028927074745297432
0.35180336236953735 0.48233520984649658 0.0042821546085178852
0.42547836899757385 0.48349672555923462 0.0068808314390480518
0.50608885288238525 0.4856128990650177 0.010488877072930336
0.59113723039627075 0.48927229642868042 0.015114802867174149
0.67838656902313232 0.49452921748161316 0.020359113812446594
0.76535969972610474 0.50143289566040039 0.026241632178425789
0.84946900606155396 0.51026159524917603 0.034055221825838089
0.9262855052947998 0.52095800638198853 0.045921489596366882
0.98780333995819092 0.53303384780883789 0.062816247344017029
0.23288474977016449 0.54030966758728027 0.00023058723309077322
0.25571742653846741 0.54163265228271484 2.2618911316385493e-05
0.28857302665710449 0.54266595840454102 0
0.33455061912536621 0.54334616661071777 0
0.39488595724105835 0.54372131824493408 7.5934913184028119e-05
0.46495923399925232 0.54445546865463257 0.00027048448100686073
0.54205155372619629 0.54600852727890015 0.00078805664088577032
0.62312901020050049 0.54867076873779297 0.0020652471575886011
0.7066425085067749 0.55264848470687866 0.0043616797775030136
0.79006963968276978 0.55778586864471436 0.0070677213370800018
0.87063390016555786 0.56404829025268555 0.010311022400856018
0.94386637210845947 0.57250410318374634 0.017430219799280167
0.99497091770172119 0.58190947771072388 0.031718295067548752
0.29563480615615845 0.59770530462265015 0
0.31803065538406372 0.59908252954483032 0
0.34926912188529968 0.59978443384170532 0
0.39173221588134766 0.60023558139801025 0
0.44637942314147949 0.60055571794509888 0
0.5109516978263855 0.60099214315414429 0
0.58280712366104126 0.60177123546600342 0
0.65909194946289062 0.60357940196990967 0
0.73725461959838867 0.60644733905792236 0
0.81568455696105957 0.6100538969039917 9.8733340564649552e-05
0.89186972379684448 0.6142393946647644 0.00017760033369995654
0.95904135704040527 0.62003082036972046 0.0012889787321910262
0.99821346998214722 0.62693291902542114 0.0095325848087668419
0.36591508984565735 0.65152692794799805 2.7226466045249254e-05
0.3873104453086853 0.65217280387878418 3.5199933336116374e-05
0.4156913161277771 0.6526297926902771 7.7789906072212034e-07
0.45344331860542297 0.65274477005004883 0
0.50274121761322021 0.6525803804397583 0
0.56128764152526855 0.65228885412216187 0
0.62719112634658813 0.65210908651351929 0
0.6980743408203125 0.65295147895812988 0
0.76995378732681274 0.65483886003494263 0
0.84298038482666016 0.65776485204696655 0
0.91415673494338989 0.65998053550720215 0
0.97049248218536377 0.6630128026008606 0
0.99814909696578979 0.66650640964508057 0.0029297622386366129
0.43906137347221375 0.70029968023300171 0.001997839193791151
0.45854970812797546 0.70030218362808228 0.0025944877415895462
0.48359289765357971 0.70007526874542236 0.0017216850537806749
0.51734346151351929 0.69968903064727783 0.00022384045587386936
0.56133377552032471 0.69859349727630615 0
0.61512303352355957 0.69736546277999878 0
0.67583352327346802 0.69595789909362793 0
0.74059730768203735 0.69460451602935791 0
0.80710726976394653 0.6966516375541687 0
0.87413543462753296 0.69807928800582886 0
0.94046789407730103 0.69915366172790527 0
0.98540353775024414 0.69992464780807495 0.00021236644533928484
0.9978596568107605 0.70091414451599121 0.0023745368234813213
0.028362931683659554 0.028243718668818474 0.073706530034542084
0.068020902574062347 0.028443474322557449 0.078260265290737152
0.11521423608064651 0.029676236212253571 0.08318222314119339
0.16911344230175018 0.032478168606758118 0.085958845913410187
0.22954174876213074 0.036990191787481308 0.086928002536296844
0.29801154136657715 0.042597271502017975 0.088269792497158051
0.37715527415275574 0.04893391951918602 0.093216508626937866
0.46785405278205872 0.055529560893774033 0.10492771863937378
0.56588113307952881 0.064008466899394989 0.12099897861480713
0.66363435983657837 0.077864550054073334 0.13539010286331177
0.75729310512542725 0.097927287220954895 0.14765603840351105
0.8464236855506897 0.12328429520130157 0.16204175353050232
0.92976349592208862 0.15158988535404205 0.17911690473556519
0.052079010754823685 0.071783401072025299 0.077944688498973846
0.084324181079864502 0.072077102959156036 0.081163413822650909
0.12488280981779099 0.073711439967155457 0.085045680403709412
0.17509017884731293 0.076398380100727081 0.088685505092144012
0.23411394655704498 0.080550923943519592 0.090499028563499451
0.30248928070068359 0.0856904536485672 0.093361333012580872
0.3816569447517395 0.09172019362449646 0.098933488130569458
0.47160637378692627 0.09859900176525116 0.10944454371929169
0.56860637664794922 0.10781030356884003 0.12332910299301147
0.66636085510253906 0.12167473882436752 0.13686744868755341
0.76057177782058716 0.14098358154296875 0.14963890612125397
0.84985339641571045 0.16496299207210541 0.16427899897098541
0.93344485759735107 0.19111970067024231 0.1806013435125351
0.078803479671478271 0.11686275899410248 0.082065194845199585
0.10357125848531723 0.11819425225257874 0.083438888192176819
0.13735760748386383 0.12036839127540588 0.086331598460674286
0.18353667855262756 0.12323208898305893 0.089960850775241852
0.24136365950107574 0.12683054804801941 0.093928106129169464
0.30989405512809753 0.13107652962207794 0.09881223738193512
0.38946276903152466 0.13665053248405457 0.10545947402715683
0.47860342264175415 0.14372803270816803 0.11449239403009415
0.57407605648040771 0.15372015535831451 0.12549866735935211
0.67048412561416626 0.16729621589183807 0.13704299926757812
0.76425683498382568 0.18478469550609589 0.14909808337688446
0.85306739807128906 0.20595571398735046 0.16277851164340973
0.93652915954589844 0.22953920066356659 0.17876441776752472
0.10449057072401047 0.16643634438514709 0.085097730159759521
0.1242290735244751 0.1682506799697876 0.085407137870788574
0.15260666608810425 0.17125649750232697 0.086985267698764801
0.19522115588188171 0.17434290051460266 0.090506911277770996
0.25170102715492249 0.17732737958431244 0.0954713374376297
0.32058674097061157 0.18082223832607269 0.10187600553035736
0.40029171109199524 0.18564106523990631 0.10928154736757278
0.48889920115470886 0.19280761480331421 0.11708365380764008
0.58284205198287964 0.20287369191646576 0.1258133202791214
0.67777258157730103 0.21590854227542877 0.13554586470127106
0.77013421058654785 0.23143528401851654 0.14662635326385498
0.85775810480117798 0.24988000094890594 0.15930922329425812
0.93975770473480225 0.27122867107391357 0.17538151144981384
0.11972053349018097 0.22249153256416321 0.085544735193252563
0.13826523721218109 0.22478640079498291 0.08447730541229248
0.16556024551391602 0.22793552279472351 0.08507189154624939
0.20735777914524078 0.23107068240642548 0.087750621140003204
0.26390558481216431 0.23359797894954681 0.092729471623897552
0.33354330062866211 0.23640605807304382 0.099485866725444794
0.41397967934608459 0.24051409959793091 0.10696183890104294
0.50235664844512939 0.24725279211997986 0.11424271762371063
0.59522736072540283 0.25694671273231506 0.12210489809513092
0.68865770101547241 0.2692415714263916 0.13139611482620239
0.77958220243453979 0.28353661298751831 0.14232653379440308
0.86546283960342407 0.2997317910194397 0.15543979406356812
0.94552707672119141 0.31935030221939087 0.17274107038974762
0.12376852333545685 0.28690624237060547 0.080445475876331329
0.14447848498821259 0.28856441378593445 0.078491911292076111
0.17474493384361267 0.29104650020599365 0.0778631791472435
0.21863612532615662 0.29336267709732056 0.079818233847618103
0.27719011902809143 0.29538112878799438 0.08407294750213623
0.34893038868904114 0.29767593741416931 0.090220384299755096
0.43042591214179993 0.30140930414199829 0.09736265242099762
0.51883864402770996 0.30741992592811584 0.10474135726690292
0.611011803150177 0.31647339463233948 0.11276855319738388
0.70343774557113647 0.32774698734283447 0.12258317321538925
0.79268437623977661 0.34119629859924316 0.13487403094768524
0.87692534923553467 0.35675308108329773 0.15017932653427124
0.95477586984634399 0.37535208463668823 0.16929103434085846
0.12863481044769287 0.35608556866645813 0.068353421986103058
0.15111029148101807 0.35702234506607056 0.065792188048362732
0.18437966704368591 0.35845851898193359 0.064314760267734528
0.23163804411888123 0.35981091856956482 0.065667308866977692
0.29338043928146362 0.36115476489067078 0.069556109607219696
0.36793237924575806 0.36293455958366394 0.075032509863376617
0.450094074010849 0.36608189344406128 0.08156883716583252
0.53864675760269165 0.37132340669631958 0.08893921971321106
0.63008409738540649 0.37922191619873047 0.097244322299957275
0.72105395793914795 0.38949510455131531 0.1074708104133606
0.8090929388999939 0.40201807022094727 0.12070181220769882
0.89117103815078735 0.41701871156692505 0.13750164210796356
0.96577829122543335 0.43410441279411316 0.15799388289451599
0.14593447744846344 0.42496877908706665 0.04971516877412796
0.16791826486587524 0.42572098970413208 0.046614132821559906
0.20175758004188538 0.42658886313438416 0.044789154082536697
0.25112423300743103 0.42712929844856262 0.046149712055921555
0.31548488140106201 0.42807856202125549 0.04985789954662323
0.39101645350456238 0.42928358912467957 0.054874300956726074
0.47416481375694275 0.43173199892044067 0.060848593711853027
0.56219106912612915 0.43624264001846313 0.06768278032541275
0.65206938982009888 0.44277489185333252 0.075648032128810883
0.74146366119384766 0.45157968997955322 0.085173033177852631
0.82706671953201294 0.46264415979385376 0.097665794193744659
0.90684884786605835 0.47588428854942322 0.11407011747360229
0.9765745997428894 0.49087706208229065 0.13422392308712006
0.1784638911485672 0.48997479677200317 0.027235666289925575
0.19998328387737274 0.49090498685836792 0.024036630988121033
0.23335523903369904 0.4916636049747467 0.023012392222881317
0.28264075517654419 0.4922526478767395 0.024023646488785744
0.34776800870895386 0.49264836311340332 0.027342343702912331
0.42321023344993591 0.49365836381912231 0.031656675040721893
0.50435394048690796 0.49559670686721802 0.036663834005594254
0.5902329683303833 0.49909326434135437 0.04254455491900444
0.67746907472610474 0.50424540042877197 0.049314878880977631
0.76372671127319336 0.51135742664337158 0.057111088186502457
0.84674596786499023 0.520191490650177 0.06671963632106781
0.92258697748184204 0.53137665987014771 0.080809608101844788
0.98538458347320557 0.54421663284301758 0.1002618819475174
0.22814318537712097 0.54931020736694336 0.006468544714152813
0.25056496262550354 0.55081462860107422 0.0047175688669085503
0.28381747007369995 0.5512269139289856 0.0046760109253227711
0.33077529072761536 0.55227577686309814 0.0055003594607114792
0.39202135801315308 0.55269235372543335 0.0075164944864809513
0.46355339884757996 0.55338180065155029 0.0098747257143259048
0.54111051559448242 0.55504649877548218 0.012464695610105991
0.62254631519317627 0.55744421482086182 0.01702931709587574
0.70565831661224365 0.56127738952636719 0.022446291521191597
0.78770029544830322 0.56641942262649536 0.027340428903698921
0.86606317758560181 0.57268160581588745 0.032720871269702911
0.93696886301040649 0.58130842447280884 0.042797505855560303
0.99116498231887817 0.59222209453582764 0.060407496988773346
0.2941264808177948 0.60406821966171265 0
0.31685420870780945 0.60495895147323608 0
0.34842884540557861 0.6057208776473999 0
0.39119496941566467 0.60672318935394287 7.8986675362102687e-05
0.44590798020362854 0.607494056224823 0.00010531556472415105
0.51108837127685547 0.60809850692749023 0.00018101112800650299
0.58339041471481323 0.60853308439254761 0.00043135997839272022
0.65919584035873413 0.61001110076904297 0.0011345059610903263
0.73727649450302124 0.61267977952957153 0.0030030792113393545
0.81404000520706177 0.61606311798095703 0.0049383724108338356
0.88656556606292725 0.61998015642166138 0.0064748129807412624
0.94980496168136597 0.62620174884796143 0.011313389986753464
0.99378877878189087 0.63444691896438599 0.024392087012529373
0.36981865763664246 0.65473181009292603 0
0.39066466689109802 0.65538769960403442 0
0.41798412799835205 0.65606468915939331 0
0.45478552579879761 0.65714555978775024 0
0.50326031446456909 0.65756571292877197 0
0.56255388259887695 0.65690666437149048 0
0.62935757637023926 0.65628165006637573 0
0.69996803998947144 0.65634357929229736 0
0.77225160598754883 0.65801781415939331 0
0.84388589859008789 0.65963137149810791 0
0.9104306697845459 0.66245704889297485 0
0.96235162019729614 0.66571992635726929 0.00024360207316931337
0.9938928484916687 0.67109173536300659 0.0049103680066764355
0.44599819183349609 0.70080041885375977 0
0.4642677903175354 0.70139539241790771 2.1392224880401045e-06
0.48689454793930054 0.70166891813278198 0.00021664488303940743
0.51833468675613403 0.70252895355224609 0.0013189278542995453
0.56176328659057617 0.70204311609268188 2.7226466045249254e-05
0.6161879301071167 0.70002692937850952 0
0.67799550294876099 0.69818758964538574 0
0.7436557412147522 0.69677269458770752 0
0.81082570552825928 0.69624263048171997 0
0.87717235088348389 0.69668436050415039 0
0.93707489967346191 0.69727641344070435 0
0.97703069448471069 0.69883531332015991 0
0.99477088451385498 0.70201581716537476 0.0011201746528968215
0.032181233167648315 0.037846256047487259 0.12640020251274109
0.074332863092422485 0.038199916481971741 0.13276705145835876
0.12413687258958817 0.039519082754850388 0.14000816643238068
0.17869983613491058 0.042665041983127594 0.1435447484254837
0.23786772787570953 0.04763590544462204 0.14442402124404907
0.3056308925151825 0.053540967404842377 0.14571298658847809
0.38410675525665283 0.060219094157218933 0.15042105317115784
0.47303935885429382 0.067557543516159058 0.16041220724582672
0.56857675313949585 0.07713056355714798 0.17383192479610443
0.665263831615448 0.090861409902572632 0.18720011413097382
0.75910907983779907 0.10981563478708267 0.20009618997573853
0.84831136465072632 0.13348086178302765 0.21462307870388031
0.9316784143447876 0.15989372134208679 0.23186373710632324
0.055669553577899933 0.082315601408481598 0.13034684956073761
0.091034844517707825 0.08268999308347702 0.13523867726325989
0.13388051092624664 0.084029331803321838 0.1408146470785141
0.18437471985816956 0.086843512952327728 0.14483819901943207
0.24244324862957001 0.091156810522079468 0.14685797691345215
0.31032222509384155 0.096496850252151489 0.14898842573165894
0.38883668184280396 0.10276221483945847 0.15435212850570679
0.47746351361274719 0.11007373034954071 0.16378398239612579
0.57264572381973267 0.11995465308427811 0.1760452538728714
0.66907709836959839 0.13373005390167236 0.18882946670055389
0.7628663182258606 0.1521650105714798 0.20191995799541473
0.85198253393173218 0.17524950206279755 0.21667023003101349
0.93522977828979492 0.20060254633426666 0.23397563397884369
0.081012621521949768 0.12902379035949707 0.13352744281291962
0.1093861311674118 0.12961466610431671 0.13668316602706909
0.1455259770154953 0.13143633306026459 0.14073695242404938
0.19198149442672729 0.13406725227832794 0.14459335803985596
0.24906010925769806 0.13764193654060364 0.14787366986274719
0.31718015670776367 0.14197976887226105 0.15210261940956116
0.39604517817497253 0.14772787690162659 0.15800707042217255
0.48440077900886536 0.15506856143474579 0.16658513247966766
0.57842022180557251 0.16517028212547302 0.17712156474590302
0.67379403114318848 0.17856429517269135 0.18876001238822937
0.76675868034362793 0.19595323503017426 0.20110064744949341
0.85498082637786865 0.21674518287181854 0.21507951617240906
0.93758541345596313 0.24035269021987915 0.23162549734115601
0.10321414470672607 0.17939937114715576 0.13576355576515198
0.12670122087001801 0.180469810962677 0.13711756467819214
0.15797270834445953 0.18279479444026947 0.13985130190849304
0.20136098563671112 0.18546497821807861 0.14356088638305664
0.25785452127456665 0.18847464025020599 0.14780448377132416
0.32669073343276978 0.19204548001289368 0.15299719572067261
0.40613153576850891 0.19687266647815704 0.15947440266609192
0.49415981769561768 0.20406167209148407 0.16736049950122833
0.58720463514328003 0.21398334205150604 0.17657758295536041
0.68102049827575684 0.22694253921508789 0.18698179721832275
0.77255594730377197 0.2426019161939621 0.19818598031997681
0.85935550928115845 0.26092302799224854 0.21114271879196167
0.94075006246566772 0.28250595927238464 0.22758246958255768
0.11469200253486633 0.23531314730644226 0.13483072817325592
0.1371137946844101 0.23696374893188477 0.13493010401725769
0.16754849255084991 0.23974764347076416 0.13649901747703552
0.2110045999288559 0.24254108965396881 0.13951443135738373
0.26817649602890015 0.24498125910758972 0.14384901523590088
0.33810514211654663 0.24775302410125732 0.14955367147922516
0.41860345005989075 0.25185421109199524 0.15617820620536804
0.50679600238800049 0.25855222344398499 0.16382353007793427
0.59896397590637207 0.26821231842041016 0.17249345779418945
0.69153118133544922 0.28032135963439941 0.18254825472831726
0.78147417306900024 0.29468816518783569 0.19382096827030182
0.86643439531326294 0.31100112199783325 0.20671159029006958
0.9458545446395874 0.33070960640907288 0.22353747487068176
0.11867484450340271 0.29865360260009766 0.12816743552684784
0.14138780534267426 0.30041602253913879 0.12747164070606232
0.17373162508010864 0.30303072929382324 0.12799793481826782
0.21965564787387848 0.30542424321174622 0.13061247766017914
