luts/negative_color/kodak_ektar_100.cube
# Created by: G'MIC (https://gmic.eu)
TITLE "kodak_ektar_100"
# LUT size
LUT_3D_SIZE 13
# Data domain
DOMAIN_MIN 0.0 0.0 0.0
DOMAIN_MAX 1.0 1.0 1.0
# LUT data points
0.047844380140304565 0.037764202803373337 0.035041570663452148
0.12505768239498138 0.041723094880580902 0.03565552830696106
0.19943554699420929 0.046056933701038361 0.034458775073289871
0.27301618456840515 0.051246464252471924 0.031261637806892395
0.3489052951335907 0.053424626588821411 0.029902094975113869
0.43332377076148987 0.058654844760894775 0.027822995558381081
0.53782320022583008 0.065045721828937531 0.02487945556640625
0.64679038524627686 0.072674155235290527 0.020704815164208412
0.73731887340545654 0.077624812722206116 0.016880648210644722
0.81814265251159668 0.081766344606876373 0.015232429839670658
0.89646780490875244 0.087612643837928772 0.013324243947863579
0.97069519758224487 0.094105586409568787 0.0087955696508288383
0.99903988838195801 0.10034430772066116 0.0063825869001448154
0.06020335853099823 0.10100847482681274 0.053505241870880127
0.11447814106941223 0.10503470897674561 0.051965061575174332
0.18328839540481567 0.10947781801223755 0.050857454538345337
0.25737711787223816 0.11556453257799149 0.04916444793343544
0.33499151468276978 0.12026555836200714 0.049794036895036697
0.41771593689918518 0.12390118837356567 0.043947674334049225
0.51866012811660767 0.12722095847129822 0.039561193436384201
0.62821638584136963 0.1311168372631073 0.034295909106731415
0.7193828821182251 0.1324322521686554 0.030633050948381424
0.80358535051345825 0.12895025312900543 0.027951842173933983
0.8876832127571106 0.12380794435739517 0.023419788107275963
0.96884346008300781 0.11485514789819717 0.018293986096978188
0.99745744466781616 0.1090637668967247 0.012621022760868073
0.078622899949550629 0.16174347698688507 0.080945201218128204
0.12192744761705399 0.16538988053798676 0.07893969863653183
0.17700089514255524 0.16708293557167053 0.075178883969783783
0.24556379020214081 0.17167244851589203 0.074420899152755737
0.32186472415924072 0.17762203514575958 0.076584912836551666
0.40639409422874451 0.18169468641281128 0.071486346423625946
0.50900024175643921 0.18620783090591431 0.065096944570541382
0.61377644538879395 0.19136179983615875 0.057016782462596893
0.70309257507324219 0.19223204255104065 0.051279179751873016
0.78782415390014648 0.18831536173820496 0.045277867466211319
0.87009334564208984 0.18139128386974335 0.039828192442655563
0.95219981670379639 0.17044490575790405 0.033927455544471741
0.99488711357116699 0.15203195810317993 0.02474791556596756
0.092657677829265594 0.21979472041130066 0.10610994696617126
0.12753739953041077 0.22334317862987518 0.10537854582071304
0.17230723798274994 0.22545169293880463 0.10383974015712738
0.23191361129283905 0.22980025410652161 0.10236433148384094
0.30857375264167786 0.2346503734588623 0.10106826573610306
0.39970099925994873 0.23868954181671143 0.096599206328392029
0.50521302223205566 0.24637824296951294 0.091629952192306519
0.60364925861358643 0.25295016169548035 0.084313713014125824
0.68824130296707153 0.2551957368850708 0.078389279544353485
0.77061003446578979 0.25345492362976074 0.072487145662307739
0.85201036930084229 0.24690636992454529 0.06621328741312027
0.93415999412536621 0.23530559241771698 0.056748736649751663
0.99004745483398438 0.21817792952060699 0.046038221567869186
0.089294403791427612 0.28382718563079834 0.1295313686132431
0.10905130207538605 0.28796619176864624 0.12983003258705139
0.14608412981033325 0.29141372442245483 0.1286386251449585
0.21015752851963043 0.29577279090881348 0.12632526457309723
0.29274111986160278 0.30037176609039307 0.12369254976511002
0.39526474475860596 0.3045191764831543 0.11885501444339752
0.50031179189682007 0.31117045879364014 0.11435987055301666
0.59105390310287476 0.31647780537605286 0.10885997116565704
0.67305612564086914 0.31919839978218079 0.10353559255599976
0.75435680150985718 0.3181404173374176 0.097213804721832275
0.8338589072227478 0.31332498788833618 0.090846151113510132
0.91148203611373901 0.30473801493644714 0.08142445981502533
0.97579514980316162 0.28945362567901611 0.069633156061172485
0.029090521857142448 0.36092200875282288 0.14838077127933502
0.035809878259897232 0.36451253294944763 0.1478448361158371
0.08452199399471283 0.37035453319549561 0.14716485142707825
0.17430673539638519 0.37353935837745667 0.14590772986412048
0.27395820617675781 0.37474671006202698 0.14259523153305054
0.38191235065460205 0.38034737110137939 0.1378617137670517
0.48300573229789734 0.38721504807472229 0.13179627060890198
0.5676347017288208 0.39300945401191711 0.12761904299259186
0.64793884754180908 0.39514511823654175 0.12278452515602112
0.73161995410919189 0.39117598533630371 0.1168292909860611
0.81118851900100708 0.38812729716300964 0.11211790144443512
0.88735300302505493 0.38096463680267334 0.10695952177047729
0.95889562368392944 0.36750513315200806 0.094142764806747437
0.00094493792857974768 0.43856078386306763 0.16678535938262939
0.0053178374655544758 0.44295492768287659 0.16518582403659821
0.053353298455476761 0.44886469841003418 0.162570521235466
0.13292957842350006 0.45283526182174683 0.16024015843868256
0.24735969305038452 0.45736077427864075 0.15592913329601288
0.35944297909736633 0.46244919300079346 0.15140783786773682
0.45745867490768433 0.4700377881526947 0.14649495482444763
0.53965705633163452 0.47506558895111084 0.14298669993877411
0.61697846651077271 0.47819554805755615 0.13837087154388428
0.69864273071289062 0.47885167598724365 0.13357460498809814
0.77839159965515137 0.47662192583084106 0.13007283210754395
0.85471147298812866 0.46967408061027527 0.1250150203704834
0.92811596393585205 0.4581952691078186 0.11309066414833069
0.001509498106315732 0.51204144954681396 0.1835726797580719
0.0016416661674156785 0.51558107137680054 0.18139439821243286
0.021515011787414551 0.51758134365081787 0.17556408047676086
0.11475475877523422 0.51977896690368652 0.17342366278171539
0.24635638296604156 0.52415996789932251 0.17081120610237122
0.35357427597045898 0.53179407119750977 0.1679093986749649
0.44229254126548767 0.53907477855682373 0.16456170380115509
0.5201880931854248 0.54316818714141846 0.16100902855396271
0.59748518466949463 0.54574304819107056 0.15565448999404907
0.67689394950866699 0.55036020278930664 0.149166539311409
0.75069987773895264 0.55288040637969971 0.14480271935462952
0.82309418916702271 0.54961127042770386 0.13815762102603912
0.89203161001205444 0.5448424220085144 0.1269555538892746
0.0019943236839026213 0.58022934198379517 0.20008274912834167
0.010628210380673409 0.58158266544342041 0.19592149555683136
0.054581496864557266 0.58371138572692871 0.19279226660728455
0.14986230432987213 0.58532369136810303 0.19207397103309631
0.25700074434280396 0.58851289749145508 0.19080688059329987
0.34978517889976501 0.59359884262084961 0.18725396692752838
0.42848056554794312 0.60093158483505249 0.18325519561767578
0.50579798221588135 0.60540962219238281 0.17906682193279266
0.58331561088562012 0.60887891054153442 0.17146147787570953
0.65789306163787842 0.61467701196670532 0.16351450979709625
0.72943687438964844 0.61722427606582642 0.15816126763820648
0.79977768659591675 0.61646836996078491 0.14886341989040375
0.86577332019805908 0.61347442865371704 0.13875579833984375
0.0045529534108936787 0.64594066143035889 0.2163044810295105
0.022109417244791985 0.64688593149185181 0.21366745233535767
0.079202316701412201 0.64885222911834717 0.21179763972759247
0.16891632974147797 0.65076559782028198 0.21200764179229736
0.25897008180618286 0.65169274806976318 0.21170742809772491
0.34237071871757507 0.6547858715057373 0.20869064331054688
0.41875866055488586 0.66093152761459351 0.20421674847602844
0.49287557601928711 0.66602241992950439 0.20012600719928741
0.56828373670578003 0.66995382308959961 0.1936279833316803
0.63779181241989136 0.67350226640701294 0.18528956174850464
0.70711934566497803 0.67719656229019165 0.17779853940010071
0.77630549669265747 0.6792106032371521 0.16730332374572754
0.84427410364151001 0.67894405126571655 0.15437299013137817
0.016724260523915291 0.70437490940093994 0.23831179738044739
0.041777860373258591 0.7072606086730957 0.23793548345565796
0.10296059399843216 0.70854294300079346 0.23683115839958191
0.17966628074645996 0.71179264783859253 0.2378946840763092
0.26298832893371582 0.71243220567703247 0.23579622805118561
0.33938390016555786 0.71625411510467529 0.2317383736371994
0.41503036022186279 0.71930497884750366 0.23028810322284698
0.48812949657440186 0.72388041019439697 0.22636869549751282
0.55495834350585938 0.73042327165603638 0.22000525891780853
0.61905848979949951 0.73232907056808472 0.21315981447696686
0.68715906143188477 0.73710167407989502 0.20386238396167755
0.75487124919891357 0.74023014307022095 0.19306294620037079
0.82518547773361206 0.74176514148712158 0.18058894574642181
0.085856221616268158 0.7616463303565979 0.26632159948348999
0.110251784324646 0.76214200258255005 0.2671014666557312
0.15349215269088745 0.76434856653213501 0.26568883657455444
0.21038901805877686 0.76696228981018066 0.26606777310371399
0.2806498110294342 0.76985353231430054 0.26385146379470825
0.35262781381607056 0.77159744501113892 0.26121976971626282
0.42274358868598938 0.77538281679153442 0.2591170072555542
0.48973801732063293 0.78038185834884644 0.25619262456893921
0.5522468090057373 0.78580158948898315 0.25165823101997375
0.61117804050445557 0.78978228569030762 0.24558942019939423
0.67457979917526245 0.79391038417816162 0.23671747744083405
0.74070769548416138 0.79911994934082031 0.22620414197444916
0.81733065843582153 0.80175292491912842 0.20839904248714447
0.097284175455570221 0.8226088285446167 0.29200392961502075
0.12394548207521439 0.82497310638427734 0.29317542910575867
0.16627632081508636 0.8283919095993042 0.2920774519443512
0.22397628426551819 0.83006811141967773 0.29111671447753906
0.2869713306427002 0.83359938859939575 0.29016768932342529
0.35340288281440735 0.83562183380126953 0.28855976462364197
0.41930210590362549 0.8395429253578186 0.28548327088356018
0.47868061065673828 0.84576457738876343 0.28279790282249451
0.53714674711227417 0.85115581750869751 0.27960512042045593
0.59414124488830566 0.85417848825454712 0.27420690655708313
0.65431714057922363 0.8582344651222229 0.26621639728546143
0.7208525538444519 0.86437922716140747 0.25589928030967712
0.80987858772277832 0.86773967742919922 0.23652626574039459
0.051667336374521255 0.042912695556879044 0.09399731457233429
0.13209369778633118 0.048138398677110672 0.093797586858272552
0.20646136999130249 0.052447151392698288 0.092185050249099731
0.28120225667953491 0.056443966925144196 0.088020205497741699
0.35828882455825806 0.056787110865116119 0.082296647131443024
0.44195526838302612 0.060693822801113129 0.078924097120761871
0.54666215181350708 0.06871388852596283 0.073841944336891174
0.65339565277099609 0.075447916984558105 0.065612301230430603
0.74225586652755737 0.081041432917118073 0.061725214123725891
0.82481032609939575 0.083744198083877563 0.057078834623098373
0.90350198745727539 0.089509077370166779 0.049843523651361465
0.978038489818573 0.095568232238292694 0.04036446288228035
0.99947476387023926 0.10254517942667007 0.032130520790815353
0.068425469100475311 0.10656633228063583 0.11185350269079208
0.12279746681451797 0.11030669510364532 0.11062701046466827
0.19115716218948364 0.11473172903060913 0.10800016671419144
0.26694512367248535 0.12065369635820389 0.10512961447238922
0.34272238612174988 0.12331251055002213 0.10109133273363113
0.428047776222229 0.12737822532653809 0.097956322133541107
0.53003519773483276 0.13005207479000092 0.091031439602375031
0.63395887613296509 0.1338069885969162 0.084416903555393219
0.72408378124237061 0.13648383319377899 0.079756252467632294
0.80960142612457275 0.1346009373664856 0.07414805144071579
0.89328134059906006 0.12918560206890106 0.067322120070457458
0.97213304042816162 0.11950115114450455 0.058047603815793991
0.99827927350997925 0.10994811356067657 0.049662824720144272
0.087896175682544708 0.16538740694522858 0.13169528543949127
0.12943747639656067 0.16870886087417603 0.12924697995185852
0.18219363689422607 0.1716802716255188 0.12511605024337769
0.25412875413894653 0.17783455550670624 0.1229790598154068
0.32819154858589172 0.18350952863693237 0.12274976074695587
0.41618311405181885 0.18724535405635834 0.11745323985815048
0.51831400394439697 0.1905687004327774 0.1097821369767189
0.61805242300033569 0.19391459226608276 0.10250113904476166
0.70772635936737061 0.19583760201931 0.097324684262275696
0.7936587929725647 0.19332370162010193 0.092039130628108978
0.87640869617462158 0.18683166801929474 0.084817342460155487
0.95777672529220581 0.17595787346363068 0.076631806790828705
0.99588572978973389 0.15739260613918304 0.067672416567802429
0.09743112325668335 0.22430893778800964 0.14950259029865265
0.13042357563972473 0.22727984189987183 0.14759595692157745
0.17288747429847717 0.22863766551017761 0.14514513313770294
0.23818156123161316 0.23498183488845825 0.14474442601203918
0.31388825178146362 0.24231167137622833 0.14480189979076385
0.40738996863365173 0.24500632286071777 0.1389821469783783
0.51038050651550293 0.2500615119934082 0.13064283132553101
0.60552752017974854 0.25537565350532532 0.12247085571289062
0.69267517328262329 0.25805425643920898 0.11672545969486237
0.77792584896087646 0.25675377249717712 0.11132699996232986
0.85988306999206543 0.25102999806404114 0.10534314811229706
0.94020974636077881 0.24095146358013153 0.098196245729923248
0.99076801538467407 0.22219078242778778 0.088739506900310516
0.086632899940013885 0.28818106651306152 0.16584840416908264
0.10478440672159195 0.29189968109130859 0.16528019309043884
0.14040221273899078 0.29612037539482117 0.164446160197258
0.21478752791881561 0.29994165897369385 0.16261740028858185
0.29765170812606812 0.30601751804351807 0.16066744923591614
0.39862185716629028 0.30894333124160767 0.15652154386043549
0.50245147943496704 0.31401622295379639 0.1510520875453949
0.59194713830947876 0.32004407048225403 0.14385426044464111
0.67684859037399292 0.32213062047958374 0.13689449429512024
0.76020121574401855 0.32161602377891541 0.13043147325515747
0.84140056371688843 0.31812146306037903 0.12458565086126328
0.91993314027786255 0.30937251448631287 0.11707109957933426
0.98070061206817627 0.29273572564125061 0.10784734040498734
0.026423346251249313 0.36586707830429077 0.17899899184703827
0.032651759684085846 0.36878463625907898 0.17813664674758911
0.086469851434230804 0.37296286225318909 0.17832446098327637
0.17944991588592529 0.37532731890678406 0.17821606993675232
0.28015860915184021 0.37701231241226196 0.17436997592449188
0.38565948605537415 0.38313767313957214 0.17189748585224152
0.48421242833137512 0.3901970386505127 0.16626632213592529
0.56921589374542236 0.39809194207191467 0.15964187681674957
0.65194398164749146 0.39882460236549377 0.15352402627468109
0.73676568269729614 0.39348754286766052 0.14736539125442505
0.81830525398254395 0.38990509510040283 0.14111301302909851
0.89551109075546265 0.38245543837547302 0.13380223512649536
0.96372395753860474 0.36851325631141663 0.12477999180555344
0.001459907041862607 0.44241350889205933 0.19510042667388916
0.0063650244846940041 0.44646438956260681 0.19306467473506927
0.056974522769451141 0.45076856017112732 0.19242966175079346
0.13717570900917053 0.4545014500617981 0.19237825274467468
0.25545075535774231 0.45783898234367371 0.1864224374294281
0.36630105972290039 0.46385684609413147 0.18152149021625519
0.45989859104156494 0.47156670689582825 0.17591811716556549
0.54376041889190674 0.47730767726898193 0.17254425585269928
0.62259852886199951 0.47952517867088318 0.1678629070520401
0.70516687631607056 0.47873812913894653 0.16223643720149994
0.78532618284225464 0.47700652480125427 0.15666860342025757
0.85928726196289062 0.47276985645294189 0.1496683806180954
0.93219602108001709 0.45860403776168823 0.14147557318210602
0.0040870215743780136 0.5139734148979187 0.21298862993717194
0.0051946453750133514 0.51633644104003906 0.20962949097156525
0.02379373274743557 0.51923912763595581 0.2058289498090744
0.12342720478773117 0.5215563178062439 0.20320983231067657
0.25350093841552734 0.52694332599639893 0.20079858601093292
0.35510051250457764 0.53345930576324463 0.19854627549648285
0.44508492946624756 0.53986948728561401 0.19583486020565033
0.52480447292327881 0.54447883367538452 0.19321465492248535
0.60284435749053955 0.54715937376022339 0.18944087624549866
0.68127787113189697 0.55210781097412109 0.17839919030666351
0.75615358352661133 0.55418127775192261 0.17134043574333191
0.82728511095046997 0.55188435316085815 0.16612653434276581
0.89552843570709229 0.54708874225616455 0.15614801645278931
0.0059740254655480385 0.58155947923660278 0.23105283081531525
0.01067829504609108 0.58275461196899414 0.22741149365901947
0.058860540390014648 0.58438777923583984 0.22422757744789124
0.15677006542682648 0.58650505542755127 0.22507704794406891
0.26161009073257446 0.59027838706970215 0.2260010689496994
0.35009315609931946 0.59487879276275635 0.22221846878528595
0.43300780653953552 0.60167199373245239 0.21801349520683289
0.51069289445877075 0.60633891820907593 0.21472680568695068
0.58640086650848389 0.60969060659408569 0.210257887840271
0.66103333234786987 0.61523407697677612 0.20146454870700836
0.73214113712310791 0.61871165037155151 0.19416461884975433
0.80231994390487671 0.61700087785720825 0.18576270341873169
0.87117147445678711 0.61477112770080566 0.17038044333457947
0.01192321814596653 0.64762884378433228 0.24734850227832794
0.026889052242040634 0.64890056848526001 0.24559837579727173
0.082301408052444458 0.64959436655044556 0.24468940496444702
0.17520771920681 0.65132313966751099 0.24706847965717316
0.26363381743431091 0.6527630090713501 0.24570724368095398
0.34472465515136719 0.65663939714431763 0.24126052856445312
0.42201325297355652 0.66334128379821777 0.23718380928039551
0.49692404270172119 0.66783976554870605 0.23428638279438019
0.57155758142471313 0.67184460163116455 0.23003250360488892
0.64197361469268799 0.67613810300827026 0.22318065166473389
0.71012526750564575 0.6781732439994812 0.21540932357311249
0.77977496385574341 0.67926853895187378 0.2058769166469574
0.84888327121734619 0.67928999662399292 0.19259285926818848
0.030350195243954659 0.7068285346031189 0.26973706483840942
0.055480986833572388 0.70779895782470703 0.26841184496879578
0.11287717521190643 0.70892977714538574 0.269889235496521
0.19239918887615204 0.71189403533935547 0.27131691575050354
0.27343869209289551 0.71242702007293701 0.26895049214363098
0.34653943777084351 0.717124342918396 0.26390206813812256
0.42208293080329895 0.72042906284332275 0.26353991031646729
0.49404242634773254 0.72591495513916016 0.26071459054946899
0.56144833564758301 0.73239433765411377 0.25299617648124695
0.62614017724990845 0.73531901836395264 0.24723359942436218
0.69320356845855713 0.73753881454467773 0.23956593871116638
0.76041418313980103 0.74175989627838135 0.22966031730175018
0.83076906204223633 0.74215447902679443 0.21782535314559937
0.092818662524223328 0.76126009225845337 0.29818660020828247
0.11989491432905197 0.76459771394729614 0.29903799295425415
0.16401205956935883 0.76598238945007324 0.30045691132545471
0.22302688658237457 0.76723754405975342 0.3004971444606781
0.29355603456497192 0.76990103721618652 0.29838135838508606
0.36191388964653015 0.77283084392547607 0.29660758376121521
0.4300478994846344 0.77727794647216797 0.2946188747882843
0.49605414271354675 0.78185147047042847 0.29109588265419006
0.55796605348587036 0.78748857975006104 0.28576576709747314
0.61838173866271973 0.79118472337722778 0.28008937835693359
0.68165385723114014 0.79568535089492798 0.27316319942474365
0.74697780609130859 0.80149322748184204 0.26447287201881409
0.82082617282867432 0.80387550592422485 0.24768587946891785
0.11217190325260162 0.82753658294677734 0.3273550271987915
0.13851071894168854 0.82858383655548096 0.3283669650554657
0.17698952555656433 0.83059954643249512 0.32768270373344421
0.23409789800643921 0.83139097690582275 0.32627254724502563
0.29627639055252075 0.83491390943527222 0.32592678070068359
0.36142739653587341 0.83769780397415161 0.32397949695587158
0.42372363805770874 0.84158337116241455 0.32211378216743469
0.48328331112861633 0.84729033708572388 0.31943041086196899
0.54219585657119751 0.85095292329788208 0.31638932228088379
0.59964019060134888 0.85573965311050415 0.31075140833854675
0.66184884309768677 0.85979157686233521 0.30364251136779785
0.73010063171386719 0.86420714855194092 0.29445788264274597
0.81051731109619141 0.86799675226211548 0.2777111828327179
0.05528298020362854 0.046662677079439163 0.1496962308883667
0.13541337847709656 0.051962759345769882 0.14825934171676636
0.20959377288818359 0.055992200970649719 0.14590354263782501
0.28838732838630676 0.059384200721979141 0.14328700304031372
0.3671678900718689 0.063840918242931366 0.13944576680660248
0.44819805026054382 0.069654516875743866 0.13496547937393188
0.55410349369049072 0.073190517723560333 0.12766832113265991
0.65960371494293213 0.078340508043766022 0.120705246925354
0.74866503477096558 0.083675697445869446 0.11491663008928299
0.8319164514541626 0.088271796703338623 0.10822782665491104
0.9131929874420166 0.090854942798614502 0.10401926934719086
0.98187601566314697 0.096044696867465973 0.094970405101776123
0.99818861484527588 0.10381821542978287 0.082207702100276947
0.072366110980510712 0.11274413764476776 0.16656738519668579
0.12697859108448029 0.1160522922873497 0.16392366588115692
0.19642454385757446 0.11986467242240906 0.16173268854618073
0.2733207643032074 0.12437084317207336 0.15980568528175354
0.35041540861129761 0.12817703187465668 0.1563803106546402
0.43721505999565125 0.13349880278110504 0.15283448994159698
0.53845727443695068 0.13504475355148315 0.14558130502700806
0.63988059759140015 0.13707873225212097 0.13805472850799561
0.72968441247940063 0.14065918326377869 0.13293306529521942
0.8159259557723999 0.14076553285121918 0.12599533796310425
0.9014819860458374 0.13474652171134949 0.11857928335666656
0.97604960203170776 0.12494034320116043 0.10972880572080612
0.99684101343154907 0.1153307631611824 0.10133122652769089
0.097431197762489319 0.16996833682060242 0.18079759180545807
0.134058877825737 0.1734977662563324 0.17845217883586884
0.18622738122940063 0.17772302031517029 0.1763426810503006
0.25910088419914246 0.18326915800571442 0.17463944852352142
0.33178654313087463 0.18629592657089233 0.17189320921897888
0.42451396584510803 0.19110740721225739 0.167557492852211
0.52635431289672852 0.1947578638792038 0.16126176714897156
0.62387621402740479 0.19685529172420502 0.15443900227546692
0.71335685253143311 0.19947661459445953 0.14987744390964508
0.80042535066604614 0.19805656373500824 0.14276446402072906
0.88497060537338257 0.19235056638717651 0.13464072346687317
0.96230554580688477 0.18299844861030579 0.12726417183876038
0.99357908964157104 0.16387125849723816 0.11966629326343536
0.10172469168901443 0.22860622406005859 0.19537600874900818
0.13172422349452972 0.23104424774646759 0.19349402189254761
0.17391534149646759 0.23305055499076843 0.19230446219444275
0.24122144281864166 0.23975180089473724 0.19086804986000061
0.31841140985488892 0.24717049300670624 0.18941247463226318
0.41471803188323975 0.25095921754837036 0.18377029895782471
0.5157274603843689 0.25452277064323425 0.17622494697570801
0.60940039157867432 0.25747349858283997 0.17020905017852783
0.69737040996551514 0.26034241914749146 0.16704322397708893
0.78418254852294922 0.25983360409736633 0.1604599803686142
0.86767637729644775 0.25456583499908447 0.15286122262477875
0.94674223661422729 0.2453218549489975 0.14602521061897278
0.99075007438659668 0.22714559733867645 0.13889482617378235
0.086999364197254181 0.29202735424041748 0.20900748670101166
0.10423930734395981 0.29488170146942139 0.20757527649402618
0.14373961091041565 0.29776313900947571 0.20591066777706146
0.21909879148006439 0.3018973171710968 0.20542584359645844
0.30556783080101013 0.30875682830810547 0.20342408120632172
0.40571781992912292 0.31344109773635864 0.19845062494277954
