luts/negative_color/kodak_portra_160_vc.cube
# Created by: G'MIC (https://gmic.eu)
TITLE "kodak_portra_160_vc"
# LUT size
LUT_3D_SIZE 7
# Data domain
DOMAIN_MIN 0.0 0.0 0.0
DOMAIN_MAX 1.0 1.0 1.0
# LUT data points
0.025083623826503754 0.034956090152263641 0.037637300789356232
0.10381379723548889 0.033599015325307846 0.036537587642669678
0.2902381420135498 0.04006621241569519 0.024548564106225967
0.53076183795928955 0.025781100615859032 0.014509193599224091
0.76306498050689697 0.017184970900416374 0.0033726859837770462
0.91359990835189819 0.07781035453081131 0.00058863020967692137
0.99360626935958862 0.16356353461742401 8.1858917837962508e-05
0.0071779289282858372 0.11554219573736191 0.050819128751754761
0.088138118386268616 0.13111212849617004 0.039840385317802429
0.30698731541633606 0.15206827223300934 0.0090138604864478111
0.5465400218963623 0.15792688727378845 0.0095103541389107704
0.7593042254447937 0.17042896151542664 0.0039699478074908257
0.90881800651550293 0.2024448961019516 0.0060638575814664364
0.99639075994491577 0.25303530693054199 0.0012166191590949893
0.0022626989521086216 0.29810672998428345 0.1091422438621521
0.016499957069754601 0.31203380227088928 0.10039801150560379
0.27789297699928284 0.34887728095054626 0.02383137121796608
0.55338096618652344 0.36548948287963867 0.0032622991129755974
0.75797241926193237 0.33879846334457397 0.0027861353009939194
0.90214067697525024 0.34822452068328857 0.0054991329088807106
0.99140453338623047 0.36005643010139465 0.0032619701232761145
0.00076154823182150722 0.50191634893417358 0.18929113447666168
0.00451634731143713 0.50698840618133545 0.20025871694087982
0.2120446115732193 0.5204237699508667 0.16346827149391174
0.49009740352630615 0.5424235463142395 0.046865485608577728
0.73103886842727661 0.54743248224258423 0.0016569399740546942
0.88310337066650391 0.51116430759429932 0.0039215688593685627
0.99299025535583496 0.49368220567703247 0.0022323608864098787
0.0075957952067255974 0.66429436206817627 0.30763500928878784
0.056280322372913361 0.66666603088378906 0.30803629755973816
0.26341307163238525 0.66423165798187256 0.30753189325332642
0.45598012208938599 0.67452508211135864 0.25435748696327209
0.66067630052566528 0.6893046498298645 0.1424127072095871
0.8649519681930542 0.70183783769607544 0.014198826625943184
0.98213088512420654 0.67351090908050537 0.0051824534311890602
0.32953816652297974 0.79796737432479858 0.46567723155021667
0.35913887619972229 0.79462313652038574 0.46996623277664185
0.44841623306274414 0.79436743259429932 0.47931864857673645
0.53297489881515503 0.79731416702270508 0.45769625902175903
0.66256546974182129 0.80671125650405884 0.41002047061920166
0.8083532452583313 0.81784868240356445 0.32923763990402222
0.96428334712982178 0.83308136463165283 0.23178820312023163
0.59364265203475952 0.91100507974624634 0.65687578916549683
0.60851508378982544 0.91142821311950684 0.66315686702728271
0.64648085832595825 0.91073691844940186 0.66788583993911743
0.68678617477416992 0.90852129459381104 0.66830217838287354
0.74330329895019531 0.91910058259963989 0.65393745899200439
0.82185578346252441 0.92899554967880249 0.61829894781112671
0.92436039447784424 0.9415820837020874 0.56981378793716431
0.0091443378478288651 0.041136618703603745 0.13789863884449005
0.10286419093608856 0.039196237921714783 0.13386029005050659
0.29293027520179749 0.0099959131330251694 0.12499866634607315
0.545174241065979 0.0014542224816977978 0.12956525385379791
0.76408582925796509 0.017560172826051712 0.1382952481508255
0.91652864217758179 0.098940469324588776 0.12751972675323486
0.99724745750427246 0.19763296842575073 0.12165430188179016
0.0058809616602957249 0.14193820953369141 0.15816214680671692
0.10150109231472015 0.14379934966564178 0.15679779648780823
0.32392850518226624 0.14643391966819763 0.14276918768882751
0.56740939617156982 0.15990772843360901 0.1408582478761673
0.76916992664337158 0.18156926333904266 0.12227949500083923
0.91697317361831665 0.21537622809410095 0.1091306209564209
0.99847489595413208 0.26870900392532349 0.10535673052072525
0.0037038465961813927 0.3324209451675415 0.2133047878742218
0.067023120820522308 0.3353731632232666 0.21301029622554779
0.31797787547111511 0.35702964663505554 0.18002970516681671
0.56794744729995728 0.35655444860458374 0.10877260565757751
0.76009172201156616 0.33983370661735535 0.075301855802536011
0.90933167934417725 0.35045912861824036 0.061438810080289841
0.99586969614028931 0.37886935472488403 0.060416202992200851
0.0039672250859439373 0.5253596305847168 0.28063300251960754
0.053535923361778259 0.52545082569122314 0.28424155712127686
0.27380833029747009 0.52696293592453003 0.27291727066040039
0.51242375373840332 0.54417437314987183 0.2000347375869751
0.73545712232589722 0.5448920726776123 0.083548389375209808
0.89177870750427246 0.50697439908981323 0.023959441110491753
0.98984074592590332 0.50298917293548584 0.017779361456632614
0.079688623547554016 0.67585903406143188 0.36538338661193848
0.19057494401931763 0.67322570085525513 0.37260839343070984
0.32485094666481018 0.66768956184387207 0.37329274415969849
0.48344418406486511 0.67519497871398926 0.33577391505241394
0.67858409881591797 0.69200682640075684 0.26060673594474792
0.86820954084396362 0.69960176944732666 0.15848934650421143
0.98934781551361084 0.67395305633544922 0.057169552892446518
0.38490217924118042 0.79845666885375977 0.50695401430130005
0.41405555605888367 0.79677700996398926 0.50867360830307007
0.47632715106010437 0.79740780591964722 0.51745450496673584
0.5604177713394165 0.79592591524124146 0.50492340326309204
0.67791622877120972 0.80586081743240356 0.46310204267501831
0.81057214736938477 0.81774091720581055 0.39387819170951843
0.96282386779785156 0.83473581075668335 0.32139581441879272
0.61140567064285278 0.91238522529602051 0.67517578601837158
0.62331807613372803 0.91181439161300659 0.67817443609237671
0.65569591522216797 0.91161453723907471 0.68506151437759399
0.69836366176605225 0.91146790981292725 0.69047188758850098
0.74908339977264404 0.91841894388198853 0.67299127578735352
0.82185846567153931 0.92847919464111328 0.64110326766967773
0.92358577251434326 0.94197291135787964 0.60302174091339111
0.0050381082110106945 0.070821143686771393 0.34528544545173645
0.11930360645055771 0.072351925075054169 0.34499222040176392
0.3316156268119812 0.069314651191234589 0.33362489938735962
0.54605525732040405 0.0067411386407911777 0.31552094221115112
0.76631158590316772 0.0049728844314813614 0.2888607382774353
0.92394828796386719 0.029799442738294601 0.29177629947662354
0.99832981824874878 0.25932508707046509 0.34197351336479187
0.0050116297788918018 0.19092366099357605 0.36093810200691223
0.090772263705730438 0.18914930522441864 0.36208513379096985
0.3521479070186615 0.20577092468738556 0.35566076636314392
0.57248955965042114 0.14806438982486725 0.33181649446487427
0.77341502904891968 0.11363788694143295 0.31416979432106018
0.91723334789276123 0.23881012201309204 0.33195069432258606
0.99210131168365479 0.34750491380691528 0.35438579320907593
0.0030485864263027906 0.37140777707099915 0.37339767813682556
0.10104294121265411 0.38077467679977417 0.38267374038696289
0.36086386442184448 0.37894269824028015 0.38202455639839172
0.57794433832168579 0.3703005313873291 0.35371685028076172
0.76147180795669556 0.37787860631942749 0.3433433473110199
0.90091192722320557 0.40333366394042969 0.33299112319946289
0.99657624959945679 0.4272439181804657 0.33734965324401855
0.13355867564678192 0.55417865514755249 0.42371553182601929
0.26162368059158325 0.55218636989593506 0.43060484528541565
0.3803800642490387 0.54194402694702148 0.42070522904396057
0.5457683801651001 0.54897874593734741 0.3873918354511261
0.73865324258804321 0.53529143333435059 0.33192533254623413
0.88728004693984985 0.52212446928024292 0.29278168082237244
0.99348068237304688 0.52857613563537598 0.29621466994285583
0.32808852195739746 0.68950939178466797 0.49156463146209717
0.36016660928726196 0.68708932399749756 0.48696038126945496
0.43024969100952148 0.68130278587341309 0.48336085677146912
0.53432160615921021 0.67788946628570557 0.46901077032089233
0.70144778490066528 0.69539231061935425 0.4216824471950531
0.8665386438369751 0.69867151975631714 0.36306118965148926
0.983104407787323 0.66679728031158447 0.30545887351036072
0.4720577597618103 0.8029288649559021 0.58101308345794678
0.49223059415817261 0.80138421058654785 0.58149939775466919
0.53674113750457764 0.80094021558761597 0.58720165491104126
0.60738682746887207 0.79802590608596802 0.58116227388381958
0.69407600164413452 0.8055303692817688 0.55813586711883545
0.82029139995574951 0.82004362344741821 0.51249146461486816
0.96203714609146118 0.83227556943893433 0.4559502899646759
0.63701069355010986 0.91302675008773804 0.70979231595993042
0.64755403995513916 0.91177499294281006 0.70997911691665649
0.67541861534118652 0.91072916984558105 0.71564024686813354
0.71548336744308472 0.90991848707199097 0.72188842296600342
0.76273816823959351 0.91358518600463867 0.71429252624511719
0.83084225654602051 0.92691159248352051 0.69087868928909302
0.92183029651641846 0.93928343057632446 0.65267515182495117
0.002627144567668438 0.13013270497322083 0.57967871427536011
0.10970716178417206 0.13531814515590668 0.57799774408340454
0.41086298227310181 0.17843323945999146 0.56645745038986206
0.61450529098510742 0.17722339928150177 0.56246590614318848
0.75290828943252563 0.058190934360027313 0.50609534978866577
0.90819931030273438 0.019814105704426765 0.46331468224525452
0.99626678228378296 0.15470743179321289 0.45370602607727051
0.0028072281274944544 0.25493362545967102 0.5851101279258728
0.11807089298963547 0.26140141487121582 0.5895732045173645
0.4250965416431427 0.29157957434654236 0.57940477132797241
0.61684572696685791 0.29836410284042358 0.56797897815704346
0.75484609603881836 0.22334884107112885 0.51253467798233032
0.9052007794380188 0.21337646245956421 0.47770211100578308
0.99514681100845337 0.28520870208740234 0.47384583950042725
0.0044459621421992779 0.44324690103530884 0.5879397988319397
0.1110907644033432 0.44542014598846436 0.5911218523979187
0.41303080320358276 0.43910497426986694 0.57829767465591431
0.60202997922897339 0.43630895018577576 0.56297105550765991
0.7524828314781189 0.40575462579727173 0.53166037797927856
0.89827662706375122 0.40504831075668335 0.51134741306304932
0.99390929937362671 0.46320876479148865 0.5273318886756897
0.056116439402103424 0.58344739675521851 0.57349711656570435
0.23928581178188324 0.58203303813934326 0.57545608282089233
0.42903494834899902 0.57569783926010132 0.57788294553756714
0.58439511060714722 0.56570762395858765 0.56724065542221069
0.74111431837081909 0.55819487571716309 0.54173475503921509
0.87719976902008057 0.56970405578613281 0.53919583559036255
0.98254144191741943 0.5906946063041687 0.53824669122695923
0.3802625834941864 0.70560926198959351 0.60400903224945068
0.43782380223274231 0.7028735876083374 0.6130109429359436
0.52593201398849487 0.69963163137435913 0.61713773012161255
0.60757583379745483 0.69519424438476562 0.60402297973632812
0.7164837121963501 0.69837862253189087 0.58161723613739014
0.86484909057617188 0.68898671865463257 0.53709405660629272
0.98371052742004395 0.67410743236541748 0.49643948674201965
0.56440562009811401 0.81505054235458374 0.68467432260513306
0.58243346214294434 0.81139367818832397 0.68151885271072388
0.61525654792785645 0.80814081430435181 0.67709362506866455
0.66459888219833374 0.80837434530258179 0.67824417352676392
0.73270165920257568 0.81202775239944458 0.66553056240081787
0.83528739213943481 0.82149046659469604 0.63202041387557983
0.96398156881332397 0.83114641904830933 0.58437740802764893
0.68260157108306885 0.91791802644729614 0.7654731273651123
0.68498712778091431 0.91471976041793823 0.76041305065155029
0.70778727531433105 0.91346216201782227 0.76350980997085571
0.73990827798843384 0.91526061296463013 0.76708143949508667
0.78475737571716309 0.9172670841217041 0.76435190439224243
0.84257632493972778 0.92826974391937256 0.74831843376159668
0.93244510889053345 0.94219720363616943 0.71871501207351685
0.0030519971624016762 0.22619333863258362 0.75496649742126465
0.20244470238685608 0.24693070352077484 0.75319409370422363
0.46422865986824036 0.28636491298675537 0.73896193504333496
0.65722566843032837 0.34623041749000549 0.73217833042144775
0.79602843523025513 0.34845754504203796 0.72648555040359497
0.89003068208694458 0.28172966837882996 0.67207878828048706
0.98992514610290527 0.29458910226821899 0.63015240430831909
0.039495818316936493 0.33777615427970886 0.75973880290985107
0.25697416067123413 0.35180065035820007 0.75888353586196899
0.47219979763031006 0.38455414772033691 0.74674439430236816
0.65998566150665283 0.42756366729736328 0.73646986484527588
0.79325538873672485 0.4235682487487793 0.72693222761154175
0.88287806510925293 0.36724567413330078 0.6773369312286377
0.98822331428527832 0.36572504043579102 0.63991439342498779
0.18293324112892151 0.50407105684280396 0.75193339586257935
0.31871601939201355 0.50245159864425659 0.74977713823318481
0.47721493244171143 0.50237619876861572 0.74443745613098145
0.65073812007904053 0.53424203395843506 0.7328980565071106
0.78127944469451904 0.53138279914855957 0.72659718990325928
0.87608134746551514 0.48520627617835999 0.68247002363204956
0.98625057935714722 0.48081526160240173 0.65789937973022461
0.17502076923847198 0.62254714965820312 0.73264366388320923
0.30549520254135132 0.62051409482955933 0.72919756174087524
0.46156275272369385 0.61743026971817017 0.72889965772628784
0.62636476755142212 0.62345260381698608 0.72248440980911255
0.76030057668685913 0.62746834754943848 0.71676695346832275
0.86941993236541748 0.60051029920578003 0.69532573223114014
0.97889649868011475 0.60239869356155396 0.68671005964279175
0.37815585732460022 0.72714823484420776 0.72388142347335815
0.43403917551040649 0.72552400827407837 0.72356081008911133
0.53045916557312012 0.72232580184936523 0.72653210163116455
0.63389211893081665 0.72278773784637451 0.72999429702758789
0.74484431743621826 0.71778959035873413 0.71968424320220947
0.86255550384521484 0.70827358961105347 0.7007935643196106
0.9674343466758728 0.72139757871627808 0.70196390151977539
0.56530219316482544 0.83027422428131104 0.76358145475387573
0.58728682994842529 0.82694327831268311 0.76538008451461792
0.63739627599716187 0.82408946752548218 0.76678913831710815
0.69930726289749146 0.82427686452865601 0.76290339231491089
0.76482200622558594 0.82181143760681152 0.75561612844467163
0.84502005577087402 0.8173261284828186 0.73939305543899536
0.9587821364402771 0.81968480348587036 0.70564866065979004
0.70037108659744263 0.92608535289764404 0.82728928327560425
0.71246856451034546 0.92448645830154419 0.82437038421630859
0.73985028266906738 0.92463356256484985 0.82603520154953003
0.77343606948852539 0.92248362302780151 0.8243144154548645
0.81108927726745605 0.92356747388839722 0.82161825895309448
0.85938191413879395 0.92918109893798828 0.8150908350944519
0.93561631441116333 0.94216006994247437 0.79296481609344482
0.27694272994995117 0.37512022256851196 0.87155956029891968
0.3875444233417511 0.39128142595291138 0.86893349885940552
0.53510034084320068 0.42120760679244995 0.86206257343292236
0.69037985801696777 0.47499287128448486 0.85552585124969482
0.81776463985443115 0.5412602424621582 0.84807521104812622
0.90951961278915405 0.53143417835235596 0.84181934595108032
0.97977524995803833 0.49413615465164185 0.80969393253326416
0.33065003156661987 0.44970899820327759 0.86822247505187988
0.4178331196308136 0.46444463729858398 0.86461466550827026
0.55775970220565796 0.48552456498146057 0.85971695184707642
0.69816553592681885 0.52987968921661377 0.85523229837417603
0.81764495372772217 0.57783204317092896 0.84783607721328735
0.90469133853912354 0.56909966468811035 0.84120863676071167
0.97639822959899902 0.53525644540786743 0.81451714038848877
0.41287526488304138 0.56549549102783203 0.86150318384170532
0.46316969394683838 0.56424832344055176 0.86079615354537964
0.56957376003265381 0.58056390285491943 0.85751223564147949
0.70000970363616943 0.60745632648468018 0.85201537609100342
0.81526279449462891 0.6412847638130188 0.84758174419403076
0.89768892526626587 0.64014089107513428 0.84352010488510132
0.97287732362747192 0.60531783103942871 0.81751090288162231
0.40253511071205139 0.67059898376464844 0.8494982123374939
0.47159260511398315 0.67197436094284058 0.85029590129852295
0.57874369621276855 0.67424267530441284 0.85226207971572876
0.68457329273223877 0.6873244047164917 0.84589064121246338
0.79752111434936523 0.70782947540283203 0.84811466932296753
0.88334095478057861 0.70415997505187988 0.83948314189910889
0.96270829439163208 0.67567223310470581 0.82267403602600098
0.47130140662193298 0.76215404272079468 0.84565216302871704
0.51368582248687744 0.7610853910446167 0.8430861234664917
0.57874572277069092 0.75984710454940796 0.84155440330505371
0.66316068172454834 0.75902241468429565 0.84440153837203979
0.78005313873291016 0.76918762922286987 0.84547019004821777
0.87599796056747437 0.77325868606567383 0.84307605028152466
0.9637749195098877 0.751842200756073 0.82623869180679321
0.57083261013031006 0.85018724203109741 0.84794962406158447
0.59683406352996826 0.84494906663894653 0.8457343578338623
0.64697551727294922 0.8443753719329834 0.84922385215759277
0.71054977178573608 0.84234786033630371 0.84903031587600708
0.78525668382644653 0.84187328815460205 0.84966009855270386
0.86330312490463257 0.83846688270568848 0.84520071744918823
0.96425622701644897 0.83611571788787842 0.83024007081985474
0.69460833072662354 0.93439626693725586 0.87856298685073853
0.70877599716186523 0.93591010570526123 0.87964969873428345
0.73521894216537476 0.93314623832702637 0.88186854124069214
0.7760956883430481 0.92821449041366577 0.88241857290267944
0.83187437057495117 0.93388420343399048 0.88926976919174194
0.88219958543777466 0.9345061182975769 0.88374620676040649
0.94513082504272461 0.94082450866699219 0.87229931354522705
0.53508180379867554 0.54829239845275879 0.95575463771820068
0.57714706659317017 0.55725586414337158 0.95162737369537354
0.65513521432876587 0.57835793495178223 0.94795900583267212
0.75665277242660522 0.61640113592147827 0.94407457113265991
0.84368890523910522 0.65607976913452148 0.93680000305175781
0.92121297121047974 0.69983774423599243 0.93530595302581787
0.985676109790802 0.69392579793930054 0.92929613590240479
0.55683183670043945 0.59145575761795044 0.95306921005249023
0.59866064786911011 0.60190898180007935 0.95247054100036621
0.67099559307098389 0.61564671993255615 0.94665688276290894
0.76164031028747559 0.6441313624382019 0.94276994466781616
0.84792941808700562 0.67838108539581299 0.94032949209213257
0.92114830017089844 0.71541941165924072 0.93592077493667603
0.9842103123664856 0.71122640371322632 0.93296217918395996
0.58501100540161133 0.6554642915725708 0.94923669099807739
0.61662012338638306 0.661143958568573 0.94904011487960815
0.6813470721244812 0.67186719179153442 0.94847303628921509
0.76419210433959961 0.69199424982070923 0.94283998012542725
0.84808063507080078 0.71629321575164795 0.93886017799377441
0.91890496015548706 0.74892663955688477 0.9355243444442749
0.98019874095916748 0.744739830493927 0.93447601795196533
0.61271470785140991 0.73979467153549194 0.94801098108291626
0.63927996158599854 0.73895615339279175 0.94729459285736084
0.68685322999954224 0.73820078372955322 0.94587445259094238
0.75517463684082031 0.74909871816635132 0.94076168537139893
0.83785176277160645 0.76633155345916748 0.93798947334289551
0.91129142045974731 0.78965777158737183 0.93670690059661865
0.97469562292098999 0.78949671983718872 0.93465214967727661
0.57742613554000854 0.80802536010742188 0.94725322723388672
0.60576486587524414 0.8065980076789856 0.94565260410308838
0.66169971227645874 0.8079451322555542 0.94668227434158325
0.74160271883010864 0.80950558185577393 0.94433081150054932
0.82578247785568237 0.81863951683044434 0.94203716516494751
0.90483665466308594 0.83397936820983887 0.94183975458145142
0.96588611602783203 0.84032022953033447 0.93651193380355835
0.63352376222610474 0.88264721632003784 0.93993282318115234
0.64823859930038452 0.879932701587677 0.94223475456237793
0.68864500522613525 0.8793523907661438 0.94472473859786987
0.73842614889144897 0.87870520353317261 0.94376182556152344
0.8031613826751709 0.87976795434951782 0.94809859991073608
0.89438527822494507 0.88509052991867065 0.94700014591217041
0.96539223194122314 0.90232974290847778 0.9419560432434082
0.706520676612854 0.95340895652770996 0.94711786508560181
0.71338450908660889 0.95505541563034058 0.95014357566833496
0.7414359450340271 0.95418649911880493 0.95045894384384155
0.78382575511932373 0.95128589868545532 0.94984167814254761
0.83513253927230835 0.94980120658874512 0.95412516593933105
0.90031474828720093 0.95059698820114136 0.95224583148956299
0.96200841665267944 0.95822525024414062 0.95511823892593384
