luts/negative_color/kodak_portra_160_vc.cube
# Created by: G'MIC (https://gmic.eu)
TITLE "kodak_portra_160_vc"
# LUT size
LUT_3D_SIZE 13
# Data domain
DOMAIN_MIN 0.0 0.0 0.0
DOMAIN_MAX 1.0 1.0 1.0
# LUT data points
0.025083623826503754 0.034956090152263641 0.037637300789356232
0.049657382071018219 0.035663619637489319 0.035972010344266891
0.10381379723548889 0.033599015325307846 0.036537587642669678
0.18404854834079742 0.03345215693116188 0.035378802567720413
0.2902381420135498 0.04006621241569519 0.024548564106225967
0.40781211853027344 0.036750853061676025 0.01560318935662508
0.53076183795928955 0.025781100615859032 0.014509193599224091
0.6526457667350769 0.015735834836959839 0.010284394025802612
0.76306498050689697 0.017184970900416374 0.0033726859837770462
0.84546279907226562 0.036558575928211212 0.0018614974105730653
0.91359990835189819 0.07781035453081131 0.00058863020967692137
0.97647976875305176 0.12431593984365463 0.0008662055479362607
0.99360626935958862 0.16356353461742401 8.1858917837962508e-05
0.017747737467288971 0.05754108726978302 0.039003424346446991
0.042976289987564087 0.06534760445356369 0.03948047012090683
0.1049819216132164 0.071844615042209625 0.032744076102972031
0.18967309594154358 0.078566171228885651 0.024367313832044601
0.29743984341621399 0.084969058632850647 0.017115993425250053
0.41328221559524536 0.087099902331829071 0.014478002674877644
0.53538709878921509 0.078906163573265076 0.014307762496173382
0.65724349021911621 0.079437822103500366 0.0099071124568581581
0.76269567012786865 0.089582227170467377 0.002846631919965148
0.83809173107147217 0.10820875316858292 0.0044444063678383827
0.91104280948638916 0.13643911480903625 0.0038938934449106455
0.9770931601524353 0.16940613090991974 0.001588230486959219
0.99759006500244141 0.20558159053325653 0.00015867644106037915
0.0071779289282858372 0.11554219573736191 0.050819128751754761
0.023419294506311417 0.11880982667207718 0.048616595566272736
0.088138118386268616 0.13111212849617004 0.039840385317802429
0.18814225494861603 0.1458800733089447 0.018930038437247276
0.30698731541633606 0.15206827223300934 0.0090138604864478111
0.42818322777748108 0.15649361908435822 0.0078071444295346737
0.5465400218963623 0.15792688727378845 0.0095103541389107704
0.66217893362045288 0.16361401975154877 0.010252036154270172
0.7593042254447937 0.17042896151542664 0.0039699478074908257
0.83806681632995605 0.18493105471134186 0.0064810956828296185
0.90881800651550293 0.2024448961019516 0.0060638575814664364
0.9743952751159668 0.22751405835151672 0.0025847491342574358
0.99639075994491577 0.25303530693054199 0.0012166191590949893
0.0023078618105500937 0.19633230566978455 0.073968686163425446
0.0064107258804142475 0.19896169006824493 0.073867470026016235
0.046622674912214279 0.20974408090114594 0.062626063823699951
0.16413366794586182 0.22941315174102783 0.032714664936065674
0.30530190467834473 0.24901355803012848 0.0086489208042621613
0.4366438090801239 0.25888076424598694 0.0052677975036203861
0.55523234605789185 0.25247800350189209 0.0054358686320483685
0.66370594501495361 0.24811770021915436 0.0063909944146871567
0.75875765085220337 0.25191375613212585 0.0043292776681482792
0.83663731813430786 0.26333951950073242 0.0046691745519638062
0.90703612565994263 0.27583900094032288 0.00476099643856287
0.97332900762557983 0.28819695115089417 0.0030304254032671452
0.99381619691848755 0.30004775524139404 0.0025928572285920382
0.0022626989521086216 0.29810672998428345 0.1091422438621521
0.0060686897486448288 0.30404359102249146 0.10901214182376862
0.016499957069754601 0.31203380227088928 0.10039801150560379
0.11718340218067169 0.32867431640625 0.070346876978874207
0.27789297699928284 0.34887728095054626 0.02383137121796608
0.43116134405136108 0.36854201555252075 0.0052684559486806393
0.55338096618652344 0.36548948287963867 0.0032622991129755974
0.66121256351470947 0.3510735034942627 0.0030171561520546675
0.75797241926193237 0.33879846334457397 0.0027861353009939194
0.83238184452056885 0.3405824601650238 0.0046403920277953148
0.90214067697525024 0.34822452068328857 0.0054991329088807106
0.96659743785858154 0.35538151860237122 0.0039430656470358372
0.99140453338623047 0.36005643010139465 0.0032619701232761145
0.0016458249883726239 0.40589624643325806 0.14654968678951263
0.0043867523781955242 0.40782058238983154 0.14751334488391876
0.0052747088484466076 0.41408243775367737 0.14572495222091675
0.069914691150188446 0.42389285564422607 0.12915462255477905
0.2366044819355011 0.43849414587020874 0.086829677224159241
0.38795721530914307 0.45488598942756653 0.032061200588941574
0.53825032711029053 0.4694831371307373 0.0041140834800899029
0.65332525968551636 0.46083629131317139 0.0013265871675685048
0.74437737464904785 0.44138115644454956 0.001948682009242475
0.82261788845062256 0.42722412943840027 0.0040080798789858818
0.89454424381256104 0.41984158754348755 0.0043580448254942894
0.96020346879959106 0.42163059115409851 0.0037729451432824135
0.991188645362854 0.42511084675788879 0.0028760721907019615
0.00076154823182150722 0.50191634893417358 0.18929113447666168
0.0037739623803645372 0.50338828563690186 0.19657768309116364
0.00451634731143713 0.50698840618133545 0.20025871694087982
0.049900203943252563 0.5105549693107605 0.19200171530246735
0.2120446115732193 0.5204237699508667 0.16346827149391174
0.35156688094139099 0.53033417463302612 0.10904956609010696
0.49009740352630615 0.5424235463142395 0.046865485608577728
0.62817877531051636 0.55557572841644287 0.0057937321253120899
0.73103886842727661 0.54743248224258423 0.0016569399740546942
0.80941092967987061 0.52954334020614624 0.0032162386924028397
0.88310337066650391 0.51116430759429932 0.0039215688593685627
0.95401710271835327 0.49819594621658325 0.0029005762189626694
0.99299025535583496 0.49368220567703247 0.0022323608864098787
0.0030637404415756464 0.58445119857788086 0.24671046435832977
0.0036187265068292618 0.58708220720291138 0.24994826316833496
0.0058470182120800018 0.59059220552444458 0.2534429132938385
0.080103889107704163 0.59036004543304443 0.2510533332824707
0.21864767372608185 0.59393799304962158 0.23788048326969147
0.33867901563644409 0.6003040075302124 0.20487415790557861
0.45649451017379761 0.60976731777191162 0.15505495667457581
0.57883864641189575 0.61903971433639526 0.080113522708415985
0.70223748683929443 0.63000762462615967 0.015806205570697784
0.8006247878074646 0.62639892101287842 0.0023265914060175419
0.87392646074295044 0.60916650295257568 0.0037263159174472094
0.94437640905380249 0.59167212247848511 0.0037886674981564283
0.98830169439315796 0.57925528287887573 0.0032744314521551132
0.0075957952067255974 0.66429436206817627 0.30763500928878784
0.012144380249083042 0.66656452417373657 0.30714178085327148
0.056280322372913361 0.66666603088378906 0.30803629755973816
0.1673305481672287 0.66418540477752686 0.31110557913780212
0.26341307163238525 0.66423165798187256 0.30753189325332642
0.3588012158870697 0.66801661252975464 0.28914374113082886
0.45598012208938599 0.67452508211135864 0.25435748696327209
0.55550694465637207 0.68147706985473633 0.20912373065948486
0.66067630052566528 0.6893046498298645 0.1424127072095871
0.77275794744491577 0.70153582096099854 0.063862323760986328
0.8649519681930542 0.70183783769607544 0.014198826625943184
0.93356055021286011 0.6864084005355835 0.0060520097613334656
0.98213088512420654 0.67351090908050537 0.0051824534311890602
0.12782920897006989 0.73585087060928345 0.37627521157264709
0.16013532876968384 0.73502999544143677 0.37821534276008606
0.22128686308860779 0.73425966501235962 0.38181796669960022
0.2788642942905426 0.73178368806838989 0.38754552602767944
0.34443071484565735 0.731833815574646 0.38789117336273193
0.40716147422790527 0.7330964207649231 0.377086341381073
0.47971212863922119 0.73698979616165161 0.35450246930122375
0.56070160865783691 0.74243259429931641 0.32367941737174988
0.64963066577911377 0.74900341033935547 0.28636607527732849
0.74225884675979614 0.75493192672729492 0.23034675419330597
0.83352649211883545 0.76567935943603516 0.15810577571392059
0.91950720548629761 0.77005195617675781 0.092233709990978241
0.97969543933868408 0.76264649629592896 0.04790027067065239
0.32953816652297974 0.79796737432479858 0.46567723155021667
0.33431008458137512 0.79511827230453491 0.46701744198799133
0.35913887619972229 0.79462313652038574 0.46996623277664185
0.39705434441566467 0.79436272382736206 0.47567588090896606
0.44841623306274414 0.79436743259429932 0.47931864857673645
0.4891873300075531 0.794516921043396 0.47158533334732056
0.53297489881515503 0.79731416702270508 0.45769625902175903
0.59195435047149658 0.80126357078552246 0.43941673636436462
0.66256546974182129 0.80671125650405884 0.41002047061920166
0.73293542861938477 0.81217771768569946 0.37379950284957886
0.8083532452583313 0.81784868240356445 0.32923763990402222
0.89343798160552979 0.82712101936340332 0.27437666058540344
0.96428334712982178 0.83308136463165283 0.23178820312023163
0.47472769021987915 0.8564598560333252 0.5613408088684082
0.47495409846305847 0.85367774963378906 0.56378281116485596
0.48585295677185059 0.85271233320236206 0.56826293468475342
0.51164501905441284 0.85386848449707031 0.57312512397766113
0.55200940370559692 0.85502505302429199 0.57537484169006348
0.58080792427062988 0.85236531496047974 0.56823241710662842
0.60721158981323242 0.85404139757156372 0.56296372413635254
0.64775609970092773 0.85870802402496338 0.55401921272277832
0.69976979494094849 0.86447733640670776 0.535308837890625
0.74930268526077271 0.86939960718154907 0.50914663076400757
0.80482196807861328 0.87360703945159912 0.4768243134021759
0.86897647380828857 0.88024795055389404 0.44174396991729736
0.94480526447296143 0.89128214120864868 0.39919623732566833
0.59364265203475952 0.91100507974624634 0.65687578916549683
0.59824389219284058 0.91057699918746948 0.65951192378997803
0.60851508378982544 0.91142821311950684 0.66315686702728271
0.62355184555053711 0.9119599461555481 0.6670684814453125
0.64648085832595825 0.91073691844940186 0.66788583993911743
0.66455727815628052 0.90767550468444824 0.66779059171676636
0.68678617477416992 0.90852129459381104 0.66830217838287354
0.71088588237762451 0.91225266456604004 0.6603240966796875
0.74330329895019531 0.91910058259963989 0.65393745899200439
0.78070986270904541 0.92414575815200806 0.63919973373413086
0.82185578346252441 0.92899554967880249 0.61829894781112671
0.86924052238464355 0.93481981754302979 0.59711909294128418
0.92436039447784424 0.9415820837020874 0.56981378793716431
0.020314579829573631 0.035241518169641495 0.065855972468852997
0.046004693955183029 0.033350732177495956 0.067518927156925201
0.101071797311306 0.028241969645023346 0.063881412148475647
0.18309806287288666 0.021894762292504311 0.059344541281461716
0.29225596785545349 0.019661713391542435 0.057441066950559616
0.41450914740562439 0.016690945252776146 0.060046415776014328
0.53865307569503784 0.01067931205034256 0.059707507491111755
0.65843760967254639 0.0070397919043898582 0.048181764781475067
0.76190602779388428 0.011227522045373917 0.034383319318294525
0.84549760818481445 0.028330903500318527 0.022791603580117226
0.91528654098510742 0.071927808225154877 0.019331598654389381
0.97796380519866943 0.12711887061595917 0.013638141565024853
0.99597901105880737 0.17065224051475525 0.015137826092541218
0.013147690333425999 0.065702416002750397 0.074544526636600494
0.044362012296915054 0.068572789430618286 0.077420495450496674
0.10666916519403458 0.069687783718109131 0.072112351655960083
0.1954987496137619 0.070410676300525665 0.063379071652889252
0.30418756604194641 0.074708171188831329 0.063180960714817047
0.42050039768218994 0.076141595840454102 0.062873750925064087
0.54375350475311279 0.068277470767498016 0.05683651939034462
0.66450732946395874 0.066793628036975861 0.040252238512039185
0.76368576288223267 0.074596747756004333 0.027884000912308693
0.84395581483840942 0.10089655965566635 0.022446276620030403
0.91684645414352417 0.13281379640102386 0.015454744920134544
0.97843509912490845 0.16951318085193634 0.010126420296728611
0.99901831150054932 0.20897617936134338 0.0087834829464554787
0.0063028670847415924 0.1282152384519577 0.093843795359134674
0.024786645546555519 0.12887720763683319 0.09445933997631073
0.095865823328495026 0.13706722855567932 0.087806418538093567
0.20024858415126801 0.14617368578910828 0.071991086006164551
0.31754466891288757 0.15192697942256927 0.056449636816978455
0.43637523055076599 0.15521208941936493 0.047156315296888351
0.55695992708206177 0.15681624412536621 0.040349308401346207
0.6732170581817627 0.16129210591316223 0.028264617547392845
0.76701945066452026 0.16927415132522583 0.017779720947146416
0.84492671489715576 0.18369217216968536 0.015269066207110882
0.91450339555740356 0.20054046809673309 0.013074388727545738
0.97568082809448242 0.22538799047470093 0.007841416634619236
0.99888932704925537 0.25458243489265442 0.0078225824981927872
0.0040436238050460815 0.21187955141067505 0.12114227563142776
0.0097600603476166725 0.21147458255290985 0.12031497061252594
0.060208726674318314 0.21860834956169128 0.11444023251533508
0.18008856475353241 0.23566575348377228 0.09314129501581192
0.3191688060760498 0.25099217891693115 0.055976524949073792
0.44831457734107971 0.25426524877548218 0.030320694670081139
0.56664073467254639 0.25103864073753357 0.019218055531382561
0.6728217601776123 0.24962957203388214 0.015195704065263271
0.7639574408531189 0.25193589925765991 0.011714082211256027
0.8406904935836792 0.26176726818084717 0.011560851708054543
0.91087794303894043 0.27342870831489563 0.0093844691291451454
0.97307419776916504 0.28839722275733948 0.008797110989689827
0.99661481380462646 0.30774027109146118 0.0077024721540510654
0.0030115463305264711 0.31437906622886658 0.15055841207504272
0.0054008332081139088 0.31670975685119629 0.15459589660167694
0.021268388256430626 0.31749960780143738 0.14986136555671692
0.13725177943706512 0.33418098092079163 0.1294618546962738
0.29325771331787109 0.35337841510772705 0.086344040930271149
0.44270163774490356 0.36806058883666992 0.036422234028577805
0.56218636035919189 0.3632361888885498 0.015160040929913521
0.66627293825149536 0.34801477193832397 0.010726585052907467
0.75877982378005981 0.33773171901702881 0.0086224721744656563
0.83437114953994751 0.33995252847671509 0.0092054782435297966
0.90557682514190674 0.34681642055511475 0.008648337796330452
0.9681401252746582 0.35714128613471985 0.0080562969669699669
0.99396920204162598 0.36754053831100464 0.0072617325931787491
0.00089029048103839159 0.41755619645118713 0.18428109586238861
0.0039973240345716476 0.41884124279022217 0.19198568165302277
0.0085589243099093437 0.41998326778411865 0.19096642732620239
0.10471449047327042 0.42957386374473572 0.17617921531200409
0.25865042209625244 0.44399553537368774 0.1449197381734848
0.40235462784767151 0.45820456743240356 0.090169645845890045
0.54340779781341553 0.46823790669441223 0.028228789567947388
0.65554606914520264 0.4603886604309082 0.0097127575427293777
0.74636191129684448 0.44152292609214783 0.0055571612901985645
0.82523983716964722 0.42743012309074402 0.0060804178938269615
0.89801836013793945 0.4192427396774292 0.0050453185103833675
0.96122431755065918 0.42449113726615906 0.0062073650769889355
0.99263972043991089 0.43066227436065674 0.0066123362630605698
0.001243651146069169 0.51031792163848877 0.22603835165500641
0.0042755128815770149 0.51187294721603394 0.23182186484336853
0.0090030143037438393 0.51260095834732056 0.23267282545566559
0.097104080021381378 0.51547020673751831 0.22685912251472473
0.23921689391136169 0.52385973930358887 0.20338977873325348
0.36657324433326721 0.53112387657165527 0.16772770881652832
0.49933040142059326 0.54210096597671509 0.099890150129795074
0.62882781028747559 0.55435395240783691 0.032586969435214996
0.73217344284057617 0.54851323366165161 0.0060297795571386814
0.81230968236923218 0.53045618534088135 0.0053269332274794579
0.88636177778244019 0.50996983051300049 0.0056576300412416458
0.9523501992225647 0.49770897626876831 0.0041170008480548859
0.98871028423309326 0.49901393055915833 0.0051623028703033924
0.00058316998183727264 0.59312957525253296 0.27655237913131714
0.0050593656487762928 0.59482830762863159 0.2772003710269928
0.018819786608219147 0.59571003913879395 0.27746525406837463
0.12781412899494171 0.59280794858932495 0.27972999215126038
0.24168933928012848 0.59346663951873779 0.27013784646987915
0.35565054416656494 0.60016292333602905 0.24435144662857056
0.46839383244514465 0.60960680246353149 0.20101082324981689
0.58344584703445435 0.61946851015090942 0.13728316128253937
0.70537370443344116 0.63123500347137451 0.054291862994432449
0.80229693651199341 0.62752372026443481 0.014587686397135258
0.87813287973403931 0.61073637008666992 0.0057033314369618893
0.94465112686157227 0.59248197078704834 0.0043612909503281116
0.98648715019226074 0.58119821548461914 0.0052931243553757668
0.013994433917105198 0.6694067120552063 0.32837224006652832
0.034460630267858505 0.67091023921966553 0.32997119426727295
0.10607977211475372 0.66941946744918823 0.33275708556175232
0.20584355294704437 0.66554230451583862 0.3378942608833313
0.28859797120094299 0.66536468267440796 0.33449658751487732
0.37420019507408142 0.66858386993408203 0.31985938549041748
0.46365618705749512 0.67564362287521362 0.28678679466247559
0.56071776151657104 0.68239063024520874 0.24849717319011688
0.6663472056388855 0.69077003002166748 0.19302673637866974
0.77424615621566772 0.70030909776687622 0.11652568727731705
0.86629360914230347 0.70134937763214111 0.050205662846565247
0.9353032112121582 0.68854445219039917 0.022047858685255051
0.98638808727264404 0.67537420988082886 0.0080099217593669891
0.17007313668727875 0.73771798610687256 0.39599767327308655
0.19869859516620636 0.73606187105178833 0.39981725811958313
0.25007662177085876 0.73474782705307007 0.40442052483558655
0.30498826503753662 0.73322939872741699 0.41039606928825378
0.36949160695075989 0.733531653881073 0.41005730628967285
0.42554926872253418 0.73481744527816772 0.39891734719276428
0.4894624650478363 0.7385181188583374 0.37713047862052917
0.56556409597396851 0.74260228872299194 0.350076824426651
0.65453296899795532 0.74881702661514282 0.31506341695785522
0.7457013726234436 0.75470954179763794 0.26668798923492432
0.83551466464996338 0.76373404264450073 0.20665334165096283
0.91929417848587036 0.76843154430389404 0.14781592786312103
0.9801642894744873 0.76279723644256592 0.099550686776638031
0.35006138682365417 0.79821872711181641 0.47987639904022217
0.36071872711181641 0.79657375812530518 0.48473429679870605
0.38258135318756104 0.79470032453536987 0.48808789253234863
0.41764497756958008 0.79446947574615479 0.49429440498352051
0.46198305487632751 0.79568833112716675 0.4967045783996582
0.49819287657737732 0.79461932182312012 0.48839649558067322
0.54248005151748657 0.79688185453414917 0.47644314169883728
0.6004975438117981 0.80134445428848267 0.45869284868240356
0.66843140125274658 0.80596154928207397 0.43028247356414795
0.73731428384780884 0.81163400411605835 0.39711695909500122
0.81075805425643921 0.81732875108718872 0.35322657227516174
0.89233487844467163 0.8254547119140625 0.30579787492752075
0.96265643835067749 0.83361059427261353 0.26936343312263489
0.48501622676849365 0.85612434148788452 0.57101267576217651
0.49124902486801147 0.85527551174163818 0.57742762565612793
0.5036085844039917 0.85334396362304688 0.58145874738693237
0.52401852607727051 0.85413974523544312 0.58506506681442261
0.55938982963562012 0.85616767406463623 0.58791118860244751
0.58671116828918457 0.85442721843719482 0.58364218473434448
0.61581659317016602 0.85492664575576782 0.57874125242233276
0.65471923351287842 0.85884708166122437 0.56737178564071655
0.69876915216445923 0.86337572336196899 0.55063962936401367
0.75150793790817261 0.86878478527069092 0.52506989240646362
0.80611985921859741 0.87406659126281738 0.49408248066902161
0.87293332815170288 0.87925100326538086 0.46069031953811646
0.94376450777053833 0.89126473665237427 0.42435872554779053
0.60032874345779419 0.91192179918289185 0.66444331407546997
0.60659080743789673 0.91248917579650879 0.66817814111709595
0.61180388927459717 0.90957605838775635 0.66780060529708862
0.62536132335662842 0.91026109457015991 0.67130511999130249
0.65023654699325562 0.91201889514923096 0.67614829540252686
0.66856485605239868 0.909801185131073 0.67627573013305664
0.69238215684890747 0.91064399480819702 0.67813622951507568
0.71625721454620361 0.91348010301589966 0.66951894760131836
0.74440842866897583 0.91788011789321899 0.66025197505950928
0.78042709827423096 0.92375969886779785 0.6480221152305603
0.82155704498291016 0.92959868907928467 0.62816774845123291
0.87130641937255859 0.93463003635406494 0.60709929466247559
0.92360436916351318 0.94050675630569458 0.58470624685287476
0.0091443378478288651 0.041136618703603745 0.13789863884449005
0.042861294001340866 0.039854925125837326 0.13899092376232147
0.10286419093608856 0.039196237921714783 0.13386029005050659
0.17803719639778137 0.027584748342633247 0.12774749100208282
0.29293027520179749 0.0099959131330251694 0.12499866634607315
0.42018243670463562 0.0049347672611474991 0.1230158805847168
0.545174241065979 0.0014542224816977978 0.12956525385379791
0.66634881496429443 0.0032470852602273226 0.13802054524421692
0.76408582925796509 0.017560172826051712 0.1382952481508255
0.84715938568115234 0.046427380293607712 0.13311482965946198
0.91652864217758179 0.098940469324588776 0.12751972675323486
0.97769647836685181 0.15146298706531525 0.12160798907279968
0.99724745750427246 0.19763296842575073 0.12165430188179016
0.0078323362395167351 0.080491818487644196 0.14896765351295471
0.031542953103780746 0.079849034547805786 0.14878407120704651
0.10636260360479355 0.080141805112361908 0.14651033282279968
0.19496719539165497 0.073445819318294525 0.13860632479190826
0.30717948079109192 0.058147117495536804 0.13464006781578064
0.42898634076118469 0.04414508119225502 0.13459210097789764
0.555378258228302 0.050946701318025589 0.14092022180557251
0.67235177755355835 0.065277338027954102 0.1394018679857254
0.76908308267593384 0.090033151209354401 0.13300716876983643
0.84636771678924561 0.11868513375520706 0.1248624324798584
0.91809350252151489 0.15140019357204437 0.1212252750992775
0.97726917266845703 0.1868053674697876 0.11527281999588013
0.99956738948822021 0.21967637538909912 0.11573737859725952
0.0058809616602957249 0.14193820953369141 0.15816214680671692
0.022474117577075958 0.14108383655548096 0.15670095384120941
0.10150109231472015 0.14379934966564178 0.15679779648780823
0.20606112480163574 0.14564958214759827 0.15104125440120697
0.32392850518226624 0.14643391966819763 0.14276918768882751
0.44614610075950623 0.15231549739837646 0.14303238689899445
0.56740939617156982 0.15990772843360901 0.1408582478761673
0.67784762382507324 0.16856646537780762 0.13083368539810181
0.76916992664337158 0.18156926333904266 0.12227949500083923
0.84765571355819702 0.19730116426944733 0.11425130814313889
0.91697317361831665 0.21537622809410095 0.1091306209564209
0.97564136981964111 0.23979440331459045 0.10285580158233643
0.99847489595413208 0.26870900392532349 0.10535673052072525
0.0030524758622050285 0.22542367875576019 0.17882232367992401
0.011149432510137558 0.22759892046451569 0.17968946695327759
0.086344055831432343 0.2304452508687973 0.17910851538181305
0.19939322769641876 0.23869527876377106 0.16988460719585419
0.33359760046005249 0.25172096490859985 0.1526210755109787
0.45881330966949463 0.2531205415725708 0.13632847368717194
0.57343530654907227 0.25406971573829651 0.12228384613990784
0.6764034628868103 0.25490841269493103 0.11038065701723099
0.76525968313217163 0.26049074530601501 0.10483619570732117
0.84224843978881836 0.27033567428588867 0.099364623427391052
0.91398900747299194 0.28059482574462891 0.08820100873708725
0.97482520341873169 0.29704681038856506 0.085898950695991516
0.99743562936782837 0.32197690010070801 0.088814422488212585
0.0037038465961813927 0.3324209451675415 0.2133047878742218
0.010645712725818157 0.33655816316604614 0.21675281226634979
