luts/negative_color/kodak_elite_100_xpro.cube
# Created by: G'MIC (https://gmic.eu)
TITLE "kodak_elite_100_xpro"
# LUT size
LUT_3D_SIZE 13
# Data domain
DOMAIN_MIN 0.0 0.0 0.0
DOMAIN_MAX 1.0 1.0 1.0
# LUT data points
0.025589587166905403 0.013863223604857922 0.0035263809841126204
0.063676588237285614 0.019116375595331192 0.0059419521130621433
0.10638503730297089 0.02278665266931057 0.0077326754108071327
0.15951886773109436 0.021600909531116486 0.0062052109278738499
0.22132013738155365 0.023691408336162567 0.0068421605974435806
0.30225089192390442 0.029309231787919998 0.010527756996452808
0.38845083117485046 0.032783776521682739 0.013705728575587273
0.4970366358757019 0.043233893811702728 0.019295966252684593
0.61556327342987061 0.054259028285741806 0.025943666696548462
0.72843176126480103 0.066497787833213806 0.031340163201093674
0.81594103574752808 0.088437788188457489 0.037926319986581802
0.88999384641647339 0.11054378002882004 0.04314156249165535
0.94899457693099976 0.12677536904811859 0.046401709318161011
0.047036308795213699 0.03936990350484848 0.0042581893503665924
0.080381937325000763 0.046546489000320435 0.0057393093593418598
0.11675385385751724 0.048339065164327621 0.0065313153900206089
0.16596758365631104 0.050894837826490402 0.0078281927853822708
0.23226185142993927 0.063264243304729462 0.01053275354206562
0.30789479613304138 0.069881215691566467 0.013247651048004627
0.39477783441543579 0.074953518807888031 0.016213661059737206
0.50212734937667847 0.087310418486595154 0.02103029191493988
0.62015819549560547 0.10262081772089005 0.025847401469945908
0.73348718881607056 0.118105448782444 0.030600573867559433
0.82101744413375854 0.1393459290266037 0.036173127591609955
0.89583641290664673 0.16645829379558563 0.039120767265558243
0.95758002996444702 0.19696569442749023 0.040523543953895569
0.069614246487617493 0.086643978953361511 0.0057410146109759808
0.093713007867336273 0.092224165797233582 0.0066338484175503254
0.12717296183109283 0.095176741480827332 0.0078118718229234219
0.17617928981781006 0.10036499798297882 0.010020087473094463
0.24248361587524414 0.11175427585840225 0.012953993864357471
0.31925821304321289 0.12179084867238998 0.01535619143396616
0.40475839376449585 0.12901873886585236 0.017556030303239822
0.51378411054611206 0.14576087892055511 0.022363446652889252
0.63200181722640991 0.16361403465270996 0.026671735569834709
0.74543112516403198 0.17984350025653839 0.029859699308872223
0.83045214414596558 0.20321200788021088 0.035115513950586319
0.90391123294830322 0.23126274347305298 0.036353945732116699
0.96481478214263916 0.26400738954544067 0.036231320351362228
0.099907517433166504 0.16361936926841736 0.0072624208405613899
0.11035051196813583 0.16547687351703644 0.0080325407907366753
0.13683858513832092 0.16792120039463043 0.0099175991490483284
0.18688380718231201 0.1743769645690918 0.012482781894505024
0.25605678558349609 0.18494187295436859 0.014679837971925735
0.33450701832771301 0.20257659256458282 0.017043918371200562
0.42191815376281738 0.21643993258476257 0.019212894141674042
0.5357663631439209 0.22812655568122864 0.023451801389455795
0.65559029579162598 0.24216412007808685 0.027816442772746086
0.75590139627456665 0.26343533396720886 0.031215982511639595
0.84134310483932495 0.28647318482398987 0.036006703972816467
0.91284072399139404 0.31267759203910828 0.035507559776306152
0.97414618730545044 0.33946537971496582 0.031911872327327728
0.10409161448478699 0.25402629375457764 0.0077593037858605385
0.11301460862159729 0.25692957639694214 0.0089302361011505127
0.13994845747947693 0.26164323091506958 0.011366765946149826
0.19543151557445526 0.26810380816459656 0.013992144726216793
0.27206230163574219 0.28007063269615173 0.01586945541203022
0.35135143995285034 0.29567065834999084 0.017102917656302452
0.44216936826705933 0.30939105153083801 0.01949240081012249
0.55913513898849487 0.32063236832618713 0.02373230829834938
0.67895996570587158 0.33311048150062561 0.027706176042556763
0.77409374713897705 0.35433009266853333 0.030259136110544205
0.85572969913482666 0.37589183449745178 0.032934706658124924
0.92595827579498291 0.39992386102676392 0.030363120138645172
0.97843211889266968 0.42038372159004211 0.026021920144557953
0.052668612450361252 0.36106905341148376 0.0080374926328659058
0.078096069395542145 0.36293286085128784 0.0086613819003105164
0.13372839987277985 0.36243245005607605 0.010588089004158974
0.20904833078384399 0.36487042903900146 0.014076936058700085
0.28937575221061707 0.37728893756866455 0.016450155526399612
0.37018117308616638 0.39108413457870483 0.017234189435839653
0.46656745672225952 0.40374499559402466 0.018936784937977791
0.58301061391830444 0.41871228814125061 0.023019364103674889
0.69993865489959717 0.43184766173362732 0.026162076741456985
0.79841244220733643 0.44990384578704834 0.027611317113041878
0.87216871976852417 0.46812093257904053 0.026804156601428986
0.93839609622955322 0.48446452617645264 0.023294515907764435
0.9824371337890625 0.49891185760498047 0.019549963995814323
0.045507155358791351 0.46548855304718018 0.007856062613427639
0.078452855348587036 0.46666198968887329 0.0089149624109268188
0.14618071913719177 0.4659087061882019 0.01172479335218668
0.22581808269023895 0.46675264835357666 0.013957139104604721
0.30647739768028259 0.47484356164932251 0.015799444168806076
0.39542052149772644 0.4868156909942627 0.017021672800183296
0.50264263153076172 0.49761399626731873 0.019498921930789948
0.61569654941558838 0.51234936714172363 0.02242807112634182
0.72605216503143311 0.52495765686035156 0.024434572085738182
0.81649136543273926 0.53733861446380615 0.024379415437579155
0.88503378629684448 0.55422043800354004 0.022230679169297218
0.94985336065292358 0.56622719764709473 0.018878517672419548
0.98618859052658081 0.57296973466873169 0.016037287190556526
0.061872519552707672 0.5625726580619812 0.0080580171197652817
0.094595588743686676 0.562308669090271 0.010262732394039631
0.16399091482162476 0.56056427955627441 0.012566913850605488
0.24625742435455322 0.56322181224822998 0.013914549723267555
0.32755982875823975 0.57059746980667114 0.014845545403659344
0.43188220262527466 0.57736217975616455 0.017569223418831825
0.54420578479766846 0.58607512712478638 0.021667301654815674
0.65373408794403076 0.59681934118270874 0.023566287010908127
0.75251924991607666 0.60486936569213867 0.022747727110981941
0.83153396844863892 0.61386466026306152 0.021543659269809723
0.89756637811660767 0.62692296504974365 0.018770374357700348
0.95827746391296387 0.63705289363861084 0.016141226515173912
0.98656386137008667 0.64059829711914062 0.014607627876102924
0.10859961062669754 0.6428254246711731 0.0095026353374123573
0.14908269047737122 0.64440786838531494 0.011588616296648979
0.21777792274951935 0.64220553636550903 0.013216833584010601
0.29115170240402222 0.64346635341644287 0.014151419512927532
0.37304285168647766 0.65005528926849365 0.015343595296144485
0.48481488227844238 0.65452271699905396 0.017685594037175179
0.59683996438980103 0.66268128156661987 0.021206829696893692
0.68713265657424927 0.66873985528945923 0.0216688122600317
0.77639561891555786 0.67416709661483765 0.020339487120509148
0.84831887483596802 0.68370002508163452 0.018610501661896706
0.91034966707229614 0.69194161891937256 0.016463082283735275
0.96623754501342773 0.6990044116973877 0.014151913113892078
0.98867803812026978 0.70221090316772461 0.013376692309975624
0.20089355111122131 0.71186679601669312 0.011490870267152786
0.23490539193153381 0.71373516321182251 0.01138254813849926
0.29008650779724121 0.71422708034515381 0.012712949886918068
0.36044669151306152 0.71489667892456055 0.012713099829852581
0.45282533764839172 0.71598446369171143 0.013974837027490139
0.55122750997543335 0.72368794679641724 0.015935605391860008
0.64588445425033569 0.73032653331756592 0.017188740894198418
0.72603994607925415 0.73351782560348511 0.01729278638958931
0.80490350723266602 0.73927617073059082 0.016508543863892555
0.86729961633682251 0.74535810947418213 0.014902675524353981
0.92489582300186157 0.75072199106216431 0.013330706395208836
0.97628694772720337 0.75590747594833374 0.011411091312766075
0.99342954158782959 0.75813436508178711 0.010772825218737125
0.32222375273704529 0.77333360910415649 0.010277901776134968
0.34852138161659241 0.77367979288101196 0.010493963025510311
0.39864280819892883 0.77265477180480957 0.010308239609003067
0.46053114533424377 0.77238184213638306 0.01006845198571682
0.54664164781570435 0.77591222524642944 0.011795971542596817
0.62741309404373169 0.78014296293258667 0.012018764391541481
0.69222897291183472 0.78261399269104004 0.012515678070485592
0.7675899863243103 0.7857743501663208 0.01260141097009182
0.83323651552200317 0.79044526815414429 0.011625222861766815
0.89076584577560425 0.79827481508255005 0.010400899685919285
0.94437509775161743 0.8036189079284668 0.0088145537301898003
0.98843294382095337 0.80800074338912964 0.0074238046072423458
0.99774682521820068 0.80807149410247803 0.0076110837981104851
0.46376216411590576 0.82092523574829102 0.0058802585117518902
0.48417899012565613 0.82141005992889404 0.0058777304366230965
0.52194249629974365 0.82268553972244263 0.0067001641727983952
0.56771153211593628 0.82443684339523315 0.0077764475718140602
0.63550102710723877 0.82536077499389648 0.0077739940024912357
0.69589406251907349 0.8249211311340332 0.006905529648065567
0.74579864740371704 0.82687646150588989 0.0074079623445868492
0.81006091833114624 0.83005708456039429 0.0080417413264513016
0.86722862720489502 0.83453583717346191 0.0067674526944756508
0.91817575693130493 0.84154820442199707 0.0049175187014043331
0.96082913875579834 0.84378719329833984 0.0043163225054740906
0.99268186092376709 0.84529316425323486 0.0041432399302721024
0.99939250946044922 0.84593921899795532 0.0047060498036444187
0.60172772407531738 0.86378943920135498 0.0017469518352299929
0.61425715684890747 0.86368882656097412 0.0018683040980249643
0.64028662443161011 0.86538070440292358 0.0022759232670068741
0.67073792219161987 0.86530381441116333 0.002623584121465683
0.71770727634429932 0.8659326434135437 0.0023370480630546808
0.7584841251373291 0.86511909961700439 0.0023284314665943384
0.8015630841255188 0.86771976947784424 0.002341356361284852
0.85519003868103027 0.87215328216552734 0.002675479045137763
0.89966326951980591 0.87236517667770386 0.0020048252772539854
0.94170016050338745 0.87340295314788818 0.0016230713808909059
0.98049342632293701 0.87606567144393921 0.0013550851726904511
0.99419301748275757 0.87583130598068237 0.0014587402110919356
0.998779296875 0.87691777944564819 0.0020604452583938837
0.024775546044111252 0.014061587862670422 0.0093576470389962196
0.062041472643613815 0.017642136663198471 0.010944755747914314
0.10155732184648514 0.019746264442801476 0.011512921191751957
0.15370394289493561 0.021780693903565407 0.013671904802322388
0.21667793393135071 0.026030596345663071 0.016237804666161537
0.29860469698905945 0.03192177414894104 0.02068665437400341
0.3885115385055542 0.037690915167331696 0.02553163468837738
0.5025559663772583 0.048768974840641022 0.031350154429674149
0.62183552980422974 0.058103226125240326 0.03681429848074913
0.7302476167678833 0.070278927683830261 0.041157230734825134
0.81813859939575195 0.087763965129852295 0.044235125184059143
0.8903924822807312 0.11238513886928558 0.044623956084251404
0.94819563627243042 0.13226014375686646 0.046875029802322388
0.04225756973028183 0.042348749935626984 0.010782952420413494
0.075447037816047668 0.050868809223175049 0.012988176196813583
0.11220724135637283 0.055181391537189484 0.014315122738480568
0.16065384447574615 0.055243026465177536 0.016111500561237335
0.22582674026489258 0.062521837651729584 0.019211951643228531
0.30651745200157166 0.072636395692825317 0.024091489613056183
0.39542096853256226 0.080805443227291107 0.02894267626106739
0.50546276569366455 0.092559009790420532 0.034118726849555969
0.62272161245346069 0.10651285201311111 0.03870537132024765
0.7336575984954834 0.12220688164234161 0.04314301535487175
0.81908565759658813 0.14539821445941925 0.044954679906368256
0.89293885231018066 0.17590977251529694 0.043264351785182953
0.95509833097457886 0.20218645036220551 0.042539827525615692
0.068533912301063538 0.092508487403392792 0.014386719092726707
0.089838825166225433 0.096466824412345886 0.014845799654722214
0.12247079610824585 0.099422991275787354 0.015883097425103188
0.1707204133272171 0.10601527243852615 0.018790749832987785
0.23681832849979401 0.11527588963508606 0.021946655586361885
0.31768840551376343 0.12758365273475647 0.026523830369114876
0.40486571192741394 0.13691551983356476 0.030928771942853928
0.51487404108047485 0.15136654675006866 0.035486228764057159
0.63153409957885742 0.16876822710037231 0.040126021951436996
0.74255621433258057 0.18617001175880432 0.043520640581846237
0.82705426216125488 0.21065934002399445 0.044051811099052429
0.90078842639923096 0.24124956130981445 0.040955115109682083
0.9638974666595459 0.26969534158706665 0.037788257002830505
0.090962998569011688 0.16609063744544983 0.016561441123485565
0.10403934866189957 0.1728329062461853 0.016455646604299545
0.13154236972332001 0.17742155492305756 0.01913890428841114
0.18217749893665314 0.18582732975482941 0.023597313091158867
0.25168904662132263 0.195588618516922 0.025876827538013458
0.33071881532669067 0.20650246739387512 0.027398725971579552
0.42051929235458374 0.21761678159236908 0.030249785631895065
0.5349305272102356 0.23225206136703491 0.035656709223985672
0.65322673320770264 0.24980649352073669 0.040926016867160797
0.75706237554550171 0.26857298612594604 0.0434761643409729
0.8454742431640625 0.28782829642295837 0.042292382568120956
0.91507631540298462 0.31584373116493225 0.038343947380781174
0.97350192070007324 0.34375986456871033 0.033068966120481491
0.097380541265010834 0.26035940647125244 0.016498476266860962
0.10675884783267975 0.26195505261421204 0.016312647610902786
0.13059137761592865 0.27041751146316528 0.020929388701915741
0.18864698708057404 0.27542322874069214 0.026461374014616013
0.26517611742019653 0.28497809171676636 0.028393972665071487
0.34642547369003296 0.2952168881893158 0.028495773673057556
0.44072467088699341 0.30707666277885437 0.030156079679727554
0.55795300006866455 0.3226761519908905 0.035624127835035324
0.67654520273208618 0.33952438831329346 0.040740307420492172
0.77637380361557007 0.35903176665306091 0.042138881981372833
0.8588908314704895 0.37708470225334167 0.040574781596660614
0.9281654953956604 0.40244093537330627 0.034575503319501877
0.97946548461914062 0.42311275005340576 0.028232574462890625
0.043414216488599777 0.36696022748947144 0.014431972056627274
0.067133508622646332 0.36814609169960022 0.015551877208054066
0.12024169415235519 0.3707166314125061 0.020075060427188873
0.19831933081150055 0.37434175610542297 0.025395097211003304
0.28244724869728088 0.38364437222480774 0.028480499982833862
0.36755210161209106 0.39574003219604492 0.029268436133861542
0.46776929497718811 0.40811914205551147 0.03216799721121788
0.5833861231803894 0.42047321796417236 0.036647528409957886
0.69874119758605957 0.4354701042175293 0.040485426783561707
0.79587799310684204 0.453652024269104 0.041164129972457886
0.87092715501785278 0.47131079435348511 0.038979038596153259
0.93679296970367432 0.4910968542098999 0.033439036458730698
0.97956180572509766 0.50371766090393066 0.026907244697213173
0.035928148776292801 0.47012341022491455 0.014305743388831615
0.064716935157775879 0.47128206491470337 0.016063196584582329
0.12911774218082428 0.47357439994812012 0.020076392218470573
0.21399594843387604 0.47545981407165527 0.023785669356584549
0.30175560712814331 0.48039934039115906 0.026037612929940224
0.39227420091629028 0.49136567115783691 0.026754371821880341
0.49964535236358643 0.50368201732635498 0.030951136723160744
0.61569046974182129 0.51554000377655029 0.036055382341146469
0.72317808866500854 0.52846473455429077 0.03882305696606636
0.81383335590362549 0.54380655288696289 0.038572844117879868
0.88241368532180786 0.55887234210968018 0.035524822771549225
0.94510060548782349 0.57119876146316528 0.030623491853475571
0.98209899663925171 0.57987159490585327 0.025448234751820564
0.049526873975992203 0.56568437814712524 0.015210933052003384
0.084588415920734406 0.56637990474700928 0.017584752291440964
0.15358933806419373 0.56724107265472412 0.020778356119990349
0.23695825040340424 0.57064414024353027 0.023322116583585739
0.3240264356136322 0.57438409328460693 0.024263883009552956
0.42311251163482666 0.58145403861999512 0.023444920778274536
0.54116970300674438 0.59073042869567871 0.028429832309484482
0.65451240539550781 0.60094046592712402 0.032327570021152496
0.74882423877716064 0.61112922430038452 0.034472327679395676
0.82905995845794678 0.62198936939239502 0.034151595085859299
0.89322954416275024 0.63297957181930542 0.029000973328948021
0.95393878221511841 0.64292120933532715 0.024729005992412567
0.98417562246322632 0.64792650938034058 0.02259775809943676
0.096666790544986725 0.64597576856613159 0.017151776701211929
0.13424617052078247 0.64772206544876099 0.02089131623506546
0.1998213529586792 0.6457410454750061 0.023665603250265121
0.27967554330825806 0.64967215061187744 0.024680223315954208
0.36717242002487183 0.65393859148025513 0.025840640068054199
0.48130893707275391 0.65799421072006226 0.025604084134101868
0.59260332584381104 0.6676599383354187 0.027981163933873177
0.68521380424499512 0.67453187704086304 0.02897319383919239
0.77278107404708862 0.68024033308029175 0.030048161745071411
0.84638792276382446 0.69008344411849976 0.029091779142618179
0.90763896703720093 0.6987299919128418 0.024761393666267395
0.96356230974197388 0.70557665824890137 0.021520622074604034
0.9873543381690979 0.70885992050170898 0.020363213494420052
0.18526637554168701 0.71382617950439453 0.020301938056945801
0.22210472822189331 0.71708005666732788 0.025134770199656487
0.28013685345649719 0.71696645021438599 0.025267671793699265
0.35928100347518921 0.71761196851730347 0.02403685636818409
0.44880098104476929 0.72007417678833008 0.024035509675741196
0.54712867736816406 0.72689604759216309 0.025991806760430336
0.64244568347930908 0.73258137702941895 0.025943143293261528
0.72233229875564575 0.73662096261978149 0.024987060576677322
0.80072051286697388 0.74222087860107422 0.024652458727359772
0.86643749475479126 0.74977028369903564 0.022676654160022736
0.92397081851959229 0.75514936447143555 0.020159045234322548
0.97451144456863403 0.75994277000427246 0.017750684171915054
0.99253040552139282 0.76269036531448364 0.016786927357316017
0.31264889240264893 0.7738879919052124 0.019327022135257721
0.33734962344169617 0.77714377641677856 0.024815233424305916
0.38958501815795898 0.777637779712677 0.022837426513433456
0.45939192175865173 0.77697396278381348 0.019062191247940063
0.54386687278747559 0.78002101182937622 0.019069178029894829
0.62082886695861816 0.78430503606796265 0.021160095930099487
0.6900097131729126 0.78731268644332886 0.021818468347191811
0.76482945680618286 0.78978317975997925 0.020279468968510628
0.83082443475723267 0.79318201541900635 0.018534835427999496
0.8874097466468811 0.8000761866569519 0.017380299046635628
0.9420933723449707 0.80483603477478027 0.015180938877165318
0.98448234796524048 0.80824536085128784 0.01335118617862463
0.99599236249923706 0.80970126390457153 0.012841063551604748
0.4557834267616272 0.82350492477416992 0.012060516513884068
0.47527691721916199 0.82527118921279907 0.013998203910887241
0.51519769430160522 0.82785207033157349 0.013901564292609692
0.56772387027740479 0.83256882429122925 0.012053605169057846
0.62836146354675293 0.83202296495437622 0.011765618808567524
0.6901857852935791 0.82967406511306763 0.011974230408668518
0.74385619163513184 0.83142673969268799 0.012647202238440514
0.80850827693939209 0.83392995595932007 0.012237070128321648
0.86523592472076416 0.83608794212341309 0.010651681572198868
0.91506165266036987 0.84171605110168457 0.0090782316401600838
0.95967632532119751 0.84402912855148315 0.0077365054748952389
0.99165874719619751 0.84644252061843872 0.0073274797759950161
0.99659746885299683 0.8485950231552124 0.008729119785130024
0.59452539682388306 0.86654925346374512 0.0036731944419443607
0.60857981443405151 0.86640965938568115 0.0039354809559881687
0.63644325733184814 0.8680533766746521 0.0040720324032008648
0.66776865720748901 0.86911475658416748 0.004217095673084259
0.71367871761322021 0.86898916959762573 0.0034442378673702478
0.75594085454940796 0.86778688430786133 0.0026720382738858461
0.79833167791366577 0.86987447738647461 0.0029103746637701988
0.85014384984970093 0.87273907661437988 0.0038570628967136145
0.89820975065231323 0.87322372198104858 0.0029352374840527773
0.94166797399520874 0.8750120997428894 0.002325903158634901
0.97914332151412964 0.87643188238143921 0.0021691564470529556
0.99637734889984131 0.87749582529067993 0.0028152316808700562
0.99951863288879395 0.87872469425201416 0.0047336653806269169
0.023447463288903236 0.016097648069262505 0.022201927378773689
0.058943174779415131 0.021988512948155403 0.026124393567442894
0.097467176616191864 0.024438550695776939 0.028367269784212112
0.14872339367866516 0.025829330086708069 0.029619911685585976
0.21308352053165436 0.028260070830583572 0.031026503071188927
0.29571771621704102 0.033763032406568527 0.035062797367572784
0.38440918922424316 0.039643708616495132 0.039457626640796661
0.50197535753250122 0.05411079153418541 0.04687906801700592
0.62201070785522461 0.064459875226020813 0.053310483694076538
0.72994488477706909 0.07597312331199646 0.057388816028833389
0.8157888650894165 0.094863981008529663 0.05826384574174881
0.88764268159866333 0.1155019998550415 0.05450732633471489
0.95152378082275391 0.13695569336414337 0.050192501395940781
0.040132500231266022 0.047837860882282257 0.025435458868741989
0.070619247853755951 0.056590121239423752 0.028095724061131477
0.10704926401376724 0.061221327632665634 0.031081419438123703
0.15528099238872528 0.060489639639854431 0.031958114355802536
0.22336295247077942 0.065856009721755981 0.034499779343605042
0.30747485160827637 0.076990716159343719 0.039467141032218933
0.3952939510345459 0.085482142865657806 0.043971311300992966
0.5075002908706665 0.098402880132198334 0.049967791885137558
0.62605446577072144 0.11331047862768173 0.055571969598531723
0.73572844266891479 0.12748958170413971 0.058296039700508118
0.81657904386520386 0.15188467502593994 0.057290304452180862
0.88946735858917236 0.18052209913730621 0.052337046712636948
0.95461112260818481 0.20636144280433655 0.04696299135684967
0.064380079507827759 0.097045794129371643 0.028867892920970917
0.085646927356719971 0.10090110450983047 0.029469763860106468
0.1162964329123497 0.1034587025642395 0.031334478408098221
0.16378310322761536 0.11029978841543198 0.034222081303596497
0.23227247595787048 0.12145620584487915 0.038767438381910324
0.31662711501121521 0.13382689654827118 0.043163388967514038
0.40346500277519226 0.14046883583068848 0.047137554734945297
0.51675200462341309 0.15706837177276611 0.052492581307888031
0.63720512390136719 0.17591108381748199 0.057485334575176239
0.74627554416656494 0.19253271818161011 0.059955328702926636
0.8254544734954834 0.21896162629127502 0.057208597660064697
0.8978467583656311 0.24870014190673828 0.050677087157964706
0.96505570411682129 0.27504685521125793 0.042855042964220047
0.087267965078353882 0.17210370302200317 0.033856920897960663
0.10388095676898956 0.1756049245595932 0.031186467036604881
0.12574535608291626 0.18087880313396454 0.033924087882041931
0.17585109174251556 0.19172747433185577 0.038798268884420395
0.24579146504402161 0.20333781838417053 0.042989678680896759
0.32706254720687866 0.21308174729347229 0.044919285923242569
0.42039266228675842 0.22356200218200684 0.048383690416812897
0.53701972961425781 0.24050480127334595 0.054487414658069611
0.65684014558792114 0.25697723031044006 0.059135600924491882
0.76012474298477173 0.27441763877868652 0.06088460236787796
0.84300559759140015 0.29556310176849365 0.059440150856971741
0.9130321741104126 0.32241189479827881 0.05151081457734108
