luts/negative_color/kodak_elite_color_400.cube
# Created by: G'MIC (https://gmic.eu)
TITLE "kodak_elite_color_400"
# LUT size
LUT_3D_SIZE 5
# Data domain
DOMAIN_MIN 0.0 0.0 0.0
DOMAIN_MAX 1.0 1.0 1.0
# LUT data points
0.025567792356014252 0.019535213708877563 0.018423611298203468
0.17814649641513824 0.011569318361580372 0.023982074111700058
0.38060876727104187 0.0017913818592205644 0.019691871479153633
0.63640373945236206 2.1003274014219642e-05 0.018885159865021706
0.89037454128265381 0.0039215688593685627 0.0063668643124401569
0.12707619369029999 0.20030181109905243 0.066751725971698761
0.24474939703941345 0.17855995893478394 0.066339097917079926
0.43821775913238525 0.12375944852828979 0.063858345150947571
0.67908722162246704 0.034939814358949661 0.05039665475487709
0.90723413228988647 0.0037191202864050865 0.023419862613081932
0.23508104681968689 0.4345380961894989 0.10768917202949524
0.34021779894828796 0.41485550999641418 0.10613167285919189
0.52609491348266602 0.37655460834503174 0.10633651167154312
0.74181234836578369 0.31630003452301025 0.093465588986873627
0.95094633102416992 0.12878404557704926 0.049777984619140625
0.41999462246894836 0.69505369663238525 0.10945504903793335
0.48646998405456543 0.68598169088363647 0.10734254121780396
0.62868207693099976 0.67558002471923828 0.10642294585704803
0.80290871858596802 0.63337421417236328 0.096053943037986755
0.97973287105560303 0.54841387271881104 0.061041347682476044
0.67102831602096558 0.932228684425354 0.036932822316884995
0.70285779237747192 0.93255615234375 0.0288848876953125
0.77119344472885132 0.92767059803009033 0.016554513946175575
0.88017261028289795 0.91839444637298584 0.0049802442081272602
0.9949946403503418 0.89243847131729126 0.010760004632174969
0.013244493864476681 0.039100751280784607 0.16436952352523804
0.14287333190441132 0.025091612711548805 0.16511768102645874
0.36086255311965942 0.0097153754904866219 0.1610223799943924
0.63180780410766602 0.0039163175970315933 0.14871217310428619
0.88890242576599121 0.00072362564969807863 0.095338307321071625
0.095235176384449005 0.22542391717433929 0.19996917247772217
0.2087530791759491 0.20227949321269989 0.20408225059509277
0.42039862275123596 0.15212205052375793 0.20599991083145142
0.66957545280456543 0.059854276478290558 0.19248966872692108
0.90423917770385742 0.00033760818769223988 0.15091599524021149
0.17393024265766144 0.45181924104690552 0.23676411807537079
0.29550975561141968 0.44324013590812683 0.24040617048740387
0.49695751070976257 0.40309968590736389 0.2370021641254425
0.72984796762466431 0.33325213193893433 0.22629858553409576
0.94586503505706787 0.15503737330436707 0.19385018944740295
0.37684786319732666 0.69811457395553589 0.2673109769821167
0.45898017287254333 0.70035719871520996 0.26215657591819763
0.61098599433898926 0.67825162410736084 0.25960290431976318
0.78298228979110718 0.64642149209976196 0.24766099452972412
0.97198152542114258 0.55640161037445068 0.20506641268730164
0.65534615516662598 0.93583387136459351 0.27004560828208923
0.6903071403503418 0.93365758657455444 0.26519027352333069
0.76283913850784302 0.9327317476272583 0.25473594665527344
0.87022703886032104 0.92235285043716431 0.22881931066513062
0.99536579847335815 0.89606320858001709 0.13329271972179413
0.0021879009436815977 0.073042578995227814 0.33169341087341309
0.096384413540363312 0.04937560111284256 0.33587542176246643
0.33134651184082031 0.02013295516371727 0.34390440583229065
0.61739641427993774 0.0069350148551166058 0.35058188438415527
0.88314449787139893 0 0.29858013987541199
0.041888128966093063 0.2625935971736908 0.38373959064483643
0.138076052069664 0.2452981024980545 0.39355954527854919
0.37365531921386719 0.19672982394695282 0.39526075124740601
0.64876782894134521 0.10502741485834122 0.39169701933860779
0.89785856008529663 0.0032952551264315844 0.36853063106536865
0.03217276930809021 0.48294103145599365 0.4361819326877594
0.18293589353561401 0.47338598966598511 0.44290757179260254
0.44070559740066528 0.43537232279777527 0.44813644886016846
0.70167416334152222 0.3737226128578186 0.44179370999336243
0.9338567852973938 0.20592796802520752 0.42815068364143372
0.28589543700218201 0.71992367506027222 0.48969101905822754
0.38415122032165527 0.71422356367111206 0.48939061164855957
0.56368577480316162 0.7030256986618042 0.48783299326896667
0.75819826126098633 0.66942739486694336 0.49013316631317139
0.96375095844268799 0.58781403303146362 0.46881088614463806
0.6213386058807373 0.94158333539962769 0.52171200513839722
0.65834683179855347 0.94005268812179565 0.52145093679428101
0.73734802007675171 0.93843072652816772 0.5182000994682312
0.85348701477050781 0.93113535642623901 0.50854557752609253
0.99022567272186279 0.90883970260620117 0.47361186146736145
4.0390910726273432e-05 0.14183597266674042 0.53612804412841797
0.026168104261159897 0.11390913277864456 0.54492056369781494
0.26688751578330994 0.0616036057472229 0.55250543355941772
0.58145225048065186 0.011646240949630737 0.56376367807388306
0.86748993396759033 6.4625460254319478e-06 0.54670494794845581
0.0060003991238772869 0.32579642534255981 0.59270751476287842
0.02922750823199749 0.30773633718490601 0.59753042459487915
0.27844524383544922 0.26774579286575317 0.60637754201889038
0.59475469589233398 0.1764732301235199 0.61423313617706299
0.88098829984664917 0.013385922648012638 0.61567258834838867
0.0033877652604132891 0.5375978946685791 0.64199131727218628
0.010303063318133354 0.52664119005203247 0.65006941556930542
0.32896813750267029 0.49936848878860474 0.65696209669113159
0.64664113521575928 0.44218099117279053 0.66509610414505005
0.9114682674407959 0.28831908106803894 0.66811501979827881
0.052837897092103958 0.74882400035858154 0.69868075847625732
0.20516392588615417 0.74609720706939697 0.7006305456161499
0.47391435503959656 0.73350673913955688 0.70441389083862305
0.7114139199256897 0.70754945278167725 0.71163374185562134
0.93733048439025879 0.63418751955032349 0.70535957813262939
0.56256401538848877 0.95256078243255615 0.73991554975509644
0.6050335168838501 0.95339971780776978 0.74135488271713257
0.69748449325561523 0.95268994569778442 0.74472546577453613
0.82336717844009399 0.94558829069137573 0.74426418542861938
0.97850757837295532 0.92469906806945801 0.73443758487701416
0 0.24800975620746613 0.72528237104415894
0.00042195038986392319 0.21792535483837128 0.7329704761505127
0.13760019838809967 0.17003011703491211 0.7462126612663269
0.51560455560684204 0.068828389048576355 0.76023852825164795
0.83635467290878296 0.002568802097812295 0.77274376153945923
0 0.41125160455703735 0.76595467329025269
0.0018385493895038962 0.39905852079391479 0.7723851203918457
0.06061636283993721 0.36798617243766785 0.78814917802810669
0.51035189628601074 0.29033228754997253 0.79974770545959473
0.85088306665420532 0.10061367601156235 0.81816625595092773
0 0.59601849317550659 0.81282639503479004
4.0390910726273432e-05 0.59565389156341553 0.81859105825424194
0.044379618018865585 0.57837396860122681 0.83344161510467529
0.54044532775878906 0.53273940086364746 0.844399094581604
0.8659859299659729 0.41783851385116577 0.85801452398300171
0.0005561379948630929 0.7842029333114624 0.86497753858566284
0.0027400446124374866 0.78406018018722534 0.87080377340316772
0.21065427362918854 0.78021186590194702 0.8822517991065979
0.60802280902862549 0.76243144273757935 0.89185833930969238
0.89390814304351807 0.70430731773376465 0.90138775110244751
0.36541548371315002 0.96864444017410278 0.92854124307632446
0.4417327344417572 0.96815407276153564 0.93056923151016235
0.58406293392181396 0.96628201007843018 0.93441653251647949
0.75256609916687012 0.96573883295059204 0.94255059957504272
0.95404130220413208 0.95217955112457275 0.95012998580932617
