luts/negative_color/kodak_ektar_100.cube
# Created by: G'MIC (https://gmic.eu)
TITLE "kodak_ektar_100"
# LUT size
LUT_3D_SIZE 5
# Data domain
DOMAIN_MIN 0.0 0.0 0.0
DOMAIN_MAX 1.0 1.0 1.0
# LUT data points
0.047844380140304565 0.037764202803373337 0.035041570663452148
0.27301618456840515 0.051246464252471924 0.031261637806892395
0.53782320022583008 0.065045721828937531 0.02487945556640625
0.81814265251159668 0.081766344606876373 0.015232429839670658
0.99903988838195801 0.10034430772066116 0.0063825869001448154
0.092657677829265594 0.21979472041130066 0.10610994696617126
0.23191361129283905 0.22980025410652161 0.10236433148384094
0.50521302223205566 0.24637824296951294 0.091629952192306519
0.77061003446578979 0.25345492362976074 0.072487145662307739
0.99004745483398438 0.21817792952060699 0.046038221567869186
0.00094493792857974768 0.43856078386306763 0.16678535938262939
0.13292957842350006 0.45283526182174683 0.16024015843868256
0.45745867490768433 0.4700377881526947 0.14649495482444763
0.69864273071289062 0.47885167598724365 0.13357460498809814
0.92811596393585205 0.4581952691078186 0.11309066414833069
0.0045529534108936787 0.64594066143035889 0.2163044810295105
0.16891632974147797 0.65076559782028198 0.21200764179229736
0.41875866055488586 0.66093152761459351 0.20421674847602844
0.63779181241989136 0.67350226640701294 0.18528956174850464
0.84427410364151001 0.67894405126571655 0.15437299013137817
0.097284175455570221 0.8226088285446167 0.29200392961502075
0.22397628426551819 0.83006811141967773 0.29111671447753906
0.41930210590362549 0.8395429253578186 0.28548327088356018
0.59414124488830566 0.85417848825454712 0.27420690655708313
0.80987858772277832 0.86773967742919922 0.23652626574039459
0.059291988611221313 0.050523646175861359 0.20190222561359406
0.29424670338630676 0.060683663934469223 0.1944391131401062
0.55911493301391602 0.079910531640052795 0.18087488412857056
0.8388441801071167 0.090703137218952179 0.16100774705410004
0.997691810131073 0.10497819632291794 0.13597449660301208
0.10423091799020767 0.23695306479930878 0.24775858223438263
0.24426622688770294 0.24635465443134308 0.24519117176532745
0.51706689596176147 0.25957641005516052 0.23054401576519012
0.7880827784538269 0.26160648465156555 0.21499805152416229
0.99251061677932739 0.23085525631904602 0.19206231832504272
0.003907566424459219 0.4522627592086792 0.29381433129310608
0.14827141165733337 0.46212053298950195 0.29261192679405212
0.46898293495178223 0.48009940981864929 0.27975577116012573
0.71564000844955444 0.48468902707099915 0.26416850090026855
0.94270575046539307 0.46295469999313354 0.24580433964729309
0.026570413261651993 0.64934700727462769 0.36007922887802124
0.20597168803215027 0.65332353115081787 0.3590276837348938
0.44215112924575806 0.66842502355575562 0.35173603892326355
0.65549236536026001 0.67476534843444824 0.34294834733009338
0.86195832490921021 0.68407821655273438 0.31884422898292542
0.15608085691928864 0.82896655797958374 0.43678751587867737
0.26582074165344238 0.83505368232727051 0.4366467297077179
0.44204592704772949 0.8477512001991272 0.4336492121219635
0.61900460720062256 0.85839271545410156 0.424753338098526
0.83199763298034668 0.87358444929122925 0.40208914875984192
0.068043231964111328 0.063540756702423096 0.37546736001968384
0.2998332679271698 0.081666938960552216 0.37195122241973877
0.58292561769485474 0.098686844110488892 0.3626408576965332
0.86387330293655396 0.10313467681407928 0.349162757396698
0.99998599290847778 0.10219015926122665 0.33170750737190247
0.10939823091030121 0.25092759728431702 0.44068124890327454
0.25285637378692627 0.26145914196968079 0.43801292777061462
0.54574096202850342 0.28109422326087952 0.43377825617790222
0.81149864196777344 0.28195753693580627 0.4178311824798584
0.9965938925743103 0.24912276864051819 0.40646898746490479
0.01965230330824852 0.46281284093856812 0.50435209274291992
0.17740857601165771 0.47489559650421143 0.50283586978912354
0.49282756447792053 0.48673233389854431 0.48805192112922668
0.73436516523361206 0.49967983365058899 0.48141118884086609
0.96224534511566162 0.48801085352897644 0.47136405110359192
0.057279355823993683 0.65743154287338257 0.55411678552627563
0.24308183789253235 0.66448748111724854 0.54771560430526733
0.47318211197853088 0.67666244506835938 0.54411810636520386
0.69030129909515381 0.68368971347808838 0.53845471143722534
0.89065802097320557 0.69380015134811401 0.5261920690536499
0.19627740979194641 0.84099322557449341 0.59575933218002319
0.29972583055496216 0.84406620264053345 0.59570580720901489
0.46729815006256104 0.85665547847747803 0.58910548686981201
0.63817501068115234 0.86839693784713745 0.58668023347854614
0.86140149831771851 0.88522201776504517 0.57025748491287231
0.072514645755290985 0.092210032045841217 0.58096909523010254
0.29990935325622559 0.10939962416887283 0.57477551698684692
0.5916627049446106 0.12526483833789825 0.56689918041229248
0.88297003507614136 0.12700976431369781 0.55571961402893066
0.99969589710235596 0.10907799005508423 0.54630595445632935
0.097307182848453522 0.27276793122291565 0.62788689136505127
0.24622580409049988 0.28109705448150635 0.62108498811721802
0.551006019115448 0.29919818043708801 0.61443436145782471
0.82087785005569458 0.30447795987129211 0.60187160968780518
0.99472212791442871 0.2744864821434021 0.59386754035949707
0.0047292523086071014 0.47910651564598083 0.67402315139770508
0.15873329341411591 0.49158036708831787 0.66991293430328369
0.49496740102767944 0.50833773612976074 0.66121375560760498
0.74649196863174438 0.52328413724899292 0.65289938449859619
0.97269982099533081 0.51086461544036865 0.64716345071792603
0.060648556798696518 0.66630685329437256 0.71629112958908081
0.25761899352073669 0.67289465665817261 0.7122032642364502
0.48523309826850891 0.68592715263366699 0.70553129911422729
0.70599126815795898 0.69977265596389771 0.70033931732177734
0.91590273380279541 0.70261943340301514 0.69410216808319092
0.22040556371212006 0.84930777549743652 0.75148367881774902
0.31845232844352722 0.85241997241973877 0.75159251689910889
0.48467499017715454 0.8660578727722168 0.74691319465637207
0.65860259532928467 0.87931960821151733 0.74454033374786377
0.89153009653091431 0.89381074905395508 0.73318910598754883
0.054058987647294998 0.13011936843395233 0.74665075540542603
0.28087487816810608 0.14673148095607758 0.74095815420150757
0.58493530750274658 0.16742084920406342 0.73118668794631958
0.88597005605697632 0.17219027876853943 0.72128719091415405
1 0.13694345951080322 0.71222889423370361
0.050900790840387344 0.30459055304527283 0.78457045555114746
0.19855163991451263 0.3199775218963623 0.78176319599151611
0.53241086006164551 0.33786475658416748 0.7721933126449585
0.82261025905609131 0.34614372253417969 0.76032465696334839
0.99764329195022583 0.32094565033912659 0.75206571817398071
0.00053489534184336662 0.49921143054962158 0.82078015804290771
0.07129281759262085 0.50928705930709839 0.81848394870758057
0.47948268055915833 0.53081214427947998 0.80841076374053955
0.74662560224533081 0.54672062397003174 0.79989385604858398
0.97470766305923462 0.5428958535194397 0.79192650318145752
0.010370351374149323 0.67678511142730713 0.85510653257369995
0.20424436032772064 0.68551480770111084 0.85364103317260742
0.47071760892868042 0.70343148708343506 0.84940445423126221
0.70036929845809937 0.71902823448181152 0.84488135576248169
0.92498940229415894 0.72522544860839844 0.83771604299545288
0.17750117182731628 0.86515069007873535 0.91133278608322144
0.29018872976303101 0.86653178930282593 0.91057884693145752
0.47563251852989197 0.88419348001480103 0.91383552551269531
0.6620214581489563 0.89779883623123169 0.91345512866973877
0.91410410404205322 0.91574269533157349 0.91181397438049316
