luts/negative_color/kodak_elite_color_400.cube
# Created by: G'MIC (https://gmic.eu)
TITLE "kodak_elite_color_400"
# LUT size
LUT_3D_SIZE 7
# Data domain
DOMAIN_MIN 0.0 0.0 0.0
DOMAIN_MAX 1.0 1.0 1.0
# LUT data points
0.025567792356014252 0.019535213708877563 0.018423611298203468
0.11910838633775711 0.015367156825959682 0.022366572171449661
0.23894990980625153 0.0077474857680499554 0.024227231740951538
0.38060876727104187 0.0017913818592205644 0.019691871479153633
0.54906225204467773 0.00085969810606911778 0.02155672013759613
0.72433364391326904 9.298885561292991e-05 0.014206022024154663
0.89037454128265381 0.0039215688593685627 0.0063668643124401569
0.093534447252750397 0.13175205886363983 0.047122206538915634
0.16861006617546082 0.11956615000963211 0.048864897340536118
0.27924910187721252 0.093765661120414734 0.048952095210552216
0.41887721419334412 0.05780772864818573 0.047126170247793198
0.57779192924499512 0.017720615491271019 0.041898451745510101
0.74551147222518921 0.0031664830166846514 0.029186248779296875
0.90311557054519653 0.0038678934797644615 0.013649794273078442
0.15519827604293823 0.26764968037605286 0.083275981247425079
0.21694570779800415 0.25969979166984558 0.083435907959938049
0.32757976651191711 0.23903168737888336 0.083991780877113342
0.4619503915309906 0.20449537038803101 0.079797334969043732
0.6198161244392395 0.14067105948925018 0.071870408952236176
0.77427476644515991 0.06197642907500267 0.056098982691764832
0.91819626092910767 0.0047228946350514889 0.03038228303194046
0.23508104681968689 0.4345380961894989 0.10768917202949524
0.29285064339637756 0.42387396097183228 0.10409481823444366
0.39692249894142151 0.40479689836502075 0.10982154309749603
0.52609491348266602 0.37655460834503174 0.10633651167154312
0.66837799549102783 0.34393766522407532 0.098595865070819855
0.81310039758682251 0.27309316396713257 0.084333024919033051
0.95094633102416992 0.12878404557704926 0.049777984619140625
0.35583502054214478 0.613658607006073 0.11422039568424225
0.38904425501823425 0.60597497224807739 0.11381391435861588
0.48002606630325317 0.59463977813720703 0.11688766628503799
0.59253495931625366 0.57820218801498413 0.11365336924791336
0.7149202823638916 0.55538046360015869 0.10738923400640488
0.84683996438980103 0.50739443302154541 0.095025859773159027
0.9741356372833252 0.40965515375137329 0.063381090760231018
0.49926906824111938 0.7716444730758667 0.091226764023303986
0.52590680122375488 0.76890617609024048 0.096906878054141998
0.59310245513916016 0.76698124408721924 0.090847164392471313
0.6723969578742981 0.76098734140396118 0.08631056547164917
0.77082562446594238 0.74705058336257935 0.085413269698619843
0.88004571199417114 0.72152417898178101 0.076792143285274506
0.98778361082077026 0.6698603630065918 0.050194907933473587
0.67102831602096558 0.932228684425354 0.036932822316884995
0.68801969289779663 0.93273389339447021 0.030847750604152679
0.72085767984390259 0.9311063289642334 0.026194090023636818
0.77119344472885132 0.92767059803009033 0.016554513946175575
0.8404192328453064 0.92240512371063232 0.0073690228164196014
0.92325341701507568 0.91372436285018921 0.0057083875872194767
0.9949946403503418 0.89243847131729126 0.010760004632174969
0.015880899503827095 0.031765386462211609 0.11141502857208252
0.093439452350139618 0.024632008746266365 0.11171821504831314
0.22172290086746216 0.014356246218085289 0.11275807023048401
0.36865842342376709 0.0079048005864024162 0.10971786081790924
0.54405587911605835 0.0015332240145653486 0.104752317070961
0.71973979473114014 0.0039126225747168064 0.087556861340999603
0.89152485132217407 0.0035147273447364569 0.047007840126752853
0.079072557389736176 0.15046094357967377 0.13790395855903625
0.14396774768829346 0.13644815981388092 0.13617026805877686
0.26423954963684082 0.11261909455060959 0.13959258794784546
0.41048592329025269 0.074888922274112701 0.13888759911060333
0.57280617952346802 0.026270698755979538 0.13042627274990082
0.74135094881057739 0.010058892890810966 0.11478187888860703
0.90114712715148926 0.0016106250695884228 0.074183337390422821
0.12549099326133728 0.28207451105117798 0.16211488842964172
0.19153332710266113 0.27287861704826355 0.16019244492053986
0.31114870309829712 0.2566562294960022 0.16367992758750916
0.45441007614135742 0.21968613564968109 0.16342037916183472
0.61471831798553467 0.16408732533454895 0.15411905944347382
0.77399736642837524 0.077605441212654114 0.13842637836933136
0.91900444030761719 0.0034688911400735378 0.10471422970294952
0.20061756670475006 0.44424742460250854 0.17797921597957611
0.26886752247810364 0.4414050281047821 0.17978490889072418
0.37385234236717224 0.42592248320579529 0.1804681271314621
0.51010018587112427 0.39273795485496521 0.17945702373981476
0.65901589393615723 0.35052847862243652 0.172796830534935
0.80772936344146729 0.28915202617645264 0.16214542090892792
0.94632768630981445 0.14541588723659515 0.13140612840652466
0.32485529780387878 0.61652982234954834 0.19198212027549744
0.37127149105072021 0.61735236644744873 0.19194793701171875
0.46130168437957764 0.60806447267532349 0.19136950373649597
0.57509022951126099 0.58651542663574219 0.18679074943065643
0.7044142484664917 0.55894845724105835 0.1770252138376236
0.83824986219406128 0.50898998975753784 0.16518318653106689
0.96957135200500488 0.41982105374336243 0.13966654241085052
0.48285225033760071 0.77519798278808594 0.20492726564407349
0.51808446645736694 0.77601927518844604 0.20477581024169922
0.58311539888381958 0.77124524116516113 0.19856663048267365
0.6651451587677002 0.76393347978591919 0.19098715484142303
0.7615053653717041 0.74768614768981934 0.1793287992477417
0.87022298574447632 0.72558224201202393 0.1531008780002594
0.98104536533355713 0.67415863275527954 0.1172703430056572
0.66631132364273071 0.93677353858947754 0.17845474183559418
0.6816096305847168 0.93614232540130615 0.17838898301124573
0.71195703744888306 0.93015497922897339 0.1782713383436203
0.76738250255584717 0.92899060249328613 0.16656920313835144
0.8350415825843811 0.92425966262817383 0.14459490776062012
0.91888391971588135 0.91696888208389282 0.097969338297843933
0.99732285737991333 0.89660513401031494 0.028672849759459496
0.01048546563833952 0.045522052794694901 0.21505250036716461
0.071608327329158783 0.035809490829706192 0.2170960009098053
0.19740134477615356 0.025935588404536247 0.21843327581882477
0.35231208801269531 0.012140640988945961 0.21781505644321442
0.53588688373565674 0.0039968453347682953 0.21719171106815338
0.71547812223434448 0.0042813168838620186 0.19776684045791626
0.88765460252761841 0.00041791130206547678 0.15634541213512421
0.050665836781263351 0.17651282250881195 0.24429656565189362
0.11559675633907318 0.16376914083957672 0.24636350572109222
0.23359546065330505 0.13898846507072449 0.25042298436164856
0.38423317670822144 0.10249582678079605 0.25279980897903442
0.55595391988754272 0.044279795140028 0.24540406465530396
0.73432844877243042 0.010254340246319771 0.22728398442268372
0.89683586359024048 0.0011833789758384228 0.19421654939651489
0.088987492024898529 0.29916241765022278 0.26769793033599854
0.14348806440830231 0.29073414206504822 0.27256369590759277
0.27685990929603577 0.27274799346923828 0.28195187449455261
0.42662855982780457 0.23821167647838593 0.28151574730873108
0.59729117155075073 0.18744832277297974 0.27094081044197083
0.76501238346099854 0.094213373959064484 0.25742492079734802
0.91524636745452881 0.0075321123003959656 0.23640845715999603
0.14064367115497589 0.46003678441047668 0.29640990495681763
0.21305681765079498 0.45714285969734192 0.29994574189186096
0.33605143427848816 0.43981114029884338 0.30664768815040588
0.47932645678520203 0.41087597608566284 0.30221658945083618
0.64435946941375732 0.37575188279151917 0.29635268449783325
0.79704141616821289 0.30125847458839417 0.28425145149230957
0.94217783212661743 0.16964462399482727 0.26686850190162659
0.26882833242416382 0.62251681089401245 0.32534423470497131
0.32211938500404358 0.62860727310180664 0.32807168364524841
0.42423364520072937 0.61615681648254395 0.32837623357772827
0.55187463760375977 0.59451466798782349 0.3240838348865509
0.68862754106521606 0.57180917263031006 0.32068932056427002
0.82507491111755371 0.52795922756195068 0.30892392992973328
0.96636092662811279 0.43744528293609619 0.28621801733970642
0.44511759281158447 0.77946382761001587 0.34938788414001465
0.48304563760757446 0.78546285629272461 0.34847608208656311
0.55481427907943726 0.77877020835876465 0.34439069032669067
0.64768493175506592 0.77201974391937256 0.34118065237998962
0.74991196393966675 0.76243734359741211 0.3388884961605072
0.85824429988861084 0.73332136869430542 0.32250162959098816
0.9757838249206543 0.6870076060295105 0.29588186740875244
0.64714372158050537 0.93919003009796143 0.35688948631286621
0.66613310575485229 0.93957793712615967 0.35303884744644165
0.69912207126617432 0.93390345573425293 0.34815153479576111
0.75587743520736694 0.93401193618774414 0.34501874446868896
0.82493108510971069 0.93041849136352539 0.33592766523361206
0.90868079662322998 0.91921675205230713 0.31461384892463684
0.9939262866973877 0.90088105201721191 0.26237049698829651
0.0021879009436815977 0.073042578995227814 0.33169341087341309
0.041958529502153397 0.052770711481571198 0.33269035816192627
0.16521495580673218 0.042678922414779663 0.33679687976837158
0.33134651184082031 0.02013295516371727 0.34390440583229065
0.52061086893081665 0.0070619173347949982 0.34776875376701355
0.70905113220214844 0.0041124233976006508 0.34067526459693909
0.88314449787139893 0 0.29858013987541199
0.027473838999867439 0.20557810366153717 0.36467283964157104
0.082362353801727295 0.19025690853595734 0.36858931183815002
0.19287213683128357 0.16894534230232239 0.37607023119926453
0.35761585831642151 0.13015934824943542 0.37909778952598572
0.53958916664123535 0.069286510348320007 0.37956240773200989
0.72462266683578491 0.012154612690210342 0.36969581246376038
0.89021497964859009 0.0004018746258225292 0.34421217441558838
0.030292076990008354 0.32936200499534607 0.40071055293083191
0.077778667211532593 0.32087215781211853 0.40452337265014648
0.21323533356189728 0.30086818337440491 0.410806804895401
0.39074346423149109 0.2686401903629303 0.41252487897872925
0.57585513591766357 0.21820330619812012 0.41000822186470032
0.75334614515304565 0.13089878857135773 0.40624544024467468
0.90727376937866211 0.016890851780772209 0.39251559972763062
0.03217276930809021 0.48294103145599365 0.4361819326877594
0.11104260385036469 0.47883874177932739 0.43959465622901917
0.26399564743041992 0.46342343091964722 0.44746935367584229
0.44070559740066528 0.43537232279777527 0.44813644886016846
0.61695140600204468 0.40037903189659119 0.44356009364128113
0.78272628784179688 0.33504804968833923 0.43978029489517212
0.9338567852973938 0.20592796802520752 0.42815068364143372
0.17326195538043976 0.64573389291763306 0.47287154197692871
0.24594020843505859 0.64310228824615479 0.47475588321685791
0.37607190012931824 0.63071799278259277 0.47732159495353699
0.51035386323928833 0.61572265625 0.47419115900993347
0.66476494073867798 0.59595924615859985 0.47489821910858154
0.80881983041763306 0.55204641819000244 0.46984574198722839
0.95672941207885742 0.46604070067405701 0.45654946565628052
0.39852884411811829 0.79261338710784912 0.50340056419372559
0.43381908535957336 0.79129666090011597 0.50268125534057617
0.5138363242149353 0.78482824563980103 0.50235182046890259
0.61733555793762207 0.78160840272903442 0.50027167797088623
0.72846812009811401 0.77146726846694946 0.50254249572753906
0.84202581644058228 0.74832010269165039 0.4944501519203186
0.96996712684631348 0.70251184701919556 0.47747558355331421
0.6213386058807373 0.94158333539962769 0.52171200513839722
0.64337074756622314 0.94491064548492432 0.52090024948120117
0.67793411016464233 0.93871939182281494 0.52201849222183228
0.73734802007675171 0.93843072652816772 0.5182000994682312
0.81096428632736206 0.93411684036254883 0.51412880420684814
0.90041345357894897 0.92736142873764038 0.49916669726371765
0.99022567272186279 0.90883970260620117 0.47361186146736145
0.0010530658764764667 0.11721568554639816 0.46459794044494629
0.013196623884141445 0.095973193645477295 0.46965464949607849
0.11632633954286575 0.071623452007770538 0.47664806246757507
0.29121395945549011 0.038422111421823502 0.48073634505271912
0.49290135502815247 0.014187158085405827 0.48428130149841309
0.69279938936233521 0.0039186514914035797 0.49109366536140442
0.87385845184326172 0 0.46048060059547424
0.0087427478283643723 0.2437407523393631 0.50492936372756958
0.02605438232421875 0.22809454798698425 0.50662988424301147
0.13178393244743347 0.20472440123558044 0.51283186674118042
0.30718186497688293 0.17094475030899048 0.51741248369216919
0.50522083044052124 0.11891108751296997 0.52239453792572021
0.70346170663833618 0.032418493181467056 0.52615201473236084
0.87845522165298462 0.0015732409665361047 0.51087743043899536
0.0089288447052240372 0.3667900562286377 0.53999036550521851
0.016897613182663918 0.35863277316093445 0.54527181386947632
0.10776530206203461 0.34181046485900879 0.55217689275741577
0.33099126815795898 0.31585070490837097 0.55608022212982178
0.53293812274932861 0.26815754175186157 0.55546247959136963
0.72713613510131836 0.18324285745620728 0.55779445171356201
0.89551436901092529 0.042401019483804703 0.55718809366226196
0.0038239124696701765 0.51789051294326782 0.57457983493804932
0.008489556610584259 0.51014357805252075 0.58009332418441772
0.15258616209030151 0.49884924292564392 0.58847028017044067
0.37278100848197937 0.47616299986839294 0.59015679359436035
0.57700192928314209 0.44157925248146057 0.59329146146774292
0.75814610719680786 0.38350096344947815 0.59526902437210083
0.91978919506072998 0.25994005799293518 0.59217154979705811
0.021189386025071144 0.66827327013015747 0.61662644147872925
0.091259628534317017 0.66532725095748901 0.61789453029632568
0.27414125204086304 0.65584903955459595 0.61941581964492798
0.45902800559997559 0.63807404041290283 0.62047189474105835
0.62366992235183716 0.6210588812828064 0.62395268678665161
0.78663671016693115 0.58354449272155762 0.6257169246673584
0.94201368093490601 0.50271010398864746 0.61984223127365112
0.31264799833297729 0.80625373125076294 0.64991599321365356
0.36196643114089966 0.80511093139648438 0.64793592691421509
0.45011118054389954 0.8020748496055603 0.64875698089599609
0.57626837491989136 0.79527056217193604 0.64829909801483154
0.69113409519195557 0.78268647193908691 0.65250873565673828
0.82279163599014282 0.76339119672775269 0.65457707643508911
0.95938950777053833 0.72118306159973145 0.64349961280822754
0.58762538433074951 0.94796919822692871 0.67328506708145142
0.60752689838409424 0.95030760765075684 0.67102104425430298
0.65106254816055298 0.94875180721282959 0.67208737134933472
0.71251654624938965 0.94619548320770264 0.67399728298187256
0.79329776763916016 0.94526809453964233 0.67602366209030151
0.88374733924865723 0.93669551610946655 0.67130112648010254
0.98432058095932007 0.92111939191818237 0.65512371063232422
0 0.17615164816379547 0.60506856441497803
0.00090296129928901792 0.15599742531776428 0.61046141386032104
0.05116310715675354 0.13447673618793488 0.61657810211181641
0.234601691365242 0.093728519976139069 0.6232190728187561
0.44849461317062378 0.043776150792837143 0.62824755907058716
0.66797846555709839 0.0061269272118806839 0.6347959041595459
0.85927087068557739 0.00060363468946889043 0.62653952836990356
0.0014036739012226462 0.29527705907821655 0.63931268453598022
0.0069632288068532944 0.28355821967124939 0.64280468225479126
0.052840828895568848 0.26332753896713257 0.64831078052520752
0.23135939240455627 0.23202413320541382 0.65285599231719971
0.45696425437927246 0.18056048452854156 0.6628836989402771
0.67709851264953613 0.087173327803611755 0.66961139440536499
0.86563897132873535 0.0041078901849687099 0.66983544826507568
0.00098302506376057863 0.4112759530544281 0.67446553707122803
0.0065353843383491039 0.40865170955657959 0.67354542016983032
0.011140367016196251 0.39324617385864258 0.68153142929077148
0.22963158786296844 0.36924022436141968 0.68887662887573242
0.47631824016571045 0.32402503490447998 0.69465076923370361
0.69286727905273438 0.25055766105651855 0.70282137393951416
0.87931257486343384 0.095971532166004181 0.70810365676879883
0.0025168624706566334 0.55755114555358887 0.70641428232192993
0.0045647714287042618 0.55403947830200195 0.70854806900024414
0.013241981156170368 0.54178023338317871 0.71517252922058105
0.26542767882347107 0.52308100461959839 0.72076594829559326
0.50989747047424316 0.49171575903892517 0.72660666704177856
0.71823889017105103 0.43953320384025574 0.73388087749481201
0.90209740400314331 0.32387837767601013 0.73798239231109619
0.00226618442684412 0.69861686229705811 0.73947393894195557
0.0054071163758635521 0.69501090049743652 0.74275892972946167
0.082824394106864929 0.68802863359451294 0.74761462211608887
0.36203625798225403 0.6773950457572937 0.75179767608642578
0.55744880437850952 0.65807771682739258 0.75941753387451172
0.75034624338150024 0.62390387058258057 0.76047039031982422
0.9180678129196167 0.55500942468643188 0.76218092441558838
0.12076978385448456 0.82358241081237793 0.77469903230667114
0.19794021546840668 0.82216590642929077 0.77666819095611572
0.3509066104888916 0.8203272819519043 0.77928406000137329
0.49795743823051453 0.81623870134353638 0.78358012437820435
0.64783394336700439 0.80978703498840332 0.78942829370498657
0.80025392770767212 0.78742730617523193 0.78492933511734009
0.9445839524269104 0.74571186304092407 0.78577303886413574
0.52860051393508911 0.95714730024337769 0.80374819040298462
0.55164164304733276 0.95864617824554443 0.80578970909118652
0.60577505826950073 0.95647478103637695 0.80609285831451416
0.66916573047637939 0.95497840642929077 0.80959713459014893
0.76223790645599365 0.95375710725784302 0.80965059995651245
0.86531728506088257 0.95167624950408936 0.80952531099319458
0.97253584861755371 0.93201363086700439 0.8079063892364502
0 0.24800975620746613 0.72528237104415894
0 0.22960230708122253 0.73086380958557129
0.007176088634878397 0.20584078133106232 0.73691242933273315
0.13760019838809967 0.17003011703491211 0.7462126612663269
0.39493203163146973 0.11068727076053619 0.7566419243812561
0.63340955972671509 0.03495451807975769 0.76631975173950195
0.83635467290878296 0.002568802097812295 0.77274376153945923
0 0.35861745476722717 0.75116127729415894
0.00080702541163191199 0.35056760907173157 0.75838321447372437
0.0065558790229260921 0.33191007375717163 0.76499861478805542
0.098177619278430939 0.30434051156044006 0.77300536632537842
0.38395047187805176 0.25476673245429993 0.78146684169769287
0.63243180513381958 0.17480234801769257 0.79321128129959106
0.84546905755996704 0.036389771848917007 0.80198961496353149
0 0.46947649121284485 0.78318291902542114
0.00046497420407831669 0.46484929323196411 0.78223031759262085
0.0019410375971347094 0.45298880338668823 0.79276430606842041
0.050596036016941071 0.4327913224697113 0.80281680822372437
0.38275596499443054 0.3952127993106842 0.81188088655471802
0.64346623420715332 0.33579659461975098 0.82233095169067383
0.85742998123168945 0.19572378695011139 0.83205360174179077
0 0.59601849317550659 0.81282639503479004
0 0.59602540731430054 0.81390279531478882
0.0015572042902931571 0.59100836515426636 0.8228762149810791
0.044379618018865585 0.57837396860122681 0.83344161510467529
0.40154281258583069 0.55210107564926147 0.8407401442527771
0.66079217195510864 0.50678741931915283 0.84969806671142578
0.8659859299659729 0.41783851385116577 0.85801452398300171
0.00057492725318297744 0.72530341148376465 0.84810912609100342
0.00072595931123942137 0.72370940446853638 0.85133039951324463
0.0031636706553399563 0.72246682643890381 0.85596847534179688
0.1098705381155014 0.71684855222702026 0.86546212434768677
0.45595249533653259 0.70184612274169922 0.87236678600311279
0.68719309568405151 0.67690837383270264 0.87869781255722046
0.88362038135528564 0.61471706628799438 0.88403064012527466
0.0018343308474868536 0.84579336643218994 0.8879624605178833
0.0072661307640373707 0.84620535373687744 0.88968342542648315
0.066251508891582489 0.84507828950881958 0.89357393980026245
0.33010032773017883 0.84205126762390137 0.90014338493347168
0.54427540302276611 0.83750396966934204 0.90490967035293579
0.73747187852859497 0.82365602254867554 0.90814793109893799
0.90972894430160522 0.78648537397384644 0.91778385639190674
0.36541548371315002 0.96864444017410278 0.92854124307632446
0.40776920318603516 0.96892726421356201 0.93073803186416626
0.48350691795349121 0.96738666296005249 0.93257051706314087
0.58406293392181396 0.96628201007843018 0.93441653251647949
0.69644331932067871 0.96573042869567871 0.94162541627883911
0.81664943695068359 0.96263527870178223 0.94450259208679199
0.95404130220413208 0.95217955112457275 0.95012998580932617
