luts/negative_color/kodak_elite_color_200.cube
# Created by: G'MIC (https://gmic.eu)
TITLE "kodak_elite_color_200"
# LUT size
LUT_3D_SIZE 7
# Data domain
DOMAIN_MIN 0.0 0.0 0.0
DOMAIN_MAX 1.0 1.0 1.0
# LUT data points
0.02405751496553421 0.020073145627975464 0.022880943492054939
0.10698762536048889 0.021254954859614372 0.028554296121001244
0.22156892716884613 0.028252067044377327 0.031715903431177139
0.36959785223007202 0.040513627231121063 0.037229619920253754
0.56075954437255859 0.0538204126060009 0.067519620060920715
0.75415277481079102 0.085173331201076508 0.093359790742397308
0.92968940734863281 0.13058009743690491 0.11638132482767105
0.076975248754024506 0.10724982619285583 0.033852566033601761
0.12952344119548798 0.11165541410446167 0.035826828330755234
0.23548312485218048 0.11833827942609787 0.044007543474435806
0.38420897722244263 0.12820401787757874 0.056623302400112152
0.5698164701461792 0.14506880939006805 0.076754957437515259
0.76162999868392944 0.17509946227073669 0.10007344931364059
0.93527817726135254 0.21751764416694641 0.12757879495620728
0.12713329493999481 0.21121694147586823 0.042709935456514359
0.16565127670764923 0.2184227854013443 0.040303744375705719
0.26234728097915649 0.22469361126422882 0.048615653067827225
0.4114939272403717 0.23165722191333771 0.064651146531105042
0.59270018339157104 0.24906867742538452 0.07841847836971283
0.77818900346755981 0.27629348635673523 0.098909817636013031
0.94583332538604736 0.31303149461746216 0.13150511682033539
0.12805312871932983 0.34581837058067322 0.03341224417090416
0.18870304524898529 0.34798553586006165 0.027918154373764992
0.29641550779342651 0.35115265846252441 0.031805913895368576
0.4505249559879303 0.35668227076530457 0.04340222105383873
0.62961661815643311 0.37019526958465576 0.057526756078004837
0.80947184562683105 0.39336925745010376 0.079745814204216003
0.96663051843643188 0.42546296119689941 0.11763060092926025
0.18281951546669006 0.4790005087852478 0.0065062278881669044
0.24037198722362518 0.48110061883926392 0.0027732998132705688
0.35180336236953735 0.48233520984649658 0.0042821546085178852
0.50608885288238525 0.4856128990650177 0.010488877072930336
0.67838656902313232 0.49452921748161316 0.020359113812446594
0.84946900606155396 0.51026159524917603 0.034055221825838089
0.98780333995819092 0.53303384780883789 0.062816247344017029
0.29563480615615845 0.59770530462265015 0
0.34926912188529968 0.59978443384170532 0
0.44637942314147949 0.60055571794509888 0
0.58280712366104126 0.60177123546600342 0
0.73725461959838867 0.60644733905792236 0
0.89186972379684448 0.6142393946647644 0.00017760033369995654
0.99821346998214722 0.62693291902542114 0.0095325848087668419
0.43906137347221375 0.70029968023300171 0.001997839193791151
0.48359289765357971 0.70007526874542236 0.0017216850537806749
0.56133377552032471 0.69859349727630615 0
0.67583352327346802 0.69595789909362793 0
0.80710726976394653 0.6966516375541687 0
0.94046789407730103 0.69915366172790527 0
0.9978596568107605 0.70091414451599121 0.0023745368234813213
0.032181233167648315 0.037846256047487259 0.12640020251274109
0.12413687258958817 0.039519082754850388 0.14000816643238068
0.23786772787570953 0.04763590544462204 0.14442402124404907
0.38410675525665283 0.060219094157218933 0.15042105317115784
0.56857675313949585 0.07713056355714798 0.17383192479610443
0.75910907983779907 0.10981563478708267 0.20009618997573853
0.9316784143447876 0.15989372134208679 0.23186373710632324
0.081012621521949768 0.12902379035949707 0.13352744281291962
0.1455259770154953 0.13143633306026459 0.14073695242404938
0.24906010925769806 0.13764193654060364 0.14787366986274719
0.39604517817497253 0.14772787690162659 0.15800707042217255
0.57842022180557251 0.16517028212547302 0.17712156474590302
0.76675868034362793 0.19595323503017426 0.20110064744949341
0.93758541345596313 0.24035269021987915 0.23162549734115601
0.11469200253486633 0.23531314730644226 0.13483072817325592
0.16754849255084991 0.23974764347076416 0.13649901747703552
0.26817649602890015 0.24498125910758972 0.14384901523590088
0.41860345005989075 0.25185421109199524 0.15617820620536804
0.59896397590637207 0.26821231842041016 0.17249345779418945
0.78147417306900024 0.29468816518783569 0.19382096827030182
0.9458545446395874 0.33070960640907288 0.22353747487068176
0.1279139369726181 0.36834153532981873 0.11420974880456924
0.18171985447406769 0.37107813358306885 0.11333990842103958
0.29349598288536072 0.37393847107887268 0.11921823769807816
0.45201495289802551 0.37835237383842468 0.13153761625289917
0.63160508871078491 0.39159145951271057 0.1487724781036377
0.8090064525604248 0.41494399309158325 0.17405129969120026
0.9643750786781311 0.44692781567573547 0.21107874810695648
0.17292629182338715 0.50384283065795898 0.062475062906742096
0.22902706265449524 0.50496381521224976 0.061718299984931946
0.34719964861869812 0.50610148906707764 0.068391598761081696
0.50475966930389404 0.50911843776702881 0.079584367573261261
0.6771436333656311 0.51835733652114868 0.096152812242507935
0.84424072504043579 0.53535693883895874 0.118802510201931
0.98310941457748413 0.55983841419219971 0.1568010002374649
0.29351764917373657 0.61179238557815552 0.0035310483071953058
0.35162198543548584 0.6130605936050415 0.0050921570509672165
0.44960471987724304 0.61613386869430542 0.0088450862094759941
0.58629304170608521 0.61732929944992065 0.010468262247741222
0.7385249137878418 0.62245899438858032 0.021664263680577278
0.88509291410446167 0.63174712657928467 0.032602541148662567
0.99067294597625732 0.64737355709075928 0.0568985715508461
0.45672395825386047 0.70135641098022461 0
0.49436226487159729 0.70212703943252563 0
0.56600135564804077 0.70492714643478394 8.4013096056878567e-05
0.68335187435150146 0.69914382696151733 0
0.81554496288299561 0.69583547115325928 0
0.93768066167831421 0.69701087474822998 0
0.99300521612167358 0.70429152250289917 0.0016156963538378477
0.03456941619515419 0.061509720981121063 0.2379118800163269
0.12727437913417816 0.066269561648368835 0.25375616550445557
0.24294851720333099 0.077193275094032288 0.26191282272338867
0.38953965902328491 0.092126034200191498 0.26817137002944946
0.5714040994644165 0.11009068042039871 0.28853371739387512
0.76096606254577637 0.13697837293148041 0.31263470649719238
0.9350401759147644 0.17477893829345703 0.33952817320823669
0.08632323145866394 0.15748412907123566 0.25034546852111816
0.15348412096500397 0.15930701792240143 0.26179862022399902
0.25819283723831177 0.16656160354614258 0.27006220817565918
0.40535208582878113 0.17808067798614502 0.27823594212532043
0.58550369739532471 0.19653202593326569 0.29700052738189697
0.77104687690734863 0.22619271278381348 0.32205122709274292
0.94099783897399902 0.26725661754608154 0.35273101925849915
0.12193742394447327 0.26248303055763245 0.25765290856361389
0.17176598310470581 0.26827570796012878 0.26506334543228149
0.27582338452339172 0.27486434578895569 0.27306777238845825
0.42893245816230774 0.28125861287117004 0.28197464346885681
0.60728788375854492 0.29932630062103271 0.30046683549880981
0.78586894273757935 0.32934054732322693 0.32669293880462646
0.94765061140060425 0.36830458045005798 0.3591148853302002
0.10924533009529114 0.39593079686164856 0.24586522579193115
0.17572076618671417 0.40382397174835205 0.25274059176445007
0.29522305727005005 0.40842580795288086 0.26153430342674255
0.45768585801124573 0.41185161471366882 0.2728121280670166
0.635722815990448 0.42702367901802063 0.29336440563201904
0.80905783176422119 0.45391187071800232 0.32200217247009277
0.96152085065841675 0.48677900433540344 0.35794231295585632
0.13616274297237396 0.54265737533569336 0.20710088312625885
0.20743143558502197 0.54501789808273315 0.21256127953529358
0.3402523398399353 0.54747778177261353 0.22100575268268585
0.50272470712661743 0.55125385522842407 0.23669907450675964
0.6734844446182251 0.56176114082336426 0.25834015011787415
0.83928346633911133 0.58092272281646729 0.28700006008148193
0.97896081209182739 0.60567563772201538 0.32888621091842651
0.27673536539077759 0.64899909496307373 0.10764995217323303
0.33958691358566284 0.65109097957611084 0.11450683325529099
0.44567391276359558 0.65317386388778687 0.12005484849214554
0.58407855033874512 0.65371745824813843 0.13461838662624359
0.73269176483154297 0.66332554817199707 0.15674406290054321
0.87926477193832397 0.67734432220458984 0.18020617961883545
0.99063372611999512 0.69596201181411743 0.23230227828025818
0.47567331790924072 0.70858758687973022 0.0066635878756642342
0.5108368992805481 0.70881104469299316 0.0053121228702366352
0.58483999967575073 0.71123194694519043 0.0061133741401135921
0.69572007656097412 0.70661365985870361 0.011331385932862759
0.82022905349731445 0.70838594436645508 0.0085904290899634361
0.94811087846755981 0.71476036310195923 0.01668274775147438
0.99806457757949829 0.72354459762573242 0.027063198387622833
0.040466636419296265 0.091703854501247406 0.37023442983627319
0.12914863228797913 0.1004413515329361 0.38656127452850342
0.2459595799446106 0.11327706277370453 0.39719724655151367
0.39576956629753113 0.12957903742790222 0.40626141428947449
0.5766722559928894 0.14901401102542877 0.42641875147819519
0.76198428869247437 0.17666856944561005 0.45054304599761963
0.93200504779815674 0.21349373459815979 0.47738289833068848
0.089348763227462769 0.18766966462135315 0.39541816711425781
0.15247303247451782 0.19137845933437347 0.40816634893417358
0.26070210337638855 0.20124891400337219 0.41656205058097839
0.41208463907241821 0.21499952673912048 0.42504435777664185
0.59194594621658325 0.23528373241424561 0.44312018156051636
0.77430301904678345 0.26549506187438965 0.46745777130126953
0.94045412540435791 0.30506512522697449 0.49551022052764893
0.10079629719257355 0.29535356163978577 0.41780143976211548
0.15695475041866302 0.30144348740577698 0.42816862463951111
0.27570411562919617 0.31089615821838379 0.43388095498085022
0.43462654948234558 0.32042023539543152 0.4414917528629303
0.61279010772705078 0.33983564376831055 0.45896714925765991
0.78834348917007446 0.37120097875595093 0.48395118117332458
0.94694250822067261 0.40980392694473267 0.51249939203262329
0.10472477972507477 0.43656781315803528 0.43042400479316711
0.1565411388874054 0.44445940852165222 0.43598976731300354
0.29216641187667847 0.45049518346786499 0.4424264132976532
0.459759920835495 0.45596745610237122 0.45251017808914185
0.63682204484939575 0.47216507792472839 0.47210419178009033
0.8062204122543335 0.49880325794219971 0.49700573086738586
0.95563113689422607 0.53005790710449219 0.5259978175163269
0.094409286975860596 0.58996766805648804 0.42390692234039307
0.1663404256105423 0.59415942430496216 0.42641779780387878
0.32473701238632202 0.59906089305877686 0.4329681396484375
0.49515318870544434 0.60374683141708374 0.44780796766281128
0.66438764333724976 0.61462670564651489 0.46921232342720032
0.82598012685775757 0.63148188591003418 0.48980462551116943
0.96597945690155029 0.65466582775115967 0.52344626188278198
0.22236147522926331 0.71409887075424194 0.37204658985137939
0.2947591245174408 0.716563880443573 0.37512111663818359
0.41670510172843933 0.71694225072860718 0.37633386254310608
0.5602913498878479 0.72181171178817749 0.39144903421401978
0.70861697196960449 0.72979390621185303 0.42155572772026062
0.85435134172439575 0.73662960529327393 0.43732455372810364
0.97893869876861572 0.75612431764602661 0.4816969633102417
0.46222710609436035 0.75682073831558228 0.12945199012756348
0.49732157588005066 0.75946998596191406 0.13253121078014374
0.57296264171600342 0.76111739873886108 0.15652240812778473
0.68046665191650391 0.76460278034210205 0.14945603907108307
0.80353039503097534 0.76833826303482056 0.1809566468000412
0.92283254861831665 0.77482885122299194 0.21004562079906464
0.99706459045410156 0.7895931601524353 0.26063907146453857
0.054915007203817368 0.13443471491336823 0.53040063381195068
0.14344455301761627 0.13908982276916504 0.54134225845336914
0.25966265797615051 0.14843295514583588 0.55061548948287964
0.41253417730331421 0.162542924284935 0.56187933683395386
0.59022277593612671 0.18335899710655212 0.57869184017181396
0.76781690120697021 0.21314306557178497 0.59799742698669434
0.93119680881500244 0.25162991881370544 0.62045055627822876
0.10529433935880661 0.22033679485321045 0.56315892934799194
0.15885812044143677 0.22340649366378784 0.5717778205871582
0.26900860667228699 0.23303508758544922 0.5779837965965271
0.42380055785179138 0.24758872389793396 0.5865788459777832
0.60263079404830933 0.26779419183731079 0.60052001476287842
0.77969098091125488 0.2979031503200531 0.61854010820388794
0.93974792957305908 0.33719483017921448 0.64035993814468384
0.071600548923015594 0.32783681154251099 0.59495019912719727
0.1532084196805954 0.33190438151359558 0.60104537010192871
0.28158700466156006 0.34248006343841553 0.60267651081085205
0.44229084253311157 0.35498550534248352 0.60884886980056763
0.61913079023361206 0.37325820326805115 0.62145686149597168
0.79091089963912964 0.40144935250282288 0.63905274868011475
0.94498026371002197 0.43810749053955078 0.66049742698669434
0.075841687619686127 0.47645500302314758 0.61772412061691284
0.15635915100574493 0.48085111379623413 0.61904597282409668
0.30089917778968811 0.48668110370635986 0.62204325199127197
0.46619892120361328 0.49434584379196167 0.62909209728240967
0.63943815231323242 0.50903141498565674 0.64369058609008789
0.80365556478500366 0.53192514181137085 0.66009509563446045
0.94940459728240967 0.56123536825180054 0.68077826499938965
0.05751323327422142 0.63632619380950928 0.62881362438201904
0.16251306235790253 0.64102166891098022 0.62991535663604736
0.32883694767951965 0.64242547750473022 0.63379538059234619
0.49683129787445068 0.64663755893707275 0.64217722415924072
0.66121029853820801 0.65649789571762085 0.65710777044296265
0.81604975461959839 0.67132693529129028 0.67054092884063721
0.95385301113128662 0.69221091270446777 0.6940271258354187
0.19181555509567261 0.76995038986206055 0.61306828260421753
0.27242428064346313 0.76882392168045044 0.61411410570144653
0.40144377946853638 0.77337765693664551 0.62975776195526123
0.54847675561904907 0.77540701627731323 0.63277232646942139
0.69594013690948486 0.78197038173675537 0.64807331562042236
0.83710074424743652 0.7893717885017395 0.66383224725723267
0.96490466594696045 0.80541568994522095 0.69395178556442261
0.41271334886550903 0.84010308980941772 0.47987428307533264
0.44923496246337891 0.84151577949523926 0.4863165020942688
0.53227704763412476 0.84263771772384644 0.49018597602844238
0.64722025394439697 0.84401899576187134 0.5025821328163147
0.77117067575454712 0.84892058372497559 0.52359884977340698
0.887614905834198 0.85690414905548096 0.5497933030128479
0.98427689075469971 0.87080299854278564 0.59722393751144409
0.080084048211574554 0.17500607669353485 0.68393427133560181
0.16997542977333069 0.17345805466175079 0.69157391786575317
0.28315103054046631 0.17439515888690948 0.69815623760223389
0.43481391668319702 0.18363015353679657 0.70834511518478394
0.60889661312103271 0.20210683345794678 0.72087746858596802
0.77751117944717407 0.22911764681339264 0.73083794116973877
0.93271386623382568 0.266539067029953 0.7449270486831665
0.11703068017959595 0.24244917929172516 0.71477812528610229
0.17843204736709595 0.24436083436012268 0.72098976373672485
0.28998425602912903 0.25120705366134644 0.72668933868408203
0.44365805387496948 0.26387497782707214 0.73498797416687012
0.6194145679473877 0.28059121966362 0.74305498600006104
0.78876066207885742 0.30797797441482544 0.75295138359069824
0.94194221496582031 0.3479686975479126 0.76736444234848022
0.10855213552713394 0.35033360123634338 0.74960845708847046
0.18073777854442596 0.34987610578536987 0.75064480304718018
0.30618897080421448 0.35804823040962219 0.75100529193878174
0.46265646815299988 0.36981233954429626 0.75572496652603149
0.63352447748184204 0.38434076309204102 0.76283133029937744
0.79798287153244019 0.40847048163414001 0.77335679531097412
0.94596594572067261 0.44710394740104675 0.78900396823883057
0.10355062782764435 0.50115656852722168 0.77628666162490845
0.19411686062812805 0.50205463171005249 0.77347582578659058
0.33030718564987183 0.50576001405715942 0.77304422855377197
0.488078773021698 0.51286041736602783 0.77699297666549683
0.65150046348571777 0.52393269538879395 0.78446614742279053
0.80707812309265137 0.54347145557403564 0.79456663131713867
0.94749009609222412 0.57405352592468262 0.81052416563034058
0.10700209438800812 0.66923826932907104 0.79315447807312012
0.20585945248603821 0.66932135820388794 0.7955973744392395
0.35781943798065186 0.66989195346832275 0.79771977663040161
0.5162956714630127 0.67291742563247681 0.8015637993812561
0.6709246039390564 0.67988443374633789 0.80671912431716919
0.81659078598022461 0.69347941875457764 0.81425279378890991
0.94865226745605469 0.71377241611480713 0.82920116186141968
0.21327514946460724 0.81306356191635132 0.8081243634223938
0.28539469838142395 0.81189906597137451 0.8156619668006897
0.41374406218528748 0.81409329175949097 0.82404333353042603
0.55662006139755249 0.81602185964584351 0.82508015632629395
0.69839435815811157 0.81914526224136353 0.82538789510726929
0.83226990699768066 0.82837843894958496 0.83337575197219849
0.95516330003738403 0.84220188856124878 0.84218120574951172
0.39130589365959167 0.9121406078338623 0.7712327241897583
0.42944380640983582 0.91220611333847046 0.7729790210723877
0.51659923791885376 0.91133755445480347 0.76733005046844482
0.62984824180603027 0.91127520799636841 0.76972591876983643
0.75111263990402222 0.9130128026008606 0.77421122789382935
0.86625593900680542 0.92072010040283203 0.79411458969116211
0.97237259149551392 0.93134564161300659 0.81448829174041748
0.10850241035223007 0.20387528836727142 0.81200981140136719
0.2005007266998291 0.1949755847454071 0.81995207071304321
0.31654807925224304 0.18826091289520264 0.82564312219619751
0.46395659446716309 0.19138143956661224 0.83312004804611206
0.62746089696884155 0.20517697930335999 0.83985334634780884
0.78781908750534058 0.22835829854011536 0.84352856874465942
0.93747609853744507 0.26071611046791077 0.84890192747116089
0.15212860703468323 0.24188737571239471 0.84007340669631958
0.21589368581771851 0.25074583292007446 0.84398156404495239
0.33246207237243652 0.25362348556518555 0.84888625144958496
0.4802367091178894 0.26318073272705078 0.85582476854324341
0.64269477128982544 0.27893349528312683 0.86175429821014404
0.80139505863189697 0.30291551351547241 0.86702370643615723
0.94762760400772095 0.34337598085403442 0.87689167261123657
0.17962406575679779 0.35025304555892944 0.86968004703521729
0.24644927680492401 0.3541315495967865 0.86986851692199707
0.3596438467502594 0.35965478420257568 0.87092798948287964
0.50351643562316895 0.36937549710273743 0.87549459934234619
0.65960043668746948 0.38178753852844238 0.88109409809112549
0.81231588125228882 0.40107494592666626 0.88847148418426514
0.95232152938842773 0.44485953450202942 0.90217131376266479
0.21633900701999664 0.50161588191986084 0.89384382963180542
0.27923679351806641 0.50741326808929443 0.89216530323028564
0.3926733136177063 0.51213598251342773 0.89238518476486206
0.53214019536972046 0.51840120553970337 0.89630776643753052
0.67876297235488892 0.526805579662323 0.90108573436737061
0.82123851776123047 0.54360389709472656 0.90875768661499023
0.95351672172546387 0.57655930519104004 0.92373991012573242
0.24080975353717804 0.68022757768630981 0.9131094217300415
0.31384900212287903 0.68082684278488159 0.91166931390762329
0.42923149466514587 0.68210726976394653 0.9141463041305542
0.56349962949752808 0.68535912036895752 0.91925913095474243
0.69917851686477661 0.6901201605796814 0.92232078313827515
0.8304290771484375 0.70175635814666748 0.92731392383575439
0.95359957218170166 0.7219277024269104 0.94041246175765991
0.32805141806602478 0.836864173412323 0.93538635969161987
0.37947982549667358 0.83612871170043945 0.934897780418396
0.4814460277557373 0.83748829364776611 0.9372217059135437
0.59997642040252686 0.83827120065689087 0.94115346670150757
0.72352594137191772 0.84039402008056641 0.94362562894821167
0.84312343597412109 0.84669381380081177 0.94564926624298096
0.95547568798065186 0.85705095529556274 0.95176512002944946
0.45654040575027466 0.9575265645980835 0.9453960657119751
0.48408401012420654 0.95586872100830078 0.94313675165176392
0.55741316080093384 0.95594280958175659 0.94257736206054688
0.65172511339187622 0.95718276500701904 0.94763600826263428
0.76082557439804077 0.95567148923873901 0.94204258918762207
0.86815738677978516 0.95902949571609497 0.94453400373458862
0.96660327911376953 0.96637535095214844 0.96186041831970215
