luts/negative_color/kodak_elite_color_400.cube
# Created by: G'MIC (https://gmic.eu)
TITLE "kodak_elite_color_400"
# LUT size
LUT_3D_SIZE 13
# Data domain
DOMAIN_MIN 0.0 0.0 0.0
DOMAIN_MAX 1.0 1.0 1.0
# LUT data points
0.025567792356014252 0.019535213708877563 0.018423611298203468
0.068686015903949738 0.018830109387636185 0.020617645233869553
0.11910838633775711 0.015367156825959682 0.022366572171449661
0.17814649641513824 0.011569318361580372 0.023982074111700058
0.23894990980625153 0.0077474857680499554 0.024227231740951538
0.30527690052986145 0.0050973030738532543 0.02269764244556427
0.38060876727104187 0.0017913818592205644 0.019691871479153633
0.46461325883865356 0.0021491255611181259 0.021848386153578758
0.54906225204467773 0.00085969810606911778 0.02155672013759613
0.63640373945236206 2.1003274014219642e-05 0.018885159865021706
0.72433364391326904 9.298885561292991e-05 0.014206022024154663
0.80836671590805054 0.0022932314313948154 0.010867339558899403
0.89037454128265381 0.0039215688593685627 0.0063668643124401569
0.056155320256948471 0.069663196802139282 0.031097412109375
0.093343742191791534 0.064695589244365692 0.031392071396112442
0.14423231780529022 0.055754866451025009 0.032070968300104141
0.2011667788028717 0.046341691166162491 0.033163603395223618
0.2601921558380127 0.035034883767366409 0.032682202756404877
0.32778313755989075 0.025600448250770569 0.03350689634680748
0.4015718400478363 0.015596367418766022 0.031546171754598618
0.48001790046691895 0.010649018920958042 0.032403476536273956
0.56082969903945923 0.005591672845184803 0.031461961567401886
0.64590585231781006 0.0015114279231056571 0.027559317648410797
0.73285102844238281 0.0010926938848569989 0.019540419802069664
0.81509912014007568 0.0030839657410979271 0.01389580499380827
0.89509499073028564 0.0039215688593685627 0.0079197157174348831
0.093534447252750397 0.13175205886363983 0.047122206538915634
0.12105953693389893 0.12535205483436584 0.045073222368955612
0.16861006617546082 0.11956615000963211 0.048864897340536118
0.22152084112167358 0.10801097005605698 0.048714686185121536
0.27924910187721252 0.093765661120414734 0.048952095210552216
0.34426108002662659 0.077068522572517395 0.049184732139110565
0.41887721419334412 0.05780772864818573 0.047126170247793198
0.49782857298851013 0.036886297166347504 0.044239431619644165
0.57779192924499512 0.017720615491271019 0.041898451745510101
0.6612774133682251 0.0069478051736950874 0.038045652210712433
0.74551147222518921 0.0031664830166846514 0.029186248779296875
0.82466936111450195 0.0035724863409996033 0.021656723693013191
0.90311557054519653 0.0038678934797644615 0.013649794273078442
0.12707619369029999 0.20030181109905243 0.066751725971698761
0.15014563500881195 0.19646185636520386 0.066661879420280457
0.19270886480808258 0.18946117162704468 0.06761111319065094
0.24474939703941345 0.17855995893478394 0.066339097917079926
0.30192041397094727 0.16528916358947754 0.06622651219367981
0.36500847339630127 0.14627335965633392 0.064704820513725281
0.43821775913238525 0.12375944852828979 0.063858345150947571
0.51650446653366089 0.098377645015716553 0.062053170055150986
0.59768068790435791 0.066431127488613129 0.057899206876754761
0.67908722162246704 0.034939814358949661 0.05039665475487709
0.757831871509552 0.012059694156050682 0.043261211365461349
0.83663421869277954 0.0037643881514668465 0.032852277159690857
0.90723413228988647 0.0037191202864050865 0.023419862613081932
0.15519827604293823 0.26764968037605286 0.083275981247425079
0.1798541396856308 0.26659455895423889 0.084830567240715027
0.21694570779800415 0.25969979166984558 0.083435907959938049
0.26898670196533203 0.25042164325714111 0.083446457982063293
0.32757976651191711 0.23903168737888336 0.083991780877113342
0.39116331934928894 0.22497646510601044 0.082503333687782288
0.4619503915309906 0.20449537038803101 0.079797334969043732
0.5396348237991333 0.17332565784454346 0.077382273972034454
0.6198161244392395 0.14067105948925018 0.071870408952236176
0.69857370853424072 0.10468244552612305 0.064389996230602264
0.77427476644515991 0.06197642907500267 0.056098982691764832
0.84896135330200195 0.021502221003174782 0.044158246368169785
0.91819626092910767 0.0047228946350514889 0.03038228303194046
0.19120846688747406 0.34706097841262817 0.096800394356250763
0.2158452570438385 0.34340155124664307 0.097519218921661377
0.24788101017475128 0.33493795990943909 0.094837680459022522
0.29890745878219604 0.32602149248123169 0.097637474536895752
0.35907503962516785 0.31587931513786316 0.099591411650180817
0.4233948290348053 0.30402100086212158 0.097947411239147186
0.49180275201797485 0.28834989666938782 0.094628535211086273
0.5672106146812439 0.26484668254852295 0.091358661651611328
0.64342027902603149 0.23934102058410645 0.08659864217042923
0.72021496295928955 0.2070145308971405 0.08052247017621994
0.79576408863067627 0.15489739179611206 0.071133449673652649
0.8665887713432312 0.095459878444671631 0.056675795465707779
0.93477696180343628 0.033005956560373306 0.038277421146631241
0.23508104681968689 0.4345380961894989 0.10768917202949524
0.26072722673416138 0.4318183958530426 0.10776754468679428
0.29285064339637756 0.42387396097183228 0.10409481823444366
0.34021779894828796 0.41485550999641418 0.10613167285919189
0.39692249894142151 0.40479689836502075 0.10982154309749603
0.45949921011924744 0.39144036173820496 0.10931447148323059
0.52609491348266602 0.37655460834503174 0.10633651167154312
0.59551680088043213 0.36216738820075989 0.10212616622447968
0.66837799549102783 0.34393766522407532 0.098595865070819855
0.74181234836578369 0.31630003452301025 0.093465588986873627
0.81310039758682251 0.27309316396713257 0.084333024919033051
0.88360285758972168 0.21381169557571411 0.069566033780574799
0.95094633102416992 0.12878404557704926 0.049777984619140625
0.29491707682609558 0.52570950984954834 0.11171848326921463
0.31257641315460205 0.5224335789680481 0.11344984173774719
0.33909982442855835 0.51582664251327515 0.11175341159105301
0.38396564126014709 0.50698632001876831 0.11261425912380219
0.43716669082641602 0.49900537729263306 0.11607102304697037
0.49506005644798279 0.49013862013816833 0.11563496291637421
0.55965805053710938 0.47524780035018921 0.11211441457271576
0.62329375743865967 0.46317204833030701 0.10808531939983368
0.6914297342300415 0.44990438222885132 0.10517486929893494
0.75942122936248779 0.42843171954154968 0.10106384009122849
0.82924097776412964 0.39388599991798401 0.093117251992225647
0.89928823709487915 0.34157845377922058 0.079139858484268188
0.96507692337036133 0.26500165462493896 0.059399653226137161
0.35583502054214478 0.613658607006073 0.11422039568424225
0.37122374773025513 0.61000794172286987 0.11367358267307281
0.38904425501823425 0.60597497224807739 0.11381391435861588
0.42740744352340698 0.5999981164932251 0.11456255614757538
0.48002606630325317 0.59463977813720703 0.11688766628503799
0.53313207626342773 0.59022217988967896 0.11626938730478287
0.59253495931625366 0.57820218801498413 0.11365336924791336
0.65238714218139648 0.56791740655899048 0.11080904304981232
0.7149202823638916 0.55538046360015869 0.10738923400640488
0.77918726205825806 0.53381848335266113 0.10252115875482559
0.84683996438980103 0.50739443302154541 0.095025859773159027
0.9132159948348999 0.46880021691322327 0.081535160541534424
0.9741356372833252 0.40965515375137329 0.063381090760231018
0.41999462246894836 0.69505369663238525 0.10945504903793335
0.43178275227546692 0.69237393140792847 0.10989592224359512
0.45244351029396057 0.68742221593856812 0.10899367928504944
0.48646998405456543 0.68598169088363647 0.10734254121780396
0.53502517938613892 0.68365222215652466 0.10819824784994125
0.58059895038604736 0.68167716264724731 0.10786816477775574
0.62868207693099976 0.67558002471923828 0.10642294585704803
0.68504840135574341 0.66567409038543701 0.10343340784311295
0.7417151927947998 0.65334016084671021 0.10003868490457535
0.80290871858596802 0.63337421417236328 0.096053943037986755
0.86339378356933594 0.61618971824645996 0.088441081345081329
0.92458200454711914 0.58992868661880493 0.078207783401012421
0.97973287105560303 0.54841387271881104 0.061041347682476044
0.49926906824111938 0.7716444730758667 0.091226764023303986
0.50480848550796509 0.77117717266082764 0.095078200101852417
0.52590680122375488 0.76890617609024048 0.096906878054141998
0.55452132225036621 0.76959049701690674 0.094363175332546234
0.59310245513916016 0.76698124408721924 0.090847164392471313
0.63425123691558838 0.7647131085395813 0.085177280008792877
0.6723969578742981 0.76098734140396118 0.08631056547164917
0.7195512056350708 0.75558799505233765 0.086533442139625549
0.77082562446594238 0.74705058336257935 0.085413269698619843
0.82600361108779907 0.7343825101852417 0.081604406237602234
0.88004571199417114 0.72152417898178101 0.076792143285274506
0.93795198202133179 0.69933664798736572 0.065926901996135712
0.98778361082077026 0.6698603630065918 0.050194907933473587
0.58335775136947632 0.85084819793701172 0.061631549149751663
0.58963179588317871 0.85060608386993408 0.064167439937591553
0.60695987939834595 0.85071057081222534 0.063589058816432953
0.62789636850357056 0.85084676742553711 0.061380289494991302
0.65386265516281128 0.84911930561065674 0.055782932788133621
0.68816012144088745 0.84630107879638672 0.050057385116815567
0.71973639726638794 0.84269058704376221 0.047729521989822388
0.75952798128128052 0.83957201242446899 0.047050595283508301
0.80237066745758057 0.83559679985046387 0.046515133231878281
0.85165292024612427 0.82817912101745605 0.04436308890581131
0.89913898706436157 0.81908959150314331 0.042885426431894302
0.9519006609916687 0.80219399929046631 0.038139913231134415
0.99341148138046265 0.78471386432647705 0.031274907290935516
0.67102831602096558 0.932228684425354 0.036932822316884995
0.67701375484466553 0.93228697776794434 0.03480060026049614
0.68801969289779663 0.93273389339447021 0.030847750604152679
0.70285779237747192 0.93255615234375 0.0288848876953125
0.72085767984390259 0.9311063289642334 0.026194090023636818
0.74515730142593384 0.92936050891876221 0.018642110750079155
0.77119344472885132 0.92767059803009033 0.016554513946175575
0.80392903089523315 0.925514817237854 0.0087488507851958275
0.8404192328453064 0.92240512371063232 0.0073690228164196014
0.88017261028289795 0.91839444637298584 0.0049802442081272602
0.92325341701507568 0.91372436285018921 0.0057083875872194767
0.96858572959899902 0.90428251028060913 0.0089883692562580109
0.9949946403503418 0.89243847131729126 0.010760004632174969
0.02096874825656414 0.026308352127671242 0.06071389839053154
0.056975420564413071 0.024655256420373917 0.062525458633899689
0.10642658174037933 0.019699664786458015 0.065188385546207428
0.16652271151542664 0.014393151737749577 0.063979342579841614
0.22996231913566589 0.0087386490777134895 0.063634999096393585
0.29758819937705994 0.0063579035922884941 0.063620246946811676
0.37348151206970215 0.0052685458213090897 0.060884587466716766
0.45956799387931824 0.0036580851301550865 0.062975987792015076
0.54773551225662231 0.0014901105314493179 0.062012586742639542
0.63609272241592407 0.00042820352246053517 0.053555596619844437
0.72312664985656738 0.0022173414472490549 0.041621848940849304
0.80771994590759277 0.0036699182819575071 0.028618860989809036
0.89227861166000366 0.0039215688593685627 0.014540234580636024
0.04778696596622467 0.079821102321147919 0.075694426894187927
0.082555465400218964 0.075359642505645752 0.075936049222946167
0.13185863196849823 0.06715894490480423 0.076934844255447388
0.19318529963493347 0.057184018194675446 0.078142918646335602
0.25277382135391235 0.043725572526454926 0.077499181032180786
0.31892222166061401 0.031478311866521835 0.076995149254798889
0.3970884382724762 0.022155148908495903 0.076866388320922852
0.47612082958221436 0.014662334695458412 0.07485496997833252
0.55980396270751953 0.0053483550436794758 0.071580268442630768
0.64516538381576538 0.0018959344597533345 0.064885564148426056
0.73088830709457397 0.0042208353988826275 0.05476132407784462
0.81506937742233276 0.0039650113321840763 0.040987830609083176
0.89717596769332886 0.0036191602703183889 0.023535709828138351
0.08765488862991333 0.13979858160018921 0.090942457318305969
0.11188992112874985 0.13438613712787628 0.089740663766860962
0.15680254995822906 0.12829217314720154 0.090684719383716583
0.21522974967956543 0.11807074397802353 0.092385776340961456
0.27320274710655212 0.10227810591459274 0.091361239552497864
0.33801519870758057 0.083851546049118042 0.090402670204639435
0.41733235120773315 0.06459643691778183 0.090690001845359802
0.4958270788192749 0.043090373277664185 0.087253421545028687
0.57624226808547974 0.021064205095171928 0.081502176821231842
0.66019946336746216 0.0080521674826741219 0.076183021068572998
0.74472689628601074 0.0069521139375865459 0.067406147718429565
0.8259316086769104 0.0043026790954172611 0.052019469439983368
0.90348982810974121 0.0017319773323833942 0.032343801110982895
0.12078966945409775 0.20619212090969086 0.10633227974176407
0.14161667227745056 0.20259584486484528 0.10447140783071518
0.18268650770187378 0.19579063355922699 0.10389191657304764
0.23800867795944214 0.18683500587940216 0.10482430458068848
0.29552984237670898 0.17410250008106232 0.10603485256433487
0.36050301790237427 0.15585389733314514 0.10646018385887146
0.43594491481781006 0.13148835301399231 0.10519526153802872
0.5158466100692749 0.10318572074174881 0.10059823095798492
0.59626948833465576 0.072640456259250641 0.095282010734081268
0.67896354198455811 0.043743971735239029 0.08909936249256134
0.75935190916061401 0.015889275819063187 0.078804865479469299
0.83680886030197144 0.0063993115909397602 0.065082520246505737
0.90904432535171509 0.0020334131550043821 0.045301042497158051
0.14269581437110901 0.27467232942581177 0.11805856972932816
0.16535551846027374 0.27161458134651184 0.11774896085262299
0.2058175653219223 0.26521798968315125 0.11750153452157974
0.25988894701004028 0.25990128517150879 0.11843419075012207
0.31896942853927612 0.24884229898452759 0.11954952776432037
0.38532131910324097 0.23246076703071594 0.11875728517770767
0.45867183804512024 0.21131010353565216 0.11667513102293015
0.53860962390899658 0.18309670686721802 0.1130279079079628
0.61914128065109253 0.15186688303947449 0.1080365777015686
0.69778776168823242 0.11144449561834335 0.099444292485713959
0.77471005916595459 0.066371381282806396 0.089120559394359589
0.84922677278518677 0.023483425378799438 0.077022626996040344
0.91969466209411621 0.0037020964082330465 0.058263830840587616
0.17448729276657104 0.35095611214637756 0.12806801497936249
0.20060017704963684 0.35102352499961853 0.12979841232299805
0.23909981548786163 0.34563982486724854 0.12994794547557831
0.28786405920982361 0.33738911151885986 0.13212977349758148
0.34878978133201599 0.32654064893722534 0.13249918818473816
0.4160313606262207 0.31163284182548523 0.13016608357429504
0.48656430840492249 0.29488340020179749 0.12696839869022369
0.56344795227050781 0.2718031108379364 0.1237592026591301
0.64232403039932251 0.24367600679397583 0.11915884912014008
0.720012366771698 0.20805837213993073 0.11150593310594559
0.79319393634796143 0.16394056379795074 0.10312434285879135
0.86431789398193359 0.10128048062324524 0.089451521635055542
0.9339870810508728 0.03747871145606041 0.071087703108787537
0.22221590578556061 0.44003468751907349 0.13786749541759491
0.24452929198741913 0.43770274519920349 0.13874402642250061
0.28383520245552063 0.43335235118865967 0.1365000456571579
0.33138224482536316 0.42695125937461853 0.13806648552417755
0.38660541176795959 0.41685587167739868 0.1403554379940033
0.45066830515861511 0.40062248706817627 0.13904231786727905
0.51971960067749023 0.38326349854469299 0.13669842481613159
0.59015220403671265 0.36750578880310059 0.13378444314002991
0.66445744037628174 0.34586992859840393 0.12939098477363586
0.7390446662902832 0.31981316208839417 0.12459579110145569
0.80981892347335815 0.2818024754524231 0.11876358091831207
0.87968498468399048 0.21913732588291168 0.1047251969575882
0.94875305891036987 0.13223612308502197 0.081828080117702484
0.28180316090583801 0.52968651056289673 0.14095185697078705
0.30183899402618408 0.52811741828918457 0.14173929393291473
0.33251583576202393 0.52460050582885742 0.14000171422958374
0.37797644734382629 0.51835894584655762 0.14030817151069641
0.42792010307312012 0.51062470674514771 0.14394515752792358
0.48547238111495972 0.49821755290031433 0.1446472555398941
0.55138111114501953 0.48130080103874207 0.14186112582683563
0.61762416362762451 0.46661144495010376 0.1370386928319931
0.68659931421279907 0.45016181468963623 0.13315242528915405
0.7566831111907959 0.42989161610603333 0.13193961977958679
0.82656288146972656 0.39898496866226196 0.1279771476984024
0.8959234356880188 0.3461621105670929 0.11407896876335144
0.96230578422546387 0.27004635334014893 0.089599192142486572
0.34421196579933167 0.61616343259811401 0.13847824931144714
0.36349469423294067 0.61506849527359009 0.14118024706840515
0.38297143578529358 0.61193519830703735 0.13977095484733582
0.42211207747459412 0.60734778642654419 0.14055009186267853
0.47251823544502258 0.60228967666625977 0.14490038156509399
0.52426517009735107 0.59562474489212036 0.14539214968681335
0.58449697494506836 0.58199340105056763 0.14177203178405762
0.64735698699951172 0.57031387090682983 0.13658274710178375
0.70939475297927856 0.55581390857696533 0.13324800133705139
0.77520912885665894 0.53446757793426514 0.12975005805492401
0.84367519617080688 0.50753217935562134 0.12596835196018219
0.9114997386932373 0.47161230444908142 0.11365818977355957
0.9732062816619873 0.4120216965675354 0.090997986495494843
0.40946134924888611 0.69757825136184692 0.13740813732147217
0.42692750692367554 0.69532614946365356 0.13913720846176147
0.4478754997253418 0.69315755367279053 0.14027164876461029
0.48156636953353882 0.69170230627059937 0.13870406150817871
0.52928239107131958 0.68803530931472778 0.13919162750244141
0.57467639446258545 0.68400633335113525 0.13618114590644836
0.62679463624954224 0.67445516586303711 0.13281804323196411
0.6807485818862915 0.66451585292816162 0.12973152101039886
0.73601758480072021 0.6535833477973938 0.12551821768283844
0.79726600646972656 0.63848549127578735 0.12169720232486725
0.85897606611251831 0.61631953716278076 0.11538724601268768
0.92266333103179932 0.59145420789718628 0.10498666018247604
0.97776085138320923 0.55032104253768921 0.088115572929382324
0.49251943826675415 0.7721284031867981 0.13552677631378174
0.50121951103210449 0.77381640672683716 0.13733446598052979
0.52376723289489746 0.7724984884262085 0.13865038752555847
0.55092364549636841 0.77202725410461426 0.13470688462257385
0.58870679140090942 0.76962441205978394 0.13167205452919006
0.62945103645324707 0.76703476905822754 0.12602339684963226
0.66935336589813232 0.76267081499099731 0.1204511746764183
0.71708238124847412 0.75501453876495361 0.11754100769758224
0.76735550165176392 0.748066246509552 0.11069038510322571
0.82070839405059814 0.73570489883422852 0.10631534457206726
0.87598955631256104 0.72374111413955688 0.097479850053787231
0.9344789981842041 0.7032361626625061 0.087368987500667572
0.98595744371414185 0.67220664024353027 0.07498294860124588
0.58038508892059326 0.85251873731613159 0.12255334109067917
0.58623200654983521 0.85245060920715332 0.12518556416034698
0.60444492101669312 0.85305249691009521 0.12494261562824249
0.62603205442428589 0.85294443368911743 0.12220623344182968
0.64980769157409668 0.85110163688659668 0.1176816001534462
0.68611431121826172 0.84941023588180542 0.11045294255018234
0.71829575300216675 0.84616142511367798 0.1008726954460144
0.75649017095565796 0.84139859676361084 0.096187606453895569
0.79996615648269653 0.83556467294692993 0.085561163723468781
0.84725058078765869 0.82787919044494629 0.071437329053878784
0.89684933423995972 0.82044804096221924 0.059832673519849777
0.94957536458969116 0.80655479431152344 0.053293697535991669
0.99258536100387573 0.78660553693771362 0.047457348555326462
0.66852396726608276 0.93313026428222656 0.10391192138195038
0.67427539825439453 0.93275600671768188 0.10178430378437042
0.68587327003479004 0.93337821960449219 0.0991988405585289
0.69794660806655884 0.93071579933166504 0.097599059343338013
0.71474695205688477 0.92801648378372192 0.094530008733272552
0.7412380576133728 0.92797446250915527 0.088021405041217804
0.76983797550201416 0.92806673049926758 0.074865169823169708
0.80223560333251953 0.92762249708175659 0.061018176376819611
0.83897602558135986 0.92463499307632446 0.044738590717315674
0.87787920236587524 0.91990488767623901 0.028127841651439667
0.92143011093139648 0.91383159160614014 0.014857722446322441
0.96769160032272339 0.90693086385726929 0.011895617470145226
0.99516302347183228 0.89398586750030518 0.012964734807610512
0.015880899503827095 0.031765386462211609 0.11141502857208252
0.048085965216159821 0.028836583718657494 0.11289828270673752
0.093439452350139618 0.024632008746266365 0.11171821504831314
0.15507897734642029 0.019089164212346077 0.11278373748064041
0.22172290086746216 0.014356246218085289 0.11275807023048401
0.28926193714141846 0.0099329631775617599 0.11136941611766815
0.36865842342376709 0.0079048005864024162 0.10971786081790924
0.45568874478340149 0.0056923958472907543 0.1073359027504921
0.54405587911605835 0.0015332240145653486 0.104752317070961
0.63325244188308716 0.0033134459517896175 0.098596550524234772
0.71973979473114014 0.0039126225747168064 0.087556861340999603
0.80660271644592285 0.0039215688593685627 0.068753518164157867
0.89152485132217407 0.0035147273447364569 0.047007840126752853
0.040360067039728165 0.090677566826343536 0.12468978017568588
0.071154020726680756 0.083506837487220764 0.12419024854898453
0.11878541111946106 0.077203474938869476 0.12419962882995605
0.18161286413669586 0.067130863666534424 0.12572735548019409
0.2443997710943222 0.055005524307489395 0.12609903514385223
0.3120153546333313 0.041879616677761078 0.1260388195514679
0.38961678743362427 0.028799304738640785 0.12498614937067032
0.47177812457084656 0.018459215760231018 0.12295959889888763
0.55823522806167603 0.0057915481738746166 0.11891967058181763
0.64373821020126343 0.0043879039585590363 0.11106029152870178
0.72807943820953369 0.0055739311501383781 0.099434807896614075
0.81361550092697144 0.0044078901410102844 0.081347338855266571
0.8959888219833374 0.0021674062591046095 0.060156203806400299
0.079072557389736176 0.15046094357967377 0.13790395855903625
0.10000818222761154 0.14414107799530029 0.13606941699981689
0.14396774768829346 0.13644815981388092 0.13617026805877686
0.20514385402202606 0.1261221319437027 0.13860459625720978
0.26423954963684082 0.11261909455060959 0.13959258794784546
0.33283540606498718 0.095270849764347076 0.13917309045791626
0.41048592329025269 0.074888922274112701 0.13888759911060333
0.48984521627426147 0.050560671836137772 0.1356528103351593
0.57280617952346802 0.026270698755979538 0.13042627274990082
0.65652292966842651 0.012540360912680626 0.12530633807182312
0.74135094881057739 0.010058892890810966 0.11478187888860703
0.82355368137359619 0.0056101628579199314 0.09661325067281723
0.90114712715148926 0.0016106250695884228 0.074183337390422821
0.11172899603843689 0.21315647661685944 0.1495271772146225
0.13194467127323151 0.21002288162708282 0.14970952272415161
0.1699979305267334 0.2033037394285202 0.14916227757930756
0.22820344567298889 0.19373276829719543 0.15069440007209778
0.28586336970329285 0.18176046013832092 0.1526818722486496
0.35450464487075806 0.16323049366474152 0.15287221968173981
0.43169063329696655 0.14131096005439758 0.15195722877979279
0.51027160882949829 0.11389306932687759 0.14837807416915894
0.59123033285140991 0.083752743899822235 0.14254042506217957
0.67499268054962158 0.052963182330131531 0.13792754709720612
0.7567131519317627 0.021812198683619499 0.12681905925273895
0.83448487520217896 0.0066349850967526436 0.111136794090271
0.90840047597885132 0.0013284421293064952 0.089457400143146515
0.12549099326133728 0.28207451105117798 0.16211488842964172
0.15151669085025787 0.27880379557609558 0.16076236963272095
