luts/negative_color/kodak_portra_160_nc.cube
# Created by: G'MIC (https://gmic.eu)
TITLE "kodak_portra_160_nc"
# LUT size
LUT_3D_SIZE 13
# Data domain
DOMAIN_MIN 0.0 0.0 0.0
DOMAIN_MAX 1.0 1.0 1.0
# LUT data points
0.022678360342979431 0.040231186896562576 0.03616802766919136
0.052927218377590179 0.041987460106611252 0.034055672585964203
0.11371102184057236 0.044762540608644485 0.034692216664552689
0.19043028354644775 0.053102783858776093 0.033769793808460236
0.28031054139137268 0.061610560864210129 0.028190119192004204
0.38798943161964417 0.062932245433330536 0.021743161603808403
0.49781566858291626 0.066716000437736511 0.013718144968152046
0.60343927145004272 0.071280263364315033 0.010296151973307133
0.69612079858779907 0.084182754158973694 0.0083588091656565666
0.77707368135452271 0.10696252435445786 0.0050241807475686073
0.85031479597091675 0.13337594270706177 0.0035450654104351997
0.91685301065444946 0.16656211018562317 0.0043288138695061207
0.97353237867355347 0.20464523136615753 0.0065652434714138508
0.01748422347009182 0.072435848414897919 0.042564079165458679
0.044424287974834442 0.077439598739147186 0.038465552031993866
0.11356383562088013 0.091195367276668549 0.031221486628055573
0.20135895907878876 0.10044234246015549 0.027389511466026306
0.29894036054611206 0.104414202272892 0.022885296493768692
0.40590772032737732 0.10924187302589417 0.018311325460672379
0.51204073429107666 0.11328253895044327 0.010258513502776623
0.61578410863876343 0.12011359632015228 0.0067281238734722137
0.70328587293624878 0.13274505734443665 0.0063583971932530403
0.78306859731674194 0.1484125554561615 0.0041469051502645016
0.85155147314071655 0.17228975892066956 0.0043652253225445747
0.91503292322158813 0.20308947563171387 0.0057235569693148136
0.97402727603912354 0.23657356202602386 0.0078905588015913963
0.010866142809391022 0.13978314399719238 0.058015815913677216
0.020120792090892792 0.1357874870300293 0.048601500689983368
0.093480445444583893 0.15571194887161255 0.034335415810346603
0.20600403845310211 0.17467086017131805 0.016911974176764488
0.321734219789505 0.17997746169567108 0.014175893738865852
0.43385764956474304 0.1830601692199707 0.010853531770408154
0.53614449501037598 0.18439498543739319 0.0058787479065358639
0.6296575665473938 0.18930035829544067 0.0047525740228593349
0.71195900440216064 0.19797618687152863 0.0047414889559149742
0.78669023513793945 0.20953284204006195 0.0072049610316753387
0.85846716165542603 0.22650083899497986 0.0075285816565155983
0.92132973670959473 0.25266155600547791 0.007876168005168438
0.97529113292694092 0.277578204870224 0.0060191885568201542
0.0031308790203183889 0.21686825156211853 0.077452413737773895
0.0035584243014454842 0.21533693373203278 0.073364213109016418
0.032779872417449951 0.22998933494091034 0.059185370802879333
0.1651928573846817 0.26205158233642578 0.02553291991353035
0.3302668035030365 0.29149430990219116 0.0063616582192480564
0.46034160256385803 0.28852242231369019 0.0038837208412587643
0.56382083892822266 0.27384161949157715 0.0018061918672174215
0.65153360366821289 0.27328461408615112 0.003099718363955617
0.72989559173583984 0.28015848994255066 0.0038169561885297298
0.79909902811050415 0.28598260879516602 0.0058097690343856812
0.86655718088150024 0.29744145274162292 0.006850014440715313
0.92824184894561768 0.31252926588058472 0.005700339563190937
0.97847861051559448 0.32862555980682373 0.0047412649728357792
0.00022253896167967469 0.30961978435516357 0.10185645520687103
0.0015430225757881999 0.31501337885856628 0.10399847477674484
0.0048027937300503254 0.32566061615943909 0.092838168144226074
0.081366688013076782 0.34888267517089844 0.060927014797925949
0.2785332202911377 0.38020002841949463 0.014472393319010735
0.45769858360290527 0.40499338507652283 0.0010916766477748752
0.57449764013290405 0.39515066146850586 0.00026810591225512326
0.66464883089065552 0.38216301798820496 0.0028406779747456312
0.74301010370254517 0.37586179375648499 0.0038233587983995676
0.81351286172866821 0.36827385425567627 0.0033398945815861225
0.87824183702468872 0.37128749489784241 0.0033233643043786287
0.9337882399559021 0.37958309054374695 0.0041797710582613945
0.98142713308334351 0.38999375700950623 0.0051223156042397022
0 0.40425592660903931 0.14701004326343536
0 0.40666985511779785 0.14971578121185303
0.0017290601972490549 0.41585984826087952 0.1438620537519455
0.024000953882932663 0.4322047233581543 0.12245383113622665
0.19167990982532501 0.45469677448272705 0.073215410113334656
0.38593971729278564 0.48197188973426819 0.020047295838594437
0.55499899387359619 0.50703036785125732 0.0022857815492898226
0.66904366016387939 0.50306427478790283 0.0011565713211894035
0.74714499711990356 0.48205533623695374 0.0017535939114168286
0.82251191139221191 0.45797130465507507 0.00076696358155459166
0.8871116042137146 0.44702601432800293 0.00092043407494202256
0.93884366750717163 0.44942066073417664 0.0028752943035215139
0.9824984073638916 0.45451894402503967 0.0035853218287229538
0 0.49504274129867554 0.20502625405788422
0 0.49401143193244934 0.2024589478969574
0.0013593337498605251 0.49872925877571106 0.19851230084896088
0.0064286775887012482 0.50696086883544922 0.18903002142906189
0.12349598854780197 0.52247041463851929 0.16229723393917084
0.30975174903869629 0.54440933465957642 0.10675593465566635
0.47730773687362671 0.56919258832931519 0.040187418460845947
0.6364704966545105 0.59122079610824585 0.0094069838523864746
0.74447649717330933 0.58706122636795044 0.00050814758287742734
0.81772685050964355 0.56529080867767334 0.00026200237334705889
0.88201898336410522 0.54419434070587158 0.0011810302967205644
0.94167864322662354 0.52633684873580933 0.0029483272228389978
0.98304027318954468 0.52413684129714966 0.0017760182963684201
0 0.57164353132247925 0.25381681323051453
1.0696111530705821e-05 0.57218652963638306 0.25581935048103333
0.0020617765840142965 0.572895348072052 0.2570415735244751
0.0068351747468113899 0.5751914381980896 0.25500914454460144
0.09828842431306839 0.5861240029335022 0.24165169894695282
0.27033194899559021 0.60363090038299561 0.20955562591552734
0.41693750023841858 0.62285387516021729 0.15994963049888611
0.5614514946937561 0.6428292989730835 0.081789113581180573
0.70717722177505493 0.66351938247680664 0.020306352525949478
0.80857503414154053 0.66366589069366455 0.0019894917495548725
0.87358725070953369 0.64390891790390015 0.001569650718010962
0.93618232011795044 0.62102270126342773 0.0040990640409290791
0.98507809638977051 0.60642606019973755 0.0056402017362415791
5.5290671298280358e-05 0.64433795213699341 0.31292781233787537
0.00063074147328734398 0.64437901973724365 0.3164522647857666
0.0017100016120821238 0.64510297775268555 0.31680741906166077
0.02056477777659893 0.6462705135345459 0.31825098395347595
0.13490408658981323 0.64911967515945435 0.31064188480377197
0.26868265867233276 0.66305696964263916 0.29288610816001892
0.39182558655738831 0.67786478996276855 0.26310384273529053
0.51124840974807739 0.69413578510284424 0.22171866893768311
0.63804733753204346 0.70914590358734131 0.15881334245204926
0.76623046398162842 0.72683042287826538 0.069686993956565857
0.86609238386154175 0.73193764686584473 0.015036758966743946
0.9295649528503418 0.71541827917098999 0.023462662473320961
0.98084884881973267 0.69869542121887207 0.048440057784318924
0.0099640935659408569 0.71550101041793823 0.38180434703826904
0.017664277926087379 0.71492725610733032 0.38106322288513184
0.04103151336312294 0.71493840217590332 0.38147389888763428
0.12013283371925354 0.71408480405807495 0.38422873616218567
0.2138262540102005 0.71185809373855591 0.38345780968666077
0.30215206742286682 0.71852612495422363 0.37204438447952271
0.39573916792869568 0.73108136653900146 0.3539244532585144
0.49875262379646301 0.74303555488586426 0.32772275805473328
0.6012413501739502 0.75746923685073853 0.29486274719238281
0.70789092779159546 0.77033138275146484 0.24364396929740906
0.81933838129043579 0.78496289253234863 0.17401830852031708
0.91266787052154541 0.79393190145492554 0.12937630712985992
0.97068041563034058 0.78383451700210571 0.15560068190097809
0.17300710082054138 0.7786441445350647 0.46334201097488403
0.19996339082717896 0.77855980396270752 0.4632716178894043
0.23374232649803162 0.77864652872085571 0.46585801243782043
0.27692186832427979 0.77696347236633301 0.46726277470588684
0.32279321551322937 0.77403169870376587 0.46426033973693848
0.37617188692092896 0.77593547105789185 0.45977309346199036
0.43841150403022766 0.78340870141983032 0.44944187998771667
0.50988912582397461 0.79432713985443115 0.43149641156196594
0.59030818939208984 0.80629688501358032 0.40933114290237427
0.67911720275878906 0.81686949729919434 0.379150390625
0.76985204219818115 0.82664948701858521 0.33967423439025879
0.86611253023147583 0.83955103158950806 0.29218104481697083
0.95567333698272705 0.85426682233810425 0.26601317524909973
0.37918111681938171 0.83875513076782227 0.56443709135055542
0.3926120400428772 0.83876132965087891 0.56656879186630249
0.40698838233947754 0.83882319927215576 0.56600362062454224
0.42366990447044373 0.83791261911392212 0.56541401147842407
0.45304447412490845 0.8360016942024231 0.56555783748626709
0.48472517728805542 0.83640342950820923 0.56383329629898071
0.51969724893569946 0.84000915288925171 0.56059366464614868
0.56595700979232788 0.84847795963287354 0.55012428760528564
0.62141019105911255 0.85862535238265991 0.53672212362289429
0.68891364336013794 0.8681943416595459 0.51887589693069458
0.75998818874359131 0.87641292810440063 0.49193570017814636
0.83167481422424316 0.88479596376419067 0.46129253506660461
0.91146034002304077 0.89599204063415527 0.42248380184173584
0.54153990745544434 0.89944267272949219 0.67118465900421143
0.54687845706939697 0.89866840839385986 0.67276358604431152
0.5552518367767334 0.8985406756401062 0.67269372940063477
0.56339567899703979 0.89838647842407227 0.67348092794418335
0.58114629983901978 0.89825499057769775 0.6766822338104248
0.60225397348403931 0.89830303192138672 0.6770632266998291
0.6259644627571106 0.89997285604476929 0.67805492877960205
0.6526724100112915 0.90571767091751099 0.67320072650909424
0.6849592924118042 0.91387003660202026 0.6643490195274353
0.72722357511520386 0.92313903570175171 0.65605068206787109
0.77563709020614624 0.92917704582214355 0.63876605033874512
0.83072644472122192 0.93615072965621948 0.61811625957489014
0.89045655727386475 0.94342583417892456 0.59455764293670654
0.02538502961397171 0.037639062851667404 0.067079104483127594
0.055112112313508987 0.041346635669469833 0.067226871848106384
0.11053414642810822 0.042900923639535904 0.065152771770954132
0.18815726041793823 0.040629636496305466 0.064397849142551422
0.28526544570922852 0.039005249738693237 0.065228104591369629
0.39399820566177368 0.047163031995296478 0.068489894270896912
0.5009380578994751 0.062875159084796906 0.067697785794734955
0.60506331920623779 0.071519173681735992 0.058997061103582382
0.69448673725128174 0.08916117250919342 0.054642233997583389
0.77481770515441895 0.11320166289806366 0.047708161175251007
0.84618914127349854 0.14098334312438965 0.044601365923881531
0.91283833980560303 0.17496246099472046 0.044664196670055389
0.973316490650177 0.21500438451766968 0.050171498209238052
0.017295477911829948 0.075096115469932556 0.075302645564079285
0.049780122935771942 0.081355057656764984 0.079103700816631317
0.11413433402776718 0.092632085084915161 0.075208105146884918
0.20272642374038696 0.096939012408256531 0.069758199155330658
0.30431398749351501 0.09809461236000061 0.07098657637834549
0.40967488288879395 0.1058165431022644 0.070674866437911987
0.51469534635543823 0.11312472820281982 0.064197003841400146
0.61551856994628906 0.12231820821762085 0.055016223341226578
0.70263540744781494 0.13587719202041626 0.050021663308143616
0.78186243772506714 0.15277509391307831 0.043355066329240799
0.85044771432876587 0.17960330843925476 0.043372001498937607
0.91496372222900391 0.20917853713035583 0.048133324831724167
0.97461044788360596 0.24323530495166779 0.05446663498878479
0.012163558974862099 0.14620524644851685 0.095827348530292511
0.035782698541879654 0.14545166492462158 0.094496630132198334
0.1040993332862854 0.15882804989814758 0.086520098149776459
0.21588219702243805 0.17462959885597229 0.073841840028762817
0.3271181583404541 0.17480181157588959 0.066733688116073608
0.43639737367630005 0.18270058929920197 0.059417665004730225
0.53574615716934204 0.18484818935394287 0.052844896912574768
0.62977582216262817 0.19248403608798981 0.045838598161935806
0.7133672833442688 0.2022680789232254 0.042206797748804092
0.78934234380722046 0.21391496062278748 0.038871452212333679
0.86023068428039551 0.23070350289344788 0.035017155110836029
0.92192244529724121 0.25635150074958801 0.040757168084383011
0.97767603397369385 0.28433749079704285 0.05131307989358902
0.0071869795210659504 0.23115035891532898 0.12359975278377533
0.010324381291866302 0.22749990224838257 0.11732728034257889
0.051424212753772736 0.23575484752655029 0.10880985856056213
0.18684716522693634 0.26710277795791626 0.086228072643280029
0.34295174479484558 0.28895342350006104 0.048059649765491486
0.46353277564048767 0.28404378890991211 0.039477776736021042
0.56336057186126709 0.27450251579284668 0.034495767205953598
0.6514551043510437 0.27520507574081421 0.031344693154096603
0.73082762956619263 0.27882769703865051 0.029166411608457565
0.80193454027175903 0.2852230966091156 0.02870667353272438
0.86815035343170166 0.29818761348724365 0.029535749927163124
0.92906743288040161 0.31318792700767517 0.032916363328695297
0.97935372591018677 0.33154433965682983 0.045918319374322891
0.0041565392166376114 0.32531577348709106 0.15384359657764435
0.0045148963108658791 0.32633328437805176 0.15500606596469879
0.0099317515268921852 0.33086451888084412 0.1457836925983429
0.10823526978492737 0.35382145643234253 0.12196652591228485
0.29884794354438782 0.38601955771446228 0.069613978266716003
0.4650706946849823 0.40537545084953308 0.02363789826631546
0.57693624496459961 0.39185699820518494 0.018490495160222054
0.66852432489395142 0.37447959184646606 0.016612213104963303
0.74533754587173462 0.36800932884216309 0.017292141914367676
0.81447285413742065 0.36463353037834167 0.018768833950161934
0.87865614891052246 0.3676859438419342 0.02027740515768528
0.93513160943984985 0.37914794683456421 0.027735944837331772
0.9833940863609314 0.39282685518264771 0.044575411826372147
0.00093033735174685717 0.41837054491043091 0.19309747219085693
0.0016107148258015513 0.41960495710372925 0.19391272962093353
0.0045715929009020329 0.42217037081718445 0.18997722864151001
0.049463775008916855 0.4342767596244812 0.17426271736621857
0.22139117121696472 0.45874118804931641 0.13729836046695709
0.40000048279762268 0.48405107855796814 0.073411829769611359
0.56302720308303833 0.50594455003738403 0.017328314483165741
0.67207646369934082 0.49577939510345459 0.011394111439585686
0.7502140998840332 0.47114983201026917 0.012328981421887875
0.82125592231750488 0.45261034369468689 0.010845288634300232
0.88448911905288696 0.44664672017097473 0.014996891841292381
0.93930435180664062 0.44926849007606506 0.021780740469694138
0.98499071598052979 0.45598307251930237 0.037340380251407623
0.00043813668889924884 0.50128275156021118 0.23313523828983307
0.00033075668034143746 0.50328981876373291 0.23739378154277802
0.0033852821215987206 0.50345253944396973 0.23668466508388519
0.026417991146445274 0.50747275352478027 0.22939443588256836
0.16858451068401337 0.524830162525177 0.20864866673946381
0.32910305261611938 0.54608839750289917 0.16623607277870178
0.48722279071807861 0.56860065460205078 0.098496563732624054
0.64495241641998291 0.59200739860534668 0.029713410884141922
0.74626892805099487 0.582722008228302 0.009849129244685173
0.81704491376876831 0.56014209985733032 0.012981115840375423
0.88279366493225098 0.54105931520462036 0.011937055736780167
0.94141745567321777 0.52650958299636841 0.022028978914022446
0.98456263542175293 0.52638030052185059 0.04286644235253334
0.00042935539386235178 0.57591706514358521 0.28215217590332031
0.0012710720766335726 0.57737946510314941 0.28849878907203674
0.0024154663551598787 0.57730484008789062 0.28703805804252625
0.02611071988940239 0.57782500982284546 0.28402531147003174
0.15257671475410461 0.5867842435836792 0.27393871545791626
0.29111769795417786 0.60413318872451782 0.24865002930164337
0.42887723445892334 0.62357985973358154 0.20821270346641541
0.57110172510147095 0.64301091432571411 0.1424257755279541
0.71232378482818604 0.66397982835769653 0.056955777108669281
0.81144291162490845 0.66286486387252808 0.019175436347723007
0.8766171932220459 0.64283961057662964 0.024313623085618019
0.93597924709320068 0.62305521965026855 0.039931710809469223
0.98470610380172729 0.60708355903625488 0.062241259962320328
0.0010249867336824536 0.64764201641082764 0.33592379093170166
0.0033231847919523716 0.64886981248855591 0.3387114405632019
0.0098662581294775009 0.6496511697769165 0.33895415067672729
0.066535830497741699 0.64890134334564209 0.33919611573219299
0.17888936400413513 0.64894181489944458 0.33651763200759888
0.2906489372253418 0.66144365072250366 0.32099702954292297
0.40397977828979492 0.67802512645721436 0.29585260152816772
0.52296650409698486 0.69390338659286499 0.25635150074958801
0.64671027660369873 0.7090187668800354 0.20097014307975769
0.768882155418396 0.72652238607406616 0.12753972411155701
0.86610251665115356 0.73096376657485962 0.084210716187953949
0.92688566446304321 0.71424418687820435 0.099078506231307983
0.97686147689819336 0.69800609350204468 0.12807732820510864
0.029356788843870163 0.71760445833206177 0.39724993705749512
0.047696013003587723 0.71806126832962036 0.3987310528755188
0.094240047037601471 0.71762633323669434 0.40044102072715759
0.17630812525749207 0.71499276161193848 0.40233722329139709
0.24761034548282623 0.71415984630584717 0.39995798468589783
0.32437741756439209 0.72027808427810669 0.39302676916122437
0.4099486768245697 0.7305329442024231 0.37683206796646118
0.50591284036636353 0.74302250146865845 0.35106554627418518
0.60373306274414062 0.75660741329193115 0.32005441188812256
0.71111291646957397 0.76883578300476074 0.27567291259765625
0.820809006690979 0.7853313684463501 0.22419112920761108
0.91197878122329712 0.79373699426651001 0.19165398180484772
0.97012871503829956 0.78364980220794678 0.20572343468666077
0.21762974560260773 0.77938604354858398 0.47825965285301208
0.23804172873497009 0.77939355373382568 0.47879835963249207
0.26314803957939148 0.7776949405670166 0.47778648138046265
0.29875314235687256 0.77615892887115479 0.47814887762069702
0.34792622923851013 0.77478629350662231 0.47795394062995911
0.39864006638526917 0.77556788921356201 0.4778296947479248
0.45538726449012756 0.78288143873214722 0.46837571263313293
0.51823592185974121 0.79310613870620728 0.44922474026679993
0.59566199779510498 0.80419301986694336 0.42649716138839722
0.68360894918441772 0.81578963994979858 0.39864593744277954
0.77108561992645264 0.82726675271987915 0.36646389961242676
0.86962413787841797 0.84324002265930176 0.32464599609375
0.95460718870162964 0.85388815402984619 0.29670888185501099
0.40318530797958374 0.84031826257705688 0.57543313503265381
0.40765497088432312 0.83999782800674438 0.574027419090271
0.41524317860603333 0.83715784549713135 0.57232183218002319
0.43349519371986389 0.83680307865142822 0.57412391901016235
0.46393513679504395 0.83566296100616455 0.57779234647750854
0.49656286835670471 0.83506476879119873 0.57849913835525513
0.53407031297683716 0.83961999416351318 0.57404077053070068
0.57467353343963623 0.847423255443573 0.56170260906219482
0.62536787986755371 0.85716134309768677 0.54805725812911987
0.68968039751052856 0.86738681793212891 0.53037625551223755
0.76062166690826416 0.87647825479507446 0.50615841150283813
0.8334534764289856 0.88575953245162964 0.47887271642684937
0.91099518537521362 0.89665365219116211 0.44150954484939575
0.55135369300842285 0.90089726448059082 0.67800271511077881
0.55065441131591797 0.89849847555160522 0.67652660608291626
0.55643141269683838 0.89804792404174805 0.67581957578659058
0.56959682703018188 0.89850908517837524 0.67923998832702637
0.58663469552993774 0.8977084755897522 0.68209362030029297
0.60641402006149292 0.89754420518875122 0.6842266321182251
0.63097900152206421 0.89966398477554321 0.68537181615829468
0.65614885091781616 0.90524160861968994 0.67983996868133545
0.68888711929321289 0.91289108991622925 0.66930651664733887
0.72862046957015991 0.92156070470809937 0.65966343879699707
0.77939873933792114 0.92879533767700195 0.64483296871185303
0.83205533027648926 0.93588453531265259 0.62659913301467896
0.89073419570922852 0.94322186708450317 0.60371708869934082
0.022253358736634254 0.043388515710830688 0.13033652305603027
0.065657220780849457 0.045029133558273315 0.13060705363750458
0.11754333227872849 0.050000492483377457 0.13101606070995331
0.19139142334461212 0.048692066222429276 0.1276126354932785
0.28935515880584717 0.038082916289567947 0.12594512104988098
0.40108734369277954 0.02432047575712204 0.12653012573719025
0.5097847580909729 0.031104203313589096 0.12919934093952179
0.60822492837905884 0.059927668422460556 0.13532468676567078
0.69425815343856812 0.097453400492668152 0.13878375291824341
0.77045011520385742 0.12870049476623535 0.14004452526569366
0.84023964405059814 0.16002294421195984 0.13847832381725311
0.9057697057723999 0.19653235375881195 0.14209315180778503
0.96837162971496582 0.23484040796756744 0.14810055494308472
0.010639190673828125 0.085814967751502991 0.13840019702911377
0.055956568568944931 0.089569538831710815 0.14251308143138885
0.12192066013813019 0.098172970116138458 0.14393661916255951
0.2050812691450119 0.099822700023651123 0.13781113922595978
0.3075728714466095 0.093310520052909851 0.13439260423183441
0.41488713026046753 0.091125518083572388 0.13454674184322357
0.51894044876098633 0.10144191235303879 0.1369389146566391
0.61411148309707642 0.12598545849323273 0.14042142033576965
0.70114195346832275 0.1433476060628891 0.13906455039978027
0.77826732397079468 0.16384589672088623 0.13650964200496674
0.84454464912414551 0.19600050151348114 0.13996633887290955
0.90899550914764404 0.22490620613098145 0.14721809327602386
0.97053426504135132 0.25648680329322815 0.15070073306560516
0.0091210305690765381 0.15490013360977173 0.15140467882156372
0.047733664512634277 0.15865044295787811 0.15537631511688232
0.11909588426351547 0.16633504629135132 0.1580183207988739
0.22021006047725677 0.1750839501619339 0.15243124961853027
0.33245927095413208 0.17579734325408936 0.14521828293800354
0.4372754693031311 0.18427039682865143 0.1463925689458847
0.53330087661743164 0.19095818698406219 0.14382545650005341
0.62596482038497925 0.20392033457756042 0.14107988774776459
0.70951193571090698 0.21573573350906372 0.14063814282417297
0.78561770915985107 0.22856055200099945 0.13604573905467987
0.85302633047103882 0.24667869508266449 0.13587115705013275
0.91698920726776123 0.26759093999862671 0.14171555638313293
0.97467881441116333 0.29520696401596069 0.1516726166009903
0.0076363058760762215 0.23914346098899841 0.17693021893501282
0.04520803689956665 0.2426847368478775 0.18018519878387451
0.10849757492542267 0.24856099486351013 0.18083466589450836
0.21517431735992432 0.26686975359916687 0.16878326237201691
0.3533245325088501 0.28272268176078796 0.15058897435665131
0.46724814176559448 0.28090757131576538 0.14542512595653534
0.56115132570266724 0.27939003705978394 0.1400313675403595
0.6472858190536499 0.28524672985076904 0.13565501570701599
0.72475576400756836 0.29149779677391052 0.13225348293781281
0.79814356565475464 0.29542523622512817 0.13221010565757751
0.86300033330917358 0.31016454100608826 0.13314038515090942
0.92356336116790771 0.3251250684261322 0.13783212006092072
0.97431844472885132 0.34366875886917114 0.15189437568187714
0.013165073469281197 0.34142675995826721 0.22106759250164032
0.036854881793260574 0.34419432282447815 0.22229516506195068
0.074294894933700562 0.34713312983512878 0.21723420917987823
0.16782385110855103 0.35995307564735413 0.20809212327003479
