luts/negative_color/lomography_redscale_100.cube
# Created by: G'MIC (https://gmic.eu)
TITLE "lomography_redscale_100"
# LUT size
LUT_3D_SIZE 7
# Data domain
DOMAIN_MIN 0.0 0.0 0.0
DOMAIN_MAX 1.0 1.0 1.0
# LUT data points
0.021429024636745453 0.011478603817522526 0.012066096998751163
0.096320733428001404 0.022759007290005684 0.023914515972137451
0.21980395913124084 0.03064289502799511 0.069197528064250946
0.3670954704284668 0.052317928522825241 0.12808728218078613
0.52261751890182495 0.078891709446907043 0.19601134955883026
0.6486315131187439 0.10294663906097412 0.24968929588794708
0.75361645221710205 0.11955792456865311 0.29397550225257874
0.032585743814706802 0.051791217178106308 0.017899308353662491
0.095496624708175659 0.066296234726905823 0.030277715995907784
0.20479893684387207 0.085365116596221924 0.065635949373245239
0.3546048104763031 0.11106645315885544 0.12579311430454254
0.52006494998931885 0.14873965084552765 0.1964440643787384
0.66110330820083618 0.16948142647743225 0.25625056028366089
0.76173508167266846 0.182021364569664 0.29889604449272156
0.053773004561662674 0.13369280099868774 0.032836779952049255
0.086318254470825195 0.14500029385089874 0.040608573704957962
0.18502101302146912 0.15881812572479248 0.070834651589393616
0.33938777446746826 0.18568439781665802 0.12150793522596359
0.51684123277664185 0.22555296123027802 0.19670972228050232
0.67477011680603027 0.23876433074474335 0.26331758499145508
0.78347909450531006 0.24539442360401154 0.30950647592544556
0.03241870179772377 0.26406723260879517 0.055959094315767288
0.062795154750347137 0.26854652166366577 0.056145478039979935
0.14386199414730072 0.28016230463981628 0.07352178543806076
0.31228929758071899 0.30269545316696167 0.12824550271034241
0.51035469770431519 0.32804587483406067 0.19727332890033722
0.68771106004714966 0.35072246193885803 0.27106040716171265
0.81326973438262939 0.35930433869361877 0.32453906536102295
0.00083694455679506063 0.41708523035049438 0.08113415539264679
0.0046076006256043911 0.41856205463409424 0.071838170289993286
0.01405709981918335 0.42315614223480225 0.071686059236526489
0.20457147061824799 0.44314664602279663 0.10760728269815445
0.48091530799865723 0.47728011012077332 0.18911673128604889
0.70220404863357544 0.50194525718688965 0.27981352806091309
0.85139340162277222 0.5215073823928833 0.34419664740562439
0 0.58944028615951538 0.11277402937412262
0.0039215688593685627 0.58946877717971802 0.096612684428691864
0.0066338335163891315 0.58570659160614014 0.081755273044109344
0.017397442832589149 0.58708590269088745 0.075148865580558777
0.31970536708831787 0.62083595991134644 0.14517268538475037
0.67425090074539185 0.65904086828231812 0.27124843001365662
0.88044065237045288 0.68179231882095337 0.35918253660202026
0 0.74794352054595947 0.12840282917022705
0 0.74378466606140137 0.10613452643156052
0.00080452713882550597 0.74935871362686157 0.079145856201648712
0.0047857994213700294 0.74817138910293579 0.063248559832572937
0.0086399754509329796 0.75573104619979858 0.061167187988758087
0.34344136714935303 0.79828447103500366 0.15985003113746643
0.86510318517684937 0.85471564531326294 0.35796838998794556
0.037474971264600754 0.019889906048774719 0.051925688982009888
0.13682430982589722 0.038981523364782333 0.069252252578735352
0.25627312064170837 0.052190728485584259 0.10040762275457382
0.39617156982421875 0.076701581478118896 0.14829985797405243
0.54373383522033691 0.094586089253425598 0.20586311817169189
0.66460800170898438 0.11629109084606171 0.25657898187637329
0.75238692760467529 0.13313549757003784 0.29418087005615234
0.069948993623256683 0.078728184103965759 0.066626861691474915
0.12097053974866867 0.087088562548160553 0.074931681156158447
0.23487590253353119 0.10213997215032578 0.093523569405078888
0.37474754452705383 0.12547901272773743 0.13644400238990784
0.53663831949234009 0.16269727051258087 0.20463806390762329
0.67340290546417236 0.1796802282333374 0.26196464896202087
0.76871269941329956 0.1899881511926651 0.30189582705497742
0.077557690441608429 0.15434879064559937 0.077738188207149506
0.10638294368982315 0.17252391576766968 0.089679107069969177
0.21279731392860413 0.18520593643188477 0.10835984349250793
0.37028127908706665 0.20447839796543121 0.14132963120937347
0.53720474243164062 0.23985759913921356 0.20452648401260376
0.67317205667495728 0.25621384382247925 0.26314955949783325
0.79066437482833862 0.256428062915802 0.31198295950889587
0.035346671938896179 0.27850574254989624 0.098704606294631958
0.067390114068984985 0.28494590520858765 0.1014452800154686
0.15340012311935425 0.29692623019218445 0.11146353930234909
0.33417093753814697 0.31798216700553894 0.14238980412483215
0.53585731983184814 0.35219776630401611 0.20806238055229187
0.7018701434135437 0.37736895680427551 0.27764216065406799
0.82108801603317261 0.38276314735412598 0.32755601406097412
0.0016657960368320346 0.43240305781364441 0.12413661926984787
0.0033178441226482391 0.42951211333274841 0.11127114295959473
0.020157922059297562 0.43935897946357727 0.1072203665971756
0.23363161087036133 0.46090355515480042 0.12590280175209045
0.50285798311233521 0.49599498510360718 0.20106716454029083
0.7172664999961853 0.51967936754226685 0.28720834851264954
0.86073613166809082 0.52925318479537964 0.34794777631759644
0 0.58879262208938599 0.14108811318874359
0.0027326545678079128 0.59330922365188599 0.13078898191452026
0.0037198085337877274 0.59242469072341919 0.10927029699087143
0.021655721589922905 0.60074669122695923 0.092873789370059967
0.34837254881858826 0.63229119777679443 0.1526111513376236
0.68688821792602539 0.67095577716827393 0.27765628695487976
0.89043986797332764 0.69548231363296509 0.36253881454467773
0 0.74998098611831665 0.18946364521980286
0 0.7493169903755188 0.16500359773635864
0 0.74605453014373779 0.11707159131765366
0.004076983779668808 0.75294381380081177 0.083139054477214813
0.0066440356895327568 0.76114749908447266 0.062220942229032516
0.36816534399986267 0.80661827325820923 0.16838580369949341
0.86794251203536987 0.86089503765106201 0.35875549912452698
0.070027053356170654 0.042367283254861832 0.12382759898900986
0.17384964227676392 0.05698641762137413 0.13005721569061279
0.29311412572860718 0.070647113025188446 0.14013199508190155
0.43176603317260742 0.097534224390983582 0.17649625241756439
0.57060837745666504 0.11668761074542999 0.22358967363834381
0.67574870586395264 0.13076362013816833 0.26251712441444397
0.76227587461471558 0.14162793755531311 0.29886743426322937
0.10018796473741531 0.1111251562833786 0.1459709107875824
0.15750183165073395 0.11634039878845215 0.14450238645076752
0.27210500836372375 0.13485768437385559 0.1569426953792572
0.40690797567367554 0.15267001092433929 0.17336884140968323
0.56575733423233032 0.18377889692783356 0.22773770987987518
0.69013315439224243 0.19748608767986298 0.27024585008621216
0.77868807315826416 0.20408603549003601 0.30678153038024902
0.10256358236074448 0.19836769998073578 0.17611178755760193
0.13704833388328552 0.20416383445262909 0.16607047617435455
0.24494397640228271 0.21084830164909363 0.17242522537708282
0.40382367372512817 0.23410901427268982 0.1889936625957489
0.57446444034576416 0.26276162266731262 0.22530739009380341
0.69805389642715454 0.27801284193992615 0.27616816759109497
0.80482810735702515 0.28123512864112854 0.31956633925437927
0.053073659539222717 0.3116300106048584 0.1863703578710556
0.08388066291809082 0.3135276734828949 0.18404527008533478
0.18048904836177826 0.32454219460487366 0.18555542826652527
0.37159344553947449 0.35061848163604736 0.20161415636539459
0.56977343559265137 0.37934321165084839 0.23957785964012146
0.72502034902572632 0.39876803755760193 0.28844752907752991
0.84040540456771851 0.40045136213302612 0.33559462428092957
0.0024249507114291191 0.45125171542167664 0.21000844240188599
0.0069809406995773315 0.45850840210914612 0.21237608790397644
0.037941411137580872 0.46745485067367554 0.19738444685935974
0.28009924292564392 0.49071139097213745 0.19946181774139404
0.54332572221755981 0.52230542898178101 0.23051542043685913
0.7323881983757019 0.54414767026901245 0.29589283466339111
0.86959105730056763 0.5509716272354126 0.35211464762687683
0.0028433406259864569 0.61023026704788208 0.25488921999931335
0.0021732104942202568 0.6132279634475708 0.24145221710205078
0.00087280274601653218 0.60372847318649292 0.1962546706199646
0.038519840687513351 0.61817705631256104 0.17380400002002716
0.40879657864570618 0.65474438667297363 0.19732359051704407
0.71611183881759644 0.69378435611724854 0.29248237609863281
0.90319478511810303 0.71290183067321777 0.36945146322250366
0 0.76299625635147095 0.30716326832771301
0 0.7537035346031189 0.28254023194313049
0 0.75079256296157837 0.24899040162563324
0.00019936655007768422 0.75680059194564819 0.17239806056022644
0.010009869933128357 0.77291512489318848 0.093860328197479248
0.41722902655601501 0.82300716638565063 0.18555939197540283
0.88247573375701904 0.87185150384902954 0.36502715945243835
0.099392488598823547 0.062982477247714996 0.21324579417705536
0.21025834977626801 0.085030727088451385 0.21855734288692474
0.33148351311683655 0.10186915844678879 0.2250693291425705
0.46765363216400146 0.12624378502368927 0.23192468285560608
0.60042846202850342 0.14324697852134705 0.2426770031452179
0.69672292470932007 0.15954364836215973 0.27831029891967773
0.7834848165512085 0.16348394751548767 0.31054547429084778
0.11916246265172958 0.1528058648109436 0.24877771735191345
0.20004655420780182 0.16452819108963013 0.24956324696540833
0.31731587648391724 0.17888551950454712 0.25783953070640564
0.45812863111495972 0.19587473571300507 0.26051396131515503
0.60233038663864136 0.2141941636800766 0.26450669765472412
0.70908647775650024 0.22390733659267426 0.28053361177444458
0.79612034559249878 0.23635236918926239 0.316762775182724
0.12760022282600403 0.24284547567367554 0.28185826539993286
0.18204163014888763 0.25209954380989075 0.2786007821559906
0.29887014627456665 0.26677131652832031 0.29520133137702942
0.44856530427932739 0.28436100482940674 0.29784351587295532
0.60718834400177002 0.29812759160995483 0.28858450055122375
0.72957593202590942 0.31397843360900879 0.29268163442611694
0.82459360361099243 0.32350850105285645 0.33037135004997253
0.052065186202526093 0.34778353571891785 0.30673924088478088
0.088337734341621399 0.36072060465812683 0.30782037973403931
0.2290598601102829 0.38343045115470886 0.3205721378326416
0.41715517640113831 0.40569877624511719 0.33360975980758667
0.60532492399215698 0.4258023202419281 0.32547804713249207
0.7550349235534668 0.4378821849822998 0.30864471197128296
0.85668200254440308 0.43691557645797729 0.34536901116371155
0.0075516495853662491 0.48500436544418335 0.33365452289581299
0.011044910177588463 0.49247923493385315 0.33597707748413086
0.072468236088752747 0.50686603784561157 0.34226107597351074
0.34144139289855957 0.5296785831451416 0.35192045569419861
0.58435308933258057 0.56085824966430664 0.34864610433578491
0.76651549339294434 0.58108723163604736 0.32581326365470886
0.88674271106719971 0.58891230821609497 0.36241021752357483
0.0038186914753168821 0.62928056716918945 0.36971619725227356
0.0035144432913511992 0.63001185655593872 0.36474540829658508
0.0044301501475274563 0.62803250551223755 0.3427911102771759
0.07234230637550354 0.64832115173339844 0.34879428148269653
0.46945688128471375 0.68456965684890747 0.35157501697540283
0.74832183122634888 0.71772867441177368 0.33549350500106812
0.92067921161651611 0.73500567674636841 0.38010948896408081
0 0.76791268587112427 0.41469672322273254
0 0.76516187191009521 0.40226644277572632
0 0.77115291357040405 0.38657495379447937
0.0014114829245954752 0.77392947673797607 0.34532842040061951
0.017187993973493576 0.7833980917930603 0.2761891782283783
0.48955950140953064 0.84302562475204468 0.25853720307350159
0.90531855821609497 0.88545191287994385 0.37561768293380737
0.16530273854732513 0.11722434312105179 0.33560240268707275
0.26770678162574768 0.13291813433170319 0.3510681688785553
0.3841823935508728 0.1510503888130188 0.3609066903591156
0.51072561740875244 0.1680266410112381 0.36458739638328552
0.62909692525863647 0.1946043074131012 0.34068506956100464
0.72769546508789062 0.19990132749080658 0.30659976601600647
0.80792665481567383 0.20646460354328156 0.3230954110622406
0.17495296895503998 0.20727109909057617 0.36818093061447144
0.25736993551254272 0.21946707367897034 0.38059273362159729
0.37890535593032837 0.23783037066459656 0.4000307023525238
0.50954711437225342 0.25108093023300171 0.40237894654273987
0.63770526647567749 0.26635017991065979 0.38435891270637512
0.74710190296173096 0.27234980463981628 0.32795572280883789
0.82724004983901978 0.2737443745136261 0.33360829949378967
0.18222039937973022 0.29883581399917603 0.40316617488861084
0.2418895810842514 0.30721789598464966 0.41401347517967224
0.36646229028701782 0.32761350274085999 0.43866312503814697
0.50814247131347656 0.34181255102157593 0.44835132360458374
0.6421239972114563 0.35742029547691345 0.43114122748374939
0.76414793729782104 0.3674170970916748 0.36853697896003723
0.85643374919891357 0.36953017115592957 0.34766152501106262
0.12214501947164536 0.40755939483642578 0.4373931884765625
0.18625950813293457 0.41881874203681946 0.44784489274024963
0.30005916953086853 0.440440833568573 0.46683874726295471
0.48792299628257751 0.46167099475860596 0.48888802528381348
0.64715003967285156 0.47893351316452026 0.47390848398208618
0.78047508001327515 0.49178487062454224 0.41962027549743652
0.88860726356506348 0.49417540431022644 0.36693784594535828
0.0070668389089405537 0.52951455116271973 0.45841267704963684
0.019810441881418228 0.53679120540618896 0.46910393238067627
0.18203909695148468 0.55088478326797485 0.48454558849334717
0.43009835481643677 0.57664048671722412 0.51653695106506348
0.6232108473777771 0.60284781455993652 0.51664060354232788
0.78394931554794312 0.62396848201751709 0.45908293128013611
0.92175179719924927 0.63556933403015137 0.38428595662117004
0.00042021507397294044 0.64759677648544312 0.46718159317970276
0.0035903481766581535 0.65296882390975952 0.47153231501579285
0.0093365991488099098 0.66221845149993896 0.48297819495201111
0.1804354190826416 0.68638342618942261 0.51508504152297974
0.54070764780044556 0.72131502628326416 0.54577732086181641
0.77020758390426636 0.7498285174369812 0.49965161085128784
0.93659216165542603 0.76953494548797607 0.39807847142219543
0 0.77635425329208374 0.50821274518966675
0 0.77900314331054688 0.50612550973892212
0.00083149928832426667 0.78009331226348877 0.49354305863380432
0.002236729022115469 0.79068642854690552 0.48155081272125244
0.048199012875556946 0.807808518409729 0.4827025830745697
0.54971742630004883 0.86609160900115967 0.49713456630706787
0.93215334415435791 0.90916097164154053 0.40624898672103882
0.23321238160133362 0.17047171294689178 0.45484358072280884
0.34419852495193481 0.19483013451099396 0.48308038711547852
0.44848993420600891 0.21444159746170044 0.50222033262252808
0.55570298433303833 0.22908006608486176 0.50649845600128174
0.66116738319396973 0.24740120768547058 0.48343539237976074
0.7568400502204895 0.25083830952644348 0.41084900498390198
0.83595103025436401 0.25433683395385742 0.35125130414962769
0.26635047793388367 0.27465441823005676 0.49529644846916199
0.34720966219902039 0.29367393255233765 0.51541674137115479
0.45505568385124207 0.30678829550743103 0.54086387157440186
0.56128305196762085 0.31854027509689331 0.54950261116027832
0.67324578762054443 0.32467475533485413 0.53381597995758057
0.77167850732803345 0.33620613813400269 0.46809619665145874
0.8562467098236084 0.33683300018310547 0.36273860931396484
0.28758478164672852 0.37685787677764893 0.53384947776794434
0.34566372632980347 0.38966092467308044 0.54885196685791016
0.45608857274055481 0.40186965465545654 0.5764610767364502
0.56475305557250977 0.40977239608764648 0.59452652931213379
0.68441653251647949 0.42009097337722778 0.58672505617141724
0.78898167610168457 0.43375113606452942 0.53630495071411133
0.88227981328964233 0.43383222818374634 0.408333420753479
0.24344591796398163 0.47876974940299988 0.56779772043228149
0.29796427488327026 0.49738603830337524 0.5850030779838562
0.4215521514415741 0.51114720106124878 0.60928404331207275
0.56268227100372314 0.52529537677764893 0.63036054372787476
0.69129830598831177 0.54012501239776611 0.6357538104057312
0.8072507381439209 0.55076748132705688 0.60315150022506714
0.9101794958114624 0.55678999423980713 0.45864301919937134
0.10888239741325378 0.58895426988601685 0.58960056304931641
0.18480148911476135 0.59696114063262939 0.60406959056854248
0.34326711297035217 0.61152088642120361 0.62944382429122925
0.51726627349853516 0.63419938087463379 0.65858417749404907
0.67887133359909058 0.65353965759277344 0.6785615086555481
0.82081049680709839 0.66898185014724731 0.65696042776107788
0.93481391668319702 0.68071109056472778 0.51642721891403198
0.0059510772116482258 0.68937820196151733 0.58595877885818481
0.012764560058712959 0.70003312826156616 0.60104823112487793
0.072388321161270142 0.7115095853805542 0.62349867820739746
0.37322238087654114 0.7371523380279541 0.66985464096069336
0.62722498178482056 0.76530367136001587 0.71105921268463135
0.80413198471069336 0.78852170705795288 0.70089662075042725
0.95516300201416016 0.80752444267272949 0.57072615623474121
0 0.79927366971969604 0.59948182106018066
0.0011185141047462821 0.80095964670181274 0.59987205266952515
0.002072248375043273 0.80346572399139404 0.59751957654953003
0.0086115514859557152 0.80818378925323486 0.60448068380355835
0.15519669651985168 0.84199517965316772 0.64695507287979126
0.63540339469909668 0.89385354518890381 0.71869510412216187
0.94498854875564575 0.93103194236755371 0.60180103778839111
0.34325596690177917 0.25784957408905029 0.58178949356079102
0.43576008081436157 0.27826970815658569 0.6093483567237854
0.52026671171188354 0.3015480637550354 0.63112407922744751
0.61016631126403809 0.31149002909660339 0.64670449495315552
0.70378947257995605 0.32469961047172546 0.64613062143325806
0.78402435779571533 0.32974147796630859 0.60582107305526733
0.85844451189041138 0.32592013478279114 0.4709923267364502
0.39430692791938782 0.36119681596755981 0.6235852837562561
0.44033211469650269 0.37436780333518982 0.63594454526901245
0.52261102199554443 0.38751760125160217 0.65758907794952393
0.62083488702774048 0.40186053514480591 0.6791611909866333
0.71809792518615723 0.41088303923606873 0.67986971139907837
0.80199539661407471 0.4181530773639679 0.65752124786376953
0.87612926959991455 0.41743367910385132 0.55336600542068481
0.42020198702812195 0.45880496501922607 0.66569209098815918
0.46293306350708008 0.46632617712020874 0.67204314470291138
0.53426223993301392 0.48209390044212341 0.69551640748977661
0.63505440950393677 0.49624884128570557 0.72039306163787842
0.73704719543457031 0.5054439902305603 0.72725337743759155
0.82159847021102905 0.51406627893447876 0.71536409854888916
0.89455258846282959 0.51538634300231934 0.6315956711769104
0.4207090437412262 0.55933171510696411 0.7041698694229126
0.4610135555267334 0.56964606046676636 0.71387547254562378
0.53941470384597778 0.58431833982467651 0.74084031581878662
0.64381140470504761 0.59662079811096191 0.7619059681892395
0.74797731637954712 0.60662144422531128 0.77167594432830811
0.84005802869796753 0.62189221382141113 0.77267700433731079
0.91647064685821533 0.62824165821075439 0.71161603927612305
0.36726906895637512 0.66247940063476562 0.73392313718795776
0.4183165431022644 0.66936951875686646 0.74578070640563965
0.52083104848861694 0.68673378229141235 0.77162939310073853
0.63821017742156982 0.70196038484573364 0.80080163478851318
0.74694669246673584 0.71389317512512207 0.81726694107055664
0.85323768854141235 0.72838503122329712 0.81841588020324707
0.93870323896408081 0.73906910419464111 0.7786717414855957
0.15635943412780762 0.76204109191894531 0.73844343423843384
0.23666507005691528 0.76836037635803223 0.75098389387130737
0.4037315845489502 0.78394955396652222 0.78302001953125
0.57215732336044312 0.8012465238571167 0.82134354114532471
0.72182768583297729 0.82121819257736206 0.85600805282592773
0.85242271423339844 0.84044373035430908 0.87442702054977417
0.957069993019104 0.85455751419067383 0.84058523178100586
0.003063142066821456 0.82967472076416016 0.67150866985321045
0.00083120010094717145 0.82565075159072876 0.67310875654220581
0.013157055713236332 0.84050798416137695 0.69615322351455688
0.11438489705324173 0.85961008071899414 0.74102365970611572
0.44046840071678162 0.89590573310852051 0.82338130474090576
0.76489198207855225 0.93249630928039551 0.89671003818511963
0.95604038238525391 0.95688718557357788 0.90197122097015381
