luts/negative_color/lomography_redscale_100.cube
# Created by: G'MIC (https://gmic.eu)
TITLE "lomography_redscale_100"
# LUT size
LUT_3D_SIZE 5
# Data domain
DOMAIN_MIN 0.0 0.0 0.0
DOMAIN_MAX 1.0 1.0 1.0
# LUT data points
0.021429024636745453 0.011478603817522526 0.012066096998751163
0.15541268885135651 0.02802804671227932 0.044245671480894089
0.3670954704284668 0.052317928522825241 0.12808728218078613
0.59115248918533325 0.090447582304477692 0.22518435120582581
0.75361645221710205 0.11955792456865311 0.29397550225257874
0.04433753713965416 0.09115002304315567 0.025537857785820961
0.14411745965480804 0.10571622848510742 0.049503028392791748
0.34445944428443909 0.14355622231960297 0.12223616987466812
0.59906148910522461 0.19664086401462555 0.23081967234611511
0.77124631404876709 0.21381890773773193 0.30352255702018738
0.03241870179772377 0.26406723260879517 0.055959094315767288
0.094457231462001801 0.27110826969146729 0.059447780251502991
0.31228929758071899 0.30269545316696167 0.12824550271034241
0.60102570056915283 0.34190768003463745 0.23484063148498535
0.81326973438262939 0.35930433869361877 0.32453906536102295
0 0.50421100854873657 0.097314216196537018
0.0065076341852545738 0.50425589084625244 0.079676158726215363
0.079139530658721924 0.51753103733062744 0.095353923738002777
0.57786697149276733 0.56942427158355713 0.22923509776592255
0.86926114559173584 0.5998426079750061 0.35300078988075256
0 0.74794352054595947 0.12840282917022705
0.00022475299192592502 0.75026237964630127 0.091738589107990265
0.0047857994213700294 0.74817138910293579 0.063248559832572937
0.064284563064575195 0.7658117413520813 0.081696741282939911
0.86510318517684937 0.85471564531326294 0.35796838998794556
0.051339317113161087 0.029555182904005051 0.081167139112949371
0.21500732004642487 0.052791878581047058 0.10317322611808777
0.41414865851402283 0.086596392095088959 0.16250631213188171
0.61957579851150513 0.11158175021409988 0.23828676342964172
0.75548839569091797 0.13789653778076172 0.29596826434135437
0.098384633660316467 0.13204199075698853 0.11167380958795547
0.18207450211048126 0.14389120042324066 0.1181739941239357
0.38472512364387512 0.17338071763515472 0.14972439408302307
0.6209263801574707 0.22071681916713715 0.24174231290817261
0.78563112020492554 0.22677229344844818 0.3095187246799469
0.041653726249933243 0.29273706674575806 0.13621522486209869
0.10784144699573517 0.29984644055366516 0.1367562860250473
0.34880486130714417 0.33133000135421753 0.1641962081193924
0.63916254043579102 0.37770277261734009 0.25168415904045105
0.82998168468475342 0.3883327841758728 0.33059906959533691
0 0.51918309926986694 0.17177718877792358
0.0039252038113772869 0.52407294511795044 0.15800563991069794
0.14059516787528992 0.54353344440460205 0.14142358303070068
0.61115074157714844 0.59508675336837769 0.24553598463535309
0.88406586647033691 0.62295335531234741 0.35912159085273743
0 0.7544018030166626 0.2451111227273941
0 0.75182878971099854 0.20486460626125336
0.0016816381830722094 0.75655966997146606 0.11673423647880554
0.094168148934841156 0.78209197521209717 0.086557962000370026
0.87787586450576782 0.8665090799331665 0.36250144243240356
0.099392488598823547 0.062982477247714996 0.21324579417705536
0.26887044310569763 0.092112235724925995 0.2211926281452179
0.46765363216400146 0.12624378502368927 0.23192468285560608
0.65065151453018188 0.15333516895771027 0.2598361074924469
0.7834848165512085 0.16348394751548767 0.31054547429084778
0.12604805827140808 0.19939661026000977 0.26713231205940247
0.24830372631549835 0.21253816783428192 0.26877051591873169
0.45420399308204651 0.23541830480098724 0.27756676077842712
0.66874784231185913 0.25461599230766296 0.26911574602127075
0.80842369794845581 0.27858820557594299 0.32285401225090027
0.052065186202526093 0.34778353571891785 0.30673924088478088
0.15025603771209717 0.37315866351127625 0.31435421109199524
0.41715517640113831 0.40569877624511719 0.33360975980758667
0.6853058934211731 0.43328145146369934 0.30880197882652283
0.85668200254440308 0.43691557645797729 0.34536901116371155
0.0046669603325426579 0.55680006742477417 0.35056522488594055
0.0050862780772149563 0.56288236379623413 0.3437570333480835
0.24547557532787323 0.59057021141052246 0.35589522123336792
0.66389542818069458 0.63673001527786255 0.34453278779983521
0.90463936328887939 0.6622011661529541 0.37172400951385498
0 0.76791268587112427 0.41469672322273254
0 0.76478904485702515 0.39456683397293091
0.0014114829245954752 0.77392947673797607 0.34532842040061951
0.17264826595783234 0.80949550867080688 0.2511177659034729
0.90531855821609497 0.88545191287994385 0.37561768293380737
0.19953636825084686 0.14400283992290497 0.39570420980453491
0.35760176181793213 0.16709758341312408 0.4260210394859314
0.53000617027282715 0.19399721920490265 0.43524548411369324
0.69292634725570679 0.22282670438289642 0.37466412782669067
0.82322132587432861 0.22484047710895538 0.33142787218093872
0.22371356189250946 0.28636056184768677 0.4490850567817688
0.35276755690574646 0.30751937627792358 0.47835218906402588
0.53421247005462646 0.32513540983200073 0.50015491247177124
0.71632140874862671 0.33896324038505554 0.45813694596290588
0.85490089654922485 0.34482833743095398 0.35776349902153015
0.17664748430252075 0.44128593802452087 0.50163811445236206
0.28979066014289856 0.46652311086654663 0.52732354402542114
0.52736002206802368 0.49077832698822021 0.56226855516433716
0.73399621248245239 0.51675689220428467 0.54331696033477783
0.90111202001571655 0.52693599462509155 0.39475628733634949
0.003692567115649581 0.61117160320281982 0.524056077003479
0.036856543272733688 0.62312281131744385 0.54473668336868286
0.40973019599914551 0.6575779914855957 0.59707272052764893
0.71526229381561279 0.69538009166717529 0.60742270946502686
0.94020265340805054 0.72131586074829102 0.43546703457832336
0 0.7852664589881897 0.55359405279159546
2.2618911316385493e-05 0.78644722700119019 0.54689317941665649
0.0030839508399367332 0.79772049188613892 0.54377943277359009
0.3105933666229248 0.85023921728134155 0.59510737657546997
0.93876338005065918 0.91900086402893066 0.46941912174224854
0.34325596690177917 0.25784957408905029 0.58178949356079102
0.4791361391544342 0.29289072751998901 0.62105977535247803
0.61016631126403809 0.31149002909660339 0.64670449495315552
0.74549359083175659 0.32786357402801514 0.6338457465171814
0.85844451189041138 0.32592013478279114 0.4709923267364502
0.40538504719734192 0.40748834609985352 0.64217913150787354
0.48436477780342102 0.42675253748893738 0.66294717788696289
0.62880206108093262 0.4488147497177124 0.69982874393463135
0.76969581842422485 0.45928469300270081 0.70078033208847046
0.8858606219291687 0.46356379985809326 0.59233707189559937
0.4207090437412262 0.55933171510696411 0.7041698694229126
0.49194827675819397 0.5766417384147644 0.72456496953964233
0.64381140470504761 0.59662079811096191 0.7619059681892395
0.79353129863739014 0.61248964071273804 0.77383583784103394
0.91647064685821533 0.62824165821075439 0.71161603927612305
0.29526636004447937 0.71390414237976074 0.74303489923477173
0.42122390866279602 0.72627937793731689 0.76556652784347534
0.61956179141998291 0.75232607126235962 0.81550478935241699
0.80376982688903809 0.77706652879714966 0.84724980592727661
0.94767552614212036 0.79598689079284668 0.80926036834716797
0.003063142066821456 0.82967472076416016 0.67150866985321045
0.0079860314726829529 0.83524113893508911 0.68586081266403198
0.11438489705324173 0.85961008071899414 0.74102365970611572
0.6196972131729126 0.91523641347885132 0.86578834056854248
0.95604038238525391 0.95688718557357788 0.90197122097015381
