luts/negative_color/lomography_redscale_100.cube
# Created by: G'MIC (https://gmic.eu)
TITLE "lomography_redscale_100"
# LUT size
LUT_3D_SIZE 13
# Data domain
DOMAIN_MIN 0.0 0.0 0.0
DOMAIN_MAX 1.0 1.0 1.0
# LUT data points
0.021429024636745453 0.011478603817522526 0.012066096998751163
0.055194046348333359 0.016731919720768929 0.017166361212730408
0.096320733428001404 0.022759007290005684 0.023914515972137451
0.15541268885135651 0.02802804671227932 0.044245671480894089
0.21980395913124084 0.03064289502799511 0.069197528064250946
0.28804197907447815 0.036965899169445038 0.095070093870162964
0.3670954704284668 0.052317928522825241 0.12808728218078613
0.44604390859603882 0.067226365208625793 0.16281002759933472
0.52261751890182495 0.078891709446907043 0.19601134955883026
0.59115248918533325 0.090447582304477692 0.22518435120582581
0.6486315131187439 0.10294663906097412 0.24968929588794708
0.70479375123977661 0.11349037289619446 0.27358129620552063
0.75361645221710205 0.11955792456865311 0.29397550225257874
0.027009448036551476 0.027520840987563133 0.014385373331606388
0.057923275977373123 0.03233400359749794 0.019433712586760521
0.094228915870189667 0.037582248449325562 0.02512848749756813
0.14969663321971893 0.04760405421257019 0.042530208826065063
0.21322712302207947 0.056253649294376373 0.067350603640079498
0.28228381276130676 0.065838009119033813 0.094248436391353607
0.36294993758201599 0.080907233059406281 0.12789495289325714
0.44279506802558899 0.095990650355815887 0.16255253553390503
0.52076858282089233 0.1120779737830162 0.19611908495426178
0.59446185827255249 0.12451442331075668 0.22721932828426361
0.65401750802993774 0.13382740318775177 0.25253236293792725
0.70942205190658569 0.14369514584541321 0.27607792615890503
0.75593960285186768 0.14974343776702881 0.29606437683105469
0.032585743814706802 0.051791217178106308 0.017899308353662491
0.060087494552135468 0.058525130152702332 0.023505013436079025
0.095496624708175659 0.066296234726905823 0.030277715995907784
0.14670863747596741 0.075910814106464386 0.045220512896776199
0.20479893684387207 0.085365116596221924 0.065635949373245239
0.27345719933509827 0.095469065010547638 0.091974101960659027
0.3546048104763031 0.11106645315885544 0.12579311430454254
0.4373939037322998 0.12952211499214172 0.16135270893573761
0.52006494998931885 0.14873965084552765 0.1964440643787384
0.59739762544631958 0.16116152703762054 0.22923092544078827
0.66110330820083618 0.16948142647743225 0.25625056028366089
0.71565485000610352 0.17769874632358551 0.2793375551700592
0.76173508167266846 0.182021364569664 0.29889604449272156
0.04433753713965416 0.09115002304315567 0.025537857785820961
0.0639076828956604 0.090673066675662994 0.027467990294098854
0.092872932553291321 0.095516905188560486 0.033347681164741516
0.14411745965480804 0.10571622848510742 0.049503028392791748
0.19705308973789215 0.11470860242843628 0.06610330194234848
0.26132795214653015 0.12455121427774429 0.087765909731388092
0.34445944428443909 0.14355622231960297 0.12223616987466812
0.43245753645896912 0.16577602922916412 0.15973818302154541
0.51881879568099976 0.18458431959152222 0.19650764763355255
0.59906148910522461 0.19664086401462555 0.23081967234611511
0.66827231645584106 0.20472940802574158 0.25988864898681641
0.72401010990142822 0.21114790439605713 0.28354516625404358
0.77124631404876709 0.21381890773773193 0.30352255702018738
0.053773004561662674 0.13369280099868774 0.032836779952049255
0.067529402673244476 0.13770431280136108 0.035485733300447464
0.086318254470825195 0.14500029385089874 0.040608573704957962
0.13200937211513519 0.15291112661361694 0.054754085838794708
0.18502101302146912 0.15881812572479248 0.070834651589393616
0.25027060508728027 0.16602492332458496 0.087700851261615753
0.33938777446746826 0.18568439781665802 0.12150793522596359
0.42981088161468506 0.2089577317237854 0.160353884100914
0.51684123277664185 0.22555296123027802 0.19670972228050232
0.59997403621673584 0.23315168917179108 0.23165246844291687
0.67477011680603027 0.23876433074474335 0.26331758499145508
0.73404335975646973 0.24368980526924133 0.28827294707298279
0.78347909450531006 0.24539442360401154 0.30950647592544556
0.048997648060321808 0.19014690816402435 0.041888456791639328
0.062271073460578918 0.19818291068077087 0.04583408311009407
0.080063134431838989 0.20520901679992676 0.049404758960008621
0.1153034120798111 0.21202376484870911 0.057770147919654846
0.16755062341690063 0.21814209222793579 0.072477467358112335
0.23637786507606506 0.22780179977416992 0.093817420303821564
0.32970085740089417 0.24007353186607361 0.1238534078001976
0.42409804463386536 0.26005691289901733 0.16084223985671997
0.51231902837753296 0.27483868598937988 0.19652572274208069
0.59887802600860596 0.27925091981887817 0.23249676823616028
0.68073052167892456 0.28004801273345947 0.26646560430526733
0.7458261251449585 0.28487831354141235 0.29408007860183716
0.79744124412536621 0.28562426567077637 0.31610435247421265
0.03241870179772377 0.26406723260879517 0.055959094315767288
0.042981706559658051 0.26655745506286621 0.055556338280439377
0.062795154750347137 0.26854652166366577 0.056145478039979935
0.094457231462001801 0.27110826969146729 0.059447780251502991
0.14386199414730072 0.28016230463981628 0.07352178543806076
0.21227827668190002 0.29381856322288513 0.099412404000759125
0.31228929758071899 0.30269545316696167 0.12824550271034241
0.41727611422538757 0.31389006972312927 0.16108472645282745
0.51035469770431519 0.32804587483406067 0.19727332890033722
0.60102570056915283 0.34190768003463745 0.23484063148498535
0.68771106004714966 0.35072246193885803 0.27106040716171265
0.75938987731933594 0.35697907209396362 0.30146074295043945
0.81326973438262939 0.35930433869361877 0.32453906536102295
0.013400702737271786 0.33723467588424683 0.068584010004997253
0.01760152168571949 0.33985462784767151 0.066044196486473083
0.02254638634622097 0.33870059251785278 0.061203647404909134
0.041443079710006714 0.34005606174468994 0.061220895498991013
0.068326838314533234 0.34814214706420898 0.069825626909732819
0.14358335733413696 0.35961559414863586 0.091406442224979401
0.26589792966842651 0.37042462825775146 0.12083403766155243
0.38863465189933777 0.38023203611373901 0.15595875680446625
0.50586581230163574 0.39720052480697632 0.19711878895759583
0.60928595066070557 0.41411396861076355 0.23948377370834351
0.69619184732437134 0.42587247490882874 0.27614262700080872
0.76913601160049438 0.43509060144424438 0.30738440155982971
0.83229964971542358 0.44157183170318604 0.33438661694526672
0.00083694455679506063 0.41708523035049438 0.08113415539264679
0.0040776422247290611 0.42027032375335693 0.078240007162094116
0.0046076006256043911 0.41856205463409424 0.071838170289993286
0.0078388284891843796 0.41862830519676208 0.067978754639625549
0.01405709981918335 0.42315614223480225 0.071686059236526489
0.071288332343101501 0.42945671081542969 0.082679316401481628
0.20457147061824799 0.44314664602279663 0.10760728269815445
0.34637683629989624 0.45850613713264465 0.14517851173877716
0.48091530799865723 0.47728011012077332 0.18911673128604889
0.60048645734786987 0.49034827947616577 0.23723135888576508
0.70220404863357544 0.50194525718688965 0.27981352806091309
0.78187644481658936 0.51263856887817383 0.31437405943870544
0.85139340162277222 0.5215073823928833 0.34419664740562439
0 0.50421100854873657 0.097314216196537018
0.0032010246068239212 0.50594216585159302 0.093344531953334808
0.0039215688593685627 0.50511085987091064 0.085948973894119263
0.0065076341852545738 0.50425589084625244 0.079676158726215363
0.011093499138951302 0.50470411777496338 0.079818204045295715
0.026488315314054489 0.5082276463508606 0.083966724574565887
0.079139530658721924 0.51753103733062744 0.095353923738002777
0.26175791025161743 0.53245043754577637 0.12889231741428375
0.43660953640937805 0.55295437574386597 0.17560450732707977
0.57786697149276733 0.56942427158355713 0.22923509776592255
0.69455713033676147 0.58163559436798096 0.27788537740707397
0.78617620468139648 0.59033757448196411 0.31822264194488525
0.86926114559173584 0.5998426079750061 0.35300078988075256
0 0.58944028615951538 0.11277402937412262
0.0029810736887156963 0.58979827165603638 0.10829702764749527
0.0039215688593685627 0.58946877717971802 0.096612684428691864
0.0045919381082057953 0.5879281759262085 0.087062552571296692
0.0066338335163891315 0.58570659160614014 0.081755273044109344
0.0072926240973174572 0.58356958627700806 0.072109028697013855
0.017397442832589149 0.58708590269088745 0.075148865580558777
0.10819848626852036 0.59998542070388794 0.10185167193412781
0.31970536708831787 0.62083595991134644 0.14517268538475037
0.51901596784591675 0.64237302541732788 0.20941424369812012
0.67425090074539185 0.65904086828231812 0.27124843001365662
0.78418725728988647 0.67007428407669067 0.31849315762519836
0.88044065237045288 0.68179231882095337 0.35918253660202026
0 0.67178487777709961 0.12181447446346283
0.00078367342939600348 0.67167967557907104 0.11461471766233444
0.0022457647137343884 0.67162990570068359 0.10245591402053833
0.003649543272331357 0.6706242561340332 0.090558908879756927
0.0039215688593685627 0.66811841726303101 0.08097897469997406
0.0034453000407665968 0.66506218910217285 0.068395964801311493
0.0065755206160247326 0.66571283340454102 0.067403681576251984
0.011371777392923832 0.6720917820930481 0.080333620309829712
0.095373474061489105 0.68573153018951416 0.10127539187669754
0.36065810918807983 0.70931810140609741 0.16046638786792755
0.60718905925750732 0.73487424850463867 0.2473607063293457
0.77007186412811279 0.7551645040512085 0.31517201662063599
0.88524055480957031 0.76929008960723877 0.36290314793586731
0 0.74794352054595947 0.12840282917022705
0 0.74303555488586426 0.11916925758123398
0 0.74378466606140137 0.10613452643156052
0.00022475299192592502 0.75026237964630127 0.091738589107990265
0.00080452713882550597 0.74935871362686157 0.079145856201648712
0.0014305413933470845 0.74891394376754761 0.067293681204319
0.0047857994213700294 0.74817138910293579 0.063248559832572937
0.0060767829418182373 0.74758309125900269 0.060571290552616119
0.0086399754509329796 0.75573104619979858 0.061167187988758087
0.064284563064575195 0.7658117413520813 0.081696741282939911
0.34344136714935303 0.79828447103500366 0.15985003113746643
0.66591894626617432 0.83165127038955688 0.27564075589179993
0.86510318517684937 0.85471564531326294 0.35796838998794556
0.03054516389966011 0.016101013869047165 0.031877286732196808
0.066351465880870819 0.022471917793154716 0.037183243781328201
0.11541172116994858 0.031244629994034767 0.045653309673070908
0.17327776551246643 0.037661846727132797 0.06157214567065239
0.23641662299633026 0.041715029627084732 0.084070183336734772
0.30386507511138916 0.051381263881921768 0.10730592161417007
0.37939319014549255 0.06362421065568924 0.13582460582256317
0.45745813846588135 0.076080158352851868 0.16842152178287506
0.53292638063430786 0.08795592188835144 0.20076471567153931
0.60093849897384644 0.099301174283027649 0.22964498400688171
0.65789085626602173 0.11027982831001282 0.25380104780197144
0.71087861061096191 0.12016799300909042 0.27611526846885681
0.7524295449256897 0.12680476903915405 0.29388019442558289
0.038064379245042801 0.035484854131937027 0.035160377621650696
0.067763172090053558 0.041615445166826248 0.040078360587358475
0.1098143607378006 0.049546245485544205 0.047720637172460556
0.16475978493690491 0.057343263179063797 0.059322897344827652
0.22645998001098633 0.065169453620910645 0.078362710773944855
0.29416850209236145 0.074859172105789185 0.10239730775356293
0.3723565936088562 0.088605292141437531 0.13348901271820068
0.45221242308616638 0.10357646644115448 0.16740946471691132
0.53077524900436401 0.11943469941616058 0.20065192878246307
0.60349303483963013 0.131037637591362 0.23135051131248474
0.66221392154693604 0.13940282166004181 0.25625994801521301
0.71501213312149048 0.14815756678581238 0.278717041015625
0.75784099102020264 0.15379104018211365 0.29688712954521179
0.050398342311382294 0.064846411347389221 0.041326083242893219
0.071874164044857025 0.069086186587810516 0.044970434159040451
0.10765916109085083 0.076284177601337433 0.05153362825512886
0.1602930873632431 0.084563493728637695 0.062108207494020462
0.218211829662323 0.093007750809192657 0.076596640050411224
0.28539523482322693 0.10287800431251526 0.099405162036418915
0.36515256762504578 0.11840703338384628 0.13160456717014313
0.44750550389289856 0.13767580687999725 0.16627141833305359
0.52921342849731445 0.15621890127658844 0.20057205855846405
0.60441082715988159 0.16741226613521576 0.2323102205991745
0.66764867305755615 0.17430427670478821 0.25922146439552307
0.72075986862182617 0.18084940314292908 0.28165850043296814
0.76490145921707153 0.1854328066110611 0.30009108781814575
0.05861237645149231 0.10086745023727417 0.045851148664951324
0.07688247412443161 0.10253763943910599 0.049683976918458939
0.10534100979566574 0.10923556238412857 0.056793421506881714
0.15506868064403534 0.11697130650281906 0.06816534698009491
0.21025140583515167 0.12500685453414917 0.081495143473148346
0.2750287652015686 0.13439089059829712 0.098094090819358826
0.35762503743171692 0.15306586027145386 0.12897087633609772
0.44557604193687439 0.17603826522827148 0.16603215038776398
0.52913659811019897 0.19447174668312073 0.20095446705818176
0.60444188117980957 0.20393477380275726 0.23278756439685822
0.67201167345046997 0.20997816324234009 0.26176100969314575
0.72779852151870728 0.21471427381038666 0.28512775897979736
0.77407485246658325 0.21796749532222748 0.30452796816825867
0.064337171614170074 0.14144015312194824 0.050445705652236938
0.077834531664848328 0.14761592447757721 0.056164298206567764
0.096401289105415344 0.15770785510540009 0.064559862017631531
0.14006240665912628 0.16520345211029053 0.075920641422271729
0.19592392444610596 0.17172358930110931 0.089091986417770386
0.26707702875137329 0.17795343697071075 0.1028120294213295
0.35541883111000061 0.19444775581359863 0.12999188899993896
0.44636863470077515 0.21644040942192078 0.16637776792049408
0.52940273284912109 0.23300045728683472 0.20127908885478973
0.6046481728553772 0.24175447225570679 0.23333144187927246
0.67477995157241821 0.24741458892822266 0.26352387666702271
0.7358585000038147 0.25064030289649963 0.28906863927841187
0.78523749113082886 0.25185695290565491 0.31010597944259644
0.056546065956354141 0.1985098272562027 0.059465862810611725
0.069443769752979279 0.20508100092411041 0.064307466149330139
0.087126143276691437 0.21441695094108582 0.071687348186969757
0.12218445539474487 0.22256964445114136 0.079689174890518188
0.17583166062831879 0.22822991013526917 0.088275834918022156
0.2483053058385849 0.23447185754776001 0.10419459640979767
0.34469574689865112 0.24738700687885284 0.13253796100616455
0.44115278124809265 0.26393169164657593 0.16652645170688629
0.52716261148452759 0.27881923317909241 0.20161063969135284
0.60767894983291626 0.28923404216766357 0.23576772212982178
0.68329238891601562 0.29747858643531799 0.26795157790184021
0.74726271629333496 0.3009476363658905 0.29505634307861328
0.79826951026916504 0.30157506465911865 0.31654933094978333
0.03560556098818779 0.27041465044021606 0.074103832244873047
0.0442669577896595 0.27170610427856445 0.072969816625118256
0.063393928110599518 0.27632823586463928 0.076441578567028046
0.095333322882652283 0.28294947743415833 0.082187578082084656
0.1468731164932251 0.28701451420783997 0.086560100317001343
0.22170938551425934 0.29466599225997925 0.10343074053525925
0.32307255268096924 0.30849578976631165 0.13338737189769745
0.42625030875205994 0.32178565859794617 0.1657835841178894
0.52072376012802124 0.33809790015220642 0.2013280838727951
0.60925585031509399 0.35379213094711304 0.23867228627204895
0.69329643249511719 0.36494991183280945 0.27389794588088989
0.76250338554382324 0.37021663784980774 0.30306494235992432
0.81658607721328735 0.37269148230552673 0.32602149248123169
0.013702706433832645 0.345926433801651 0.089662589132785797
0.016743319109082222 0.34503808617591858 0.084474422037601471
0.023839060217142105 0.34593957662582397 0.081242084503173828
0.037482541054487228 0.35075977444648743 0.081879362463951111
0.069282248616218567 0.35553181171417236 0.084299392998218536
0.16392284631729126 0.36366569995880127 0.099595420062541962
0.28110784292221069 0.37594610452651978 0.12644191086292267
0.39597821235656738 0.38934949040412903 0.16048993170261383
0.50933158397674561 0.40871900320053101 0.19978691637516022
0.61099112033843994 0.42590701580047607 0.2410862147808075
0.70088553428649902 0.4369388222694397 0.2787991464138031
0.7753785252571106 0.44305822253227234 0.31027135252952576
0.83854836225509644 0.4473535418510437 0.33714035153388977
0.001732306438498199 0.42469990253448486 0.10059665143489838
0.0041002011857926846 0.42471876740455627 0.095841377973556519
0.0056044785305857658 0.42509603500366211 0.090777665376663208
0.0089641492813825607 0.42850065231323242 0.087626166641712189
0.017003137618303299 0.43068218231201172 0.085629373788833618
0.088770724833011627 0.43749630451202393 0.095060504972934723
0.21361418068408966 0.45004400610923767 0.1133376806974411
0.34892097115516663 0.46513882279396057 0.14961819350719452
0.48856401443481445 0.48427796363830566 0.19415237009525299
0.60584014654159546 0.49930489063262939 0.2395826131105423
0.70836043357849121 0.5103762149810791 0.28354060649871826
0.78760349750518799 0.51768702268600464 0.31707111001014709
0.85669118165969849 0.52221691608428955 0.3465149998664856
0 0.50608348846435547 0.11039367318153381
0.0034447016660124063 0.50754767656326294 0.10676684230566025
0.0041763307526707649 0.50832021236419678 0.10124475508928299
0.0077792447991669178 0.50991761684417725 0.096422038972377777
0.0094412108883261681 0.51006996631622314 0.090307511389255524
0.02227630652487278 0.51286441087722778 0.089354105293750763
0.096115335822105408 0.52260792255401611 0.099345080554485321
0.27283951640129089 0.53830379247665405 0.13128882646560669
0.43699052929878235 0.55744034051895142 0.17791327834129333
0.57979273796081543 0.5733482837677002 0.23048302531242371
0.69950294494628906 0.58607238531112671 0.2806001603603363
0.78985595703125 0.59522652626037598 0.31912040710449219
0.86878770589828491 0.60342526435852051 0.35260474681854248
0 0.58818584680557251 0.12271704524755478
0.002834125654771924 0.58938485383987427 0.11761182546615601
0.0039209104143083096 0.59049129486083984 0.10958774387836456
0.0045069227926433086 0.5905526876449585 0.10139851272106171
0.0048823487013578415 0.58959674835205078 0.091798104345798492
0.0056302836164832115 0.5876840353012085 0.079856798052787781
0.02143230102956295 0.59288805723190308 0.083750657737255096
0.12234260886907578 0.60502350330352783 0.10584691166877747
0.33087080717086792 0.62439590692520142 0.1475575864315033
0.52142608165740967 0.64493817090988159 0.21035262942314148
0.67616099119186401 0.66323685646057129 0.27286311984062195
0.79165756702423096 0.67681044340133667 0.32139897346496582
0.88522189855575562 0.6874656081199646 0.36072626709938049
0 0.66944557428359985 0.13426938652992249
0.00015369489847216755 0.66897261142730713 0.12650229036808014
0.0014434366021305323 0.6713988184928894 0.11712302267551422
0.0027898452244699001 0.67094522714614868 0.10516825318336487
0.0036010441835969687 0.66977971792221069 0.092943869531154633
0.0037958931643515825 0.66893267631530762 0.078643515706062317
0.012369866482913494 0.67062979936599731 0.079102657735347748
0.023228185251355171 0.67611241340637207 0.086404614150524139
0.10709002614021301 0.68933647871017456 0.10385936498641968
0.37643659114837646 0.71330404281616211 0.16466593742370605
0.61077207326889038 0.73852819204330444 0.24886208772659302
0.77098917961120605 0.75854933261871338 0.31547367572784424
0.88149046897888184 0.77167212963104248 0.36137911677360535
0 0.74602311849594116 0.15480495989322662
0 0.74232929944992065 0.14330647885799408
0 0.74535006284713745 0.13191927969455719
1.6156365063579869e-06 0.74875980615615845 0.11451776325702667
0.00039616005960851908 0.74681985378265381 0.092586040496826172
0.0026586942840367556 0.74859422445297241 0.079539291560649872
0.0081408778205513954 0.74683582782745361 0.073606021702289581
0.010430295020341873 0.74780875444412231 0.065995447337627411
0.0075030010193586349 0.75596201419830322 0.06222858652472496
0.068935498595237732 0.76872414350509644 0.081401422619819641
0.35144427418708801 0.80149972438812256 0.16226711869239807
0.67527079582214355 0.83478790521621704 0.27972406148910522
0.86179941892623901 0.85705363750457764 0.35590639710426331
0.037474971264600754 0.019889906048774719 0.051925688982009888
0.082323066890239716 0.029656862840056419 0.059937406331300735
0.13682430982589722 0.038981523364782333 0.069252252578735352
0.1943543404340744 0.045845046639442444 0.081352502107620239
0.25627312064170837 0.052190728485584259 0.10040762275457382
0.32412275671958923 0.064611770212650299 0.12272744625806808
0.39617156982421875 0.076701581478118896 0.14829985797405243
0.46908175945281982 0.085240371525287628 0.17565494775772095
0.54373383522033691 0.094586089253425598 0.20586311817169189
0.61162960529327393 0.10560404509305954 0.23438255488872528
0.66460800170898438 0.11629109084606171 0.25657898187637329
0.71199101209640503 0.12611131370067596 0.27710768580436707
0.75238692760467529 0.13313549757003784 0.29418087005615234
0.051508374512195587 0.046462833881378174 0.058834090828895569
0.080289311707019806 0.052480481564998627 0.063273683190345764
0.12874338030815125 0.061110686510801315 0.071710474789142609
0.18494284152984619 0.067700222134590149 0.08221086859703064
0.24451372027397156 0.07524089515209198 0.094816230237483978
0.3104492723941803 0.086357802152633667 0.11480343341827393
0.38417300581932068 0.098496288061141968 0.14131756126880646
0.46115139126777649 0.11093069612979889 0.17221459746360779
0.539764404296875 0.12621559202671051 0.20507606863975525
0.61245203018188477 0.13795056939125061 0.23563478887081146
0.66963487863540649 0.14524397253990173 0.25973901152610779
0.71828514337539673 0.1531689316034317 0.28004956245422363
0.75898110866546631 0.15965189039707184 0.29753807187080383
0.069948993623256683 0.078728184103965759 0.066626861691474915
0.085091941058635712 0.08068518340587616 0.068542167544364929
0.12097053974866867 0.087088562548160553 0.074931681156158447
0.17575158178806305 0.094853341579437256 0.084567591547966003
0.23487590253353119 0.10213997215032578 0.093523569405078888
0.29870092868804932 0.11083988845348358 0.10782506316900253
0.37474754452705383 0.12547901272773743 0.13644400238990784
0.45549380779266357 0.14418672025203705 0.17035089433193207
0.53663831949234009 0.16269727051258087 0.20463806390762329
0.61072772741317749 0.17426373064517975 0.23563702404499054
0.67340290546417236 0.1796802282333374 0.26196464896202087
0.72650110721588135 0.18479253351688385 0.28399857878684998
0.76871269941329956 0.1899881511926651 0.30189582705497742
0.07757258415222168 0.11397899687290192 0.071784928441047668
0.090409286320209503 0.11584693938493729 0.074320398271083832
0.1153489351272583 0.12201526015996933 0.080521769821643829
0.16619938611984253 0.13017596304416656 0.090634137392044067
0.22473722696304321 0.13797576725482941 0.099647015333175659
0.28987130522727966 0.14551545679569244 0.1102956160902977
0.37119662761688232 0.16245754063129425 0.13626454770565033
0.4552045464515686 0.18363581597805023 0.17099407315254211
0.53643524646759033 0.2011706680059433 0.204747274518013
0.60759985446929932 0.2109062671661377 0.23451937735080719
0.67254292964935303 0.21571189165115356 0.26231306791305542
0.73261028528213501 0.21855627000331879 0.28729099035263062
0.77987980842590332 0.22109407186508179 0.30687570571899414
0.077557690441608429 0.15434879064559937 0.077738188207149506
0.088915206491947174 0.16188830137252808 0.082300491631031036
0.10638294368982315 0.17252391576766968 0.089679107069969177
0.14998374879360199 0.17969737946987152 0.099412374198436737
0.21279731392860413 0.18520593643188477 0.10835984349250793
