luts/bw/agfa_apx_25.cube
# Created by: G'MIC (https://gmic.eu)
TITLE "agfa_apx_25"
# LUT size
LUT_3D_SIZE 7
# Data domain
DOMAIN_MIN 0.0 0.0 0.0
DOMAIN_MAX 1.0 1.0 1.0
# LUT data points
0.016226839274168015 0.016226839274168015 0.016226839274168015
0.024030214175581932 0.024030214175581932 0.024030214175581932
0.05004718154668808 0.05004718154668808 0.05004718154668808
0.10530802607536316 0.10530802607536316 0.10530802607536316
0.20437417924404144 0.20437417924404144 0.20437417924404144
0.34933659434318542 0.34933659434318542 0.34933659434318542
0.50789868831634521 0.50789868831634521 0.50789868831634521
0.099323511123657227 0.099323511123657227 0.099323511123657227
0.13359305262565613 0.13359305262565613 0.13359305262565613
0.17796008288860321 0.17796008288860321 0.17796008288860321
0.24244405329227448 0.24244405329227448 0.24244405329227448
0.33328154683113098 0.33328154683113098 0.33328154683113098
0.44811207056045532 0.44811207056045532 0.44811207056045532
0.57685309648513794 0.57685309648513794 0.57685309648513794
0.25687921047210693 0.25687921047210693 0.25687921047210693
0.28583991527557373 0.28583991527557373 0.28583991527557373
0.32596763968467712 0.32596763968467712 0.32596763968467712
0.37998479604721069 0.37998479604721069 0.37998479604721069
0.45167037844657898 0.45167037844657898 0.45167037844657898
0.54049241542816162 0.54049241542816162 0.54049241542816162
0.64109921455383301 0.64109921455383301 0.64109921455383301
0.45680290460586548 0.45680290460586548 0.45680290460586548
0.46692192554473877 0.46692192554473877 0.46692192554473877
0.48549360036849976 0.48549360036849976 0.48549360036849976
0.51851761341094971 0.51851761341094971 0.51851761341094971
0.56749832630157471 0.56749832630157471 0.56749832630157471
0.63175815343856812 0.63175815343856812 0.63175815343856812
0.70894533395767212 0.70894533395767212 0.70894533395767212
0.63891923427581787 0.63891923427581787 0.63891923427581787
0.63754111528396606 0.63754111528396606 0.63754111528396606
0.63868927955627441 0.63868927955627441 0.63868927955627441
0.65242147445678711 0.65242147445678711 0.65242147445678711
0.68097007274627686 0.68097007274627686 0.68097007274627686
0.72452682256698608 0.72452682256698608 0.72452682256698608
0.78207409381866455 0.78207409381866455 0.78207409381866455
0.78120309114456177 0.78120309114456177 0.78120309114456177
0.78012585639953613 0.78012585639953613 0.78012585639953613
0.77472060918807983 0.77472060918807983 0.77472060918807983
0.77643299102783203 0.77643299102783203 0.77643299102783203
0.78990912437438965 0.78990912437438965 0.78990912437438965
0.81717562675476074 0.81717562675476074 0.81717562675476074
0.85890680551528931 0.85890680551528931 0.85890680551528931
0.90301609039306641 0.90301609039306641 0.90301609039306641
0.9009169340133667 0.9009169340133667 0.9009169340133667
0.89354544878005981 0.89354544878005981 0.89354544878005981
0.88955128192901611 0.88955128192901611 0.88955128192901611
0.89393699169158936 0.89393699169158936 0.89393699169158936
0.91008377075195312 0.91008377075195312 0.91008377075195312
0.94020205736160278 0.94020205736160278 0.94020205736160278
0.020231703296303749 0.020231703296303749 0.020231703296303749
0.040260091423988342 0.040260091423988342 0.040260091423988342
0.077331185340881348 0.077331185340881348 0.077331185340881348
0.14949290454387665 0.14949290454387665 0.14949290454387665
0.25419899821281433 0.25419899821281433 0.25419899821281433
0.37935954332351685 0.37935954332351685 0.37935954332351685
0.52981680631637573 0.52981680631637573 0.52981680631637573
0.13491086661815643 0.13491086661815643 0.13491086661815643
0.16345122456550598 0.16345122456550598 0.16345122456550598
0.20838207006454468 0.20838207006454468 0.20838207006454468
0.27799832820892334 0.27799832820892334 0.27799832820892334
0.36886399984359741 0.36886399984359741 0.36886399984359741
0.47488740086555481 0.47488740086555481 0.47488740086555481
0.59833240509033203 0.59833240509033203 0.59833240509033203
0.29250073432922363 0.29250073432922363 0.29250073432922363
0.31758445501327515 0.31758445501327515 0.31758445501327515
0.3548220694065094 0.3548220694065094 0.3548220694065094
0.40787801146507263 0.40787801146507263 0.40787801146507263
0.47713929414749146 0.47713929414749146 0.47713929414749146
0.56032150983810425 0.56032150983810425 0.56032150983810425
0.65686076879501343 0.65686076879501343 0.65686076879501343
0.478899747133255 0.478899747133255 0.478899747133255
0.49071869254112244 0.49071869254112244 0.49071869254112244
0.50887781381607056 0.50887781381607056 0.50887781381607056
0.54013049602508545 0.54013049602508545 0.54013049602508545
0.58607524633407593 0.58607524633407593 0.58607524633407593
0.64622747898101807 0.64622747898101807 0.64622747898101807
0.72002673149108887 0.72002673149108887 0.72002673149108887
0.65161508321762085 0.65161508321762085 0.65161508321762085
0.65373057126998901 0.65373057126998901 0.65373057126998901
0.65599328279495239 0.65599328279495239 0.65599328279495239
0.66854655742645264 0.66854655742645264 0.66854655742645264
0.69462645053863525 0.69462645053863525 0.69462645053863525
0.73503923416137695 0.73503923416137695 0.73503923416137695
0.79006326198577881 0.79006326198577881 0.79006326198577881
0.79242712259292603 0.79242712259292603 0.79242712259292603
0.79179662466049194 0.79179662466049194 0.79179662466049194
0.7868192195892334 0.7868192195892334 0.7868192195892334
0.78762608766555786 0.78762608766555786 0.78762608766555786
0.79928243160247803 0.79928243160247803 0.79928243160247803
0.8242417573928833 0.8242417573928833 0.8242417573928833
0.8638533353805542 0.8638533353805542 0.8638533353805542
0.91074264049530029 0.91074264049530029 0.91074264049530029
0.90903306007385254 0.90903306007385254 0.90903306007385254
0.90133410692214966 0.90133410692214966 0.90133410692214966
0.89631170034408569 0.89631170034408569 0.89631170034408569
0.89926999807357788 0.89926999807357788 0.89926999807357788
0.91369861364364624 0.91369861364364624 0.91369861364364624
0.94193774461746216 0.94193774461746216 0.94193774461746216
0.038271315395832062 0.038271315395832062 0.038271315395832062
0.069899328052997589 0.069899328052997589 0.069899328052997589
0.11225427687168121 0.11225427687168121 0.11225427687168121
0.18192291259765625 0.18192291259765625 0.18192291259765625
0.28892654180526733 0.28892654180526733 0.28892654180526733
0.41798436641693115 0.41798436641693115 0.41798436641693115
0.56435668468475342 0.56435668468475342 0.56435668468475342
0.1765914112329483 0.1765914112329483 0.1765914112329483
0.20608283579349518 0.20608283579349518 0.20608283579349518
0.24658413231372833 0.24658413231372833 0.24658413231372833
0.30934065580368042 0.30934065580368042 0.30934065580368042
0.39773404598236084 0.39773404598236084 0.39773404598236084
0.50511348247528076 0.50511348247528076 0.50511348247528076
0.62563955783843994 0.62563955783843994 0.62563955783843994
0.33548229932785034 0.33548229932785034 0.33548229932785034
0.35883000493049622 0.35883000493049622 0.35883000493049622
0.39102658629417419 0.39102658629417419 0.39102658629417419
0.43872112035751343 0.43872112035751343 0.43872112035751343
0.50432008504867554 0.50432008504867554 0.50432008504867554
0.58483171463012695 0.58483171463012695 0.58483171463012695
0.67766022682189941 0.67766022682189941 0.67766022682189941
0.50358009338378906 0.50358009338378906 0.50358009338378906
0.51784038543701172 0.51784038543701172 0.51784038543701172
0.53622043132781982 0.53622043132781982 0.53622043132781982
0.56565976142883301 0.56565976142883301 0.56565976142883301
0.60895758867263794 0.60895758867263794 0.60895758867263794
0.66583997011184692 0.66583997011184692 0.66583997011184692
0.73602259159088135 0.73602259159088135 0.73602259159088135
0.66107159852981567 0.66107159852981567 0.66107159852981567
0.6674424409866333 0.6674424409866333 0.6674424409866333
0.67342036962509155 0.67342036962509155 0.67342036962509155
0.68714892864227295 0.68714892864227295 0.68714892864227295
0.7120019793510437 0.7120019793510437 0.7120019793510437
0.75005424022674561 0.75005424022674561 0.75005424022674561
0.80173307657241821 0.80173307657241821 0.80173307657241821
0.7966611385345459 0.7966611385345459 0.7966611385345459
0.79818153381347656 0.79818153381347656 0.79818153381347656
0.79653555154800415 0.79653555154800415 0.79653555154800415
0.79935747385025024 0.79935747385025024 0.79935747385025024
0.81115394830703735 0.81115394830703735 0.81115394830703735
0.83457601070404053 0.83457601070404053 0.83457601070404053
0.87175637483596802 0.87175637483596802 0.87175637483596802
0.91239482164382935 0.91239482164382935 0.91239482164382935
0.91169494390487671 0.91169494390487671 0.91169494390487671
0.90618997812271118 0.90618997812271118 0.90618997812271118
0.90270382165908813 0.90270382165908813 0.90270382165908813
0.90602594614028931 0.90602594614028931 0.90602594614028931
0.91942602396011353 0.91942602396011353 0.91942602396011353
0.94597941637039185 0.94597941637039185 0.94597941637039185
0.079698704183101654 0.079698704183101654 0.079698704183101654
0.12638680636882782 0.12638680636882782 0.12638680636882782
0.17013360559940338 0.17013360559940338 0.17013360559940338
0.23715761303901672 0.23715761303901672 0.23715761303901672
0.34036937355995178 0.34036937355995178 0.34036937355995178
0.4683525562286377 0.4683525562286377 0.4683525562286377
0.60479331016540527 0.60479331016540527 0.60479331016540527
0.23321141302585602 0.23321141302585602 0.23321141302585602
0.26710605621337891 0.26710605621337891 0.26710605621337891
0.30180567502975464 0.30180567502975464 0.30180567502975464
0.35659605264663696 0.35659605264663696 0.35659605264663696
0.43987724184989929 0.43987724184989929 0.43987724184989929
0.54463225603103638 0.54463225603103638 0.54463225603103638
0.65820252895355225 0.65820252895355225 0.65820252895355225
0.38836631178855896 0.38836631178855896 0.38836631178855896
0.41126722097396851 0.41126722097396851 0.41126722097396851
0.43813815712928772 0.43813815712928772 0.43813815712928772
0.47957596182823181 0.47957596182823181 0.47957596182823181
0.54043310880661011 0.54043310880661011 0.54043310880661011
0.61761653423309326 0.61761653423309326 0.61761653423309326
0.70579320192337036 0.70579320192337036 0.70579320192337036
0.539603590965271 0.539603590965271 0.539603590965271
0.55402326583862305 0.55402326583862305 0.55402326583862305
0.57119286060333252 0.57119286060333252 0.57119286060333252
0.59818857908248901 0.59818857908248901 0.59818857908248901
0.63893431425094604 0.63893431425094604 0.63893431425094604
0.69293272495269775 0.69293272495269775 0.69293272495269775
0.75851422548294067 0.75851422548294067 0.75851422548294067
0.6799505352973938 0.6799505352973938 0.6799505352973938
0.68791496753692627 0.68791496753692627 0.68791496753692627
0.69610774517059326 0.69610774517059326 0.69610774517059326
0.71057796478271484 0.71057796478271484 0.71057796478271484
0.73501938581466675 0.73501938581466675 0.73501938581466675
0.77071154117584229 0.77071154117584229 0.77071154117584229
0.81827765703201294 0.81827765703201294 0.81827765703201294
0.80438125133514404 0.80438125133514404 0.80438125133514404
0.80801099538803101 0.80801099538803101 0.80801099538803101
0.8096005916595459 0.8096005916595459 0.8096005916595459
0.81476962566375732 0.81476962566375732 0.81476962566375732
0.82710033655166626 0.82710033655166626 0.82710033655166626
0.84893548488616943 0.84893548488616943 0.84893548488616943
0.88245946168899536 0.88245946168899536 0.88245946168899536
0.91438442468643188 0.91438442468643188 0.91438442468643188
0.91479939222335815 0.91479939222335815 0.91479939222335815
0.91228502988815308 0.91228502988815308 0.91228502988815308
0.91118860244750977 0.91118860244750977 0.91118860244750977
0.91533154249191284 0.91533154249191284 0.91533154249191284
0.92759519815444946 0.92759519815444946 0.92759519815444946
0.95154815912246704 0.95154815912246704 0.95154815912246704
0.15786081552505493 0.15786081552505493 0.15786081552505493
0.21159933507442474 0.21159933507442474 0.21159933507442474
0.24922758340835571 0.24922758340835571 0.24922758340835571
0.30974015593528748 0.30974015593528748 0.30974015593528748
0.40587431192398071 0.40587431192398071 0.40587431192398071
0.52020877599716187 0.52020877599716187 0.52020877599716187
0.63686060905456543 0.63686060905456543 0.63686060905456543
0.31289166212081909 0.31289166212081909 0.31289166212081909
0.34715548157691956 0.34715548157691956 0.34715548157691956
0.37445136904716492 0.37445136904716492 0.37445136904716492
0.42133072018623352 0.42133072018623352 0.42133072018623352
0.49617022275924683 0.49617022275924683 0.49617022275924683
0.58919245004653931 0.58919245004653931 0.58919245004653931
0.68832093477249146 0.68832093477249146 0.68832093477249146
0.45525878667831421 0.45525878667831421 0.45525878667831421
0.47615236043930054 0.47615236043930054 0.47615236043930054
0.49767401814460754 0.49767401814460754 0.49767401814460754
0.53320324420928955 0.53320324420928955 0.53320324420928955
0.58709961175918579 0.58709961175918579 0.58709961175918579
0.65600019693374634 0.65600019693374634 0.65600019693374634
0.73402774333953857 0.73402774333953857 0.73402774333953857
0.58876091241836548 0.58876091241836548 0.58876091241836548
0.60111737251281738 0.60111737251281738 0.60111737251281738
0.6156468391418457 0.6156468391418457 0.6156468391418457
0.64003467559814453 0.64003467559814453 0.64003467559814453
0.67674428224563599 0.67674428224563599 0.67674428224563599
0.7251899242401123 0.7251899242401123 0.7251899242401123
0.78310048580169678 0.78310048580169678 0.78310048580169678
0.71053987741470337 0.71053987741470337 0.71053987741470337
0.71840733289718628 0.71840733289718628 0.71840733289718628
0.72682863473892212 0.72682863473892212 0.72682863473892212
0.74141198396682739 0.74141198396682739 0.74141198396682739
0.76477062702178955 0.76477062702178955 0.76477062702178955
0.79662406444549561 0.79662406444549561 0.79662406444549561
0.83783179521560669 0.83783179521560669 0.83783179521560669
0.82078039646148682 0.82078039646148682 0.82078039646148682
0.82502007484436035 0.82502007484436035 0.82502007484436035
0.82883608341217041 0.82883608341217041 0.82883608341217041
0.83611428737640381 0.83611428737640381 0.83611428737640381
0.84895592927932739 0.84895592927932739 0.84895592927932739
0.86819785833358765 0.86819785833358765 0.86819785833358765
0.89589476585388184 0.89589476585388184 0.89589476585388184
0.92133527994155884 0.92133527994155884 0.92133527994155884
0.92293143272399902 0.92293143272399902 0.92293143272399902
0.92286926507949829 0.92286926507949829 0.92286926507949829
0.92426931858062744 0.92426931858062744 0.92426931858062744
0.92913591861724854 0.92913591861724854 0.92913591861724854
0.93912774324417114 0.93912774324417114 0.93912774324417114
0.95820492506027222 0.95820492506027222 0.95820492506027222
0.26333877444267273 0.26333877444267273 0.26333877444267273
0.30924984812736511 0.30924984812736511 0.30924984812736511
0.34970518946647644 0.34970518946647644 0.34970518946647644
0.40577545762062073 0.40577545762062073 0.40577545762062073
0.48640638589859009 0.48640638589859009 0.48640638589859009
0.57914823293685913 0.57914823293685913 0.57914823293685913
0.67534095048904419 0.67534095048904419 0.67534095048904419
0.40420818328857422 0.40420818328857422 0.40420818328857422
0.43431282043457031 0.43431282043457031 0.43431282043457031
0.46173465251922607 0.46173465251922607 0.46173465251922607
0.50416773557662964 0.50416773557662964 0.50416773557662964
0.56516385078430176 0.56516385078430176 0.56516385078430176
0.63970482349395752 0.63970482349395752 0.63970482349395752
0.72134995460510254 0.72134995460510254 0.72134995460510254
0.53420686721801758 0.53420686721801758 0.53420686721801758
0.54903459548950195 0.54903459548950195 0.54903459548950195
0.56715375185012817 0.56715375185012817 0.56715375185012817
0.59867817163467407 0.59867817163467407 0.59867817163467407
0.64310473203659058 0.64310473203659058 0.64310473203659058
0.69838029146194458 0.69838029146194458 0.69838029146194458
0.76320213079452515 0.76320213079452515 0.76320213079452515
0.64912253618240356 0.64912253618240356 0.64912253618240356
0.65719246864318848 0.65719246864318848 0.65719246864318848
0.66868704557418823 0.66868704557418823 0.66868704557418823
0.6903681755065918 0.6903681755065918 0.6903681755065918
0.7215082049369812 0.7215082049369812 0.7215082049369812
0.76097828149795532 0.76097828149795532 0.76097828149795532
0.8097527027130127 0.8097527027130127 0.8097527027130127
0.75159251689910889 0.75159251689910889 0.75159251689910889
0.75791126489639282 0.75791126489639282 0.75791126489639282
0.7655072808265686 0.7655072808265686 0.7655072808265686
0.77932202816009521 0.77932202816009521 0.77932202816009521
0.80036896467208862 0.80036896467208862 0.80036896467208862
0.82706332206726074 0.82706332206726074 0.82706332206726074
0.86053550243377686 0.86053550243377686 0.86053550243377686
0.84550541639328003 0.84550541639328003 0.84550541639328003
0.85033321380615234 0.85033321380615234 0.85033321380615234
0.85521769523620605 0.85521769523620605 0.85521769523620605
0.86344492435455322 0.86344492435455322 0.86344492435455322
0.87674093246459961 0.87674093246459961 0.87674093246459961
0.89315438270568848 0.89315438270568848 0.89315438270568848
0.91239959001541138 0.91239959001541138 0.91239959001541138
0.93489545583724976 0.93489545583724976 0.93489545583724976
0.93768942356109619 0.93768942356109619 0.93768942356109619
0.93986648321151733 0.93986648321151733 0.93986648321151733
0.94280385971069336 0.94280385971069336 0.94280385971069336
0.94803923368453979 0.94803923368453979 0.94803923368453979
0.95463615655899048 0.95463615655899048 0.95463615655899048
0.96622228622436523 0.96622228622436523 0.96622228622436523
0.37069660425186157 0.37069660425186157 0.37069660425186157
0.41457560658454895 0.41457560658454895 0.41457560658454895
0.4625641405582428 0.4625641405582428 0.4625641405582428
0.51764839887619019 0.51764839887619019 0.51764839887619019
0.57498264312744141 0.57498264312744141 0.57498264312744141
0.64380168914794922 0.64380168914794922 0.64380168914794922
0.7212594747543335 0.7212594747543335 0.7212594747543335
0.49891170859336853 0.49891170859336853 0.49891170859336853
0.52702295780181885 0.52702295780181885 0.52702295780181885
0.55742001533508301 0.55742001533508301 0.55742001533508301
0.59611225128173828 0.59611225128173828 0.59611225128173828
0.64145666360855103 0.64145666360855103 0.64145666360855103
0.69571506977081299 0.69571506977081299 0.69571506977081299
0.75998693704605103 0.75998693704605103 0.75998693704605103
0.61859589815139771 0.61859589815139771 0.61859589815139771
0.62809807062149048 0.62809807062149048 0.62809807062149048
0.64388942718505859 0.64388942718505859 0.64388942718505859
0.67098063230514526 0.67098063230514526 0.67098063230514526
0.70488637685775757 0.70488637685775757 0.70488637685775757
0.74549484252929688 0.74549484252929688 0.74549484252929688
0.7965359091758728 0.7965359091758728 0.7965359091758728
0.7145925760269165 0.7145925760269165 0.7145925760269165
0.72005957365036011 0.72005957365036011 0.72005957365036011
0.72875487804412842 0.72875487804412842 0.72875487804412842
0.74697387218475342 0.74697387218475342 0.74697387218475342
0.77103465795516968 0.77103465795516968 0.77103465795516968
0.80143040418624878 0.80143040418624878 0.80143040418624878
0.84102272987365723 0.84102272987365723 0.84102272987365723
0.79858964681625366 0.79858964681625366 0.79858964681625366
0.80460590124130249 0.80460590124130249 0.80460590124130249
0.81094598770141602 0.81094598770141602 0.81094598770141602
0.82263606786727905 0.82263606786727905 0.82263606786727905
0.83963626623153687 0.83963626623153687 0.83963626623153687
0.860645592212677 0.860645592212677 0.860645592212677
0.8877028226852417 0.8877028226852417 0.8877028226852417
0.877788245677948 0.877788245677948 0.877788245677948
0.88367933034896851 0.88367933034896851 0.88367933034896851
0.88827770948410034 0.88827770948410034 0.88827770948410034
0.89607864618301392 0.89607864618301392 0.89607864618301392
0.90713649988174438 0.90713649988174438 0.90713649988174438
0.91974800825119019 0.91974800825119019 0.91974800825119019
0.93298256397247314 0.93298256397247314 0.93298256397247314
0.95596164464950562 0.95596164464950562 0.95596164464950562
0.96045142412185669 0.96045142412185669 0.96045142412185669
0.96376347541809082 0.96376347541809082 0.96376347541809082
0.96723461151123047 0.96723461151123047 0.96723461151123047
0.97110533714294434 0.97110533714294434 0.97110533714294434
0.97384041547775269 0.97384041547775269 0.97384041547775269
0.97845077514648438 0.97845077514648438 0.97845077514648438
