luts/bw/agfa_apx_25.cube
# Created by: G'MIC (https://gmic.eu)
TITLE "agfa_apx_25"
# LUT size
LUT_3D_SIZE 5
# Data domain
DOMAIN_MIN 0.0 0.0 0.0
DOMAIN_MAX 1.0 1.0 1.0
# LUT data points
0.016226839274168015 0.016226839274168015 0.016226839274168015
0.033987335860729218 0.033987335860729218 0.033987335860729218
0.10530802607536316 0.10530802607536316 0.10530802607536316
0.2733457088470459 0.2733457088470459 0.2733457088470459
0.50789868831634521 0.50789868831634521 0.50789868831634521
0.16789670288562775 0.16789670288562775 0.16789670288562775
0.2256217896938324 0.2256217896938324 0.2256217896938324
0.31096088886260986 0.31096088886260986 0.31096088886260986
0.44172099232673645 0.44172099232673645 0.44172099232673645
0.60898804664611816 0.60898804664611816 0.60898804664611816
0.45680290460586548 0.45680290460586548 0.45680290460586548
0.47465240955352783 0.47465240955352783 0.47465240955352783
0.51851761341094971 0.51851761341094971 0.51851761341094971
0.59781038761138916 0.59781038761138916 0.59781038761138916
0.70894533395767212 0.70894533395767212 0.70894533395767212
0.71340340375900269 0.71340340375900269 0.71340340375900269
0.70985674858093262 0.70985674858093262 0.70985674858093262
0.71589761972427368 0.71589761972427368 0.71589761972427368
0.75168412923812866 0.75168412923812866 0.75168412923812866
0.82017683982849121 0.82017683982849121 0.82017683982849121
0.90301609039306641 0.90301609039306641 0.90301609039306641
0.89734405279159546 0.89734405279159546 0.89734405279159546
0.88955128192901611 0.88955128192901611 0.88955128192901611
0.900382399559021 0.900382399559021 0.900382399559021
0.94020205736160278 0.94020205736160278 0.94020205736160278
0.026758769527077675 0.026758769527077675 0.026758769527077675
0.070066623389720917 0.070066623389720917 0.070066623389720917
0.1645360141992569 0.1645360141992569 0.1645360141992569
0.32941886782646179 0.32941886782646179 0.32941886782646179
0.54440248012542725 0.54440248012542725 0.54440248012542725
0.23021484911441803 0.23021484911441803 0.23021484911441803
0.27611306309700012 0.27611306309700012 0.27611306309700012
0.35760894417762756 0.35760894417762756 0.35760894417762756
0.48172017931938171 0.48172017931938171 0.48172017931938171
0.63854116201400757 0.63854116201400757 0.63854116201400757
0.4902721643447876 0.4902721643447876 0.4902721643447876
0.51143378019332886 0.51143378019332886 0.51143378019332886
0.55216765403747559 0.55216765403747559 0.55216765403747559
0.62445914745330811 0.62445914745330811 0.62445914745330811
0.72702234983444214 0.72702234983444214 0.72702234983444214
0.72824287414550781 0.72824287414550781 0.72824287414550781
0.72991663217544556 0.72991663217544556 0.72991663217544556
0.73656708002090454 0.73656708002090454 0.73656708002090454
0.76812660694122314 0.76812660694122314 0.76812660694122314
0.83083921670913696 0.83083921670913696 0.83083921670913696
0.91189885139465332 0.91189885139465332 0.91189885139465332
0.90741193294525146 0.90741193294525146 0.90741193294525146
0.89942306280136108 0.89942306280136108 0.89942306280136108
0.90783905982971191 0.90783905982971191 0.90783905982971191
0.94452905654907227 0.94452905654907227 0.94452905654907227
0.079698704183101654 0.079698704183101654 0.079698704183101654
0.14733763039112091 0.14733763039112091 0.14733763039112091
0.23715761303901672 0.23715761303901672 0.23715761303901672
0.40202152729034424 0.40202152729034424 0.40202152729034424
0.60479331016540527 0.60479331016540527 0.60479331016540527
0.31088405847549438 0.31088405847549438 0.31088405847549438
0.35330748558044434 0.35330748558044434 0.35330748558044434
0.41830912232398987 0.41830912232398987 0.41830912232398987
0.53399866819381714 0.53399866819381714 0.53399866819381714
0.68176007270812988 0.68176007270812988 0.68176007270812988
0.539603590965271 0.539603590965271 0.539603590965271
0.56177735328674316 0.56177735328674316 0.56177735328674316
0.59818857908248901 0.59818857908248901 0.59818857908248901
0.66438573598861694 0.66438573598861694 0.66438573598861694
0.75851422548294067 0.75851422548294067 0.75851422548294067
0.74434179067611694 0.74434179067611694 0.74434179067611694
0.75178855657577515 0.75178855657577515 0.75178855657577515
0.76366394758224487 0.76366394758224487 0.76366394758224487
0.79434555768966675 0.79434555768966675 0.79434555768966675
0.84970313310623169 0.84970313310623169 0.84970313310623169
0.91438442468643188 0.91438442468643188 0.91438442468643188
0.91355961561203003 0.91355961561203003 0.91355961561203003
0.91118860244750977 0.91118860244750977 0.91118860244750977
0.92028534412384033 0.92028534412384033 0.92028534412384033
0.95154815912246704 0.95154815912246704 0.95154815912246704
0.20966464281082153 0.20966464281082153 0.20966464281082153
0.27733233571052551 0.27733233571052551 0.27733233571052551
0.35378021001815796 0.35378021001815796 0.35378021001815796
0.49542456865310669 0.49542456865310669 0.49542456865310669
0.65500164031982422 0.65500164031982422 0.65500164031982422
0.42698374390602112 0.42698374390602112 0.42698374390602112
0.46199876070022583 0.46199876070022583 0.46199876070022583
0.51327687501907349 0.51327687501907349 0.51327687501907349
0.60713237524032593 0.60713237524032593 0.60713237524032593
0.72621315717697144 0.72621315717697144 0.72621315717697144
0.61754411458969116 0.61754411458969116 0.61754411458969116
0.63372480869293213 0.63372480869293213 0.63372480869293213
0.66429328918457031 0.66429328918457031 0.66429328918457031
0.71958863735198975 0.71958863735198975 0.71958863735198975
0.79618543386459351 0.79618543386459351 0.79618543386459351
0.78218823671340942 0.78218823671340942 0.78218823671340942
0.79065227508544922 0.79065227508544922 0.79065227508544922
0.80514311790466309 0.80514311790466309 0.80514311790466309
0.83372014760971069 0.83372014760971069 0.83372014760971069
0.87596243619918823 0.87596243619918823 0.87596243619918823
0.92730021476745605 0.92730021476745605 0.92730021476745605
0.93006050586700439 0.93006050586700439 0.93006050586700439
0.93287712335586548 0.93287712335586548 0.93287712335586548
0.94178467988967896 0.94178467988967896 0.94178467988967896
0.96209526062011719 0.96209526062011719 0.96209526062011719
0.37069660425186157 0.37069660425186157 0.37069660425186157
0.43752449750900269 0.43752449750900269 0.43752449750900269
0.51764839887619019 0.51764839887619019 0.51764839887619019
0.6078992486000061 0.6078992486000061 0.6078992486000061
0.7212594747543335 0.7212594747543335 0.7212594747543335
0.5608249306678772 0.5608249306678772 0.5608249306678772
0.5887911319732666 0.5887911319732666 0.5887911319732666
0.63356560468673706 0.63356560468673706 0.63356560468673706
0.6954842209815979 0.6954842209815979 0.6954842209815979
0.77735626697540283 0.77735626697540283 0.77735626697540283
0.7145925760269165 0.7145925760269165 0.7145925760269165
0.72308528423309326 0.72308528423309326 0.72308528423309326
0.74697387218475342 0.74697387218475342 0.74697387218475342
0.78538304567337036 0.78538304567337036 0.78538304567337036
0.84102272987365723 0.84102272987365723 0.84102272987365723
0.8385622501373291 0.8385622501373291 0.8385622501373291
0.84688997268676758 0.84688997268676758 0.84688997268676758
0.85959011316299438 0.85959011316299438 0.85959011316299438
0.88203537464141846 0.88203537464141846 0.88203537464141846
0.91071730852127075 0.91071730852127075 0.91071730852127075
0.95596164464950562 0.95596164464950562 0.95596164464950562
0.96249806880950928 0.96249806880950928 0.96249806880950928
0.96723461151123047 0.96723461151123047 0.96723461151123047
0.97284030914306641 0.97284030914306641 0.97284030914306641
0.97845077514648438 0.97845077514648438 0.97845077514648438
