luts/bw/agfa_apx_100.cube
# Created by: G'MIC (https://gmic.eu)
TITLE "agfa_apx_100"
# LUT size
LUT_3D_SIZE 13
# Data domain
DOMAIN_MIN 0.0 0.0 0.0
DOMAIN_MAX 1.0 1.0 1.0
# LUT data points
0.065090090036392212 0.065090090036392212 0.065090090036392212
0.078139059245586395 0.078139059245586395 0.078139059245586395
0.094159327447414398 0.094159327447414398 0.094159327447414398
0.11279880255460739 0.11279880255460739 0.11279880255460739
0.13165044784545898 0.13165044784545898 0.13165044784545898
0.14670079946517944 0.14670079946517944 0.14670079946517944
0.16332893073558807 0.16332893073558807 0.16332893073558807
0.19014875590801239 0.19014875590801239 0.19014875590801239
0.23707273602485657 0.23707273602485657 0.23707273602485657
0.28884768486022949 0.28884768486022949 0.28884768486022949
0.32158514857292175 0.32158514857292175 0.32158514857292175
0.37499120831489563 0.37499120831489563 0.37499120831489563
0.4418146014213562 0.4418146014213562 0.4418146014213562
0.14079329371452332 0.14079329371452332 0.14079329371452332
0.15161728858947754 0.15161728858947754 0.15161728858947754
0.16602835059165955 0.16602835059165955 0.16602835059165955
0.18345385789871216 0.18345385789871216 0.18345385789871216
0.20135506987571716 0.20135506987571716 0.20135506987571716
0.21886618435382843 0.21886618435382843 0.21886618435382843
0.23939505219459534 0.23939505219459534 0.23939505219459534
0.27027222514152527 0.27027222514152527 0.27027222514152527
0.31390261650085449 0.31390261650085449 0.31390261650085449
0.35794499516487122 0.35794499516487122 0.35794499516487122
0.39589041471481323 0.39589041471481323 0.39589041471481323
0.44544905424118042 0.44544905424118042 0.44544905424118042
0.50518608093261719 0.50518608093261719 0.50518608093261719
0.21814677119255066 0.21814677119255066 0.21814677119255066
0.22550550103187561 0.22550550103187561 0.22550550103187561
0.23783846199512482 0.23783846199512482 0.23783846199512482
0.25368788838386536 0.25368788838386536 0.25368788838386536
0.27102074027061462 0.27102074027061462 0.27102074027061462
0.28868371248245239 0.28868371248245239 0.28868371248245239
0.31039014458656311 0.31039014458656311 0.31039014458656311
0.33999362587928772 0.33999362587928772 0.33999362587928772
0.37704461812973022 0.37704461812973022 0.37704461812973022
0.41732195019721985 0.41732195019721985 0.41732195019721985
0.45955327153205872 0.45955327153205872 0.45955327153205872
0.50956612825393677 0.50956612825393677 0.50956612825393677
0.56492865085601807 0.56492865085601807 0.56492865085601807
0.29893273115158081 0.29893273115158081 0.29893273115158081
0.30247807502746582 0.30247807502746582 0.30247807502746582
0.31299397349357605 0.31299397349357605 0.31299397349357605
0.32814347743988037 0.32814347743988037 0.32814347743988037
0.34459871053695679 0.34459871053695679 0.34459871053695679
0.36140051484107971 0.36140051484107971 0.36140051484107971
0.38087913393974304 0.38087913393974304 0.38087913393974304
0.40753865242004395 0.40753865242004395 0.40753865242004395
0.44113615155220032 0.44113615155220032 0.44113615155220032
0.47855648398399353 0.47855648398399353 0.47855648398399353
0.52088439464569092 0.52088439464569092 0.52088439464569092
0.57027721405029297 0.57027721405029297 0.57027721405029297
0.62248224020004272 0.62248224020004272 0.62248224020004272
0.38674873113632202 0.38674873113632202 0.38674873113632202
0.38622131943702698 0.38622131943702698 0.38622131943702698
0.39548322558403015 0.39548322558403015 0.39548322558403015
0.41020524501800537 0.41020524501800537 0.41020524501800537
0.42587688565254211 0.42587688565254211 0.42587688565254211
0.44113177061080933 0.44113177061080933 0.44113177061080933
0.45766949653625488 0.45766949653625488 0.45766949653625488
0.48128226399421692 0.48128226399421692 0.48128226399421692
0.51200538873672485 0.51200538873672485 0.51200538873672485
0.546333909034729 0.546333909034729 0.546333909034729
0.58568018674850464 0.58568018674850464 0.58568018674850464
0.63074362277984619 0.63074362277984619 0.63074362277984619
0.67782998085021973 0.67782998085021973 0.67782998085021973
0.48549363017082214 0.48549363017082214 0.48549363017082214
0.48246735334396362 0.48246735334396362 0.48246735334396362
0.48863071203231812 0.48863071203231812 0.48863071203231812
0.50076574087142944 0.50076574087142944 0.50076574087142944
0.51525318622589111 0.51525318622589111 0.51525318622589111
0.53042459487915039 0.53042459487915039 0.53042459487915039
0.54670298099517822 0.54670298099517822 0.54670298099517822
0.56678271293640137 0.56678271293640137 0.56678271293640137
0.59110093116760254 0.59110093116760254 0.59110093116760254
0.61912274360656738 0.61912274360656738 0.61912274360656738
0.65175163745880127 0.65175163745880127 0.65175163745880127
0.68905967473983765 0.68905967473983765 0.68905967473983765
0.72826361656188965 0.72826361656188965 0.72826361656188965
0.59094244241714478 0.59094244241714478 0.59094244241714478
0.58712649345397949 0.58712649345397949 0.58712649345397949
0.58793139457702637 0.58793139457702637 0.58793139457702637
0.59541887044906616 0.59541887044906616 0.59541887044906616
0.60753810405731201 0.60753810405731201 0.60753810405731201
0.62298309803009033 0.62298309803009033 0.62298309803009033
0.64022356271743774 0.64022356271743774 0.64022356271743774
0.6561693549156189 0.6561693549156189 0.6561693549156189
0.67202174663543701 0.67202174663543701 0.67202174663543701
0.69145697355270386 0.69145697355270386 0.69145697355270386
0.71559494733810425 0.71559494733810425 0.71559494733810425
0.74415385723114014 0.74415385723114014 0.74415385723114014
0.77473610639572144 0.77473610639572144 0.77473610639572144
0.68992042541503906 0.68992042541503906 0.68992042541503906
0.6847153902053833 0.6847153902053833 0.6847153902053833
0.68180638551712036 0.68180638551712036 0.68180638551712036
0.68506258726119995 0.68506258726119995 0.68506258726119995
0.69427919387817383 0.69427919387817383 0.69427919387817383
0.70809584856033325 0.70809584856033325 0.70809584856033325
0.72378325462341309 0.72378325462341309 0.72378325462341309
0.73587781190872192 0.73587781190872192 0.73587781190872192
0.74540901184082031 0.74540901184082031 0.74540901184082031
0.75737458467483521 0.75737458467483521 0.75737458467483521
0.77385407686233521 0.77385407686233521 0.77385407686233521
0.7944333553314209 0.7944333553314209 0.7944333553314209
0.81772220134735107 0.81772220134735107 0.81772220134735107
0.76819384098052979 0.76819384098052979 0.76819384098052979
0.76513242721557617 0.76513242721557617 0.76513242721557617
0.76177233457565308 0.76177233457565308 0.76177233457565308
0.76258885860443115 0.76258885860443115 0.76258885860443115
0.7688942551612854 0.7688942551612854 0.7688942551612854
0.77915787696838379 0.77915787696838379 0.77915787696838379
0.79061681032180786 0.79061681032180786 0.79061681032180786
0.79965978860855103 0.79965978860855103 0.79965978860855103
0.80628800392150879 0.80628800392150879 0.80628800392150879
0.81417512893676758 0.81417512893676758 0.81417512893676758
0.82510548830032349 0.82510548830032349 0.82510548830032349
0.83947312831878662 0.83947312831878662 0.83947312831878662
0.85730910301208496 0.85730910301208496 0.85730910301208496
0.82702130079269409 0.82702130079269409 0.82702130079269409
0.82706302404403687 0.82706302404403687 0.82706302404403687
0.82527893781661987 0.82527893781661987 0.82527893781661987
0.82571208477020264 0.82571208477020264 0.82571208477020264
0.82973963022232056 0.82973963022232056 0.82973963022232056
0.83659756183624268 0.83659756183624268 0.83659756183624268
0.84433263540267944 0.84433263540267944 0.84433263540267944
0.85100406408309937 0.85100406408309937 0.85100406408309937
0.85632199048995972 0.85632199048995972 0.85632199048995972
0.86190503835678101 0.86190503835678101 0.86190503835678101
0.86947619915008545 0.86947619915008545 0.86947619915008545
0.87979781627655029 0.87979781627655029 0.87979781627655029
0.8927190899848938 0.8927190899848938 0.8927190899848938
0.87309008836746216 0.87309008836746216 0.87309008836746216
0.87514656782150269 0.87514656782150269 0.87514656782150269
0.87508147954940796 0.87508147954940796 0.87508147954940796
0.8757559061050415 0.8757559061050415 0.8757559061050415
0.87858384847640991 0.87858384847640991 0.87858384847640991
0.88344699144363403 0.88344699144363403 0.88344699144363403
0.88892769813537598 0.88892769813537598 0.88892769813537598
0.89371019601821899 0.89371019601821899 0.89371019601821899
0.89796531200408936 0.89796531200408936 0.89796531200408936
0.90221142768859863 0.90221142768859863 0.90221142768859863
0.90820902585983276 0.90820902585983276 0.90820902585983276
0.91569983959197998 0.91569983959197998 0.91569983959197998
0.92585748434066772 0.92585748434066772 0.92585748434066772
0.91046178340911865 0.91046178340911865 0.91046178340911865
0.91358405351638794 0.91358405351638794 0.91358405351638794
0.91475194692611694 0.91475194692611694 0.91475194692611694
0.91590785980224609 0.91590785980224609 0.91590785980224609
0.91839355230331421 0.91839355230331421 0.91839355230331421
0.9220041036605835 0.9220041036605835 0.9220041036605835
0.92629909515380859 0.92629909515380859 0.92629909515380859
0.93035930395126343 0.93035930395126343 0.93035930395126343
0.93400496244430542 0.93400496244430542 0.93400496244430542
0.93775516748428345 0.93775516748428345 0.93775516748428345
0.94241660833358765 0.94241660833358765 0.94241660833358765
0.94874298572540283 0.94874298572540283 0.94874298572540283
0.95710659027099609 0.95710659027099609 0.95710659027099609
0.9422072172164917 0.9422072172164917 0.9422072172164917
0.94611865282058716 0.94611865282058716 0.94611865282058716
0.94826686382293701 0.94826686382293701 0.94826686382293701
0.9500499963760376 0.9500499963760376 0.9500499963760376
0.95227599143981934 0.95227599143981934 0.95227599143981934
0.95553344488143921 0.95553344488143921 0.95553344488143921
0.95911431312561035 0.95911431312561035 0.95911431312561035
0.96269011497497559 0.96269011497497559 0.96269011497497559
0.96616506576538086 0.96616506576538086 0.96616506576538086
0.96982616186141968 0.96982616186141968 0.96982616186141968
0.97403204441070557 0.97403204441070557 0.97403204441070557
0.97957915067672729 0.97957915067672729 0.97957915067672729
0.98676460981369019 0.98676460981369019 0.98676460981369019
0.088143333792686462 0.088143333792686462 0.088143333792686462
0.10117247700691223 0.10117247700691223 0.10117247700691223
0.11708402633666992 0.11708402633666992 0.11708402633666992
0.13542763888835907 0.13542763888835907 0.13542763888835907
0.15447507798671722 0.15447507798671722 0.15447507798671722
0.17346580326557159 0.17346580326557159 0.17346580326557159
0.19673402607440948 0.19673402607440948 0.19673402607440948
0.23032759130001068 0.23032759130001068 0.23032759130001068
0.27525201439857483 0.27525201439857483 0.27525201439857483
0.31836482882499695 0.31836482882499695 0.31836482882499695
0.35626047849655151 0.35626047849655151 0.35626047849655151
0.40659874677658081 0.40659874677658081 0.40659874677658081
0.4680735170841217 0.4680735170841217 0.4680735170841217
0.1618504524230957 0.1618504524230957 0.1618504524230957
0.17242912948131561 0.17242912948131561 0.17242912948131561
0.18676313757896423 0.18676313757896423 0.18676313757896423
0.20435713231563568 0.20435713231563568 0.20435713231563568
0.22311688959598541 0.22311688959598541 0.22311688959598541
0.24288833141326904 0.24288833141326904 0.24288833141326904
0.26726073026657104 0.26726073026657104 0.26726073026657104
0.30086436867713928 0.30086436867713928 0.30086436867713928
0.34177646040916443 0.34177646040916443 0.34177646040916443
0.38177722692489624 0.38177722692489624 0.38177722692489624
0.42043605446815491 0.42043605446815491 0.42043605446815491
0.46972876787185669 0.46972876787185669 0.46972876787185669
0.52791184186935425 0.52791184186935425 0.52791184186935425
0.23684737086296082 0.23684737086296082 0.23684737086296082
0.24398486316204071 0.24398486316204071 0.24398486316204071
0.25622686743736267 0.25622686743736267 0.25622686743736267
0.27235361933708191 0.27235361933708191 0.27235361933708191
0.2903771698474884 0.2903771698474884 0.2903771698474884
0.30961087346076965 0.30961087346076965 0.30961087346076965
0.33288806676864624 0.33288806676864624 0.33288806676864624
0.36272996664047241 0.36272996664047241 0.36272996664047241
0.39815092086791992 0.39815092086791992 0.39815092086791992
0.43469530344009399 0.43469530344009399 0.43469530344009399
0.47588655352592468 0.47588655352592468 0.47588655352592468
0.52667993307113647 0.52667993307113647 0.52667993307113647
0.5827629566192627 0.5827629566192627 0.5827629566192627
0.31497323513031006 0.31497323513031006 0.31497323513031006
0.31855654716491699 0.31855654716491699 0.31855654716491699
0.32914590835571289 0.32914590835571289 0.32914590835571289
0.34416395425796509 0.34416395425796509 0.34416395425796509
0.36146029829978943 0.36146029829978943 0.36146029829978943
0.37898474931716919 0.37898474931716919 0.37898474931716919
0.39878121018409729 0.39878121018409729 0.39878121018409729
0.42453515529632568 0.42453515529632568 0.42453515529632568
0.45592805743217468 0.45592805743217468 0.45592805743217468
0.49011752009391785 0.49011752009391785 0.49011752009391785
0.53109389543533325 0.53109389543533325 0.53109389543533325
0.58179932832717896 0.58179932832717896 0.58179932832717896
0.63557326793670654 0.63557326793670654 0.63557326793670654
0.40041664242744446 0.40041664242744446 0.40041664242744446
0.40007078647613525 0.40007078647613525 0.40007078647613525
0.40920650959014893 0.40920650959014893 0.40920650959014893
0.42386597394943237 0.42386597394943237 0.42386597394943237
0.43985423445701599 0.43985423445701599 0.43985423445701599
0.45531207323074341 0.45531207323074341 0.45531207323074341
0.47115203738212585 0.47115203738212585 0.47115203738212585
0.49414229393005371 0.49414229393005371 0.49414229393005371
0.52307260036468506 0.52307260036468506 0.52307260036468506
0.55514025688171387 0.55514025688171387 0.55514025688171387
0.59340572357177734 0.59340572357177734 0.59340572357177734
0.63908916711807251 0.63908916711807251 0.63908916711807251
0.68686223030090332 0.68686223030090332 0.68686223030090332
0.49623873829841614 0.49623873829841614 0.49623873829841614
0.49373802542686462 0.49373802542686462 0.49373802542686462
0.49970358610153198 0.49970358610153198 0.49970358610153198
0.51198232173919678 0.51198232173919678 0.51198232173919678
0.52625793218612671 0.52625793218612671 0.52625793218612671
0.54077166318893433 0.54077166318893433 0.54077166318893433
0.55605161190032959 0.55605161190032959 0.55605161190032959
0.57529741525650024 0.57529741525650024 0.57529741525650024
0.59885168075561523 0.59885168075561523 0.59885168075561523
0.62605112791061401 0.62605112791061401 0.62605112791061401
0.65817356109619141 0.65817356109619141 0.65817356109619141
0.69561880826950073 0.69561880826950073 0.69561880826950073
0.73547607660293579 0.73547607660293579 0.73547607660293579
0.59786355495452881 0.59786355495452881 0.59786355495452881
0.59442234039306641 0.59442234039306641 0.59442234039306641
0.59624290466308594 0.59624290466308594 0.59624290466308594
0.60400527715682983 0.60400527715682983 0.60400527715682983
0.61566150188446045 0.61566150188446045 0.61566150188446045
0.62963318824768066 0.62963318824768066 0.62963318824768066
0.64461219310760498 0.64461219310760498 0.64461219310760498
0.66011637449264526 0.66011637449264526 0.66011637449264526
0.67670756578445435 0.67670756578445435 0.67670756578445435
0.69618386030197144 0.69618386030197144 0.69618386030197144
0.72025567293167114 0.72025567293167114 0.72025567293167114
0.74886476993560791 0.74886476993560791 0.74886476993560791
0.78013604879379272 0.78013604879379272 0.78013604879379272
0.69269734621047974 0.69269734621047974 0.69269734621047974
0.68931102752685547 0.68931102752685547 0.68931102752685547
0.68768584728240967 0.68768584728240967 0.68768584728240967
0.69127506017684937 0.69127506017684937 0.69127506017684937
0.69989681243896484 0.69989681243896484 0.69989681243896484
0.71200919151306152 0.71200919151306152 0.71200919151306152
0.72517859935760498 0.72517859935760498 0.72517859935760498
0.73663920164108276 0.73663920164108276 0.73663920164108276
0.747386634349823 0.747386634349823 0.747386634349823
0.76004743576049805 0.76004743576049805 0.76004743576049805
0.77670508623123169 0.77670508623123169 0.77670508623123169
0.7972567081451416 0.7972567081451416 0.7972567081451416
0.82077211141586304 0.82077211141586304 0.82077211141586304
0.77076226472854614 0.77076226472854614 0.77076226472854614
0.76834505796432495 0.76834505796432495 0.76834505796432495
0.76585346460342407 0.76585346460342407 0.76585346460342407
0.76703751087188721 0.76703751087188721 0.76703751087188721
0.77264845371246338 0.77264845371246338 0.77264845371246338
0.78163737058639526 0.78163737058639526 0.78163737058639526
0.79172855615615845 0.79172855615615845 0.79172855615615845
0.80005067586898804 0.80005067586898804 0.80005067586898804
0.80710810422897339 0.80710810422897339 0.80710810422897339
0.81489080190658569 0.81489080190658569 0.81489080190658569
0.82603007555007935 0.82603007555007935 0.82603007555007935
0.84006959199905396 0.84006959199905396 0.84006959199905396
0.85770988464355469 0.85770988464355469 0.85770988464355469
0.83093833923339844 0.83093833923339844 0.83093833923339844
0.83013075590133667 0.83013075590133667 0.83013075590133667
0.82851791381835938 0.82851791381835938 0.82851791381835938
0.82855767011642456 0.82855767011642456 0.82855767011642456
0.83181232213973999 0.83181232213973999 0.83181232213973999
0.83807855844497681 0.83807855844497681 0.83807855844497681
0.84480190277099609 0.84480190277099609 0.84480190277099609
0.85098910331726074 0.85098910331726074 0.85098910331726074
0.85606193542480469 0.85606193542480469 0.85606193542480469
0.86145490407943726 0.86145490407943726 0.86145490407943726
0.86865097284317017 0.86865097284317017 0.86865097284317017
0.87862366437911987 0.87862366437911987 0.87862366437911987
0.89177149534225464 0.89177149534225464 0.89177149534225464
0.87786835432052612 0.87786835432052612 0.87786835432052612
0.87863361835479736 0.87863361835479736 0.87863361835479736
0.87752014398574829 0.87752014398574829 0.87752014398574829
0.87702172994613647 0.87702172994613647 0.87702172994613647
0.87910449504852295 0.87910449504852295 0.87910449504852295
0.8832058310508728 0.8832058310508728 0.8832058310508728
0.88826292753219604 0.88826292753219604 0.88826292753219604
0.89284706115722656 0.89284706115722656 0.89284706115722656
0.89669501781463623 0.89669501781463623 0.89669501781463623
0.90075623989105225 0.90075623989105225 0.90075623989105225
0.90596574544906616 0.90596574544906616 0.90596574544906616
0.91337049007415771 0.91337049007415771 0.91337049007415771
0.9235805869102478 0.9235805869102478 0.9235805869102478
0.91538399457931519 0.91538399457931519 0.91538399457931519
0.91664987802505493 0.91664987802505493 0.91664987802505493
0.91610342264175415 0.91610342264175415 0.91610342264175415
0.91581803560256958 0.91581803560256958 0.91581803560256958
0.91732347011566162 0.91732347011566162 0.91732347011566162
0.92058688402175903 0.92058688402175903 0.92058688402175903
0.92465734481811523 0.92465734481811523 0.92465734481811523
0.92849647998809814 0.92849647998809814 0.92849647998809814
0.93192160129547119 0.93192160129547119 0.93192160129547119
0.93527323007583618 0.93527323007583618 0.93527323007583618
0.93955552577972412 0.93955552577972412 0.93955552577972412
0.94550502300262451 0.94550502300262451 0.94550502300262451
0.95395171642303467 0.95395171642303467 0.95395171642303467
0.94704556465148926 0.94704556465148926 0.94704556465148926
0.94870847463607788 0.94870847463607788 0.94870847463607788
0.94883543252944946 0.94883543252944946 0.94883543252944946
0.94882482290267944 0.94882482290267944 0.94882482290267944
0.95020979642868042 0.95020979642868042 0.95020979642868042
0.95300412178039551 0.95300412178039551 0.95300412178039551
0.95664650201797485 0.95664650201797485 0.95664650201797485
0.96014964580535889 0.96014964580535889 0.96014964580535889
0.96337676048278809 0.96337676048278809 0.96337676048278809
0.96662682294845581 0.96662682294845581 0.96662682294845581
0.97047144174575806 0.97047144174575806 0.97047144174575806
0.97590553760528564 0.97590553760528564 0.97590553760528564
0.98338210582733154 0.98338210582733154 0.98338210582733154
0.11425524204969406 0.11425524204969406 0.11425524204969406
0.1273023784160614 0.1273023784160614 0.1273023784160614
0.14235194027423859 0.14235194027423859 0.14235194027423859
0.15923306345939636 0.15923306345939636 0.15923306345939636
0.17783777415752411 0.17783777415752411 0.17783777415752411
0.19856163859367371 0.19856163859367371 0.19856163859367371
0.22452583909034729 0.22452583909034729 0.22452583909034729
0.25810813903808594 0.25810813903808594 0.25810813903808594
0.29750019311904907 0.29750019311904907 0.29750019311904907
0.33810925483703613 0.33810925483703613 0.33810925483703613
0.38117027282714844 0.38117027282714844 0.38117027282714844
0.43326109647750854 0.43326109647750854 0.43326109647750854
0.49274930357933044 0.49274930357933044 0.49274930357933044
0.18678948283195496 0.18678948283195496 0.18678948283195496
0.19731101393699646 0.19731101393699646 0.19731101393699646
0.21091252565383911 0.21091252565383911 0.21091252565383911
0.227152019739151 0.227152019739151 0.227152019739151
0.24568265676498413 0.24568265676498413 0.24568265676498413
0.26646602153778076 0.26646602153778076 0.26646602153778076
0.2920699417591095 0.2920699417591095 0.2920699417591095
0.32422363758087158 0.32422363758087158 0.32422363758087158
0.36118581891059875 0.36118581891059875 0.36118581891059875
0.39881560206413269 0.39881560206413269 0.39881560206413269
0.44045183062553406 0.44045183062553406 0.44045183062553406
0.4912247359752655 0.4912247359752655 0.4912247359752655
0.54886758327484131 0.54886758327484131 0.54886758327484131
0.26011556386947632 0.26011556386947632 0.26011556386947632
0.26760882139205933 0.26760882139205933 0.26760882139205933
0.27966135740280151 0.27966135740280151 0.27966135740280151
0.29509192705154419 0.29509192705154419 0.29509192705154419
0.31291073560714722 0.31291073560714722 0.31291073560714722
0.33279725909233093 0.33279725909233093 0.33279725909233093
0.35641443729400635 0.35641443729400635 0.35641443729400635
0.38487425446510315 0.38487425446510315 0.38487425446510315
0.41717374324798584 0.41717374324798584 0.41717374324798584
0.45193874835968018 0.45193874835968018 0.45193874835968018
0.49314740300178528 0.49314740300178528 0.49314740300178528
0.54442006349563599 0.54442006349563599 0.54442006349563599
0.60040318965911865 0.60040318965911865 0.60040318965911865
0.3372923731803894 0.3372923731803894 0.3372923731803894
0.34145614504814148 0.34145614504814148 0.34145614504814148
0.35170164704322815 0.35170164704322815 0.35170164704322815
0.36641165614128113 0.36641165614128113 0.36641165614128113
0.38334211707115173 0.38334211707115173 0.38334211707115173
0.40150260925292969 0.40150260925292969 0.40150260925292969
0.42198124527931213 0.42198124527931213 0.42198124527931213
0.44661086797714233 0.44661086797714233 0.44661086797714233
0.4749634861946106 0.4749634861946106 0.4749634861946106
0.50659072399139404 0.50659072399139404 0.50659072399139404
0.54629921913146973 0.54629921913146973 0.54629921913146973
0.59630858898162842 0.59630858898162842 0.59630858898162842
0.64948350191116333 0.64948350191116333 0.64948350191116333
0.42136684060096741 0.42136684060096741 0.42136684060096741
0.42255082726478577 0.42255082726478577 0.42255082726478577
0.43072459101676941 0.43072459101676941 0.43072459101676941
0.44436761736869812 0.44436761736869812 0.44436761736869812
0.46003299951553345 0.46003299951553345 0.46003299951553345
0.47614547610282898 0.47614547610282898 0.47614547610282898
0.49365833401679993 0.49365833401679993 0.49365833401679993
0.51490741968154907 0.51490741968154907 0.51490741968154907
