luts/bw/agfa_apx_25.cube
# Created by: G'MIC (https://gmic.eu)
TITLE "agfa_apx_25"
# LUT size
LUT_3D_SIZE 13
# Data domain
DOMAIN_MIN 0.0 0.0 0.0
DOMAIN_MAX 1.0 1.0 1.0
# LUT data points
0.016226839274168015 0.016226839274168015 0.016226839274168015
0.018927840515971184 0.018927840515971184 0.018927840515971184
0.024030214175581932 0.024030214175581932 0.024030214175581932
0.033987335860729218 0.033987335860729218 0.033987335860729218
0.05004718154668808 0.05004718154668808 0.05004718154668808
0.073376990854740143 0.073376990854740143 0.073376990854740143
0.10530802607536316 0.10530802607536316 0.10530802607536316
0.14738206565380096 0.14738206565380096 0.14738206565380096
0.20437417924404144 0.20437417924404144 0.20437417924404144
0.2733457088470459 0.2733457088470459 0.2733457088470459
0.34933659434318542 0.34933659434318542 0.34933659434318542
0.42925059795379639 0.42925059795379639 0.42925059795379639
0.50789868831634521 0.50789868831634521 0.50789868831634521
0.05388227105140686 0.05388227105140686 0.05388227105140686
0.062997512519359589 0.062997512519359589 0.062997512519359589
0.075266741216182709 0.075266741216182709 0.075266741216182709
0.090959899127483368 0.090959899127483368 0.090959899127483368
0.11138292402029037 0.11138292402029037 0.11138292402029037
0.13848742842674255 0.13848742842674255 0.13848742842674255
0.1737571507692337 0.1737571507692337 0.1737571507692337
0.2179512232542038 0.2179512232542038 0.2179512232542038
0.27064999938011169 0.27064999938011169 0.27064999938011169
0.33134317398071289 0.33134317398071289 0.33134317398071289
0.3994629979133606 0.3994629979133606 0.3994629979133606
0.47195643186569214 0.47195643186569214 0.47195643186569214
0.5439838171005249 0.5439838171005249 0.5439838171005249
0.099323511123657227 0.099323511123657227 0.099323511123657227
0.11492912471294403 0.11492912471294403 0.11492912471294403
0.13359305262565613 0.13359305262565613 0.13359305262565613
0.15424074232578278 0.15424074232578278 0.15424074232578278
0.17796008288860321 0.17796008288860321 0.17796008288860321
0.20695024728775024 0.20695024728775024 0.20695024728775024
0.24244405329227448 0.24244405329227448 0.24244405329227448
0.2849615216255188 0.2849615216255188 0.2849615216255188
0.33328154683113098 0.33328154683113098 0.33328154683113098
0.38811212778091431 0.38811212778091431 0.38811212778091431
0.44811207056045532 0.44811207056045532 0.44811207056045532
0.51241600513458252 0.51241600513458252 0.51241600513458252
0.57685309648513794 0.57685309648513794 0.57685309648513794
0.16789670288562775 0.16789670288562775 0.16789670288562775
0.18402688205242157 0.18402688205242157 0.18402688205242157
0.20400531589984894 0.20400531589984894 0.20400531589984894
0.2256217896938324 0.2256217896938324 0.2256217896938324
0.24973584711551666 0.24973584711551666 0.24973584711551666
0.27787768840789795 0.27787768840789795 0.27787768840789795
0.31096088886260986 0.31096088886260986 0.31096088886260986
0.34953910112380981 0.34953910112380981 0.34953910112380981
0.39315870404243469 0.39315870404243469 0.39315870404243469
0.44172099232673645 0.44172099232673645 0.44172099232673645
0.49489954113960266 0.49489954113960266 0.49489954113960266
0.55142956972122192 0.55142956972122192 0.55142956972122192
0.60898804664611816 0.60898804664611816 0.60898804664611816
0.25687921047210693 0.25687921047210693 0.25687921047210693
0.26948678493499756 0.26948678493499756 0.26948678493499756
0.28583991527557373 0.28583991527557373 0.28583991527557373
0.30468374490737915 0.30468374490737915 0.30468374490737915
0.32596763968467712 0.32596763968467712 0.32596763968467712
0.3508417010307312 0.3508417010307312 0.3508417010307312
0.37998479604721069 0.37998479604721069 0.37998479604721069
0.41356977820396423 0.41356977820396423 0.41356977820396423
0.45167037844657898 0.45167037844657898 0.45167037844657898
0.4940791130065918 0.4940791130065918 0.4940791130065918
0.54049241542816162 0.54049241542816162 0.54049241542816162
0.59001642465591431 0.59001642465591431 0.59001642465591431
0.64109921455383301 0.64109921455383301 0.64109921455383301
0.35561078786849976 0.35561078786849976 0.35561078786849976
0.3643309473991394 0.3643309473991394 0.3643309473991394
0.37535884976387024 0.37535884976387024 0.37535884976387024
0.38894319534301758 0.38894319534301758 0.38894319534301758
0.40544781088829041 0.40544781088829041 0.40544781088829041
0.42532995343208313 0.42532995343208313 0.42532995343208313
0.44931742548942566 0.44931742548942566 0.44931742548942566
0.47739079594612122 0.47739079594612122 0.47739079594612122
0.50963157415390015 0.50963157415390015 0.50963157415390015
0.54596507549285889 0.54596507549285889 0.54596507549285889
0.58594977855682373 0.58594977855682373 0.58594977855682373
0.62916272878646851 0.62916272878646851 0.62916272878646851
0.67430585622787476 0.67430585622787476 0.67430585622787476
0.45680290460586548 0.45680290460586548 0.45680290460586548
0.4617057740688324 0.4617057740688324 0.4617057740688324
0.46692192554473877 0.46692192554473877 0.46692192554473877
0.47465240955352783 0.47465240955352783 0.47465240955352783
0.48549360036849976 0.48549360036849976 0.48549360036849976
0.50001943111419678 0.50001943111419678 0.50001943111419678
0.51851761341094971 0.51851761341094971 0.51851761341094971
0.54093289375305176 0.54093289375305176 0.54093289375305176
0.56749832630157471 0.56749832630157471 0.56749832630157471
0.59781038761138916 0.59781038761138916 0.59781038761138916
0.63175815343856812 0.63175815343856812 0.63175815343856812
0.6690744161605835 0.6690744161605835 0.6690744161605835
0.70894533395767212 0.70894533395767212 0.70894533395767212
0.55390864610671997 0.55390864610671997 0.55390864610671997
0.55490410327911377 0.55490410327911377 0.55490410327911377
0.55540168285369873 0.55540168285369873 0.55540168285369873
0.5581708550453186 0.5581708550453186 0.5581708550453186
0.56392616033554077 0.56392616033554077 0.56392616033554077
0.57331353425979614 0.57331353425979614 0.57331353425979614
0.58638972043991089 0.58638972043991089 0.58638972043991089
0.6035340428352356 0.6035340428352356 0.6035340428352356
0.62449431419372559 0.62449431419372559 0.62449431419372559
0.64950394630432129 0.64950394630432129 0.64950394630432129
0.67805981636047363 0.67805981636047363 0.67805981636047363
0.70996648073196411 0.70996648073196411 0.70996648073196411
0.74505770206451416 0.74505770206451416 0.74505770206451416
0.63891923427581787 0.63891923427581787 0.63891923427581787
0.63921481370925903 0.63921481370925903 0.63921481370925903
0.63754111528396606 0.63754111528396606 0.63754111528396606
0.63704222440719604 0.63704222440719604 0.63704222440719604
0.63868927955627441 0.63868927955627441 0.63868927955627441
0.6438593864440918 0.6438593864440918 0.6438593864440918
0.65242147445678711 0.65242147445678711 0.65242147445678711
0.66473102569580078 0.66473102569580078 0.66473102569580078
0.68097007274627686 0.68097007274627686 0.68097007274627686
0.70086556673049927 0.70086556673049927 0.70086556673049927
0.72452682256698608 0.72452682256698608 0.72452682256698608
0.75169575214385986 0.75169575214385986 0.75169575214385986
0.78207409381866455 0.78207409381866455 0.78207409381866455
0.71340340375900269 0.71340340375900269 0.71340340375900269
0.71409380435943604 0.71409380435943604 0.71409380435943604
0.71213406324386597 0.71213406324386597 0.71213406324386597
0.70985674858093262 0.70985674858093262 0.70985674858093262
0.70899522304534912 0.70899522304534912 0.70899522304534912
0.71089017391204834 0.71089017391204834 0.71089017391204834
0.71589761972427368 0.71589761972427368 0.71589761972427368
0.72412139177322388 0.72412139177322388 0.72412139177322388
0.73602181673049927 0.73602181673049927 0.73602181673049927
0.75168412923812866 0.75168412923812866 0.75168412923812866
0.77087181806564331 0.77087181806564331 0.77087181806564331
0.79375386238098145 0.79375386238098145 0.79375386238098145
0.82017683982849121 0.82017683982849121 0.82017683982849121
0.78120309114456177 0.78120309114456177 0.78120309114456177
0.78216242790222168 0.78216242790222168 0.78216242790222168
0.78012585639953613 0.78012585639953613 0.78012585639953613
0.77704513072967529 0.77704513072967529 0.77704513072967529
0.77472060918807983 0.77472060918807983 0.77472060918807983
0.77439457178115845 0.77439457178115845 0.77439457178115845
0.77643299102783203 0.77643299102783203 0.77643299102783203
0.78154975175857544 0.78154975175857544 0.78154975175857544
0.78990912437438965 0.78990912437438965 0.78990912437438965
0.8018261194229126 0.8018261194229126 0.8018261194229126
0.81717562675476074 0.81717562675476074 0.81717562675476074
0.83623027801513672 0.83623027801513672 0.83623027801513672
0.85890680551528931 0.85890680551528931 0.85890680551528931
0.84429013729095459 0.84429013729095459 0.84429013729095459
0.84496533870697021 0.84496533870697021 0.84496533870697021
0.84274625778198242 0.84274625778198242 0.84274625778198242
0.83932942152023315 0.83932942152023315 0.83932942152023315
0.8359452486038208 0.8359452486038208 0.8359452486038208
0.83431720733642578 0.83431720733642578 0.83431720733642578
0.83427268266677856 0.83427268266677856 0.83427268266677856
0.83682548999786377 0.83682548999786377 0.83682548999786377
0.84248578548431396 0.84248578548431396 0.84248578548431396
0.85131460428237915 0.85131460428237915 0.85131460428237915
0.86355221271514893 0.86355221271514893 0.86355221271514893
0.87932831048965454 0.87932831048965454 0.87932831048965454
0.89888441562652588 0.89888441562652588 0.89888441562652588
0.90301609039306641 0.90301609039306641 0.90301609039306641
0.903411865234375 0.903411865234375 0.903411865234375
0.9009169340133667 0.9009169340133667 0.9009169340133667
0.89734405279159546 0.89734405279159546 0.89734405279159546
0.89354544878005981 0.89354544878005981 0.89354544878005981
0.8907589316368103 0.8907589316368103 0.8907589316368103
0.88955128192901611 0.88955128192901611 0.88955128192901611
0.89037472009658813 0.89037472009658813 0.89037472009658813
0.89393699169158936 0.89393699169158936 0.89393699169158936
0.900382399559021 0.900382399559021 0.900382399559021
0.91008377075195312 0.91008377075195312 0.91008377075195312
0.92337054014205933 0.92337054014205933 0.92337054014205933
0.94020205736160278 0.94020205736160278 0.94020205736160278
0.017259664833545685 0.017259664833545685 0.017259664833545685
0.023222140967845917 0.023222140967845917 0.023222140967845917
0.031116336584091187 0.031116336584091187 0.031116336584091187
0.043963681906461716 0.043963681906461716 0.043963681906461716
0.063173912465572357 0.063173912465572357 0.063173912465572357
0.091314084827899933 0.091314084827899933 0.091314084827899933
0.1299450546503067 0.1299450546503067 0.1299450546503067
0.17925427854061127 0.17925427854061127 0.17925427854061127
0.23321743309497833 0.23321743309497833 0.23321743309497833
0.29439511895179749 0.29439511895179749 0.29439511895179749
0.36500257253646851 0.36500257253646851 0.36500257253646851
0.44195401668548584 0.44195401668548584 0.44195401668548584
0.51859158277511597 0.51859158277511597 0.51859158277511597
0.062545910477638245 0.062545910477638245 0.062545910477638245
0.072566024959087372 0.072566024959087372 0.072566024959087372
0.085526831448078156 0.085526831448078156 0.085526831448078156
0.10263944417238235 0.10263944417238235 0.10263944417238235
0.12538167834281921 0.12538167834281921 0.12538167834281921
0.15588423609733582 0.15588423609733582 0.15588423609733582
0.19619457423686981 0.19619457423686981 0.19619457423686981
0.24488097429275513 0.24488097429275513 0.24488097429275513
0.29533493518829346 0.29533493518829346 0.29533493518829346
0.35074540972709656 0.35074540972709656 0.35074540972709656
0.41450774669647217 0.41450774669647217 0.41450774669647217
0.48449036478996277 0.48449036478996277 0.48449036478996277
0.55508977174758911 0.55508977174758911 0.55508977174758911
0.11568407714366913 0.11568407714366913 0.11568407714366913
0.12929695844650269 0.12929695844650269 0.12929695844650269
0.14674188196659088 0.14674188196659088 0.14674188196659088
0.16753298044204712 0.16753298044204712 0.16753298044204712
0.19235946238040924 0.19235946238040924 0.19235946238040924
0.22321946918964386 0.22321946918964386 0.22321946918964386
0.26139089465141296 0.26139089465141296 0.26139089465141296
0.30539548397064209 0.30539548397064209 0.30539548397064209
0.35283306241035461 0.35283306241035461 0.35283306241035461
0.40443682670593262 0.40443682670593262 0.40443682670593262
0.46190887689590454 0.46190887689590454 0.46190887689590454
0.52432429790496826 0.52432429790496826 0.52432429790496826
0.58774340152740479 0.58774340152740479 0.58774340152740479
0.18625497817993164 0.18625497817993164 0.18625497817993164
0.19981424510478973 0.19981424510478973 0.19981424510478973
0.21841596066951752 0.21841596066951752 0.21841596066951752
0.23957271873950958 0.23957271873950958 0.23957271873950958
0.26391914486885071 0.26391914486885071 0.26391914486885071
0.2928561270236969 0.2928561270236969 0.2928561270236969
0.32711434364318848 0.32711434364318848 0.32711434364318848
0.36589264869689941 0.36589264869689941 0.36589264869689941
0.40873914957046509 0.40873914957046509 0.40873914957046509
0.45552781224250793 0.45552781224250793 0.45552781224250793
0.50675761699676514 0.50675761699676514 0.50675761699676514
0.56203156709671021 0.56203156709671021 0.56203156709671021
0.61862778663635254 0.61862778663635254 0.61862778663635254
0.27309724688529968 0.27309724688529968 0.27309724688529968
0.28498810529708862 0.28498810529708862 0.28498810529708862
0.30033034086227417 0.30033034086227417 0.30033034086227417
0.31842455267906189 0.31842455267906189 0.31842455267906189
0.33958873152732849 0.33958873152732849 0.33958873152732849
0.36449214816093445 0.36449214816093445 0.36449214816093445
0.39371752738952637 0.39371752738952637 0.39371752738952637
0.42707306146621704 0.42707306146621704 0.42707306146621704
0.46429970860481262 0.46429970860481262 0.46429970860481262
0.50551939010620117 0.50551939010620117 0.50551939010620117
0.55034935474395752 0.55034935474395752 0.55034935474395752
0.59875929355621338 0.59875929355621338 0.59875929355621338
0.64912062883377075 0.64912062883377075 0.64912062883377075
0.36956751346588135 0.36956751346588135 0.36956751346588135
0.37815850973129272 0.37815850973129272 0.37815850973129272
0.388721764087677 0.388721764087677 0.388721764087677
0.40186670422554016 0.40186670422554016 0.40186670422554016
0.41792795062065125 0.41792795062065125 0.41792795062065125
0.43760457634925842 0.43760457634925842 0.43760457634925842
0.46135866641998291 0.46135866641998291 0.46135866641998291
0.48893684148788452 0.48893684148788452 0.48893684148788452
0.52035421133041382 0.52035421133041382 0.52035421133041382
0.55574232339859009 0.55574232339859009 0.55574232339859009
0.59424567222595215 0.59424567222595215 0.59424567222595215
0.63616335391998291 0.63616335391998291 0.63616335391998291
0.68092906475067139 0.68092906475067139 0.68092906475067139
0.46844524145126343 0.46844524145126343 0.46844524145126343
0.47346770763397217 0.47346770763397217 0.47346770763397217
0.47885811328887939 0.47885811328887939 0.47885811328887939
0.48627486824989319 0.48627486824989319 0.48627486824989319
0.49688073992729187 0.49688073992729187 0.49688073992729187
0.51105320453643799 0.51105320453643799 0.51105320453643799
0.52905333042144775 0.52905333042144775 0.52905333042144775
0.55076932907104492 0.55076932907104492 0.55076932907104492
0.57653629779815674 0.57653629779815674 0.57653629779815674
0.60578638315200806 0.60578638315200806 0.60578638315200806
0.63864761590957642 0.63864761590957642 0.63864761590957642
0.67499226331710815 0.67499226331710815 0.67499226331710815
0.7142980694770813 0.7142980694770813 0.7142980694770813
0.56319057941436768 0.56319057941436768 0.56319057941436768
0.56491261720657349 0.56491261720657349 0.56491261720657349
0.56582129001617432 0.56582129001617432 0.56582129001617432
0.56847649812698364 0.56847649812698364 0.56847649812698364
0.57403236627578735 0.57403236627578735 0.57403236627578735
0.58312374353408813 0.58312374353408813 0.58312374353408813
0.59557294845581055 0.59557294845581055 0.59557294845581055
0.61194688081741333 0.61194688081741333 0.61194688081741333
0.63227564096450806 0.63227564096450806 0.63227564096450806
0.65623492002487183 0.65623492002487183 0.65623492002487183
0.68381810188293457 0.68381810188293457 0.68381810188293457
0.71504729986190796 0.71504729986190796 0.71504729986190796
0.74945569038391113 0.74945569038391113 0.74945569038391113
0.64721685647964478 0.64721685647964478 0.64721685647964478
0.64801937341690063 0.64801937341690063 0.64801937341690063
0.64668971300125122 0.64668971300125122 0.64668971300125122
0.64613133668899536 0.64613133668899536 0.64613133668899536
0.64766943454742432 0.64766943454742432 0.64766943454742432
0.6523435115814209 0.6523435115814209 0.6523435115814209
0.66042715311050415 0.66042715311050415 0.66042715311050415
0.67212390899658203 0.67212390899658203 0.67212390899658203
0.68750178813934326 0.68750178813934326 0.68750178813934326
0.70666486024856567 0.70666486024856567 0.70666486024856567
0.72936880588531494 0.72936880588531494 0.72936880588531494
0.75581914186477661 0.75581914186477661 0.75581914186477661
0.78571462631225586 0.78571462631225586 0.78571462631225586
0.72143924236297607 0.72143924236297607 0.72143924236297607
0.7221750020980835 0.7221750020980835 0.7221750020980835
0.72018736600875854 0.72018736600875854 0.72018736600875854
0.71777904033660889 0.71777904033660889 0.71777904033660889
0.71677905321121216 0.71677905321121216 0.71677905321121216
0.71812671422958374 0.71812671422958374 0.71812671422958374
0.7226111888885498 0.7226111888885498 0.7226111888885498
0.73029756546020508 0.73029756546020508 0.73029756546020508
0.74160057306289673 0.74160057306289673 0.74160057306289673
0.756397545337677 0.756397545337677 0.756397545337677
0.77493470907211304 0.77493470907211304 0.77493470907211304
0.79709529876708984 0.79709529876708984 0.79709529876708984
0.82296282052993774 0.82296282052993774 0.82296282052993774
0.78860586881637573 0.78860586881637573 0.78860586881637573
0.78940778970718384 0.78940778970718384 0.78940778970718384
0.78714168071746826 0.78714168071746826 0.78714168071746826
0.78391110897064209 0.78391110897064209 0.78391110897064209
0.78128165006637573 0.78128165006637573 0.78128165006637573
0.78038656711578369 0.78038656711578369 0.78038656711578369
0.78201144933700562 0.78201144933700562 0.78201144933700562
0.78659242391586304 0.78659242391586304 0.78659242391586304
0.79436922073364258 0.79436922073364258 0.79436922073364258
0.80552136898040771 0.80552136898040771 0.80552136898040771
0.82037019729614258 0.82037019729614258 0.82037019729614258
0.83894830942153931 0.83894830942153931 0.83894830942153931
0.86113816499710083 0.86113816499710083 0.86113816499710083
0.85059058666229248 0.85059058666229248 0.85059058666229248
0.85104012489318848 0.85104012489318848 0.85104012489318848
0.84880149364471436 0.84880149364471436 0.84880149364471436
0.84507840871810913 0.84507840871810913 0.84507840871810913
0.84155428409576416 0.84155428409576416 0.84155428409576416
0.83905923366546631 0.83905923366546631 0.83905923366546631
0.83876150846481323 0.83876150846481323 0.83876150846481323
0.8409045934677124 0.8409045934677124 0.8409045934677124
0.84596943855285645 0.84596943855285645 0.84596943855285645
0.8542826771736145 0.8542826771736145 0.8542826771736145
0.86581188440322876 0.86581188440322876 0.86581188440322876
0.88100332021713257 0.88100332021713257 0.88100332021713257
0.8998534083366394 0.8998534083366394 0.8998534083366394
0.90827971696853638 0.90827971696853638 0.90827971696853638
0.90850645303726196 0.90850645303726196 0.90850645303726196
0.90604722499847412 0.90604722499847412 0.90604722499847412
0.902191162109375 0.902191162109375 0.902191162109375
0.89817720651626587 0.89817720651626587 0.89817720651626587
0.89485281705856323 0.89485281705856323 0.89485281705856323
0.89312779903411865 0.89312779903411865 0.89312779903411865
0.89344674348831177 0.89344674348831177 0.89344674348831177
0.89656257629394531 0.89656257629394531 0.89656257629394531
0.90247231721878052 0.90247231721878052 0.90247231721878052
0.91164141893386841 0.91164141893386841 0.91164141893386841
0.92429804801940918 0.92429804801940918 0.92429804801940918
0.9412541389465332 0.9412541389465332 0.9412541389465332
0.020231703296303749 0.020231703296303749 0.020231703296303749
0.028956528753042221 0.028956528753042221 0.028956528753042221
0.040260091423988342 0.040260091423988342 0.040260091423988342
0.055559795349836349 0.055559795349836349 0.055559795349836349
0.077331185340881348 0.077331185340881348 0.077331185340881348
0.1079401820898056 0.1079401820898056 0.1079401820898056
0.14949290454387665 0.14949290454387665 0.14949290454387665
0.19986318051815033 0.19986318051815033 0.19986318051815033
0.25419899821281433 0.25419899821281433 0.25419899821281433
0.3123822808265686 0.3123822808265686 0.3123822808265686
0.37935954332351685 0.37935954332351685 0.37935954332351685
0.45429357886314392 0.45429357886314392 0.45429357886314392
0.52981680631637573 0.52981680631637573 0.52981680631637573
0.07352389395236969 0.07352389395236969 0.07352389395236969
0.084578529000282288 0.084578529000282288 0.084578529000282288
0.098574213683605194 0.098574213683605194 0.098574213683605194
0.11679971963167191 0.11679971963167191 0.11679971963167191
0.14067989587783813 0.14067989587783813 0.14067989587783813
0.17250587046146393 0.17250587046146393 0.17250587046146393
0.21392597258090973 0.21392597258090973 0.21392597258090973
0.26243811845779419 0.26243811845779419 0.26243811845779419
0.31297078728675842 0.31297078728675842 0.31297078728675842
0.3670307993888855 0.3670307993888855 0.3670307993888855
0.42853868007659912 0.42853868007659912 0.42853868007659912
0.49648407101631165 0.49648407101631165 0.49648407101631165
0.56599909067153931 0.56599909067153931 0.56599909067153931
0.13491086661815643 0.13491086661815643 0.13491086661815643
0.147157222032547 0.147157222032547 0.147157222032547
0.16345122456550598 0.16345122456550598 0.16345122456550598
0.18355958163738251 0.18355958163738251 0.18355958163738251
0.20838207006454468 0.20838207006454468 0.20838207006454468
0.23965227603912354 0.23965227603912354 0.23965227603912354
0.27799832820892334 0.27799832820892334 0.27799832820892334
0.32193216681480408 0.32193216681480408 0.32193216681480408
0.36886399984359741 0.36886399984359741 0.36886399984359741
0.41902309656143188 0.41902309656143188 0.41902309656143188
0.47488740086555481 0.47488740086555481 0.47488740086555481
0.53571110963821411 0.53571110963821411 0.53571110963821411
0.59833240509033203 0.59833240509033203 0.59833240509033203
0.2076907604932785 0.2076907604932785 0.2076907604932785
0.22016026079654694 0.22016026079654694 0.22016026079654694
0.23749999701976776 0.23749999701976776 0.23749999701976776
0.25690239667892456 0.25690239667892456 0.25690239667892456
0.27998670935630798 0.27998670935630798 0.27998670935630798
0.3085690438747406 0.3085690438747406 0.3085690438747406
0.34243118762969971 0.34243118762969971 0.34243118762969971
0.38103067874908447 0.38103067874908447 0.38103067874908447
0.42296966910362244 0.42296966910362244 0.42296966910362244
0.4685426652431488 0.4685426652431488 0.4685426652431488
0.5183679461479187 0.5183679461479187 0.5183679461479187
0.5719984769821167 0.5719984769821167 0.5719984769821167
0.62798064947128296 0.62798064947128296 0.62798064947128296
0.29250073432922363 0.29250073432922363 0.29250073432922363
0.30358690023422241 0.30358690023422241 0.30358690023422241
0.31758445501327515 0.31758445501327515 0.31758445501327515
0.33466356992721558 0.33466356992721558 0.33466356992721558
0.3548220694065094 0.3548220694065094 0.3548220694065094
0.3792986273765564 0.3792986273765564 0.3792986273765564
0.40787801146507263 0.40787801146507263 0.40787801146507263
0.4406609833240509 0.4406609833240509 0.4406609833240509
