luts/bw/agfa_apx_100.cube
# Created by: G'MIC (https://gmic.eu)
TITLE "agfa_apx_100"
# LUT size
LUT_3D_SIZE 7
# Data domain
DOMAIN_MIN 0.0 0.0 0.0
DOMAIN_MAX 1.0 1.0 1.0
# LUT data points
0.065090090036392212 0.065090090036392212 0.065090090036392212
0.094159327447414398 0.094159327447414398 0.094159327447414398
0.13165044784545898 0.13165044784545898 0.13165044784545898
0.16332893073558807 0.16332893073558807 0.16332893073558807
0.23707273602485657 0.23707273602485657 0.23707273602485657
0.32158514857292175 0.32158514857292175 0.32158514857292175
0.4418146014213562 0.4418146014213562 0.4418146014213562
0.21814677119255066 0.21814677119255066 0.21814677119255066
0.23783846199512482 0.23783846199512482 0.23783846199512482
0.27102074027061462 0.27102074027061462 0.27102074027061462
0.31039014458656311 0.31039014458656311 0.31039014458656311
0.37704461812973022 0.37704461812973022 0.37704461812973022
0.45955327153205872 0.45955327153205872 0.45955327153205872
0.56492865085601807 0.56492865085601807 0.56492865085601807
0.38674873113632202 0.38674873113632202 0.38674873113632202
0.39548322558403015 0.39548322558403015 0.39548322558403015
0.42587688565254211 0.42587688565254211 0.42587688565254211
0.45766949653625488 0.45766949653625488 0.45766949653625488
0.51200538873672485 0.51200538873672485 0.51200538873672485
0.58568018674850464 0.58568018674850464 0.58568018674850464
0.67782998085021973 0.67782998085021973 0.67782998085021973
0.59094244241714478 0.59094244241714478 0.59094244241714478
0.58793139457702637 0.58793139457702637 0.58793139457702637
0.60753810405731201 0.60753810405731201 0.60753810405731201
0.64022356271743774 0.64022356271743774 0.64022356271743774
0.67202174663543701 0.67202174663543701 0.67202174663543701
0.71559494733810425 0.71559494733810425 0.71559494733810425
0.77473610639572144 0.77473610639572144 0.77473610639572144
0.76819384098052979 0.76819384098052979 0.76819384098052979
0.76177233457565308 0.76177233457565308 0.76177233457565308
0.7688942551612854 0.7688942551612854 0.7688942551612854
0.79061681032180786 0.79061681032180786 0.79061681032180786
0.80628800392150879 0.80628800392150879 0.80628800392150879
0.82510548830032349 0.82510548830032349 0.82510548830032349
0.85730910301208496 0.85730910301208496 0.85730910301208496
0.87309008836746216 0.87309008836746216 0.87309008836746216
0.87508147954940796 0.87508147954940796 0.87508147954940796
0.87858384847640991 0.87858384847640991 0.87858384847640991
0.88892769813537598 0.88892769813537598 0.88892769813537598
0.89796531200408936 0.89796531200408936 0.89796531200408936
0.90820902585983276 0.90820902585983276 0.90820902585983276
0.92585748434066772 0.92585748434066772 0.92585748434066772
0.9422072172164917 0.9422072172164917 0.9422072172164917
0.94826686382293701 0.94826686382293701 0.94826686382293701
0.95227599143981934 0.95227599143981934 0.95227599143981934
0.95911431312561035 0.95911431312561035 0.95911431312561035
0.96616506576538086 0.96616506576538086 0.96616506576538086
0.97403204441070557 0.97403204441070557 0.97403204441070557
0.98676460981369019 0.98676460981369019 0.98676460981369019
0.11425524204969406 0.11425524204969406 0.11425524204969406
0.14235194027423859 0.14235194027423859 0.14235194027423859
0.17783777415752411 0.17783777415752411 0.17783777415752411
0.22452583909034729 0.22452583909034729 0.22452583909034729
0.29750019311904907 0.29750019311904907 0.29750019311904907
0.38117027282714844 0.38117027282714844 0.38117027282714844
0.49274930357933044 0.49274930357933044 0.49274930357933044
0.26011556386947632 0.26011556386947632 0.26011556386947632
0.27966135740280151 0.27966135740280151 0.27966135740280151
0.31291073560714722 0.31291073560714722 0.31291073560714722
0.35641443729400635 0.35641443729400635 0.35641443729400635
0.41717374324798584 0.41717374324798584 0.41717374324798584
0.49314740300178528 0.49314740300178528 0.49314740300178528
0.60040318965911865 0.60040318965911865 0.60040318965911865
0.42136684060096741 0.42136684060096741 0.42136684060096741
0.43072459101676941 0.43072459101676941 0.43072459101676941
0.46003299951553345 0.46003299951553345 0.46003299951553345
0.49365833401679993 0.49365833401679993 0.49365833401679993
0.54030495882034302 0.54030495882034302 0.54030495882034302
0.60613775253295898 0.60613775253295898 0.60613775253295898
0.69736975431442261 0.69736975431442261 0.69736975431442261
0.60806524753570557 0.60806524753570557 0.60806524753570557
0.60923808813095093 0.60923808813095093 0.60923808813095093
0.62780654430389404 0.62780654430389404 0.62780654430389404
0.65425765514373779 0.65425765514373779 0.65425765514373779
0.6846081018447876 0.6846081018447876 0.6846081018447876
0.72675561904907227 0.72675561904907227 0.72675561904907227
0.78523886203765869 0.78523886203765869 0.78523886203765869
0.77247297763824463 0.77247297763824463 0.77247297763824463
0.77005064487457275 0.77005064487457275 0.77005064487457275
0.77704286575317383 0.77704286575317383 0.77704286575317383
0.79308992624282837 0.79308992624282837 0.79308992624282837
0.80785316228866577 0.80785316228866577 0.80785316228866577
0.82639878988265991 0.82639878988265991 0.82639878988265991
0.85768705606460571 0.85768705606460571 0.85768705606460571
0.87952005863189697 0.87952005863189697 0.87952005863189697
0.87750089168548584 0.87750089168548584 0.87750089168548584
0.87843948602676392 0.87843948602676392 0.87843948602676392
0.88658881187438965 0.88658881187438965 0.88658881187438965
0.89443802833557129 0.89443802833557129 0.89443802833557129
0.90268319845199585 0.90268319845199585 0.90268319845199585
0.91945815086364746 0.91945815086364746 0.91945815086364746
0.94965445995330811 0.94965445995330811 0.94965445995330811
0.94738805294036865 0.94738805294036865 0.94738805294036865
0.94638526439666748 0.94638526439666748 0.94638526439666748
0.95276474952697754 0.95276474952697754 0.95276474952697754
0.9592328667640686 0.9592328667640686 0.9592328667640686
0.9658014178276062 0.9658014178276062 0.9658014178276062
0.97843450307846069 0.97843450307846069 0.97843450307846069
0.17960937321186066 0.17960937321186066 0.17960937321186066
0.20626233518123627 0.20626233518123627 0.20626233518123627
0.23311249911785126 0.23311249911785126 0.23311249911785126
0.27554649114608765 0.27554649114608765 0.27554649114608765
0.33916142582893372 0.33916142582893372 0.33916142582893372
0.42529672384262085 0.42529672384262085 0.42529672384262085
0.54788708686828613 0.54788708686828613 0.54788708686828613
0.32075580954551697 0.32075580954551697 0.32075580954551697
0.34143981337547302 0.34143981337547302 0.34143981337547302
0.37098079919815063 0.37098079919815063 0.37098079919815063
0.41140195727348328 0.41140195727348328 0.41140195727348328
0.46665886044502258 0.46665886044502258 0.46665886044502258
0.54265743494033813 0.54265743494033813 0.54265743494033813
0.64663398265838623 0.64663398265838623 0.64663398265838623
0.47442132234573364 0.47442132234573364 0.47442132234573364
0.48810279369354248 0.48810279369354248 0.48810279369354248
0.51686930656433105 0.51686930656433105 0.51686930656433105
0.55127441883087158 0.55127441883087158 0.55127441883087158
0.59316563606262207 0.59316563606262207 0.59316563606262207
0.6515040397644043 0.6515040397644043 0.6515040397644043
0.72994565963745117 0.72994565963745117 0.72994565963745117
0.64553654193878174 0.64553654193878174 0.64553654193878174
0.65032851696014404 0.65032851696014404 0.65032851696014404
0.66861772537231445 0.66861772537231445 0.66861772537231445
0.69250130653381348 0.69250130653381348 0.69250130653381348
0.71683222055435181 0.71683222055435181 0.71683222055435181
0.75165760517120361 0.75165760517120361 0.75165760517120361
0.80258268117904663 0.80258268117904663 0.80258268117904663
0.78851997852325439 0.78851997852325439 0.78851997852325439
0.78866684436798096 0.78866684436798096 0.78866684436798096
0.79641181230545044 0.79641181230545044 0.79641181230545044
0.80891996622085571 0.80891996622085571 0.80891996622085571
0.81893986463546753 0.81893986463546753 0.81893986463546753
0.83391791582107544 0.83391791582107544 0.83391791582107544
0.8615792989730835 0.8615792989730835 0.8615792989730835
0.88627791404724121 0.88627791404724121 0.88627791404724121
0.88280844688415527 0.88280844688415527 0.88280844688415527
0.88264346122741699 0.88264346122741699 0.88264346122741699
0.88844585418701172 0.88844585418701172 0.88844585418701172
0.8932957649230957 0.8932957649230957 0.8932957649230957
0.89901834726333618 0.89901834726333618 0.89901834726333618
0.91370046138763428 0.91370046138763428 0.91370046138763428
0.95370763540267944 0.95370763540267944 0.95370763540267944
0.94736355543136597 0.94736355543136597 0.94736355543136597
0.94327318668365479 0.94327318668365479 0.94327318668365479
0.94777822494506836 0.94777822494506836 0.94777822494506836
0.95218706130981445 0.95218706130981445 0.95218706130981445
0.95726543664932251 0.95726543664932251 0.95726543664932251
0.96970087289810181 0.96970087289810181 0.96970087289810181
0.25718978047370911 0.25718978047370911 0.25718978047370911
0.28922340273857117 0.28922340273857117 0.28922340273857117
0.31067544221878052 0.31067544221878052 0.31067544221878052
0.34874188899993896 0.34874188899993896 0.34874188899993896
0.41176170110702515 0.41176170110702515 0.41176170110702515
0.49491015076637268 0.49491015076637268 0.49491015076637268
0.62537765502929688 0.62537765502929688 0.62537765502929688
0.40134376287460327 0.40134376287460327 0.40134376287460327
0.42500048875808716 0.42500048875808716 0.42500048875808716
0.45071226358413696 0.45071226358413696 0.45071226358413696
0.48782819509506226 0.48782819509506226 0.48782819509506226
0.54181134700775146 0.54181134700775146 0.54181134700775146
0.61273062229156494 0.61273062229156494 0.61273062229156494
0.70837110280990601 0.70837110280990601 0.70837110280990601
0.5507199764251709 0.5507199764251709 0.5507199764251709
0.56444501876831055 0.56444501876831055 0.56444501876831055
0.59038382768630981 0.59038382768630981 0.59038382768630981
0.62247925996780396 0.62247925996780396 0.62247925996780396
0.6605602502822876 0.6605602502822876 0.6605602502822876
0.70984876155853271 0.70984876155853271 0.70984876155853271
0.77450692653656006 0.77450692653656006 0.77450692653656006
0.70734912157058716 0.70734912157058716 0.70734912157058716
0.70842057466506958 0.70842057466506958 0.70842057466506958
0.72309249639511108 0.72309249639511108 0.72309249639511108
0.7439153790473938 0.7439153790473938 0.7439153790473938
0.76133638620376587 0.76133638620376587 0.76133638620376587
0.78766298294067383 0.78766298294067383 0.78766298294067383
0.82899707555770874 0.82899707555770874 0.82899707555770874
0.82142132520675659 0.82142132520675659 0.82142132520675659
0.82063931226730347 0.82063931226730347 0.82063931226730347
0.82668709754943848 0.82668709754943848 0.82668709754943848
0.83617937564849854 0.83617937564849854 0.83617937564849854
0.84037607908248901 0.84037607908248901 0.84037607908248901
0.85095584392547607 0.85095584392547607 0.85095584392547607
0.87498968839645386 0.87498968839645386 0.87498968839645386
0.90112060308456421 0.90112060308456421 0.90112060308456421
0.89751380681991577 0.89751380681991577 0.89751380681991577
0.89614391326904297 0.89614391326904297 0.89614391326904297
0.89819633960723877 0.89819633960723877 0.89819633960723877
0.89928197860717773 0.89928197860717773 0.89928197860717773
0.90354877710342407 0.90354877710342407 0.90354877710342407
0.91891145706176758 0.91891145706176758 0.91891145706176758
0.96059250831604004 0.96059250831604004 0.96059250831604004
0.95446789264678955 0.95446789264678955 0.95446789264678955
0.94969826936721802 0.94969826936721802 0.94969826936721802
0.94917958974838257 0.94917958974838257 0.94917958974838257
0.95043265819549561 0.95043265819549561 0.95043265819549561
0.95425045490264893 0.95425045490264893 0.95425045490264893
0.96699744462966919 0.96699744462966919 0.96699744462966919
0.33980736136436462 0.33980736136436462 0.33980736136436462
0.38533130288124084 0.38533130288124084 0.38533130288124084
0.42053115367889404 0.42053115367889404 0.42053115367889404
0.462270587682724 0.462270587682724 0.462270587682724
0.52118158340454102 0.52118158340454102 0.52118158340454102
0.5988469123840332 0.5988469123840332 0.5988469123840332
0.69751280546188354 0.69751280546188354 0.69751280546188354
0.50344645977020264 0.50344645977020264 0.50344645977020264
0.52744913101196289 0.52744913101196289 0.52744913101196289
0.55150729417800903 0.55150729417800903 0.55150729417800903
0.58569079637527466 0.58569079637527466 0.58569079637527466
0.63404262065887451 0.63404262065887451 0.63404262065887451
0.69346296787261963 0.69346296787261963 0.69346296787261963
0.76705563068389893 0.76705563068389893 0.76705563068389893
0.64914041757583618 0.64914041757583618 0.64914041757583618
0.65657538175582886 0.65657538175582886 0.65657538175582886
0.67172956466674805 0.67172956466674805 0.67172956466674805
0.69635409116744995 0.69635409116744995 0.69635409116744995
0.72866332530975342 0.72866332530975342 0.72866332530975342
0.76700884103775024 0.76700884103775024 0.76700884103775024
0.81621509790420532 0.81621509790420532 0.81621509790420532
0.77158313989639282 0.77158313989639282 0.77158313989639282
0.76872915029525757 0.76872915029525757 0.76872915029525757
0.77446860074996948 0.77446860074996948 0.77446860074996948
0.78797978162765503 0.78797978162765503 0.78797978162765503
0.80275273323059082 0.80275273323059082 0.80275273323059082
0.82320111989974976 0.82320111989974976 0.82320111989974976
0.85522586107254028 0.85522586107254028 0.85522586107254028
0.85586977005004883 0.85586977005004883 0.85586977005004883
0.85245847702026367 0.85245847702026367 0.85245847702026367
0.85269904136657715 0.85269904136657715 0.85269904136657715
0.85729211568832397 0.85729211568832397 0.85729211568832397
0.8609803318977356 0.8609803318977356 0.8609803318977356
0.8697705864906311 0.8697705864906311 0.8697705864906311
0.89055138826370239 0.89055138826370239 0.89055138826370239
0.91771584749221802 0.91771584749221802 0.91771584749221802
0.91283440589904785 0.91283440589904785 0.91283440589904785
0.9093402624130249 0.9093402624130249 0.9093402624130249
0.90829765796661377 0.90829765796661377 0.90829765796661377
0.90789252519607544 0.90789252519607544 0.90789252519607544
0.91184359788894653 0.91184359788894653 0.91184359788894653
0.92682737112045288 0.92682737112045288 0.92682737112045288
0.96829968690872192 0.96829968690872192 0.96829968690872192
0.96225446462631226 0.96225446462631226 0.96225446462631226
0.95662534236907959 0.95662534236907959 0.95662534236907959
0.95328676700592041 0.95328676700592041 0.95328676700592041
0.95227169990539551 0.95227169990539551 0.95227169990539551
0.95555555820465088 0.95555555820465088 0.95555555820465088
0.96846300363540649 0.96846300363540649 0.96846300363540649
0.46900206804275513 0.46900206804275513 0.46900206804275513
0.51254618167877197 0.51254618167877197 0.51254618167877197
0.55062156915664673 0.55062156915664673 0.55062156915664673
0.5901375412940979 0.5901375412940979 0.5901375412940979
0.63569945096969604 0.63569945096969604 0.63569945096969604
0.69167029857635498 0.69167029857635498 0.69167029857635498
0.75649940967559814 0.75649940967559814 0.75649940967559814
0.62770187854766846 0.62770187854766846 0.62770187854766846
0.64369362592697144 0.64369362592697144 0.64369362592697144
0.66186690330505371 0.66186690330505371 0.66186690330505371
0.68817830085754395 0.68817830085754395 0.68817830085754395
0.7221606969833374 0.7221606969833374 0.7221606969833374
0.763111412525177 0.763111412525177 0.763111412525177
0.81285226345062256 0.81285226345062256 0.81285226345062256
0.73974514007568359 0.73974514007568359 0.73974514007568359
0.74350851774215698 0.74350851774215698 0.74350851774215698
0.75068151950836182 0.75068151950836182 0.75068151950836182
0.76658576726913452 0.76658576726913452 0.76658576726913452
0.78800034523010254 0.78800034523010254 0.78800034523010254
0.81359350681304932 0.81359350681304932 0.81359350681304932
0.84810537099838257 0.84810537099838257 0.84810537099838257
0.82211190462112427 0.82211190462112427 0.82211190462112427
0.81819337606430054 0.81819337606430054 0.81819337606430054
0.81871336698532104 0.81871336698532104 0.81871336698532104
0.82745003700256348 0.82745003700256348 0.82745003700256348
0.83834028244018555 0.83834028244018555 0.83834028244018555
0.85256326198577881 0.85256326198577881 0.85256326198577881
0.87623566389083862 0.87623566389083862 0.87623566389083862
0.88339293003082275 0.88339293003082275 0.88339293003082275
0.87651127576828003 0.87651127576828003 0.87651127576828003
0.87371283769607544 0.87371283769607544 0.87371283769607544
0.87622356414794922 0.87622356414794922 0.87622356414794922
0.88007199764251709 0.88007199764251709 0.88007199764251709
0.8875114917755127 0.8875114917755127 0.8875114917755127
0.90520519018173218 0.90520519018173218 0.90520519018173218
0.93230569362640381 0.93230569362640381 0.93230569362640381
0.92555588483810425 0.92555588483810425 0.92555588483810425
0.92050397396087646 0.92050397396087646 0.92050397396087646
0.91879087686538696 0.91879087686538696 0.91879087686538696
0.91868871450424194 0.91868871450424194 0.91868871450424194
0.92218470573425293 0.92218470573425293 0.92218470573425293
0.93620234727859497 0.93620234727859497 0.93620234727859497
0.9761359691619873 0.9761359691619873 0.9761359691619873
0.96988296508789062 0.96988296508789062 0.96988296508789062
0.9641910195350647 0.9641910195350647 0.9641910195350647
0.96025389432907104 0.96025389432907104 0.96025389432907104
0.95855164527893066 0.95855164527893066 0.95855164527893066
0.96104151010513306 0.96104151010513306 0.96104151010513306
0.97318893671035767 0.97318893671035767 0.97318893671035767
0.62685573101043701 0.62685573101043701 0.62685573101043701
0.65133118629455566 0.65133118629455566 0.65133118629455566
0.67756319046020508 0.67756319046020508 0.67756319046020508
0.70869892835617065 0.70869892835617065 0.70869892835617065
0.7359352707862854 0.7359352707862854 0.7359352707862854
0.76883870363235474 0.76883870363235474 0.76883870363235474
0.8095477819442749 0.8095477819442749 0.8095477819442749
0.74429059028625488 0.74429059028625488 0.74429059028625488
0.75480884313583374 0.75480884313583374 0.75480884313583374
0.76503086090087891 0.76503086090087891 0.76503086090087891
0.78183221817016602 0.78183221817016602 0.78183221817016602
0.80014818906784058 0.80014818906784058 0.80014818906784058
0.82282763719558716 0.82282763719558716 0.82282763719558716
0.85323601961135864 0.85323601961135864 0.85323601961135864
0.81845802068710327 0.81845802068710327 0.81845802068710327
0.82034248113632202 0.82034248113632202 0.82034248113632202
0.8224872350692749 0.8224872350692749 0.8224872350692749
0.8315691351890564 0.8315691351890564 0.8315691351890564
0.84271097183227539 0.84271097183227539 0.84271097183227539
0.85565614700317383 0.85565614700317383 0.85565614700317383
0.87587255239486694 0.87587255239486694 0.87587255239486694
0.86884874105453491 0.86884874105453491 0.86884874105453491
0.86144143342971802 0.86144143342971802 0.86144143342971802
0.86091560125350952 0.86091560125350952 0.86091560125350952
0.86776292324066162 0.86776292324066162 0.86776292324066162
0.87458664178848267 0.87458664178848267 0.87458664178848267
0.88213074207305908 0.88213074207305908 0.88213074207305908
0.89769923686981201 0.89769923686981201 0.89769923686981201
0.91073137521743774 0.91073137521743774 0.91073137521743774
0.90074151754379272 0.90074151754379272 0.90074151754379272
0.89724940061569214 0.89724940061569214 0.89724940061569214
0.9008144736289978 0.9008144736289978 0.9008144736289978
0.90405535697937012 0.90405535697937012 0.90405535697937012
0.90942811965942383 0.90942811965942383 0.90942811965942383
0.9240114688873291 0.9240114688873291 0.9240114688873291
0.94976645708084106 0.94976645708084106 0.94976645708084106
0.94191420078277588 0.94191420078277588 0.94191420078277588
0.9371495246887207 0.9371495246887207 0.9371495246887207
0.93538975715637207 0.93538975715637207 0.93538975715637207
0.93562054634094238 0.93562054634094238 0.93562054634094238
0.93908631801605225 0.93908631801605225 0.93908631801605225
0.95195204019546509 0.95195204019546509 0.95195204019546509
0.98793309926986694 0.98793309926986694 0.98793309926986694
0.98239815235137939 0.98239815235137939 0.98239815235137939
0.97739028930664062 0.97739028930664062 0.97739028930664062
0.97386348247528076 0.97386348247528076 0.97386348247528076
0.97200959920883179 0.97200959920883179 0.97200959920883179
0.97448241710662842 0.97448241710662842 0.97448241710662842
0.98517614603042603 0.98517614603042603 0.98517614603042603
