luts/bw/agfa_apx_100.cube
# Created by: G'MIC (https://gmic.eu)
TITLE "agfa_apx_100"
# LUT size
LUT_3D_SIZE 5
# Data domain
DOMAIN_MIN 0.0 0.0 0.0
DOMAIN_MAX 1.0 1.0 1.0
# LUT data points
0.065090090036392212 0.065090090036392212 0.065090090036392212
0.11279880255460739 0.11279880255460739 0.11279880255460739
0.16332893073558807 0.16332893073558807 0.16332893073558807
0.28884768486022949 0.28884768486022949 0.28884768486022949
0.4418146014213562 0.4418146014213562 0.4418146014213562
0.29893273115158081 0.29893273115158081 0.29893273115158081
0.32814347743988037 0.32814347743988037 0.32814347743988037
0.38087913393974304 0.38087913393974304 0.38087913393974304
0.47855648398399353 0.47855648398399353 0.47855648398399353
0.62248224020004272 0.62248224020004272 0.62248224020004272
0.59094244241714478 0.59094244241714478 0.59094244241714478
0.59541887044906616 0.59541887044906616 0.59541887044906616
0.64022356271743774 0.64022356271743774 0.64022356271743774
0.69145697355270386 0.69145697355270386 0.69145697355270386
0.77473610639572144 0.77473610639572144 0.77473610639572144
0.82702130079269409 0.82702130079269409 0.82702130079269409
0.82571208477020264 0.82571208477020264 0.82571208477020264
0.84433263540267944 0.84433263540267944 0.84433263540267944
0.86190503835678101 0.86190503835678101 0.86190503835678101
0.8927190899848938 0.8927190899848938 0.8927190899848938
0.9422072172164917 0.9422072172164917 0.9422072172164917
0.9500499963760376 0.9500499963760376 0.9500499963760376
0.95911431312561035 0.95911431312561035 0.95911431312561035
0.96982616186141968 0.96982616186141968 0.96982616186141968
0.98676460981369019 0.98676460981369019 0.98676460981369019
0.14455796778202057 0.14455796778202057 0.14455796778202057
0.18651093542575836 0.18651093542575836 0.18651093542575836
0.24900636076927185 0.24900636076927185 0.24900636076927185
0.3563748300075531 0.3563748300075531 0.3563748300075531
0.51839816570281982 0.51839816570281982 0.51839816570281982
0.36384600400924683 0.36384600400924683 0.36384600400924683
0.39383259415626526 0.39383259415626526 0.39383259415626526
0.44935718178749084 0.44935718178749084 0.44935718178749084
0.53107506036758423 0.53107506036758423 0.53107506036758423
0.66745471954345703 0.66745471954345703 0.66745471954345703
0.62396097183227539 0.62396097183227539 0.62396097183227539
0.63501816987991333 0.63501816987991333 0.63501816987991333
0.67051237821578979 0.67051237821578979 0.67051237821578979
0.7157626748085022 0.7157626748085022 0.7157626748085022
0.79249083995819092 0.79249083995819092 0.79249083995819092
0.83582210540771484 0.83582210540771484 0.83582210540771484
0.83431965112686157 0.83431965112686157 0.83431965112686157
0.84692168235778809 0.84692168235778809 0.84692168235778809
0.86007797718048096 0.86007797718048096 0.86007797718048096
0.88711047172546387 0.88711047172546387 0.88711047172546387
0.95154601335525513 0.95154601335525513 0.95154601335525513
0.94311720132827759 0.94311720132827759 0.94311720132827759
0.94946467876434326 0.94946467876434326 0.94946467876434326
0.95782876014709473 0.95782876014709473 0.95782876014709473
0.97359716892242432 0.97359716892242432 0.97359716892242432
0.25718978047370911 0.25718978047370911 0.25718978047370911
0.29928174614906311 0.29928174614906311 0.29928174614906311
0.34874188899993896 0.34874188899993896 0.34874188899993896
0.44904324412345886 0.44904324412345886 0.44904324412345886
0.62537765502929688 0.62537765502929688 0.62537765502929688
0.47186574339866638 0.47186574339866638 0.47186574339866638
0.50609779357910156 0.50609779357910156 0.50609779357910156
0.55626606941223145 0.55626606941223145 0.55626606941223145
0.63173961639404297 0.63173961639404297 0.63173961639404297
0.7431262731552124 0.7431262731552124 0.7431262731552124
0.70734912157058716 0.70734912157058716 0.70734912157058716
0.71406692266464233 0.71406692266464233 0.71406692266464233
0.7439153790473938 0.7439153790473938 0.7439153790473938
0.77298891544342041 0.77298891544342041 0.77298891544342041
0.82899707555770874 0.82899707555770874 0.82899707555770874
0.86472147703170776 0.86472147703170776 0.86472147703170776
0.86300396919250488 0.86300396919250488 0.86300396919250488
0.86954259872436523 0.86954259872436523 0.86954259872436523
0.8736872673034668 0.8736872673034668 0.8736872673034668
0.89669251441955566 0.89669251441955566 0.89669251441955566
0.96059250831604004 0.96059250831604004 0.96059250831604004
0.95146781206130981 0.95146781206130981 0.95146781206130981
0.94917958974838257 0.94917958974838257 0.94917958974838257
0.95133680105209351 0.95133680105209351 0.95133680105209351
0.96699744462966919 0.96699744462966919 0.96699744462966919
0.40003100037574768 0.40003100037574768 0.40003100037574768
0.46526595950126648 0.46526595950126648 0.46526595950126648
0.52618288993835449 0.52618288993835449 0.52618288993835449
0.61109668016433716 0.61109668016433716 0.61109668016433716
0.72765880823135376 0.72765880823135376 0.72765880823135376
0.63312560319900513 0.63312560319900513 0.63312560319900513
0.65275782346725464 0.65275782346725464 0.65275782346725464
0.68712997436523438 0.68712997436523438 0.68712997436523438
0.74142444133758545 0.74142444133758545 0.74142444133758545
0.81396466493606567 0.81396466493606567 0.81396466493606567
0.7978132963180542 0.7978132963180542 0.7978132963180542
0.79468166828155518 0.79468166828155518 0.79468166828155518
0.80786377191543579 0.80786377191543579 0.80786377191543579
0.82880491018295288 0.82880491018295288 0.82880491018295288
0.86625093221664429 0.86625093221664429 0.86625093221664429
0.89917421340942383 0.89917421340942383 0.89917421340942383
0.89139628410339355 0.89139628410339355 0.89139628410339355
0.89074075222015381 0.89074075222015381 0.89074075222015381
0.89373081922531128 0.89373081922531128 0.89373081922531128
0.91401225328445435 0.91401225328445435 0.91401225328445435
0.9721304178237915 0.9721304178237915 0.9721304178237915
0.96279239654541016 0.96279239654541016 0.96279239654541016
0.95634573698043823 0.95634573698043823 0.95634573698043823
0.95531481504440308 0.95531481504440308 0.95531481504440308
0.97030198574066162 0.97030198574066162 0.97030198574066162
0.62685573101043701 0.62685573101043701 0.62685573101043701
0.66370350122451782 0.66370350122451782 0.66370350122451782
0.70869892835617065 0.70869892835617065 0.70869892835617065
0.75107860565185547 0.75107860565185547 0.75107860565185547
0.8095477819442749 0.8095477819442749 0.8095477819442749
0.78552114963531494 0.78552114963531494 0.78552114963531494
0.79355937242507935 0.79355937242507935 0.79355937242507935
0.80893099308013916 0.80893099308013916 0.80893099308013916
0.83167761564254761 0.83167761564254761 0.83167761564254761
0.86613792181015015 0.86613792181015015 0.86613792181015015
0.86884874105453491 0.86884874105453491 0.86884874105453491
0.85873186588287354 0.85873186588287354 0.85873186588287354
0.86776292324066162 0.86776292324066162 0.86776292324066162
0.87795519828796387 0.87795519828796387 0.87795519828796387
0.89769923686981201 0.89769923686981201 0.89769923686981201
0.93059837818145752 0.93059837818145752 0.93059837818145752
0.91838306188583374 0.91838306188583374 0.91838306188583374
0.91771972179412842 0.91771972179412842 0.91771972179412842
0.92099225521087646 0.92099225521087646 0.92099225521087646
0.9377017617225647 0.9377017617225647 0.9377017617225647
0.98793309926986694 0.98793309926986694 0.98793309926986694
0.97986412048339844 0.97986412048339844 0.97986412048339844
0.97386348247528076 0.97386348247528076 0.97386348247528076
0.97253179550170898 0.97253179550170898 0.97253179550170898
0.98517614603042603 0.98517614603042603 0.98517614603042603
