luts/bw/fuji_neopan_acros_100.cube
# Created by: G'MIC (https://gmic.eu)
TITLE "fuji_neopan_acros_100"
# LUT size
LUT_3D_SIZE 7
# Data domain
DOMAIN_MIN 0.0 0.0 0.0
DOMAIN_MAX 1.0 1.0 1.0
# LUT data points
0.01947377435863018 0.01947377435863018 0.01947377435863018
0.026685377582907677 0.026685377582907677 0.026685377582907677
0.043167967349290848 0.043167967349290848 0.043167967349290848
0.072209976613521576 0.072209976613521576 0.072209976613521576
0.11787953227758408 0.11787953227758408 0.11787953227758408
0.1819382905960083 0.1819382905960083 0.1819382905960083
0.26048669219017029 0.26048669219017029 0.26048669219017029
0.11364664137363434 0.11364664137363434 0.11364664137363434
0.12190276384353638 0.12190276384353638 0.12190276384353638
0.13854922354221344 0.13854922354221344 0.13854922354221344
0.16641803085803986 0.16641803085803986 0.16641803085803986
0.21108891069889069 0.21108891069889069 0.21108891069889069
0.27201575040817261 0.27201575040817261 0.27201575040817261
0.34616357088088989 0.34616357088088989 0.34616357088088989
0.22655357420444489 0.22655357420444489 0.22655357420444489
0.234787717461586 0.234787717461586 0.234787717461586
0.25078997015953064 0.25078997015953064 0.25078997015953064
0.27663397789001465 0.27663397789001465 0.27663397789001465
0.31655499339103699 0.31655499339103699 0.31655499339103699
0.3710186779499054 0.3710186779499054 0.3710186779499054
0.43742921948432922 0.43742921948432922 0.43742921948432922
0.36560094356536865 0.36560094356536865 0.36560094356536865
0.36970734596252441 0.36970734596252441 0.36970734596252441
0.38182234764099121 0.38182234764099121 0.38182234764099121
0.40258842706680298 0.40258842706680298 0.40258842706680298
0.43475303053855896 0.43475303053855896 0.43475303053855896
0.47906357049942017 0.47906357049942017 0.47906357049942017
0.5358690619468689 0.5358690619468689 0.5358690619468689
0.51982539892196655 0.51982539892196655 0.51982539892196655
0.51950901746749878 0.51950901746749878 0.51950901746749878
0.52587097883224487 0.52587097883224487 0.52587097883224487
0.53935378789901733 0.53935378789901733 0.53935378789901733
0.56187307834625244 0.56187307834625244 0.56187307834625244
0.59621047973632812 0.59621047973632812 0.59621047973632812
0.64260178804397583 0.64260178804397583 0.64260178804397583
0.68266117572784424 0.68266117572784424 0.68266117572784424
0.67785990238189697 0.67785990238189697 0.67785990238189697
0.67746531963348389 0.67746531963348389 0.67746531963348389
0.68290269374847412 0.68290269374847412 0.68290269374847412
0.69648385047912598 0.69648385047912598 0.69648385047912598
0.72052758932113647 0.72052758932113647 0.72052758932113647
0.75856870412826538 0.75856870412826538 0.75856870412826538
0.84779757261276245 0.84779757261276245 0.84779757261276245
0.83828043937683105 0.83828043937683105 0.83828043937683105
0.83188140392303467 0.83188140392303467 0.83188140392303467
0.83186274766921997 0.83186274766921997 0.83186274766921997
0.83813351392745972 0.83813351392745972 0.83813351392745972
0.85502356290817261 0.85502356290817261 0.85502356290817261
0.88606226444244385 0.88606226444244385 0.88606226444244385
0.027043988928198814 0.027043988928198814 0.027043988928198814
0.036046314984560013 0.036046314984560013 0.036046314984560013
0.051516275852918625 0.051516275852918625 0.051516275852918625
0.076455987989902496 0.076455987989902496 0.076455987989902496
0.11836894601583481 0.11836894601583481 0.11836894601583481
0.18399167060852051 0.18399167060852051 0.18399167060852051
0.27122199535369873 0.27122199535369873 0.27122199535369873
0.12609173357486725 0.12609173357486725 0.12609173357486725
0.13396912813186646 0.13396912813186646 0.13396912813186646
0.14887546002864838 0.14887546002864838 0.14887546002864838
0.17315922677516937 0.17315922677516937 0.17315922677516937
0.2140425443649292 0.2140425443649292 0.2140425443649292
0.27612560987472534 0.27612560987472534 0.27612560987472534
0.35613587498664856 0.35613587498664856 0.35613587498664856
0.24115189909934998 0.24115189909934998 0.24115189909934998
0.2478083074092865 0.2478083074092865 0.2478083074092865
0.26190555095672607 0.26190555095672607 0.26190555095672607
0.2849980890750885 0.2849980890750885 0.2849980890750885
0.32222938537597656 0.32222938537597656 0.32222938537597656
0.37638449668884277 0.37638449668884277 0.37638449668884277
0.44541135430335999 0.44541135430335999 0.44541135430335999
0.37719824910163879 0.37719824910163879 0.37719824910163879
0.3812420666217804 0.3812420666217804 0.3812420666217804
0.39265900850296021 0.39265900850296021 0.39265900850296021
0.41185817122459412 0.41185817122459412 0.41185817122459412
0.44155868887901306 0.44155868887901306 0.44155868887901306
0.48484247922897339 0.48484247922897339 0.48484247922897339
0.5416862964630127 0.5416862964630127 0.5416862964630127
0.52836352586746216 0.52836352586746216 0.52836352586746216
0.52909958362579346 0.52909958362579346 0.52909958362579346
0.53593713045120239 0.53593713045120239 0.53593713045120239
0.54856663942337036 0.54856663942337036 0.54856663942337036
0.56918072700500488 0.56918072700500488 0.56918072700500488
0.60103988647460938 0.60103988647460938 0.60103988647460938
0.64656835794448853 0.64656835794448853 0.64656835794448853
0.687003493309021 0.687003493309021 0.687003493309021
0.68419539928436279 0.68419539928436279 0.68419539928436279
0.68515372276306152 0.68515372276306152 0.68515372276306152
0.69083535671234131 0.69083535671234131 0.69083535671234131
0.70276355743408203 0.70276355743408203 0.70276355743408203
0.72490441799163818 0.72490441799163818 0.72490441799163818
0.76128709316253662 0.76128709316253662 0.76128709316253662
0.84796208143234253 0.84796208143234253 0.84796208143234253
0.84121024608612061 0.84121024608612061 0.84121024608612061
0.83652526140213013 0.83652526140213013 0.83652526140213013
0.83627569675445557 0.83627569675445557 0.83627569675445557
0.84202414751052856 0.84202414751052856 0.84202414751052856
0.85761994123458862 0.85761994123458862 0.85761994123458862
0.88755506277084351 0.88755506277084351 0.88755506277084351
0.041660983115434647 0.041660983115434647 0.041660983115434647
0.052634850144386292 0.052634850144386292 0.052634850144386292
0.067960552871227264 0.067960552871227264 0.067960552871227264
0.087621323764324188 0.087621323764324188 0.087621323764324188
0.12261262536048889 0.12261262536048889 0.12261262536048889
0.18769571185112 0.18769571185112 0.18769571185112
0.28943043947219849 0.28943043947219849 0.28943043947219849
0.14506757259368896 0.14506757259368896 0.14506757259368896
0.15351960062980652 0.15351960062980652 0.15351960062980652
0.16708099842071533 0.16708099842071533 0.16708099842071533
0.18686398863792419 0.18686398863792419 0.18686398863792419
0.22212260961532593 0.22212260961532593 0.22212260961532593
0.28404027223587036 0.28404027223587036 0.28404027223587036
0.37189376354217529 0.37189376354217529 0.37189376354217529
0.2618352472782135 0.2618352472782135 0.2618352472782135
0.26798155903816223 0.26798155903816223 0.26798155903816223
0.28026002645492554 0.28026002645492554 0.28026002645492554
0.30004626512527466 0.30004626512527466 0.30004626512527466
0.33317321538925171 0.33317321538925171 0.33317321538925171
0.38610827922821045 0.38610827922821045 0.38610827922821045
0.45700627565383911 0.45700627565383911 0.45700627565383911
0.39467024803161621 0.39467024803161621 0.39467024803161621
0.39927157759666443 0.39927157759666443 0.39927157759666443
0.40987607836723328 0.40987607836723328 0.40987607836723328
0.42716553807258606 0.42716553807258606 0.42716553807258606
0.45376196503639221 0.45376196503639221 0.45376196503639221
0.49471518397331238 0.49471518397331238 0.49471518397331238
0.55106675624847412 0.55106675624847412 0.55106675624847412
0.54101115465164185 0.54101115465164185 0.54101115465164185
0.54342091083526611 0.54342091083526611 0.54342091083526611
0.55147439241409302 0.55147439241409302 0.55147439241409302
0.56401234865188599 0.56401234865188599 0.56401234865188599
0.58183127641677856 0.58183127641677856 0.58183127641677856
0.61068975925445557 0.61068975925445557 0.61068975925445557
0.65486812591552734 0.65486812591552734 0.65486812591552734
0.6947324275970459 0.6947324275970459 0.6947324275970459
0.69421875476837158 0.69421875476837158 0.69421875476837158
0.6975981593132019 0.6975981593132019 0.6975981593132019
0.70414227247238159 0.70414227247238159 0.70414227247238159
0.71411138772964478 0.71411138772964478 0.71411138772964478
0.73388713598251343 0.73388713598251343 0.73388713598251343
0.76893001794815063 0.76893001794815063 0.76893001794815063
0.85116541385650635 0.85116541385650635 0.85116541385650635
0.84683489799499512 0.84683489799499512 0.84683489799499512
0.84471505880355835 0.84471505880355835 0.84471505880355835
0.84542429447174072 0.84542429447174072 0.84542429447174072
0.85071104764938354 0.85071104764938354 0.85071104764938354
0.86526954174041748 0.86526954174041748 0.86526954174041748
0.89463329315185547 0.89463329315185547 0.89463329315185547
0.059003133326768875 0.059003133326768875 0.059003133326768875
0.070639818906784058 0.070639818906784058 0.070639818906784058
0.086263023316860199 0.086263023316860199 0.086263023316860199
0.10207763314247131 0.10207763314247131 0.10207763314247131
0.13413271307945251 0.13413271307945251 0.13413271307945251
0.19954605400562286 0.19954605400562286 0.19954605400562286
0.31052857637405396 0.31052857637405396 0.31052857637405396
0.16493183374404907 0.16493183374404907 0.16493183374404907
0.17335182428359985 0.17335182428359985 0.17335182428359985
0.18554958701133728 0.18554958701133728 0.18554958701133728
0.20201532542705536 0.20201532542705536 0.20201532542705536
0.23432035744190216 0.23432035744190216 0.23432035744190216
0.29625862836837769 0.29625862836837769 0.29625862836837769
0.38731038570404053 0.38731038570404053 0.38731038570404053
0.28241673111915588 0.28241673111915588 0.28241673111915588
0.28797924518585205 0.28797924518585205 0.28797924518585205
0.29845884442329407 0.29845884442329407 0.29845884442329407
0.31533423066139221 0.31533423066139221 0.31533423066139221
0.34561759233474731 0.34561759233474731 0.34561759233474731
0.39713135361671448 0.39713135361671448 0.39713135361671448
0.46866840124130249 0.46866840124130249 0.46866840124130249
0.41306912899017334 0.41306912899017334 0.41306912899017334
0.41745302081108093 0.41745302081108093 0.41745302081108093
0.4269091784954071 0.4269091784954071 0.4269091784954071
0.44199761748313904 0.44199761748313904 0.44199761748313904
0.46564069390296936 0.46564069390296936 0.46564069390296936
0.50450122356414795 0.50450122356414795 0.50450122356414795
0.56015634536743164 0.56015634536743164 0.56015634536743164
0.55558204650878906 0.55558204650878906 0.55558204650878906
0.55835199356079102 0.55835199356079102 0.55835199356079102
0.56674593687057495 0.56674593687057495 0.56674593687057495
0.57880860567092896 0.57880860567092896 0.57880860567092896
0.59374135732650757 0.59374135732650757 0.59374135732650757
0.62015211582183838 0.62015211582183838 0.62015211582183838
0.66295236349105835 0.66295236349105835 0.66295236349105835
0.7047119140625 0.7047119140625 0.7047119140625
0.70500564575195312 0.70500564575195312 0.70500564575195312
0.70989370346069336 0.70989370346069336 0.70989370346069336
0.71734786033630371 0.71734786033630371 0.71734786033630371
0.72512435913085938 0.72512435913085938 0.72512435913085938
0.74306315183639526 0.74306315183639526 0.74306315183639526
0.77696478366851807 0.77696478366851807 0.77696478366851807
0.85723644495010376 0.85723644495010376 0.85723644495010376
0.85390394926071167 0.85390394926071167 0.85390394926071167
0.85331171751022339 0.85331171751022339 0.85331171751022339
0.85482436418533325 0.85482436418533325 0.85482436418533325
0.85962992906570435 0.85962992906570435 0.85962992906570435
0.87366122007369995 0.87366122007369995 0.87366122007369995
0.90263468027114868 0.90263468027114868 0.90263468027114868
0.076093263924121857 0.076093263924121857 0.076093263924121857
0.085339657962322235 0.085339657962322235 0.085339657962322235
0.098134733736515045 0.098134733736515045 0.098134733736515045
0.11586233228445053 0.11586233228445053 0.11586233228445053
0.15258920192718506 0.15258920192718506 0.15258920192718506
0.22274306416511536 0.22274306416511536 0.22274306416511536
0.32113704085350037 0.32113704085350037 0.32113704085350037
0.18362975120544434 0.18362975120544434 0.18362975120544434
0.18982373178005219 0.18982373178005219 0.18982373178005219
0.19976708292961121 0.19976708292961121 0.19976708292961121
0.21584078669548035 0.21584078669548035 0.21584078669548035
0.24923586845397949 0.24923586845397949 0.24923586845397949
0.31106987595558167 0.31106987595558167 0.31106987595558167
0.39733478426933289 0.39733478426933289 0.39733478426933289
0.30148717761039734 0.30148717761039734 0.30148717761039734
0.30521628260612488 0.30521628260612488 0.30521628260612488
0.31349319219589233 0.31349319219589233 0.31349319219589233
0.32842999696731567 0.32842999696731567 0.32842999696731567
0.35715895891189575 0.35715895891189575 0.35715895891189575
0.40702435374259949 0.40702435374259949 0.40702435374259949
0.47683802247047424 0.47683802247047424 0.47683802247047424
0.43070155382156372 0.43070155382156372 0.43070155382156372
0.43324631452560425 0.43324631452560425 0.43324631452560425
0.44036361575126648 0.44036361575126648 0.44036361575126648
0.45304033160209656 0.45304033160209656 0.45304033160209656
0.4749530553817749 0.4749530553817749 0.4749530553817749
0.51215887069702148 0.51215887069702148 0.51215887069702148
0.56704896688461304 0.56704896688461304 0.56704896688461304
0.5701715350151062 0.5701715350151062 0.5701715350151062
0.57131409645080566 0.57131409645080566 0.57131409645080566
0.57722651958465576 0.57722651958465576 0.57722651958465576
0.58664846420288086 0.58664846420288086 0.58664846420288086
0.60080593824386597 0.60080593824386597 0.60080593824386597
0.62699639797210693 0.62699639797210693 0.62699639797210693
0.66984212398529053 0.66984212398529053 0.66984212398529053
0.7162172794342041 0.7162172794342041 0.7162172794342041
0.71526002883911133 0.71526002883911133 0.71526002883911133
0.71805286407470703 0.71805286407470703 0.71805286407470703
0.72341865301132202 0.72341865301132202 0.72341865301132202
0.73157596588134766 0.73157596588134766 0.73157596588134766
0.74986028671264648 0.74986028671264648 0.74986028671264648
0.7843482494354248 0.7843482494354248 0.7843482494354248
0.86648988723754883 0.86648988723754883 0.86648988723754883
0.86212062835693359 0.86212062835693359 0.86212062835693359
0.86070758104324341 0.86070758104324341 0.86070758104324341
0.8617064356803894 0.8617064356803894 0.8617064356803894
0.86682116985321045 0.86682116985321045 0.86682116985321045
0.88125461339950562 0.88125461339950562 0.88125461339950562
0.91085582971572876 0.91085582971572876 0.91085582971572876
0.095207080245018005 0.095207080245018005 0.095207080245018005
0.1016383022069931 0.1016383022069931 0.1016383022069931
0.11292431503534317 0.11292431503534317 0.11292431503534317
0.13276521861553192 0.13276521861553192 0.13276521861553192
0.1722978800535202 0.1722978800535202 0.1722978800535202
0.24477535486221313 0.24477535486221313 0.24477535486221313
0.33760896325111389 0.33760896325111389 0.33760896325111389
0.20300096273422241 0.20300096273422241 0.20300096273422241
0.20648768544197083 0.20648768544197083 0.20648768544197083
0.21485556662082672 0.21485556662082672 0.21485556662082672
0.2316356897354126 0.2316356897354126 0.2316356897354126
0.26612409949302673 0.26612409949302673 0.26612409949302673
0.32724422216415405 0.32724422216415405 0.32724422216415405
0.40897354483604431 0.40897354483604431 0.40897354483604431
0.32074075937271118 0.32074075937271118 0.32074075937271118
0.32218194007873535 0.32218194007873535 0.32218194007873535
0.32845932245254517 0.32845932245254517 0.32845932245254517
0.34234035015106201 0.34234035015106201 0.34234035015106201
0.37015604972839355 0.37015604972839355 0.37015604972839355
0.41772976517677307 0.41772976517677307 0.41772976517677307
0.48505666851997375 0.48505666851997375 0.48505666851997375
0.44902357459068298 0.44902357459068298 0.44902357459068298
0.44883590936660767 0.44883590936660767 0.44883590936660767
0.45316493511199951 0.45316493511199951 0.45316493511199951
0.46383905410766602 0.46383905410766602 0.46383905410766602
0.4844268262386322 0.4844268262386322 0.4844268262386322
0.52015095949172974 0.52015095949172974 0.52015095949172974
0.57424873113632202 0.57424873113632202 0.57424873113632202
0.58609253168106079 0.58609253168106079 0.58609253168106079
0.58439916372299194 0.58439916372299194 0.58439916372299194
0.58688509464263916 0.58688509464263916 0.58688509464263916
0.59390068054199219 0.59390068054199219 0.59390068054199219
0.60790634155273438 0.60790634155273438 0.60790634155273438
0.63443303108215332 0.63443303108215332 0.63443303108215332
0.678119957447052 0.678119957447052 0.678119957447052
0.73022758960723877 0.73022758960723877 0.73022758960723877
0.72644007205963135 0.72644007205963135 0.72644007205963135
0.72614789009094238 0.72614789009094238 0.72614789009094238
0.72945559024810791 0.72945559024810791 0.72945559024810791
0.7383916974067688 0.7383916974067688 0.7383916974067688
0.75789052248001099 0.75789052248001099 0.75789052248001099
0.79381668567657471 0.79381668567657471 0.79381668567657471
0.87919527292251587 0.87919527292251587 0.87919527292251587
0.87301522493362427 0.87301522493362427 0.87301522493362427
0.86962580680847168 0.86962580680847168 0.86962580680847168
0.86971962451934814 0.86971962451934814 0.86971962451934814
0.87512379884719849 0.87512379884719849 0.87512379884719849
0.89079302549362183 0.89079302549362183 0.89079302549362183
0.92154467105865479 0.92154467105865479 0.92154467105865479
0.11934513598680496 0.11934513598680496 0.11934513598680496
0.12491990625858307 0.12491990625858307 0.12491990625858307
0.13692820072174072 0.13692820072174072 0.13692820072174072
0.15973040461540222 0.15973040461540222 0.15973040461540222
0.20228996872901917 0.20228996872901917 0.20228996872901917
0.27331551909446716 0.27331551909446716 0.27331551909446716
0.36257568001747131 0.36257568001747131 0.36257568001747131
0.22665272653102875 0.22665272653102875 0.22665272653102875
0.22893516719341278 0.22893516719341278 0.22893516719341278
0.23734410107135773 0.23734410107135773 0.23734410107135773
0.2557370662689209 0.2557370662689209 0.2557370662689209
0.29152220487594604 0.29152220487594604 0.29152220487594604
0.35062101483345032 0.35062101483345032 0.35062101483345032
0.42800986766815186 0.42800986766815186 0.42800986766815186
0.343576580286026 0.343576580286026 0.343576580286026
0.34338951110839844 0.34338951110839844 0.34338951110839844
0.34899717569351196 0.34899717569351196 0.34899717569351196
0.36313572525978088 0.36313572525978088 0.36313572525978088
0.39049342274665833 0.39049342274665833 0.39049342274665833
0.4353787899017334 0.4353787899017334 0.4353787899017334
0.49901333451271057 0.49901333451271057 0.49901333451271057
0.47021475434303284 0.47021475434303284 0.47021475434303284
0.46824219822883606 0.46824219822883606 0.46824219822883606
0.47106921672821045 0.47106921672821045 0.47106921672821045
0.48084750771522522 0.48084750771522522 0.48084750771522522
0.50112426280975342 0.50112426280975342 0.50112426280975342
0.53550797700881958 0.53550797700881958 0.53550797700881958
0.58865433931350708 0.58865433931350708 0.58865433931350708
0.60560691356658936 0.60560691356658936 0.60560691356658936
0.60189306735992432 0.60189306735992432 0.60189306735992432
0.60198134183883667 0.60198134183883667 0.60198134183883667
0.60795712471008301 0.60795712471008301 0.60795712471008301
0.62230199575424194 0.62230199575424194 0.62230199575424194
0.64949750900268555 0.64949750900268555 0.64949750900268555
0.69425970315933228 0.69425970315933228 0.69425970315933228
0.7483220100402832 0.7483220100402832 0.7483220100402832
0.74243992567062378 0.74243992567062378 0.74243992567062378
0.74001944065093994 0.74001944065093994 0.74001944065093994
0.74262839555740356 0.74262839555740356 0.74262839555740356
0.75226461887359619 0.75226461887359619 0.75226461887359619
0.77360904216766357 0.77360904216766357 0.77360904216766357
0.81103163957595825 0.81103163957595825 0.81103163957595825
0.89691740274429321 0.89691740274429321 0.89691740274429321
0.88882166147232056 0.88882166147232056 0.88882166147232056
0.88414102792739868 0.88414102792739868 0.88414102792739868
0.88397610187530518 0.88397610187530518 0.88397610187530518
0.89072370529174805 0.89072370529174805 0.89072370529174805
0.90765517950057983 0.90765517950057983 0.90765517950057983
0.93951410055160522 0.93951410055160522 0.93951410055160522
