luts/bw/fuji_neopan_acros_100.cube
# Created by: G'MIC (https://gmic.eu)
TITLE "fuji_neopan_acros_100"
# LUT size
LUT_3D_SIZE 13
# Data domain
DOMAIN_MIN 0.0 0.0 0.0
DOMAIN_MAX 1.0 1.0 1.0
# LUT data points
0.01947377435863018 0.01947377435863018 0.01947377435863018
0.022140577435493469 0.022140577435493469 0.022140577435493469
0.026685377582907677 0.026685377582907677 0.026685377582907677
0.033643234521150589 0.033643234521150589 0.033643234521150589
0.043167967349290848 0.043167967349290848 0.043167967349290848
0.055871598422527313 0.055871598422527313 0.055871598422527313
0.072209976613521576 0.072209976613521576 0.072209976613521576
0.092843793332576752 0.092843793332576752 0.092843793332576752
0.11787953227758408 0.11787953227758408 0.11787953227758408
0.14760515093803406 0.14760515093803406 0.14760515093803406
0.1819382905960083 0.1819382905960083 0.1819382905960083
0.21996739506721497 0.21996739506721497 0.21996739506721497
0.26048669219017029 0.26048669219017029 0.26048669219017029
0.065319478511810303 0.065319478511810303 0.065319478511810303
0.068013705313205719 0.068013705313205719 0.068013705313205719
0.072778262197971344 0.072778262197971344 0.072778262197971344
0.079895004630088806 0.079895004630088806 0.079895004630088806
0.089242033660411835 0.089242033660411835 0.089242033660411835
0.10165813565254211 0.10165813565254211 0.10165813565254211
0.11784564703702927 0.11784564703702927 0.11784564703702927
0.13801175355911255 0.13801175355911255 0.13801175355911255
0.16305787861347198 0.16305787861347198 0.16305787861347198
0.19229015707969666 0.19229015707969666 0.19229015707969666
0.22604130208492279 0.22604130208492279 0.22604130208492279
0.26320904493331909 0.26320904493331909 0.26320904493331909
0.30280852317810059 0.30280852317810059 0.30280852317810059
0.11364664137363434 0.11364664137363434 0.11364664137363434
0.11664268374443054 0.11664268374443054 0.11664268374443054
0.12190276384353638 0.12190276384353638 0.12190276384353638
0.12922157347202301 0.12922157347202301 0.12922157347202301
0.13854922354221344 0.13854922354221344 0.13854922354221344
0.1505064070224762 0.1505064070224762 0.1505064070224762
0.16641803085803986 0.16641803085803986 0.16641803085803986
0.18643790483474731 0.18643790483474731 0.18643790483474731
0.21108891069889069 0.21108891069889069 0.21108891069889069
0.2396748811006546 0.2396748811006546 0.2396748811006546
0.27201575040817261 0.27201575040817261 0.27201575040817261
0.3078097403049469 0.3078097403049469 0.3078097403049469
0.34616357088088989 0.34616357088088989 0.34616357088088989
0.16670389473438263 0.16670389473438263 0.16670389473438263
0.16986311972141266 0.16986311972141266 0.16986311972141266
0.17567841708660126 0.17567841708660126 0.17567841708660126
0.18287509679794312 0.18287509679794312 0.18287509679794312
0.19214275479316711 0.19214275479316711 0.19214275479316711
0.20372436940670013 0.20372436940670013 0.20372436940670013
0.21883884072303772 0.21883884072303772 0.21883884072303772
0.23860608041286469 0.23860608041286469 0.23860608041286469
0.26214137673377991 0.26214137673377991 0.26214137673377991
0.2894340455532074 0.2894340455532074 0.2894340455532074
0.3203427791595459 0.3203427791595459 0.3203427791595459
0.3544192910194397 0.3544192910194397 0.3544192910194397
0.39107760787010193 0.39107760787010193 0.39107760787010193
0.22655357420444489 0.22655357420444489 0.22655357420444489
0.22955156862735748 0.22955156862735748 0.22955156862735748
0.234787717461586 0.234787717461586 0.234787717461586
0.24193732440471649 0.24193732440471649 0.24193732440471649
0.25078997015953064 0.25078997015953064 0.25078997015953064
0.2621338963508606 0.2621338963508606 0.2621338963508606
0.27663397789001465 0.27663397789001465 0.27663397789001465
0.29564949870109558 0.29564949870109558 0.29564949870109558
0.31655499339103699 0.31655499339103699 0.31655499339103699
0.34210294485092163 0.34210294485092163 0.34210294485092163
0.3710186779499054 0.3710186779499054 0.3710186779499054
0.40287286043167114 0.40287286043167114 0.40287286043167114
0.43742921948432922 0.43742921948432922 0.43742921948432922
0.2937743067741394 0.2937743067741394 0.2937743067741394
0.2954961359500885 0.2954961359500885 0.2954961359500885
0.29984614253044128 0.29984614253044128 0.29984614253044128
0.30617836117744446 0.30617836117744446 0.30617836117744446
0.31429725885391235 0.31429725885391235 0.31429725885391235
0.32468399405479431 0.32468399405479431 0.32468399405479431
0.3378768265247345 0.3378768265247345 0.3378768265247345
0.3542630672454834 0.3542630672454834 0.3542630672454834
0.37393161654472351 0.37393161654472351 0.37393161654472351
0.39756229519844055 0.39756229519844055 0.39756229519844055
0.4239538311958313 0.4239538311958313 0.4239538311958313
0.45337507128715515 0.45337507128715515 0.45337507128715515
0.485634446144104 0.485634446144104 0.485634446144104
0.36560094356536865 0.36560094356536865 0.36560094356536865
0.3665221631526947 0.3665221631526947 0.3665221631526947
0.36970734596252441 0.36970734596252441 0.36970734596252441
0.37477463483810425 0.37477463483810425 0.37477463483810425
0.38182234764099121 0.38182234764099121 0.38182234764099121
0.39088907837867737 0.39088907837867737 0.39088907837867737
0.40258842706680298 0.40258842706680298 0.40258842706680298
0.41706973314285278 0.41706973314285278 0.41706973314285278
0.43475303053855896 0.43475303053855896 0.43475303053855896
0.45516291260719299 0.45516291260719299 0.45516291260719299
0.47906357049942017 0.47906357049942017 0.47906357049942017
0.5060848593711853 0.5060848593711853 0.5060848593711853
0.5358690619468689 0.5358690619468689 0.5358690619468689
0.44191175699234009 0.44191175699234009 0.44191175699234009
0.44192558526992798 0.44192558526992798 0.44192558526992798
0.4432893693447113 0.4432893693447113 0.4432893693447113
0.44713121652603149 0.44713121652603149 0.44713121652603149
0.45258000493049622 0.45258000493049622 0.45258000493049622
0.46013966202735901 0.46013966202735901 0.46013966202735901
0.46984767913818359 0.46984767913818359 0.46984767913818359
0.48218744993209839 0.48218744993209839 0.48218744993209839
0.49728122353553772 0.49728122353553772 0.49728122353553772
0.51548492908477783 0.51548492908477783 0.51548492908477783
0.5362091064453125 0.5362091064453125 0.5362091064453125
0.56062668561935425 0.56062668561935425 0.56062668561935425
0.58819001913070679 0.58819001913070679 0.58819001913070679
0.51982539892196655 0.51982539892196655 0.51982539892196655
0.51916670799255371 0.51916670799255371 0.51916670799255371
0.51950901746749878 0.51950901746749878 0.51950901746749878
0.52211648225784302 0.52211648225784302 0.52211648225784302
0.52587097883224487 0.52587097883224487 0.52587097883224487
0.53159719705581665 0.53159719705581665 0.53159719705581665
0.53935378789901733 0.53935378789901733 0.53935378789901733
0.54928487539291382 0.54928487539291382 0.54928487539291382
0.56187307834625244 0.56187307834625244 0.56187307834625244
0.57726943492889404 0.57726943492889404 0.57726943492889404
0.59621047973632812 0.59621047973632812 0.59621047973632812
0.61739152669906616 0.61739152669906616 0.61739152669906616
0.64260178804397583 0.64260178804397583 0.64260178804397583
0.60065591335296631 0.60065591335296631 0.60065591335296631
0.59898775815963745 0.59898775815963745 0.59898775815963745
0.59826648235321045 0.59826648235321045 0.59826648235321045
0.59908229112625122 0.59908229112625122 0.59908229112625122
0.60089337825775146 0.60089337825775146 0.60089337825775146
0.60481506586074829 0.60481506586074829 0.60481506586074829
0.61042088270187378 0.61042088270187378 0.61042088270187378
0.61816203594207764 0.61816203594207764 0.61816203594207764
0.62833303213119507 0.62833303213119507 0.62833303213119507
0.64122241735458374 0.64122241735458374 0.64122241735458374
0.6569933295249939 0.6569933295249939 0.6569933295249939
0.67673033475875854 0.67673033475875854 0.67673033475875854
0.69905769824981689 0.69905769824981689 0.69905769824981689
0.68266117572784424 0.68266117572784424 0.68266117572784424
0.67985957860946655 0.67985957860946655 0.67985957860946655
0.67785990238189697 0.67785990238189697 0.67785990238189697
0.67736929655075073 0.67736929655075073 0.67736929655075073
0.67746531963348389 0.67746531963348389 0.67746531963348389
0.67898762226104736 0.67898762226104736 0.67898762226104736
0.68290269374847412 0.68290269374847412 0.68290269374847412
0.68850839138031006 0.68850839138031006 0.68850839138031006
0.69648385047912598 0.69648385047912598 0.69648385047912598
0.70691519975662231 0.70691519975662231 0.70691519975662231
0.72052758932113647 0.72052758932113647 0.72052758932113647
0.73762065172195435 0.73762065172195435 0.73762065172195435
0.75856870412826538 0.75856870412826538 0.75856870412826538
0.76518571376800537 0.76518571376800537 0.76518571376800537
0.76152569055557251 0.76152569055557251 0.76152569055557251
0.75824373960494995 0.75824373960494995 0.75824373960494995
0.75527375936508179 0.75527375936508179 0.75527375936508179
0.75465685129165649 0.75465685129165649 0.75465685129165649
0.75467067956924438 0.75467067956924438 0.75467067956924438
0.7563510537147522 0.7563510537147522 0.7563510537147522
0.76028066873550415 0.76028066873550415 0.76028066873550415
0.76639014482498169 0.76639014482498169 0.76639014482498169
0.77500069141387939 0.77500069141387939 0.77500069141387939
0.78634995222091675 0.78634995222091675 0.78634995222091675
0.80134040117263794 0.80134040117263794 0.80134040117263794
0.82042229175567627 0.82042229175567627 0.82042229175567627
0.84779757261276245 0.84779757261276245 0.84779757261276245
0.84297853708267212 0.84297853708267212 0.84297853708267212
0.83828043937683105 0.83828043937683105 0.83828043937683105
0.83464258909225464 0.83464258909225464 0.83464258909225464
0.83188140392303467 0.83188140392303467 0.83188140392303467
0.83186274766921997 0.83186274766921997 0.83186274766921997
0.83186274766921997 0.83186274766921997 0.83186274766921997
0.83344918489456177 0.83344918489456177 0.83344918489456177
0.83813351392745972 0.83813351392745972 0.83813351392745972
0.84505659341812134 0.84505659341812134 0.84505659341812134
0.85502356290817261 0.85502356290817261 0.85502356290817261
0.8683587908744812 0.8683587908744812 0.8683587908744812
0.88606226444244385 0.88606226444244385 0.88606226444244385
0.022294797003269196 0.022294797003269196 0.022294797003269196
0.025435144081711769 0.025435144081711769 0.025435144081711769
0.030200479552149773 0.030200479552149773 0.030200479552149773
0.036961723119020462 0.036961723119020462 0.036961723119020462
0.046096920967102051 0.046096920967102051 0.046096920967102051
0.057961393147706985 0.057961393147706985 0.057961393147706985
0.073436126112937927 0.073436126112937927 0.073436126112937927
0.093133904039859772 0.093133904039859772 0.093133904039859772
0.11756063997745514 0.11756063997745514 0.11756063997745514
0.14733055233955383 0.14733055233955383 0.14733055233955383
0.18279442191123962 0.18279442191123962 0.18279442191123962
0.22232089936733246 0.22232089936733246 0.22232089936733246
0.26498502492904663 0.26498502492904663 0.26498502492904663
0.069117680191993713 0.069117680191993713 0.069117680191993713
0.072075605392456055 0.072075605392456055 0.072075605392456055
0.076930582523345947 0.076930582523345947 0.076930582523345947
0.083665065467357635 0.083665065467357635 0.083665065467357635
0.092742741107940674 0.092742741107940674 0.092742741107940674
0.10417032986879349 0.10417032986879349 0.10417032986879349
0.11924059689044952 0.11924059689044952 0.11924059689044952
0.1387057900428772 0.1387057900428772 0.1387057900428772
0.16317017376422882 0.16317017376422882 0.16317017376422882
0.19257131218910217 0.19257131218910217 0.19257131218910217
0.22687546908855438 0.22687546908855438 0.22687546908855438
0.26567262411117554 0.26567262411117554 0.26567262411117554
0.30725166201591492 0.30725166201591492 0.30725166201591492
0.11861716210842133 0.11861716210842133 0.11861716210842133
0.12137828022241592 0.12137828022241592 0.12137828022241592
0.1266220360994339 0.1266220360994339 0.1266220360994339
0.13342812657356262 0.13342812657356262 0.13342812657356262
0.1422286182641983 0.1422286182641983 0.1422286182641983
0.1536012589931488 0.1536012589931488 0.1536012589931488
0.16845709085464478 0.16845709085464478 0.16845709085464478
0.18776786327362061 0.18776786327362061 0.18776786327362061
0.21175514161586761 0.21175514161586761 0.21175514161586761
0.24036990106105804 0.24036990106105804 0.24036990106105804
0.27350559830665588 0.27350559830665588 0.27350559830665588
0.31056755781173706 0.31056755781173706 0.31056755781173706
0.35032781958580017 0.35032781958580017 0.35032781958580017
0.17252855002880096 0.17252855002880096 0.17252855002880096
0.17535482347011566 0.17535482347011566 0.17535482347011566
0.18057014048099518 0.18057014048099518 0.18057014048099518
0.1874849796295166 0.1874849796295166 0.1874849796295166
0.19615048170089722 0.19615048170089722 0.19615048170089722
0.20711605250835419 0.20711605250835419 0.20711605250835419
0.22165665030479431 0.22165665030479431 0.22165665030479431
0.24043260514736176 0.24043260514736176 0.24043260514736176
0.26342150568962097 0.26342150568962097 0.26342150568962097
0.29074054956436157 0.29074054956436157 0.29074054956436157
0.32205024361610413 0.32205024361610413 0.32205024361610413
0.35700756311416626 0.35700756311416626 0.35700756311416626
0.39463454484939575 0.39463454484939575 0.39463454484939575
0.23255713284015656 0.23255713284015656 0.23255713284015656
0.23502051830291748 0.23502051830291748 0.23502051830291748
0.24000959098339081 0.24000959098339081 0.24000959098339081
0.24666187167167664 0.24666187167167664 0.24666187167167664
0.25494858622550964 0.25494858622550964 0.25494858622550964
0.26564911007881165 0.26564911007881165 0.26564911007881165
0.2794305682182312 0.2794305682182312 0.2794305682182312
0.29688456654548645 0.29688456654548645 0.29688456654548645
0.31850233674049377 0.31850233674049377 0.31850233674049377
0.34381845593452454 0.34381845593452454 0.34381845593452454
0.37294051051139832 0.37294051051139832 0.37294051051139832
0.40541303157806396 0.40541303157806396 0.40541303157806396
0.44060647487640381 0.44060647487640381 0.44060647487640381
0.2988068163394928 0.2988068163394928 0.2988068163394928
0.3005710244178772 0.3005710244178772 0.3005710244178772
0.30478546023368835 0.30478546023368835 0.30478546023368835
0.31079927086830139 0.31079927086830139 0.31079927086830139
0.31844890117645264 0.31844890117645264 0.31844890117645264
0.3284812867641449 0.3284812867641449 0.3284812867641449
0.34117725491523743 0.34117725491523743 0.34117725491523743
0.35707768797874451 0.35707768797874451 0.35707768797874451
0.37652939558029175 0.37652939558029175 0.37652939558029175
0.39940634369850159 0.39940634369850159 0.39940634369850159
0.42600077390670776 0.42600077390670776 0.42600077390670776
0.45576632022857666 0.45576632022857666 0.45576632022857666
0.48826664686203003 0.48826664686203003 0.48826664686203003
0.37019887566566467 0.37019887566566467 0.37019887566566467
0.37120488286018372 0.37120488286018372 0.37120488286018372
0.37426924705505371 0.37426924705505371 0.37426924705505371
0.37929114699363708 0.37929114699363708 0.37929114699363708
0.38603019714355469 0.38603019714355469 0.38603019714355469
0.39481374621391296 0.39481374621391296 0.39481374621391296
0.40607747435569763 0.40607747435569763 0.40607747435569763
0.42009654641151428 0.42009654641151428 0.42009654641151428
0.43704578280448914 0.43704578280448914 0.43704578280448914
0.45747697353363037 0.45747697353363037 0.45747697353363037
0.48111385107040405 0.48111385107040405 0.48111385107040405
0.5080028772354126 0.5080028772354126 0.5080028772354126
0.53804010152816772 0.53804010152816772 0.53804010152816772
0.4452463686466217 0.4452463686466217 0.4452463686466217
0.4455561637878418 0.4455561637878418 0.4455561637878418
0.44759431481361389 0.44759431481361389 0.44759431481361389
0.45133045315742493 0.45133045315742493 0.45133045315742493
0.45679500699043274 0.45679500699043274 0.45679500699043274
0.46408122777938843 0.46408122777938843 0.46408122777938843
0.47351330518722534 0.47351330518722534 0.47351330518722534
0.48528990149497986 0.48528990149497986 0.48528990149497986
0.49990978837013245 0.49990978837013245 0.49990978837013245
0.51747047901153564 0.51747047901153564 0.51747047901153564
0.53839170932769775 0.53839170932769775 0.53839170932769775
0.56247609853744507 0.56247609853744507 0.56247609853744507
0.58986109495162964 0.58986109495162964 0.58986109495162964
0.52322030067443848 0.52322030067443848 0.52322030067443848
0.52265441417694092 0.52265441417694092 0.52265441417694092
0.52382934093475342 0.52382934093475342 0.52382934093475342
0.52592581510543823 0.52592581510543823 0.52592581510543823
0.52994227409362793 0.52994227409362793 0.52994227409362793
0.53546643257141113 0.53546643257141113 0.53546643257141113
0.54289865493774414 0.54289865493774414 0.54289865493774414
0.5525086522102356 0.5525086522102356 0.5525086522102356
0.56464040279388428 0.56464040279388428 0.56464040279388428
0.57948404550552368 0.57948404550552368 0.57948404550552368
0.59732651710510254 0.59732651710510254 0.59732651710510254
0.61891394853591919 0.61891394853591919 0.61891394853591919
0.64386367797851562 0.64386367797851562 0.64386367797851562
0.60322684049606323 0.60322684049606323 0.60322684049606323
0.6018071174621582 0.6018071174621582 0.6018071174621582
0.60148912668228149 0.60148912668228149 0.60148912668228149
0.60230785608291626 0.60230785608291626 0.60230785608291626
0.60470062494277954 0.60470062494277954 0.60470062494277954
0.6084434986114502 0.6084434986114502 0.6084434986114502
0.61393249034881592 0.61393249034881592 0.61393249034881592
0.62117671966552734 0.62117671966552734 0.62117671966552734
0.63082969188690186 0.63082969188690186 0.63082969188690186
0.64323079586029053 0.64323079586029053 0.64323079586029053
0.65867352485656738 0.65867352485656738 0.65867352485656738
0.67773926258087158 0.67773926258087158 0.67773926258087158
0.69995427131652832 0.69995427131652832 0.69995427131652832
0.68436998128890991 0.68436998128890991 0.68436998128890991
0.68211835622787476 0.68211835622787476 0.68211835622787476
0.68066555261611938 0.68066555261611938 0.68066555261611938
0.67989999055862427 0.67989999055862427 0.67989999055862427
0.68040698766708374 0.68040698766708374 0.68040698766708374
0.68239545822143555 0.68239545822143555 0.68239545822143555
0.68591475486755371 0.68591475486755371 0.68591475486755371
0.69121325016021729 0.69121325016021729 0.69121325016021729
0.69863235950469971 0.69863235950469971 0.69863235950469971
0.70874619483947754 0.70874619483947754 0.70874619483947754
0.72180789709091187 0.72180789709091187 0.72180789709091187
0.73832970857620239 0.73832970857620239 0.73832970857620239
0.75891435146331787 0.75891435146331787 0.75891435146331787
0.76623469591140747 0.76623469591140747 0.76623469591140747
0.76298397779464722 0.76298397779464722 0.76298397779464722
0.75991898775100708 0.75991898775100708 0.75991898775100708
0.75817584991455078 0.75817584991455078 0.75817584991455078
0.75685948133468628 0.75685948133468628 0.75685948133468628
0.7571607232093811 0.7571607232093811 0.7571607232093811
0.75896561145782471 0.75896561145782471 0.75896561145782471
0.762489914894104 0.762489914894104 0.762489914894104
0.76803231239318848 0.76803231239318848 0.76803231239318848
0.77615761756896973 0.77615761756896973 0.77615761756896973
0.78725087642669678 0.78725087642669678 0.78725087642669678
0.80185163021087646 0.80185163021087646 0.80185163021087646
0.82060331106185913 0.82060331106185913 0.82060331106185913
0.84759783744812012 0.84759783744812012 0.84759783744812012
0.84355717897415161 0.84355717897415161 0.84355717897415161
0.83957064151763916 0.83957064151763916 0.83957064151763916
0.83604025840759277 0.83604025840759277 0.83604025840759277
0.83373337984085083 0.83373337984085083 0.83373337984085083
0.8323245644569397 0.8323245644569397 0.8323245644569397
0.83280062675476074 0.83280062675476074 0.83280062675476074
0.83511072397232056 0.83511072397232056 0.83511072397232056
0.83921438455581665 0.83921438455581665 0.83921438455581665
0.84580737352371216 0.84580737352371216 0.84580737352371216
0.85538071393966675 0.85538071393966675 0.85538071393966675
0.86838382482528687 0.86838382482528687 0.86838382482528687
0.88602942228317261 0.88602942228317261 0.88602942228317261
0.027043988928198814 0.027043988928198814 0.027043988928198814
0.030773596838116646 0.030773596838116646 0.030773596838116646
0.036046314984560013 0.036046314984560013 0.036046314984560013
0.042824868112802505 0.042824868112802505 0.042824868112802505
0.051516275852918625 0.051516275852918625 0.051516275852918625
0.062439758330583572 0.062439758330583572 0.062439758330583572
0.076455987989902496 0.076455987989902496 0.076455987989902496
0.094724364578723907 0.094724364578723907 0.094724364578723907
0.11836894601583481 0.11836894601583481 0.11836894601583481
0.14798864722251892 0.14798864722251892 0.14798864722251892
0.18399167060852051 0.18399167060852051 0.18399167060852051
0.22591263055801392 0.22591263055801392 0.22591263055801392
0.27122199535369873 0.27122199535369873 0.27122199535369873
0.075263038277626038 0.075263038277626038 0.075263038277626038
0.0785636305809021 0.0785636305809021 0.0785636305809021
0.08349260687828064 0.08349260687828064 0.08349260687828064
0.090186312794685364 0.090186312794685364 0.090186312794685364
0.098521150648593903 0.098521150648593903 0.098521150648593903
0.10935419052839279 0.10935419052839279 0.10935419052839279
0.12328223139047623 0.12328223139047623 0.12328223139047623
0.14136260747909546 0.14136260747909546 0.14136260747909546
0.1645638644695282 0.1645638644695282 0.1645638644695282
0.1937776505947113 0.1937776505947113 0.1937776505947113
0.22893360257148743 0.22893360257148743 0.22893360257148743
0.26954543590545654 0.26954543590545654 0.26954543590545654
0.31339401006698608 0.31339401006698608 0.31339401006698608
0.12609173357486725 0.12609173357486725 0.12609173357486725
0.12909907102584839 0.12909907102584839 0.12909907102584839
0.13396912813186646 0.13396912813186646 0.13396912813186646
0.14058263599872589 0.14058263599872589 0.14058263599872589
0.14887546002864838 0.14887546002864838 0.14887546002864838
0.15931883454322815 0.15931883454322815 0.15931883454322815
0.17315922677516937 0.17315922677516937 0.17315922677516937
0.19114963710308075 0.19114963710308075 0.19114963710308075
0.2140425443649292 0.2140425443649292 0.2140425443649292
0.24239344894886017 0.24239344894886017 0.24239344894886017
0.27612560987472534 0.27612560987472534 0.27612560987472534
0.31464383006095886 0.31464383006095886 0.31464383006095886
0.35613587498664856 0.35613587498664856 0.35613587498664856
0.18099573254585266 0.18099573254585266 0.18099573254585266
0.18368043005466461 0.18368043005466461 0.18368043005466461
0.18838973343372345 0.18838973343372345 0.18838973343372345
0.19493421912193298 0.19493421912193298 0.19493421912193298
0.20308856666088104 0.20308856666088104 0.20308856666088104
0.21340973675251007 0.21340973675251007 0.21340973675251007
0.22701196372509003 0.22701196372509003 0.22701196372509003
0.24456293880939484 0.24456293880939484 0.24456293880939484
0.26658791303634644 0.26658791303634644 0.26658791303634644
0.29358473420143127 0.29358473420143127 0.29358473420143127
0.32525262236595154 0.32525262236595154 0.32525262236595154
0.36111965775489807 0.36111965775489807 0.36111965775489807
0.40008506178855896 0.40008506178855896 0.40008506178855896
0.24115189909934998 0.24115189909934998 0.24115189909934998
0.24345463514328003 0.24345463514328003 0.24345463514328003
0.2478083074092865 0.2478083074092865 0.2478083074092865
0.25401198863983154 0.25401198863983154 0.25401198863983154
0.26190555095672607 0.26190555095672607 0.26190555095672607
0.27196991443634033 0.27196991443634033 0.27196991443634033
0.2849980890750885 0.2849980890750885 0.2849980890750885
