luts/bw/fuji_neopan_acros_100.cube
# Created by: G'MIC (https://gmic.eu)
TITLE "fuji_neopan_acros_100"
# LUT size
LUT_3D_SIZE 5
# Data domain
DOMAIN_MIN 0.0 0.0 0.0
DOMAIN_MAX 1.0 1.0 1.0
# LUT data points
0.01947377435863018 0.01947377435863018 0.01947377435863018
0.033643234521150589 0.033643234521150589 0.033643234521150589
0.072209976613521576 0.072209976613521576 0.072209976613521576
0.14760515093803406 0.14760515093803406 0.14760515093803406
0.26048669219017029 0.26048669219017029 0.26048669219017029
0.16670389473438263 0.16670389473438263 0.16670389473438263
0.18287509679794312 0.18287509679794312 0.18287509679794312
0.21883884072303772 0.21883884072303772 0.21883884072303772
0.2894340455532074 0.2894340455532074 0.2894340455532074
0.39107760787010193 0.39107760787010193 0.39107760787010193
0.36560094356536865 0.36560094356536865 0.36560094356536865
0.37477463483810425 0.37477463483810425 0.37477463483810425
0.40258842706680298 0.40258842706680298 0.40258842706680298
0.45516291260719299 0.45516291260719299 0.45516291260719299
0.5358690619468689 0.5358690619468689 0.5358690619468689
0.60065591335296631 0.60065591335296631 0.60065591335296631
0.59908229112625122 0.59908229112625122 0.59908229112625122
0.61042088270187378 0.61042088270187378 0.61042088270187378
0.64122241735458374 0.64122241735458374 0.64122241735458374
0.69905769824981689 0.69905769824981689 0.69905769824981689
0.84779757261276245 0.84779757261276245 0.84779757261276245
0.83464258909225464 0.83464258909225464 0.83464258909225464
0.83186274766921997 0.83186274766921997 0.83186274766921997
0.84505659341812134 0.84505659341812134 0.84505659341812134
0.88606226444244385 0.88606226444244385 0.88606226444244385
0.033779174089431763 0.033779174089431763 0.033779174089431763
0.050624996423721313 0.050624996423721313 0.050624996423721313
0.081394806504249573 0.081394806504249573 0.081394806504249573
0.14897306263446808 0.14897306263446808 0.14897306263446808
0.27943888306617737 0.27943888306617737 0.27943888306617737
0.19109098613262177 0.19109098613262177 0.19109098613262177
0.20422203838825226 0.20422203838825226 0.20422203838825226
0.23396773636341095 0.23396773636341095 0.23396773636341095
0.29748305678367615 0.29748305678367615 0.29748305678367615
0.40649694204330444 0.40649694204330444 0.40649694204330444
0.38557204604148865 0.38557204604148865 0.38557204604148865
0.39457422494888306 0.39457422494888306 0.39457422494888306
0.41903966665267944 0.41903966665267944 0.41903966665267944
0.4665827751159668 0.4665827751159668 0.4665827751159668
0.54619944095611572 0.54619944095611572 0.54619944095611572
0.61169141530990601 0.61169141530990601 0.61169141530990601
0.61387962102890015 0.61387962102890015 0.61387962102890015
0.6262320876121521 0.6262320876121521 0.6262320876121521
0.65221762657165527 0.65221762657165527 0.65221762657165527
0.70629268884658813 0.70629268884658813 0.70629268884658813
0.84887784719467163 0.84887784719467163 0.84887784719467163
0.84161728620529175 0.84161728620529175 0.84161728620529175
0.84053677320480347 0.84053677320480347 0.84053677320480347
0.85207051038742065 0.85207051038742065 0.85207051038742065
0.89079242944717407 0.89079242944717407 0.89079242944717407
0.059003133326768875 0.059003133326768875 0.059003133326768875
0.078514426946640015 0.078514426946640015 0.078514426946640015
0.10207763314247131 0.10207763314247131 0.10207763314247131
0.16121932864189148 0.16121932864189148 0.16121932864189148
0.31052857637405396 0.31052857637405396 0.31052857637405396
0.22208009660243988 0.22208009660243988 0.22208009660243988
0.23385389149188995 0.23385389149188995 0.23385389149188995
0.25700804591178894 0.25700804591178894 0.25700804591178894
0.31390711665153503 0.31390711665153503 0.31390711665153503
0.42673996090888977 0.42673996090888977 0.42673996090888977
0.41306912899017334 0.41306912899017334 0.41306912899017334
0.42151790857315063 0.42151790857315063 0.42151790857315063
0.44199761748313904 0.44199761748313904 0.44199761748313904
0.48309299349784851 0.48309299349784851 0.48309299349784851
0.56015634536743164 0.56015634536743164 0.56015634536743164
0.62949663400650024 0.62949663400650024 0.62949663400650024
0.634205162525177 0.634205162525177 0.634205162525177
0.64879000186920166 0.64879000186920166 0.64879000186920166
0.66807496547698975 0.66807496547698975 0.66807496547698975
0.71852701902389526 0.71852701902389526 0.71852701902389526
0.85723644495010376 0.85723644495010376 0.85723644495010376
0.85334640741348267 0.85334640741348267 0.85334640741348267
0.85482436418533325 0.85482436418533325 0.85482436418533325
0.86512464284896851 0.86512464284896851 0.86512464284896851
0.90263468027114868 0.90263468027114868 0.90263468027114868
0.085221312940120697 0.085221312940120697 0.085221312940120697
0.098222963511943817 0.098222963511943817 0.098222963511943817
0.12344776093959808 0.12344776093959808 0.12344776093959808
0.19357591867446899 0.19357591867446899 0.19357591867446899
0.32832863926887512 0.32832863926887512 0.32832863926887512
0.25076150894165039 0.25076150894165039 0.25076150894165039
0.25754258036613464 0.25754258036613464 0.25754258036613464
0.27760183811187744 0.27760183811187744 0.27760183811187744
0.33354312181472778 0.33354312181472778 0.33354312181472778
0.44038251042366028 0.44038251042366028 0.44038251042366028
0.43972951173782349 0.43972951173782349 0.43972951173782349
0.44309622049331665 0.44309622049331665 0.44309622049331665
0.45804908871650696 0.45804908871650696 0.45804908871650696
0.49518990516662598 0.49518990516662598 0.49518990516662598
0.57028049230575562 0.57028049230575562 0.57028049230575562
0.64967387914657593 0.64967387914657593 0.64967387914657593
0.64943188428878784 0.64943188428878784 0.64943188428878784
0.65744823217391968 0.65744823217391968 0.65744823217391968
0.67789596319198608 0.67789596319198608 0.67789596319198608
0.72961395978927612 0.72961395978927612 0.72961395978927612
0.87235623598098755 0.87235623598098755 0.87235623598098755
0.86554360389709473 0.86554360389709473 0.86554360389709473
0.86520379781723022 0.86520379781723022 0.86520379781723022
0.87642502784729004 0.87642502784729004 0.87642502784729004
0.91555452346801758 0.91555452346801758 0.91555452346801758
0.11934513598680496 0.11934513598680496 0.11934513598680496
0.12983231246471405 0.12983231246471405 0.12983231246471405
0.15973040461540222 0.15973040461540222 0.15973040461540222
0.23434045910835266 0.23434045910835266 0.23434045910835266
0.36257568001747131 0.36257568001747131 0.36257568001747131
0.28383094072341919 0.28383094072341919 0.28383094072341919
0.28744661808013916 0.28744661808013916 0.28744661808013916
0.30810284614562988 0.30810284614562988 0.30810284614562988
0.36311101913452148 0.36311101913452148 0.36311101913452148
0.46202591061592102 0.46202591061592102 0.46202591061592102
0.47021475434303284 0.47021475434303284 0.47021475434303284
0.46893048286437988 0.46893048286437988 0.46893048286437988
0.48084750771522522 0.48084750771522522 0.48084750771522522
0.51621323823928833 0.51621323823928833 0.51621323823928833
0.58865433931350708 0.58865433931350708 0.58865433931350708
0.67618733644485474 0.67618733644485474 0.67618733644485474
0.67022025585174561 0.67022025585174561 0.67022025585174561
0.67444038391113281 0.67444038391113281 0.67444038391113281
0.69662439823150635 0.69662439823150635 0.69662439823150635
0.75136423110961914 0.75136423110961914 0.75136423110961914
0.89691740274429321 0.89691740274429321 0.89691740274429321
0.88607364892959595 0.88607364892959595 0.88607364892959595
0.88397610187530518 0.88397610187530518 0.88397610187530518
0.89752078056335449 0.89752078056335449 0.89752078056335449
0.93951410055160522 0.93951410055160522 0.93951410055160522
