luts/bw/ilford_delta_400.cube
# Created by: G'MIC (https://gmic.eu)
TITLE "ilford_delta_400"
# LUT size
LUT_3D_SIZE 5
# Data domain
DOMAIN_MIN 0.0 0.0 0.0
DOMAIN_MAX 1.0 1.0 1.0
# LUT data points
0.026017237454652786 0.026017237454652786 0.026017237454652786
0.06413394957780838 0.06413394957780838 0.06413394957780838
0.11989305913448334 0.11989305913448334 0.11989305913448334
0.224696084856987 0.224696084856987 0.224696084856987
0.38992825150489807 0.38992825150489807 0.38992825150489807
0.12653066217899323 0.12653066217899323 0.12653066217899323
0.153530552983284 0.153530552983284 0.153530552983284
0.20767386257648468 0.20767386257648468 0.20767386257648468
0.31014886498451233 0.31014886498451233 0.31014886498451233
0.453664630651474 0.453664630651474 0.453664630651474
0.26207131147384644 0.26207131147384644 0.26207131147384644
0.28265306353569031 0.28265306353569031 0.28265306353569031
0.3325439989566803 0.3325439989566803 0.3325439989566803
0.42463362216949463 0.42463362216949463 0.42463362216949463
0.54527783393859863 0.54527783393859863 0.54527783393859863
0.44293570518493652 0.44293570518493652 0.44293570518493652
0.46553266048431396 0.46553266048431396 0.46553266048431396
0.50709480047225952 0.50709480047225952 0.50709480047225952
0.57553678750991821 0.57553678750991821 0.57553678750991821
0.6708940863609314 0.6708940863609314 0.6708940863609314
0.68478786945343018 0.68478786945343018 0.68478786945343018
0.68774378299713135 0.68774378299713135 0.68774378299713135
0.70858323574066162 0.70858323574066162 0.70858323574066162
0.75325709581375122 0.75325709581375122 0.75325709581375122
0.82612383365631104 0.82612383365631104 0.82612383365631104
0.085829764604568481 0.085829764604568481 0.085829764604568481
0.13358262181282043 0.13358262181282043 0.13358262181282043
0.19551882147789001 0.19551882147789001 0.19551882147789001
0.28921929001808167 0.28921929001808167 0.28921929001808167
0.42826256155967712 0.42826256155967712 0.42826256155967712
0.18625874817371368 0.18625874817371368 0.18625874817371368
0.2181272953748703 0.2181272953748703 0.2181272953748703
0.27238249778747559 0.27238249778747559 0.27238249778747559
0.36428898572921753 0.36428898572921753 0.36428898572921753
0.49167323112487793 0.49167323112487793 0.49167323112487793
0.31828895211219788 0.31828895211219788 0.31828895211219788
0.33963912725448608 0.33963912725448608 0.33963912725448608
0.38599658012390137 0.38599658012390137 0.38599658012390137
0.46839785575866699 0.46839785575866699 0.46839785575866699
0.57646816968917847 0.57646816968917847 0.57646816968917847
0.48948675394058228 0.48948675394058228 0.48948675394058228
0.51144903898239136 0.51144903898239136 0.51144903898239136
0.54898619651794434 0.54898619651794434 0.54898619651794434
0.60717093944549561 0.60717093944549561 0.60717093944549561
0.69115012884140015 0.69115012884140015 0.69115012884140015
0.70350247621536255 0.70350247621536255 0.70350247621536255
0.71723103523254395 0.71723103523254395 0.71723103523254395
0.73653662204742432 0.73653662204742432 0.73653662204742432
0.77166378498077393 0.77166378498077393 0.77166378498077393
0.83470547199249268 0.83470547199249268 0.83470547199249268
0.17272971570491791 0.17272971570491791 0.17272971570491791
0.21798169612884521 0.21798169612884521 0.21798169612884521
0.27975571155548096 0.27975571155548096 0.27975571155548096
0.37179157137870789 0.37179157137870789 0.37179157137870789
0.49298575520515442 0.49298575520515442 0.49298575520515442
0.28256687521934509 0.28256687521934509 0.28256687521934509
0.31421780586242676 0.31421780586242676 0.31421780586242676
0.36655274033546448 0.36655274033546448 0.36655274033546448
0.44619289040565491 0.44619289040565491 0.44619289040565491
0.55335909128189087 0.55335909128189087 0.55335909128189087
0.41658297181129456 0.41658297181129456 0.41658297181129456
0.43838384747505188 0.43838384747505188 0.43838384747505188
0.47973781824111938 0.47973781824111938 0.47973781824111938
0.54277610778808594 0.54277610778808594 0.54277610778808594
0.63025903701782227 0.63025903701782227 0.63025903701782227
0.5733102560043335 0.5733102560043335 0.5733102560043335
0.59136283397674561 0.59136283397674561 0.59136283397674561
0.62078893184661865 0.62078893184661865 0.62078893184661865
0.66295289993286133 0.66295289993286133 0.66295289993286133
0.7295461893081665 0.7295461893081665 0.7295461893081665
0.7528451681137085 0.7528451681137085 0.7528451681137085
0.76706647872924805 0.76706647872924805 0.76706647872924805
0.78126066923141479 0.78126066923141479 0.78126066923141479
0.80520594120025635 0.80520594120025635 0.80520594120025635
0.85677623748779297 0.85677623748779297 0.85677623748779297
0.30761861801147461 0.30761861801147461 0.30761861801147461
0.3434637188911438 0.3434637188911438 0.3434637188911438
0.39852792024612427 0.39852792024612427 0.39852792024612427
0.48065397143363953 0.48065397143363953 0.48065397143363953
0.58636164665222168 0.58636164665222168 0.58636164665222168
0.41774919629096985 0.41774919629096985 0.41774919629096985
0.44236612319946289 0.44236612319946289 0.44236612319946289
0.48471137881278992 0.48471137881278992 0.48471137881278992
0.55010563135147095 0.55010563135147095 0.55010563135147095
0.63972795009613037 0.63972795009613037 0.63972795009613037
0.54421150684356689 0.54421150684356689 0.54421150684356689
0.55958563089370728 0.55958563089370728 0.55958563089370728
0.590004563331604 0.590004563331604 0.590004563331604
0.63513940572738647 0.63513940572738647 0.63513940572738647
0.70355492830276489 0.70355492830276489 0.70355492830276489
0.67487877607345581 0.67487877607345581 0.67487877607345581
0.68592077493667603 0.68592077493667603 0.68592077493667603
0.70662343502044678 0.70662343502044678 0.70662343502044678
0.73337781429290771 0.73337781429290771 0.73337781429290771
0.7836793065071106 0.7836793065071106 0.7836793065071106
0.81765305995941162 0.81765305995941162 0.81765305995941162
0.82455152273178101 0.82455152273178101 0.82455152273178101
0.83493751287460327 0.83493751287460327 0.83493751287460327
0.85044080018997192 0.85044080018997192 0.85044080018997192
0.89162951707839966 0.89162951707839966 0.89162951707839966
0.47447562217712402 0.47447562217712402 0.47447562217712402
0.49721589684486389 0.49721589684486389 0.49721589684486389
0.54025477170944214 0.54025477170944214 0.54025477170944214
0.60931551456451416 0.60931551456451416 0.60931551456451416
0.70173877477645874 0.70173877477645874 0.70173877477645874
0.57360458374023438 0.57360458374023438 0.57360458374023438
0.58804863691329956 0.58804863691329956 0.58804863691329956
0.61743545532226562 0.61743545532226562 0.61743545532226562
0.6696057915687561 0.6696057915687561 0.6696057915687561
0.74534165859222412 0.74534165859222412 0.74534165859222412
0.68647080659866333 0.68647080659866333 0.68647080659866333
0.68905538320541382 0.68905538320541382 0.68905538320541382
0.70469683408737183 0.70469683408737183 0.70469683408737183
0.73785865306854248 0.73785865306854248 0.73785865306854248
0.79608887434005737 0.79608887434005737 0.79608887434005737
0.78835171461105347 0.78835171461105347 0.78835171461105347
0.78931868076324463 0.78931868076324463 0.78931868076324463
0.79800772666931152 0.79800772666931152 0.79800772666931152
0.81593012809753418 0.81593012809753418 0.81593012809753418
0.85943031311035156 0.85943031311035156 0.85943031311035156
0.89879775047302246 0.89879775047302246 0.89879775047302246
0.90106880664825439 0.90106880664825439 0.90106880664825439
0.9064706563949585 0.9064706563949585 0.9064706563949585
0.91651076078414917 0.91651076078414917 0.91651076078414917
0.94977647066116333 0.94977647066116333 0.94977647066116333
