luts/bw/ilford_fp_4_plus_125.cube
# Created by: G'MIC (https://gmic.eu)
TITLE "ilford_fp_4_plus_125"
# LUT size
LUT_3D_SIZE 7
# Data domain
DOMAIN_MIN 0.0 0.0 0.0
DOMAIN_MAX 1.0 1.0 1.0
# LUT data points
0.049583330750465393 0.049583330750465393 0.049583330750465393
0.076067887246608734 0.076067887246608734 0.076067887246608734
0.10083343088626862 0.10083343088626862 0.10083343088626862
0.13330367207527161 0.13330367207527161 0.13330367207527161
0.18547192215919495 0.18547192215919495 0.18547192215919495
0.26396548748016357 0.26396548748016357 0.26396548748016357
0.35010746121406555 0.35010746121406555 0.35010746121406555
0.15018008649349213 0.15018008649349213 0.15018008649349213
0.16952504217624664 0.16952504217624664 0.16952504217624664
0.19180437922477722 0.19180437922477722 0.19180437922477722
0.22294814884662628 0.22294814884662628 0.22294814884662628
0.27153930068016052 0.27153930068016052 0.27153930068016052
0.34105393290519714 0.34105393290519714 0.34105393290519714
0.41754454374313354 0.41754454374313354 0.41754454374313354
0.26170670986175537 0.26170670986175537 0.26170670986175537
0.27501663565635681 0.27501663565635681 0.27501663565635681
0.29565209150314331 0.29565209150314331 0.29565209150314331
0.32429385185241699 0.32429385185241699 0.32429385185241699
0.36593714356422424 0.36593714356422424 0.36593714356422424
0.42388969659805298 0.42388969659805298 0.42388969659805298
0.49042722582817078 0.49042722582817078 0.49042722582817078
0.38971841335296631 0.38971841335296631 0.38971841335296631
0.39921200275421143 0.39921200275421143 0.39921200275421143
0.41516625881195068 0.41516625881195068 0.41516625881195068
0.43806180357933044 0.43806180357933044 0.43806180357933044
0.4711621105670929 0.4711621105670929 0.4711621105670929
0.51753687858581543 0.51753687858581543 0.51753687858581543
0.5726398229598999 0.5726398229598999 0.5726398229598999
0.53167057037353516 0.53167057037353516 0.53167057037353516
0.53751844167709351 0.53751844167709351 0.53751844167709351
0.5465046763420105 0.5465046763420105 0.5465046763420105
0.56169706583023071 0.56169706583023071 0.56169706583023071
0.58560705184936523 0.58560705184936523 0.58560705184936523
0.62035268545150757 0.62035268545150757 0.62035268545150757
0.6638299822807312 0.6638299822807312 0.6638299822807312
0.67884784936904907 0.67884784936904907 0.67884784936904907
0.68009883165359497 0.68009883165359497 0.68009883165359497
0.68139749765396118 0.68139749765396118 0.68139749765396118
0.6880607008934021 0.6880607008934021 0.6880607008934021
0.70354682207107544 0.70354682207107544 0.70354682207107544
0.72795921564102173 0.72795921564102173 0.72795921564102173
0.76132196187973022 0.76132196187973022 0.76132196187973022
0.82070630788803101 0.82070630788803101 0.82070630788803101
0.81663990020751953 0.81663990020751953 0.81663990020751953
0.81152158975601196 0.81152158975601196 0.81152158975601196
0.81178957223892212 0.81178957223892212 0.81178957223892212
0.81981396675109863 0.81981396675109863 0.81981396675109863
0.8368222713470459 0.8368222713470459 0.8368222713470459
0.86236870288848877 0.86236870288848877 0.86236870288848877
0.12293614447116852 0.12293614447116852 0.12293614447116852
0.14426574110984802 0.14426574110984802 0.14426574110984802
0.15902087092399597 0.15902087092399597 0.15902087092399597
0.18612900376319885 0.18612900376319885 0.18612900376319885
0.23570877313613892 0.23570877313613892 0.23570877313613892
0.30727288126945496 0.30727288126945496 0.30727288126945496
0.3866361677646637 0.3866361677646637 0.3866361677646637
0.20963047444820404 0.20963047444820404 0.20963047444820404
0.22630028426647186 0.22630028426647186 0.22630028426647186
0.2434736043214798 0.2434736043214798 0.2434736043214798
0.27043280005455017 0.27043280005455017 0.27043280005455017
0.31572851538658142 0.31572851538658142 0.31572851538658142
0.38013726472854614 0.38013726472854614 0.38013726472854614
0.45318934321403503 0.45318934321403503 0.45318934321403503
0.30788522958755493 0.30788522958755493 0.30788522958755493
0.31994026899337769 0.31994026899337769 0.31994026899337769
0.33977079391479492 0.33977079391479492 0.33977079391479492
0.36639592051506042 0.36639592051506042 0.36639592051506042
0.40520292520523071 0.40520292520523071 0.40520292520523071
0.45984771847724915 0.45984771847724915 0.45984771847724915
0.52349680662155151 0.52349680662155151 0.52349680662155151
0.42686748504638672 0.42686748504638672 0.42686748504638672
0.43580344319343567 0.43580344319343567 0.43580344319343567
0.45221316814422607 0.45221316814422607 0.45221316814422607
0.47467607259750366 0.47467607259750366 0.47467607259750366
0.50535446405410767 0.50535446405410767 0.50535446405410767
0.54888808727264404 0.54888808727264404 0.54888808727264404
0.60124677419662476 0.60124677419662476 0.60124677419662476
0.56159669160842896 0.56159669160842896 0.56159669160842896
0.56740427017211914 0.56740427017211914 0.56740427017211914
0.57705450057983398 0.57705450057983398 0.57705450057983398
0.59200900793075562 0.59200900793075562 0.59200900793075562
0.61407673358917236 0.61407673358917236 0.61407673358917236
0.64614772796630859 0.64614772796630859 0.64614772796630859
0.68717086315155029 0.68717086315155029 0.68717086315155029
0.70020288228988647 0.70020288228988647 0.70020288228988647
0.70211565494537354 0.70211565494537354 0.70211565494537354
0.70484375953674316 0.70484375953674316 0.70484375953674316
0.71151423454284668 0.71151423454284668 0.71151423454284668
0.7252534031867981 0.7252534031867981 0.7252534031867981
0.74763649702072144 0.74763649702072144 0.74763649702072144
0.7788386344909668 0.7788386344909668 0.7788386344909668
0.83304446935653687 0.83304446935653687 0.83304446935653687
0.83173733949661255 0.83173733949661255 0.83173733949661255
0.82841461896896362 0.82841461896896362 0.82841461896896362
0.82864242792129517 0.82864242792129517 0.82864242792129517
0.83562815189361572 0.83562815189361572 0.83562815189361572
0.85084575414657593 0.85084575414657593 0.85084575414657593
0.87477755546569824 0.87477755546569824 0.87477755546569824
0.18332952260971069 0.18332952260971069 0.18332952260971069
0.20299273729324341 0.20299273729324341 0.20299273729324341
0.21929642558097839 0.21929642558097839 0.21929642558097839
0.2453693151473999 0.2453693151473999 0.2453693151473999
0.29230812191963196 0.29230812191963196 0.29230812191963196
0.35801929235458374 0.35801929235458374 0.35801929235458374
0.43045678734779358 0.43045678734779358 0.43045678734779358
0.26793530583381653 0.26793530583381653 0.26793530583381653
0.28399872779846191 0.28399872779846191 0.28399872779846191
0.30109134316444397 0.30109134316444397 0.30109134316444397
0.32707646489143372 0.32707646489143372 0.32707646489143372
0.3694595992565155 0.3694595992565155 0.3694595992565155
0.42836722731590271 0.42836722731590271 0.42836722731590271
0.4947935938835144 0.4947935938835144 0.4947935938835144
0.36228987574577332 0.36228987574577332 0.36228987574577332
0.37512284517288208 0.37512284517288208 0.37512284517288208
0.3938039243221283 0.3938039243221283 0.3938039243221283
0.41943442821502686 0.41943442821502686 0.41943442821502686
0.45590019226074219 0.45590019226074219 0.45590019226074219
0.50496947765350342 0.50496947765350342 0.50496947765350342
0.56229162216186523 0.56229162216186523 0.56229162216186523
0.47271734476089478 0.47271734476089478 0.47271734476089478
0.48280012607574463 0.48280012607574463 0.48280012607574463
0.49974140524864197 0.49974140524864197 0.49974140524864197
0.52153688669204712 0.52153688669204712 0.52153688669204712
0.55010998249053955 0.55010998249053955 0.55010998249053955
0.58836621046066284 0.58836621046066284 0.58836621046066284
0.63539242744445801 0.63539242744445801 0.63539242744445801
0.59522771835327148 0.59522771835327148 0.59522771835327148
0.60298842191696167 0.60298842191696167 0.60298842191696167
0.61433112621307373 0.61433112621307373 0.61433112621307373
0.62975674867630005 0.62975674867630005 0.62975674867630005
0.64969885349273682 0.64969885349273682 0.64969885349273682
0.67737388610839844 0.67737388610839844 0.67737388610839844
0.71372061967849731 0.71372061967849731 0.71372061967849731
0.72108560800552368 0.72108560800552368 0.72108560800552368
0.72528904676437378 0.72528904676437378 0.72528904676437378
0.73054391145706177 0.73054391145706177 0.73054391145706177
0.73836719989776611 0.73836719989776611 0.73836719989776611
0.75062328577041626 0.75062328577041626 0.75062328577041626
0.76961392164230347 0.76961392164230347 0.76961392164230347
0.79795831441879272 0.79795831441879272 0.79795831441879272
0.84313607215881348 0.84313607215881348 0.84313607215881348
0.84433907270431519 0.84433907270431519 0.84433907270431519
0.84373307228088379 0.84373307228088379 0.84373307228088379
0.84558796882629395 0.84558796882629395 0.84558796882629395
0.85167127847671509 0.85167127847671509 0.85167127847671509
0.86483830213546753 0.86483830213546753 0.86483830213546753
0.88703852891921997 0.88703852891921997 0.88703852891921997
0.24098725616931915 0.24098725616931915 0.24098725616931915
0.26283916831016541 0.26283916831016541 0.26283916831016541
0.28518211841583252 0.28518211841583252 0.28518211841583252
0.31241735816001892 0.31241735816001892 0.31241735816001892
0.35836973786354065 0.35836973786354065 0.35836973786354065
0.41940400004386902 0.41940400004386902 0.41940400004386902
0.48513168096542358 0.48513168096542358 0.48513168096542358
0.3278268575668335 0.3278268575668335 0.3278268575668335
0.34527358412742615 0.34527358412742615 0.34527358412742615
0.36585435271263123 0.36585435271263123 0.36585435271263123
0.39260032773017883 0.39260032773017883 0.39260032773017883
0.43279463052749634 0.43279463052749634 0.43279463052749634
0.48604568839073181 0.48604568839073181 0.48604568839073181
0.54576998949050903 0.54576998949050903 0.54576998949050903
0.42247065901756287 0.42247065901756287 0.42247065901756287
0.43675923347473145 0.43675923347473145 0.43675923347473145
0.45617944002151489 0.45617944002151489 0.45617944002151489
0.4812314510345459 0.4812314510345459 0.4812314510345459
0.51460623741149902 0.51460623741149902 0.51460623741149902
0.55777257680892944 0.55777257680892944 0.55777257680892944
0.60844630002975464 0.60844630002975464 0.60844630002975464
0.52534002065658569 0.52534002065658569 0.52534002065658569
0.53733879327774048 0.53733879327774048 0.53733879327774048
0.55504435300827026 0.55504435300827026 0.55504435300827026
0.57650446891784668 0.57650446891784668 0.57650446891784668
0.6014513373374939 0.6014513373374939 0.6014513373374939
0.6334228515625 0.6334228515625 0.6334228515625
0.67416983842849731 0.67416983842849731 0.67416983842849731
0.63441860675811768 0.63441860675811768 0.63441860675811768
0.64403605461120605 0.64403605461120605 0.64403605461120605
0.65797519683837891 0.65797519683837891 0.65797519683837891
0.67401504516601562 0.67401504516601562 0.67401504516601562
0.69023197889328003 0.69023197889328003 0.69023197889328003
0.71245992183685303 0.71245992183685303 0.71245992183685303
0.74411106109619141 0.74411106109619141 0.74411106109619141
0.7459297776222229 0.7459297776222229 0.7459297776222229
0.75183677673339844 0.75183677673339844 0.75183677673339844
0.75983333587646484 0.75983333587646484 0.75983333587646484
0.76860302686691284 0.76860302686691284 0.76860302686691284
0.77846759557723999 0.77846759557723999 0.77846759557723999
0.79390543699264526 0.79390543699264526 0.79390543699264526
0.81866747140884399 0.81866747140884399 0.81866747140884399
0.85637378692626953 0.85637378692626953 0.85637378692626953
0.85856878757476807 0.85856878757476807 0.85856878757476807
0.86075103282928467 0.86075103282928467 0.86075103282928467
0.86363798379898071 0.86363798379898071 0.86363798379898071
0.86888235807418823 0.86888235807418823 0.86888235807418823
0.87978428602218628 0.87978428602218628 0.87978428602218628
0.89991408586502075 0.89991408586502075 0.89991408586502075
0.31661084294319153 0.31661084294319153 0.31661084294319153
0.34093940258026123 0.34093940258026123 0.34093940258026123
0.3663487434387207 0.3663487434387207 0.3663487434387207
0.39636003971099854 0.39636003971099854 0.39636003971099854
0.43860331177711487 0.43860331177711487 0.43860331177711487
0.49275991320610046 0.49275991320610046 0.49275991320610046
0.55063885450363159 0.55063885450363159 0.55063885450363159
0.40202149748802185 0.40202149748802185 0.40202149748802185
0.42029017210006714 0.42029017210006714 0.42029017210006714
0.44222688674926758 0.44222688674926758 0.44222688674926758
0.46947717666625977 0.46947717666625977 0.46947717666625977
0.50610589981079102 0.50610589981079102 0.50610589981079102
0.55330413579940796 0.55330413579940796 0.55330413579940796
0.60570740699768066 0.60570740699768066 0.60570740699768066
0.49122381210327148 0.49122381210327148 0.49122381210327148
0.50610935688018799 0.50610935688018799 0.50610935688018799
0.52550005912780762 0.52550005912780762 0.52550005912780762
0.54947268962860107 0.54947268962860107 0.54947268962860107
0.57932347059249878 0.57932347059249878 0.57932347059249878
0.61676955223083496 0.61676955223083496 0.61676955223083496
0.6611018180847168 0.6611018180847168 0.6611018180847168
0.58349120616912842 0.58349120616912842 0.58349120616912842
0.59636056423187256 0.59636056423187256 0.59636056423187256
0.61386984586715698 0.61386984586715698 0.61386984586715698
0.63408631086349487 0.63408631086349487 0.63408631086349487
0.65537875890731812 0.65537875890731812 0.65537875890731812
0.6824689507484436 0.6824689507484436 0.6824689507484436
0.71774649620056152 0.71774649620056152 0.71774649620056152
0.67865103483200073 0.67865103483200073 0.67865103483200073
0.68897020816802979 0.68897020816802979 0.68897020816802979
0.70354843139648438 0.70354843139648438 0.70354843139648438
0.71915215253829956 0.71915215253829956 0.71915215253829956
0.73178392648696899 0.73178392648696899 0.73178392648696899
0.74978423118591309 0.74978423118591309 0.74978423118591309
0.77716332674026489 0.77716332674026489 0.77716332674026489
0.77559304237365723 0.77559304237365723 0.77559304237365723
0.782279372215271 0.782279372215271 0.782279372215271
0.79114300012588501 0.79114300012588501 0.79114300012588501
0.79994255304336548 0.79994255304336548 0.79994255304336548
0.80759835243225098 0.80759835243225098 0.80759835243225098
0.81959706544876099 0.81959706544876099 0.81959706544876099
0.84148865938186646 0.84148865938186646 0.84148865938186646
0.87439274787902832 0.87439274787902832 0.87439274787902832
0.87693631649017334 0.87693631649017334 0.87693631649017334
0.88049590587615967 0.88049590587615967 0.88049590587615967
0.88381731510162354 0.88381731510162354 0.88381731510162354
0.88761556148529053 0.88761556148529053 0.88761556148529053
0.8961675763130188 0.8961675763130188 0.8961675763130188
0.91458159685134888 0.91458159685134888 0.91458159685134888
0.42147094011306763 0.42147094011306763 0.42147094011306763
0.4395689070224762 0.4395689070224762 0.4395689070224762
0.4607049822807312 0.4607049822807312 0.4607049822807312
0.48841899633407593 0.48841899633407593 0.48841899633407593
0.52585494518280029 0.52585494518280029 0.52585494518280029
0.57269221544265747 0.57269221544265747 0.57269221544265747
0.62372058629989624 0.62372058629989624 0.62372058629989624
0.49441730976104736 0.49441730976104736 0.49441730976104736
0.50994777679443359 0.50994777679443359 0.50994777679443359
0.52878308296203613 0.52878308296203613 0.52878308296203613
0.55311793088912964 0.55311793088912964 0.55311793088912964
0.58566570281982422 0.58566570281982422 0.58566570281982422
0.62657421827316284 0.62657421827316284 0.62657421827316284
0.67261594533920288 0.67261594533920288 0.67261594533920288
0.56967616081237793 0.56967616081237793 0.56967616081237793
0.58325648307800293 0.58325648307800293 0.58325648307800293
0.60032439231872559 0.60032439231872559 0.60032439231872559
0.62117308378219604 0.62117308378219604 0.62117308378219604
0.64735293388366699 0.64735293388366699 0.64735293388366699
0.68010830879211426 0.68010830879211426 0.68010830879211426
0.71902137994766235 0.71902137994766235 0.71902137994766235
0.64750391244888306 0.64750391244888306 0.64750391244888306
0.65938562154769897 0.65938562154769897 0.65938562154769897
0.67437714338302612 0.67437714338302612 0.67437714338302612
0.69134283065795898 0.69134283065795898 0.69134283065795898
0.71025282144546509 0.71025282144546509 0.71025282144546509
0.73431813716888428 0.73431813716888428 0.73431813716888428
0.76585537195205688 0.76585537195205688 0.76585537195205688
0.72800493240356445 0.72800493240356445 0.72800493240356445
0.73703616857528687 0.73703616857528687 0.73703616857528687
0.74936437606811523 0.74936437606811523 0.74936437606811523
0.76181614398956299 0.76181614398956299 0.76181614398956299
0.77368813753128052 0.77368813753128052 0.77368813753128052
0.78975319862365723 0.78975319862365723 0.78975319862365723
0.81479310989379883 0.81479310989379883 0.81479310989379883
0.81102436780929565 0.81102436780929565 0.81102436780929565
0.8170541524887085 0.8170541524887085 0.8170541524887085
0.82493394613265991 0.82493394613265991 0.82493394613265991
0.83235055208206177 0.83235055208206177 0.83235055208206177
0.83878213167190552 0.83878213167190552 0.83878213167190552
0.84874171018600464 0.84874171018600464 0.84874171018600464
0.86870056390762329 0.86870056390762329 0.86870056390762329
0.89881151914596558 0.89881151914596558 0.89881151914596558
0.90137761831283569 0.90137761831283569 0.90137761831283569
0.90495407581329346 0.90495407581329346 0.90495407581329346
0.90804237127304077 0.90804237127304077 0.90804237127304077
0.91063112020492554 0.91063112020492554 0.91063112020492554
0.91687607765197754 0.91687607765197754 0.91687607765197754
0.93340545892715454 0.93340545892715454 0.93340545892715454
0.53191876411437988 0.53191876411437988 0.53191876411437988
0.54318302869796753 0.54318302869796753 0.54318302869796753
0.55766630172729492 0.55766630172729492 0.55766630172729492
0.58052432537078857 0.58052432537078857 0.58052432537078857
0.61272573471069336 0.61272573471069336 0.61272573471069336
0.65378022193908691 0.65378022193908691 0.65378022193908691
0.69921547174453735 0.69921547174453735 0.69921547174453735
0.59158778190612793 0.59158778190612793 0.59158778190612793
0.60366326570510864 0.60366326570510864 0.60366326570510864
0.61758977174758911 0.61758977174758911 0.61758977174758911
0.63763916492462158 0.63763916492462158 0.63763916492462158
0.66563892364501953 0.66563892364501953 0.66563892364501953
0.70129716396331787 0.70129716396331787 0.70129716396331787
0.74165880680084229 0.74165880680084229 0.74165880680084229
0.65191400051116943 0.65191400051116943 0.65191400051116943
0.66352736949920654 0.66352736949920654 0.66352736949920654
0.67689055204391479 0.67689055204391479 0.67689055204391479
0.6941913366317749 0.6941913366317749 0.6941913366317749
0.7169417142868042 0.7169417142868042 0.7169417142868042
0.74576210975646973 0.74576210975646973 0.74576210975646973
0.78058719635009766 0.78058719635009766 0.78058719635009766
0.71548545360565186 0.71548545360565186 0.71548545360565186
0.72551059722900391 0.72551059722900391 0.72551059722900391
0.73745763301849365 0.73745763301849365 0.73745763301849365
0.75124937295913696 0.75124937295913696 0.75124937295913696
0.76822221279144287 0.76822221279144287 0.76822221279144287
0.79008573293685913 0.79008573293685913 0.79008573293685913
0.81912863254547119 0.81912863254547119 0.81912863254547119
0.78287309408187866 0.78287309408187866 0.78287309408187866
0.7902148962020874 0.7902148962020874 0.7902148962020874
0.79966861009597778 0.79966861009597778 0.79966861009597778
0.8096347451210022 0.8096347451210022 0.8096347451210022
0.82072895765304565 0.82072895765304565 0.82072895765304565
0.83590936660766602 0.83590936660766602 0.83590936660766602
0.85968786478042603 0.85968786478042603 0.85968786478042603
0.85419821739196777 0.85419821739196777 0.85419821739196777
0.8588787317276001 0.8588787317276001 0.8588787317276001
0.86533170938491821 0.86533170938491821 0.86533170938491821
0.8712654709815979 0.8712654709815979 0.8712654709815979
0.87720495462417603 0.87720495462417603 0.87720495462417603
0.88641959428787231 0.88641959428787231 0.88641959428787231
0.90535819530487061 0.90535819530487061 0.90535819530487061
0.93244993686676025 0.93244993686676025 0.93244993686676025
0.93400043249130249 0.93400043249130249 0.93400043249130249
0.9376225471496582 0.9376225471496582 0.9376225471496582
0.94154411554336548 0.94154411554336548 0.94154411554336548
0.94243967533111572 0.94243967533111572 0.94243967533111572
0.94784760475158691 0.94784760475158691 0.94784760475158691
0.96223926544189453 0.96223926544189453 0.96223926544189453
