luts/bw/ilford_delta_400.cube
# Created by: G'MIC (https://gmic.eu)
TITLE "ilford_delta_400"
# LUT size
LUT_3D_SIZE 13
# Data domain
DOMAIN_MIN 0.0 0.0 0.0
DOMAIN_MAX 1.0 1.0 1.0
# LUT data points
0.026017237454652786 0.026017237454652786 0.026017237454652786
0.035911049693822861 0.035911049693822861 0.035911049693822861
0.048892691731452942 0.048892691731452942 0.048892691731452942
0.06413394957780838 0.06413394957780838 0.06413394957780838
0.081352546811103821 0.081352546811103821 0.081352546811103821
0.099135361611843109 0.099135361611843109 0.099135361611843109
0.11989305913448334 0.11989305913448334 0.11989305913448334
0.14504727721214294 0.14504727721214294 0.14504727721214294
0.17951878905296326 0.17951878905296326 0.17951878905296326
0.224696084856987 0.224696084856987 0.224696084856987
0.27724277973175049 0.27724277973175049 0.27724277973175049
0.33335438370704651 0.33335438370704651 0.33335438370704651
0.38992825150489807 0.38992825150489807 0.38992825150489807
0.056249655783176422 0.056249655783176422 0.056249655783176422
0.065251998603343964 0.065251998603343964 0.065251998603343964
0.076991617679595947 0.076991617679595947 0.076991617679595947
0.091397151350975037 0.091397151350975037 0.091397151350975037
0.10760876536369324 0.10760876536369324 0.10760876536369324
0.12569533288478851 0.12569533288478851 0.12569533288478851
0.14625664055347443 0.14625664055347443 0.14625664055347443
0.17219652235507965 0.17219652235507965 0.17219652235507965
0.20653636753559113 0.20653636753559113 0.20653636753559113
0.25022292137145996 0.25022292137145996 0.25022292137145996
0.30083003640174866 0.30083003640174866 0.30083003640174866
0.35478901863098145 0.35478901863098145 0.35478901863098145
0.40924778580665588 0.40924778580665588 0.40924778580665588
0.089708752930164337 0.089708752930164337 0.089708752930164337
0.097220338881015778 0.097220338881015778 0.097220338881015778
0.10772243142127991 0.10772243142127991 0.10772243142127991
0.12083668261766434 0.12083668261766434 0.12083668261766434
0.13614381849765778 0.13614381849765778 0.13614381849765778
0.15375961363315582 0.15375961363315582 0.15375961363315582
0.17555877566337585 0.17555877566337585 0.17555877566337585
0.20262438058853149 0.20262438058853149 0.20262438058853149
0.23715150356292725 0.23715150356292725 0.23715150356292725
0.27894651889801025 0.27894651889801025 0.27894651889801025
0.32671210169792175 0.32671210169792175 0.32671210169792175
0.37793436646461487 0.37793436646461487 0.37793436646461487
0.43005037307739258 0.43005037307739258 0.43005037307739258
0.12653066217899323 0.12653066217899323 0.12653066217899323
0.13274757564067841 0.13274757564067841 0.13274757564067841
0.14184051752090454 0.14184051752090454 0.14184051752090454
0.153530552983284 0.153530552983284 0.153530552983284
0.16794724762439728 0.16794724762439728 0.16794724762439728
0.18559485673904419 0.18559485673904419 0.18559485673904419
0.20767386257648468 0.20767386257648468 0.20767386257648468
0.23537285625934601 0.23537285625934601 0.23537285625934601
0.26973947882652283 0.26973947882652283 0.26973947882652283
0.31014886498451233 0.31014886498451233 0.31014886498451233
0.35554549098014832 0.35554549098014832 0.35554549098014832
0.40404805541038513 0.40404805541038513 0.40404805541038513
0.453664630651474 0.453664630651474 0.453664630651474
0.16726107895374298 0.16726107895374298 0.16726107895374298
0.17236147820949554 0.17236147820949554 0.17236147820949554
0.18029843270778656 0.18029843270778656 0.18029843270778656
0.19082173705101013 0.19082173705101013 0.19082173705101013
0.20423372089862823 0.20423372089862823 0.20423372089862823
0.22122924029827118 0.22122924029827118 0.22122924029827118
0.24360314011573792 0.24360314011573792 0.24360314011573792
0.27174246311187744 0.27174246311187744 0.27174246311187744
0.30555728077888489 0.30555728077888489 0.30555728077888489
0.34454634785652161 0.34454634785652161 0.34454634785652161
0.38747864961624146 0.38747864961624146 0.38747864961624146
0.43334805965423584 0.43334805965423584 0.43334805965423584
0.4803231954574585 0.4803231954574585 0.4803231954574585
0.21221856772899628 0.21221856772899628 0.21221856772899628
0.21655221283435822 0.21655221283435822 0.21655221283435822
0.2237076461315155 0.2237076461315155 0.2237076461315155
0.23364479839801788 0.23364479839801788 0.23364479839801788
0.24643971025943756 0.24643971025943756 0.24643971025943756
0.26295387744903564 0.26295387744903564 0.26295387744903564
0.28480371832847595 0.28480371832847595 0.28480371832847595
0.31255009770393372 0.31255009770393372 0.31255009770393372
0.34530317783355713 0.34530317783355713 0.34530317783355713
0.38240543007850647 0.38240543007850647 0.38240543007850647
0.42304879426956177 0.42304879426956177 0.42304879426956177
0.46618017554283142 0.46618017554283142 0.46618017554283142
0.51097768545150757 0.51097768545150757 0.51097768545150757
0.26207131147384644 0.26207131147384644 0.26207131147384644
0.26598235964775085 0.26598235964775085 0.26598235964775085
0.27287688851356506 0.27287688851356506 0.27287688851356506
0.28265306353569031 0.28265306353569031 0.28265306353569031
0.2951909601688385 0.2951909601688385 0.2951909601688385
0.31136003136634827 0.31136003136634827 0.31136003136634827
0.3325439989566803 0.3325439989566803 0.3325439989566803
0.35899853706359863 0.35899853706359863 0.35899853706359863
0.38981276750564575 0.38981276750564575 0.38981276750564575
0.42463362216949463 0.42463362216949463 0.42463362216949463
0.4625818133354187 0.4625818133354187 0.4625818133354187
0.50307756662368774 0.50307756662368774 0.50307756662368774
0.54527783393859863 0.54527783393859863 0.54527783393859863
0.31684529781341553 0.31684529781341553 0.31684529781341553
0.32080280780792236 0.32080280780792236 0.32080280780792236
0.32783663272857666 0.32783663272857666 0.32783663272857666
0.33772996068000793 0.33772996068000793 0.33772996068000793
0.35029280185699463 0.35029280185699463 0.35029280185699463
0.36634451150894165 0.36634451150894165 0.36634451150894165
0.38623684644699097 0.38623684644699097 0.38623684644699097
0.41047021746635437 0.41047021746635437 0.41047021746635437
0.43907198309898376 0.43907198309898376 0.43907198309898376
0.47115588188171387 0.47115588188171387 0.47115588188171387
0.50628602504730225 0.50628602504730225 0.50628602504730225
0.54380303621292114 0.54380303621292114 0.54380303621292114
0.58353990316390991 0.58353990316390991 0.58353990316390991
0.37681877613067627 0.37681877613067627 0.37681877613067627
0.38123384118080139 0.38123384118080139 0.38123384118080139
0.38893857598304749 0.38893857598304749 0.38893857598304749
0.39902901649475098 0.39902901649475098 0.39902901649475098
0.41115325689315796 0.41115325689315796 0.41115325689315796
0.42631906270980835 0.42631906270980835 0.42631906270980835
0.44468474388122559 0.44468474388122559 0.44468474388122559
0.46682935953140259 0.46682935953140259 0.46682935953140259
0.49255523085594177 0.49255523085594177 0.49255523085594177
0.52176576852798462 0.52176576852798462 0.52176576852798462
0.55362683534622192 0.55362683534622192 0.55362683534622192
0.58844578266143799 0.58844578266143799 0.58844578266143799
0.62549436092376709 0.62549436092376709 0.62549436092376709
0.44293570518493652 0.44293570518493652 0.44293570518493652
0.44811803102493286 0.44811803102493286 0.44811803102493286
0.45596116781234741 0.45596116781234741 0.45596116781234741
0.46553266048431396 0.46553266048431396 0.46553266048431396
0.47698694467544556 0.47698694467544556 0.47698694467544556
0.4906039834022522 0.4906039834022522 0.4906039834022522
0.50709480047225952 0.50709480047225952 0.50709480047225952
0.52667874097824097 0.52667874097824097 0.52667874097824097
0.54943954944610596 0.54943954944610596 0.54943954944610596
0.57553678750991821 0.57553678750991821 0.57553678750991821
0.60473108291625977 0.60473108291625977 0.60473108291625977
0.63661831617355347 0.63661831617355347 0.63661831617355347
0.6708940863609314 0.6708940863609314 0.6708940863609314
0.51722735166549683 0.51722735166549683 0.51722735166549683
0.52203273773193359 0.52203273773193359 0.52203273773193359
0.52870696783065796 0.52870696783065796 0.52870696783065796
0.53694045543670654 0.53694045543670654 0.53694045543670654
0.54660290479660034 0.54660290479660034 0.54660290479660034
0.55824548006057739 0.55824548006057739 0.55824548006057739
0.57233142852783203 0.57233142852783203 0.57233142852783203
0.58943873643875122 0.58943873643875122 0.58943873643875122
0.60939013957977295 0.60939013957977295 0.60939013957977295
0.63262051343917847 0.63262051343917847 0.63262051343917847
0.65872496366500854 0.65872496366500854 0.65872496366500854
0.68784129619598389 0.68784129619598389 0.68784129619598389
0.71968883275985718 0.71968883275985718 0.71968883275985718
0.59958112239837646 0.59958112239837646 0.59958112239837646
0.60220104455947876 0.60220104455947876 0.60220104455947876
0.60607534646987915 0.60607534646987915 0.60607534646987915
0.61171954870223999 0.61171954870223999 0.61171954870223999
0.61886698007583618 0.61886698007583618 0.61886698007583618
0.628226637840271 0.628226637840271 0.628226637840271
0.63984644412994385 0.63984644412994385 0.63984644412994385
0.65424984693527222 0.65424984693527222 0.65424984693527222
0.67160791158676147 0.67160791158676147 0.67160791158676147
0.69191509485244751 0.69191509485244751 0.69191509485244751
0.71543985605239868 0.71543985605239868 0.71543985605239868
0.74200332164764404 0.74200332164764404 0.74200332164764404
0.77132278680801392 0.77132278680801392 0.77132278680801392
0.68478786945343018 0.68478786945343018 0.68478786945343018
0.68438220024108887 0.68438220024108887 0.68438220024108887
0.6849372386932373 0.6849372386932373 0.6849372386932373
0.68774378299713135 0.68774378299713135 0.68774378299713135
0.69238471984863281 0.69238471984863281 0.69238471984863281
0.69920939207077026 0.69920939207077026 0.69920939207077026
0.70858323574066162 0.70858323574066162 0.70858323574066162
0.72052305936813354 0.72052305936813354 0.72052305936813354
0.73533493280410767 0.73533493280410767 0.73533493280410767
0.75325709581375122 0.75325709581375122 0.75325709581375122
0.77426904439926147 0.77426904439926147 0.77426904439926147
0.79871481657028198 0.79871481657028198 0.79871481657028198
0.82612383365631104 0.82612383365631104 0.82612383365631104
0.043414022773504257 0.043414022773504257 0.043414022773504257
0.05392373725771904 0.05392373725771904 0.05392373725771904
0.068313568830490112 0.068313568830490112 0.068313568830490112
0.085442274808883667 0.085442274808883667 0.085442274808883667
0.10396277904510498 0.10396277904510498 0.10396277904510498
0.12296145409345627 0.12296145409345627 0.12296145409345627
0.14270339906215668 0.14270339906215668 0.14270339906215668
0.16744613647460938 0.16744613647460938 0.16744613647460938
0.20061580836772919 0.20061580836772919 0.20061580836772919
0.24328342080116272 0.24328342080116272 0.24328342080116272
0.29301244020462036 0.29301244020462036 0.29301244020462036
0.34654781222343445 0.34654781222343445 0.34654781222343445
0.40069189667701721 0.40069189667701721 0.40069189667701721
0.073127776384353638 0.073127776384353638 0.073127776384353638
0.082865618169307709 0.082865618169307709 0.082865618169307709
0.096057787537574768 0.096057787537574768 0.096057787537574768
0.11196140944957733 0.11196140944957733 0.11196140944957733
0.12958073616027832 0.12958073616027832 0.12958073616027832
0.1477324515581131 0.1477324515581131 0.1477324515581131
0.16793963313102722 0.16793963313102722 0.16793963313102722
0.19303761422634125 0.19303761422634125 0.19303761422634125
0.22596690058708191 0.22596690058708191 0.22596690058708191
0.26742681860923767 0.26742681860923767 0.26742681860923767
0.31569033861160278 0.31569033861160278 0.31569033861160278
0.36759540438652039 0.36759540438652039 0.36759540438652039
0.42037922143936157 0.42037922143936157 0.42037922143936157
0.10610593855381012 0.10610593855381012 0.10610593855381012
0.11435205489397049 0.11435205489397049 0.11435205489397049
0.12594591081142426 0.12594591081142426 0.12594591081142426
0.13993518054485321 0.13993518054485321 0.13993518054485321
0.15598677098751068 0.15598677098751068 0.15598677098751068
0.17379412055015564 0.17379412055015564 0.17379412055015564
0.1949373185634613 0.1949373185634613 0.1949373185634613
0.22109861671924591 0.22109861671924591 0.22109861671924591
0.25415423512458801 0.25415423512458801 0.25415423512458801
0.29470688104629517 0.29470688104629517 0.29470688104629517
0.34076237678527832 0.34076237678527832 0.34076237678527832
0.39030414819717407 0.39030414819717407 0.39030414819717407
0.4409642219543457 0.4409642219543457 0.4409642219543457
0.14234358072280884 0.14234358072280884 0.14234358072280884
0.14911609888076782 0.14911609888076782 0.14911609888076782
0.15876856446266174 0.15876856446266174 0.15876856446266174
0.17106755077838898 0.17106755077838898 0.17106755077838898
0.18551789224147797 0.18551789224147797 0.18551789224147797
0.20286931097507477 0.20286931097507477 0.20286931097507477
0.22444508969783783 0.22444508969783783 0.22444508969783783
0.25173553824424744 0.25173553824424744 0.25173553824424744
0.28511059284210205 0.28511059284210205 0.28511059284210205
0.32440909743309021 0.32440909743309021 0.32440909743309021
0.36842620372772217 0.36842620372772217 0.36842620372772217
0.41550382971763611 0.41550382971763611 0.41550382971763611
0.46407067775726318 0.46407067775726318 0.46407067775726318
0.18237651884555817 0.18237651884555817 0.18237651884555817
0.18768683075904846 0.18768683075904846 0.18768683075904846
0.19588509202003479 0.19588509202003479 0.19588509202003479
0.2065911591053009 0.2065911591053009 0.2065911591053009
0.21986405551433563 0.21986405551433563 0.21986405551433563
0.23625844717025757 0.23625844717025757 0.23625844717025757
0.25799986720085144 0.25799986720085144 0.25799986720085144
0.28586801886558533 0.28586801886558533 0.28586801886558533
0.31920510530471802 0.31920510530471802 0.31920510530471802
0.35732546448707581 0.35732546448707581 0.35732546448707581
0.39938357472419739 0.39938357472419739 0.39938357472419739
0.44394278526306152 0.44394278526306152 0.44394278526306152
0.49012249708175659 0.49012249708175659 0.49012249708175659
0.22661910951137543 0.22661910951137543 0.22661910951137543
0.23121073842048645 0.23121073842048645 0.23121073842048645
0.23838876187801361 0.23838876187801361 0.23838876187801361
0.24810305237770081 0.24810305237770081 0.24810305237770081
0.26024380326271057 0.26024380326271057 0.26024380326271057
0.27588260173797607 0.27588260173797607 0.27588260173797607
0.29728078842163086 0.29728078842163086 0.29728078842163086
0.32498031854629517 0.32498031854629517 0.32498031854629517
0.35757613182067871 0.35757613182067871 0.35757613182067871
0.39391687512397766 0.39391687512397766 0.39391687512397766
0.43382525444030762 0.43382525444030762 0.43382525444030762
0.47601446509361267 0.47601446509361267 0.47601446509361267
0.51984834671020508 0.51984834671020508 0.51984834671020508
0.27546566724777222 0.27546566724777222 0.27546566724777222
0.27940955758094788 0.27940955758094788 0.27940955758094788
0.2864471971988678 0.2864471971988678 0.2864471971988678
0.29596707224845886 0.29596707224845886 0.29596707224845886
0.30803763866424561 0.30803763866424561 0.30803763866424561
0.32350492477416992 0.32350492477416992 0.32350492477416992
0.34399351477622986 0.34399351477622986 0.34399351477622986
0.37029770016670227 0.37029770016670227 0.37029770016670227
0.40088191628456116 0.40088191628456116 0.40088191628456116
0.43510651588439941 0.43510651588439941 0.43510651588439941
0.47229194641113281 0.47229194641113281 0.47229194641113281
0.51175087690353394 0.51175087690353394 0.51175087690353394
0.55329930782318115 0.55329930782318115 0.55329930782318115
0.32884779572486877 0.32884779572486877 0.32884779572486877
0.33317160606384277 0.33317160606384277 0.33317160606384277
0.34037566184997559 0.34037566184997559 0.34037566184997559
0.35015934705734253 0.35015934705734253 0.35015934705734253
0.36248293519020081 0.36248293519020081 0.36248293519020081
0.37762129306793213 0.37762129306793213 0.37762129306793213
0.39714294672012329 0.39714294672012329 0.39714294672012329
0.42122107744216919 0.42122107744216919 0.42122107744216919
0.44920912384986877 0.44920912384986877 0.44920912384986877
0.48051509261131287 0.48051509261131287 0.48051509261131287
0.51486098766326904 0.51486098766326904 0.51486098766326904
0.55149286985397339 0.55149286985397339 0.55149286985397339
0.59049350023269653 0.59049350023269653 0.59049350023269653
0.38741442561149597 0.38741442561149597 0.38741442561149597
0.39212659001350403 0.39212659001350403 0.39212659001350403
0.40013781189918518 0.40013781189918518 0.40013781189918518
0.4102378785610199 0.4102378785610199 0.4102378785610199
0.42240571975708008 0.42240571975708008 0.42240571975708008
0.437176913022995 0.437176913022995 0.437176913022995
0.45500364899635315 0.45500364899635315 0.45500364899635315
0.47666871547698975 0.47666871547698975 0.47666871547698975
0.50171172618865967 0.50171172618865967 0.50171172618865967
0.5299980640411377 0.5299980640411377 0.5299980640411377
0.56124389171600342 0.56124389171600342 0.56124389171600342
0.59500014781951904 0.59500014781951904 0.59500014781951904
0.63120996952056885 0.63120996952056885 0.63120996952056885
0.45160320401191711 0.45160320401191711 0.45160320401191711
0.45723158121109009 0.45723158121109009 0.45723158121109009
0.46578219532966614 0.46578219532966614 0.46578219532966614
0.47573494911193848 0.47573494911193848 0.47573494911193848
0.48739957809448242 0.48739957809448242 0.48739957809448242
0.50077134370803833 0.50077134370803833 0.50077134370803833
0.51682639122009277 0.51682639122009277 0.51682639122009277
0.53577554225921631 0.53577554225921631 0.53577554225921631
0.55780816078186035 0.55780816078186035 0.55780816078186035
0.58291047811508179 0.58291047811508179 0.58291047811508179
0.61120069026947021 0.61120069026947021 0.61120069026947021
0.64198744297027588 0.64198744297027588 0.64198744297027588
0.67554694414138794 0.67554694414138794 0.67554694414138794
0.52355754375457764 0.52355754375457764 0.52355754375457764
0.52946406602859497 0.52946406602859497 0.52946406602859497
0.53719949722290039 0.53719949722290039 0.53719949722290039
0.54609876871109009 0.54609876871109009 0.54609876871109009
0.55607599020004272 0.55607599020004272 0.55607599020004272
0.56749570369720459 0.56749570369720459 0.56749570369720459
0.58135247230529785 0.58135247230529785 0.58135247230529785
0.59753119945526123 0.59753119945526123 0.59753119945526123
0.61671549081802368 0.61671549081802368 0.61671549081802368
0.63888895511627197 0.63888895511627197 0.63888895511627197
0.66407924890518188 0.66407924890518188 0.66407924890518188
0.69204699993133545 0.69204699993133545 0.69204699993133545
0.72316265106201172 0.72316265106201172 0.72316265106201172
0.60411292314529419 0.60411292314529419 0.60411292314529419
0.60785746574401855 0.60785746574401855 0.60785746574401855
0.61318105459213257 0.61318105459213257 0.61318105459213257
0.61962902545928955 0.61962902545928955 0.61962902545928955
0.627360999584198 0.627360999584198 0.627360999584198
0.63649916648864746 0.63649916648864746 0.63649916648864746
0.64760506153106689 0.64760506153106689 0.64760506153106689
0.66135060787200928 0.66135060787200928 0.66135060787200928
0.6777845025062561 0.6777845025062561 0.6777845025062561
0.69733232259750366 0.69733232259750366 0.69733232259750366
0.71954303979873657 0.71954303979873657 0.71954303979873657
0.74513876438140869 0.74513876438140869 0.74513876438140869
0.77381902933120728 0.77381902933120728 0.77381902933120728
0.68688857555389404 0.68688857555389404 0.68688857555389404
0.68839359283447266 0.68839359283447266 0.68839359283447266
0.69084250926971436 0.69084250926971436 0.69084250926971436
0.69457715749740601 0.69457715749740601 0.69457715749740601
0.69971472024917603 0.69971472024917603 0.69971472024917603
0.70657002925872803 0.70657002925872803 0.70657002925872803
0.71544164419174194 0.71544164419174194 0.71544164419174194
0.72658151388168335 0.72658151388168335 0.72658151388168335
0.7404627799987793 0.7404627799987793 0.7404627799987793
0.75732934474945068 0.75732934474945068 0.75732934474945068
0.77746343612670898 0.77746343612670898 0.77746343612670898
0.80076569318771362 0.80076569318771362 0.80076569318771362
0.82737189531326294 0.82737189531326294 0.82737189531326294
0.063118785619735718 0.063118785619735718 0.063118785619735718
0.074889287352561951 0.074889287352561951 0.074889287352561951
0.090489394962787628 0.090489394962787628 0.090489394962787628
0.10928451269865036 0.10928451269865036 0.10928451269865036
0.12995254993438721 0.12995254993438721 0.12995254993438721
0.14962352812290192 0.14962352812290192 0.14962352812290192
0.16912940144538879 0.16912940144538879 0.16912940144538879
0.19350044429302216 0.19350044429302216 0.19350044429302216
0.22532537579536438 0.22532537579536438 0.22532537579536438
0.26528894901275635 0.26528894901275635 0.26528894901275635
0.3115684986114502 0.3115684986114502 0.3115684986114502
0.36175516247749329 0.36175516247749329 0.36175516247749329
0.41292989253997803 0.41292989253997803 0.41292989253997803
0.093166455626487732 0.093166455626487732 0.093166455626487732
0.10371389985084534 0.10371389985084534 0.10371389985084534
0.11796559393405914 0.11796559393405914 0.11796559393405914
0.13530442118644714 0.13530442118644714 0.13530442118644714
0.15442843735218048 0.15442843735218048 0.15442843735218048
0.1734345406293869 0.1734345406293869 0.1734345406293869
0.19325610995292664 0.19325610995292664 0.19325610995292664
0.21775567531585693 0.21775567531585693 0.21775567531585693
0.24926105141639709 0.24926105141639709 0.24926105141639709
0.28842949867248535 0.28842949867248535 0.28842949867248535
0.33369177579879761 0.33369177579879761 0.33369177579879761
0.38259002566337585 0.38259002566337585 0.38259002566337585
0.43266561627388 0.43266561627388 0.43266561627388
0.12610936164855957 0.12610936164855957 0.12610936164855957
0.1351313591003418 0.1351313591003418 0.1351313591003418
0.14745998382568359 0.14745998382568359 0.14745998382568359
0.16252981126308441 0.16252981126308441 0.16252981126308441
0.17940413951873779 0.17940413951873779 0.17940413951873779
0.19768455624580383 0.19768455624580383 0.19768455624580383
0.21849609911441803 0.21849609911441803 0.21849609911441803
0.24391467869281769 0.24391467869281769 0.24391467869281769
0.27586561441421509 0.27586561441421509 0.27586561441421509
0.31427845358848572 0.31427845358848572 0.31427845358848572
0.35798352956771851 0.35798352956771851 0.35798352956771851
0.40508726239204407 0.40508726239204407 0.40508726239204407
0.4536813497543335 0.4536813497543335 0.4536813497543335
0.16242347657680511 0.16242347657680511 0.16242347657680511
0.16959981620311737 0.16959981620311737 0.16959981620311737
0.17981727421283722 0.17981727421283722 0.17981727421283722
0.19271862506866455 0.19271862506866455 0.19271862506866455
0.20775870978832245 0.20775870978832245 0.20775870978832245
0.225190669298172 0.225190669298172 0.225190669298172
0.2464430183172226 0.2464430183172226 0.2464430183172226
0.27286443114280701 0.27286443114280701 0.27286443114280701
0.30507999658584595 0.30507999658584595 0.30507999658584595
0.34274497628211975 0.34274497628211975 0.34274497628211975
0.38471245765686035 0.38471245765686035 0.38471245765686035
0.42988905310630798 0.42988905310630798 0.42988905310630798
0.47655114531517029 0.47655114531517029 0.47655114531517029
0.20214720070362091 0.20214720070362091 0.20214720070362091
0.20796529948711395 0.20796529948711395 0.20796529948711395
0.21655271947383881 0.21655271947383881 0.21655271947383881
0.22758296132087708 0.22758296132087708 0.22758296132087708
0.24095718562602997 0.24095718562602997 0.24095718562602997
0.25731495022773743 0.25731495022773743 0.25731495022773743
0.27852621674537659 0.27852621674537659 0.27852621674537659
0.30544734001159668 0.30544734001159668 0.30544734001159668
