luts/bw/ilford_hps_800.cube
# Created by: G'MIC (https://gmic.eu)
TITLE "ilford_hps_800"
# LUT size
LUT_3D_SIZE 13
# Data domain
DOMAIN_MIN 0.0 0.0 0.0
DOMAIN_MAX 1.0 1.0 1.0
# LUT data points
0.011487339623272419 0.011487339623272419 0.011487339623272419
0.01050268393009901 0.01050268393009901 0.01050268393009901
0.012896833010017872 0.012896833010017872 0.012896833010017872
0.02027486078441143 0.02027486078441143 0.02027486078441143
0.033688325434923172 0.033688325434923172 0.033688325434923172
0.053114362061023712 0.053114362061023712 0.053114362061023712
0.078475236892700195 0.078475236892700195 0.078475236892700195
0.10995049774646759 0.10995049774646759 0.10995049774646759
0.15161231160163879 0.15161231160163879 0.15161231160163879
0.20906977355480194 0.20906977355480194 0.20906977355480194
0.27567446231842041 0.27567446231842041 0.27567446231842041
0.34605127573013306 0.34605127573013306 0.34605127573013306
0.41563689708709717 0.41563689708709717 0.41563689708709717
0.033898625522851944 0.033898625522851944 0.033898625522851944
0.033980276435613632 0.033980276435613632 0.033980276435613632
0.037828616797924042 0.037828616797924042 0.037828616797924042
0.046657562255859375 0.046657562255859375 0.046657562255859375
0.061376817524433136 0.061376817524433136 0.061376817524433136
0.082325011491775513 0.082325011491775513 0.082325011491775513
0.1095292940735817 0.1095292940735817 0.1095292940735817
0.14359299838542938 0.14359299838542938 0.14359299838542938
0.18641707301139832 0.18641707301139832 0.18641707301139832
0.24058437347412109 0.24058437347412109 0.24058437347412109
0.30330124497413635 0.30330124497413635 0.30330124497413635
0.36998507380485535 0.36998507380485535 0.36998507380485535
0.43608924746513367 0.43608924746513367 0.43608924746513367
0.059628341346979141 0.059628341346979141 0.059628341346979141
0.060908731073141098 0.060908731073141098 0.060908731073141098
0.066633604466915131 0.066633604466915131 0.066633604466915131
0.077476948499679565 0.077476948499679565 0.077476948499679565
0.093501083552837372 0.093501083552837372 0.093501083552837372
0.1160333976149559 0.1160333976149559 0.1160333976149559
0.1449882835149765 0.1449882835149765 0.1449882835149765
0.18028992414474487 0.18028992414474487 0.18028992414474487
0.2237359881401062 0.2237359881401062 0.2237359881401062
0.27539786696434021 0.27539786696434021 0.27539786696434021
0.33363085985183716 0.33363085985183716 0.33363085985183716
0.39567297697067261 0.39567297697067261 0.39567297697067261
0.45788699388504028 0.45788699388504028 0.45788699388504028
0.091675929725170135 0.091675929725170135 0.091675929725170135
0.094251401722431183 0.094251401722431183 0.094251401722431183
0.10202222317457199 0.10202222317457199 0.10202222317457199
0.11417742073535919 0.11417742073535919 0.11417742073535919
0.13126163184642792 0.13126163184642792 0.13126163184642792
0.15472410619258881 0.15472410619258881 0.15472410619258881
0.18430371582508087 0.18430371582508087 0.18430371582508087
0.22051505744457245 0.22051505744457245 0.22051505744457245
0.26330322027206421 0.26330322027206421 0.26330322027206421
0.31227022409439087 0.31227022409439087 0.31227022409439087
0.36703541874885559 0.36703541874885559 0.36703541874885559
0.4243750274181366 0.4243750274181366 0.4243750274181366
0.4827226996421814 0.4827226996421814 0.4827226996421814
0.13305802643299103 0.13305802643299103 0.13305802643299103
0.13688616454601288 0.13688616454601288 0.13688616454601288
0.1459953784942627 0.1459953784942627 0.1459953784942627
0.1590985506772995 0.1590985506772995 0.1590985506772995
0.17668995261192322 0.17668995261192322 0.17668995261192322
0.19977553188800812 0.19977553188800812 0.19977553188800812
0.22923600673675537 0.22923600673675537 0.22923600673675537
0.26496589183807373 0.26496589183807373 0.26496589183807373
0.30643892288208008 0.30643892288208008 0.30643892288208008
0.35291287302970886 0.35291287302970886 0.35291287302970886
0.4035341739654541 0.4035341739654541 0.4035341739654541
0.45715051889419556 0.45715051889419556 0.45715051889419556
0.51168173551559448 0.51168173551559448 0.51168173551559448
0.18735986948013306 0.18735986948013306 0.18735986948013306
0.19114725291728973 0.19114725291728973 0.19114725291728973
0.20012670755386353 0.20012670755386353 0.20012670755386353
0.21311919391155243 0.21311919391155243 0.21311919391155243
0.23034743964672089 0.23034743964672089 0.23034743964672089
0.25248783826828003 0.25248783826828003 0.25248783826828003
0.28086075186729431 0.28086075186729431 0.28086075186729431
0.3148648738861084 0.3148648738861084 0.3148648738861084
0.3539946973323822 0.3539946973323822 0.3539946973323822
0.39731511473655701 0.39731511473655701 0.39731511473655701
0.44434216618537903 0.44434216618537903 0.44434216618537903
0.49401214718818665 0.49401214718818665 0.49401214718818665
0.54493147134780884 0.54493147134780884 0.54493147134780884
0.25440692901611328 0.25440692901611328 0.25440692901611328
0.2570871114730835 0.2570871114730835 0.2570871114730835
0.26456186175346375 0.26456186175346375 0.26456186175346375
0.27647390961647034 0.27647390961647034 0.27647390961647034
0.29223057627677917 0.29223057627677917 0.29223057627677917
0.3130224347114563 0.3130224347114563 0.3130224347114563
0.33903241157531738 0.33903241157531738 0.33903241157531738
0.37036973237991333 0.37036973237991333 0.37036973237991333
0.40626728534698486 0.40626728534698486 0.40626728534698486
0.44627463817596436 0.44627463817596436 0.44627463817596436
0.48941177129745483 0.48941177129745483 0.48941177129745483
0.53507941961288452 0.53507941961288452 0.53507941961288452
0.58224815130233765 0.58224815130233765 0.58224815130233765
0.33022880554199219 0.33022880554199219 0.33022880554199219
0.33163249492645264 0.33163249492645264 0.33163249492645264
0.33742216229438782 0.33742216229438782 0.33742216229438782
0.34723395109176636 0.34723395109176636 0.34723395109176636
0.36102530360221863 0.36102530360221863 0.36102530360221863
0.37931215763092041 0.37931215763092041 0.37931215763092041
0.40254953503608704 0.40254953503608704 0.40254953503608704
0.43061929941177368 0.43061929941177368 0.43061929941177368
0.46308916807174683 0.46308916807174683 0.46308916807174683
0.49905005097389221 0.49905005097389221 0.49905005097389221
0.5384325385093689 0.5384325385093689 0.5384325385093689
0.58032143115997314 0.58032143115997314 0.58032143115997314
0.62405967712402344 0.62405967712402344 0.62405967712402344
0.41190364956855774 0.41190364956855774 0.41190364956855774
0.4121394157409668 0.4121394157409668 0.4121394157409668
0.41591921448707581 0.41591921448707581 0.41591921448707581
0.42319610714912415 0.42319610714912415 0.42319610714912415
0.43452301621437073 0.43452301621437073 0.43452301621437073
0.44991844892501831 0.44991844892501831 0.44991844892501831
0.4699760377407074 0.4699760377407074 0.4699760377407074
0.49446842074394226 0.49446842074394226 0.49446842074394226
0.52303934097290039 0.52303934097290039 0.52303934097290039
0.55545693635940552 0.55545693635940552 0.55545693635940552
0.59088695049285889 0.59088695049285889 0.59088695049285889
0.62883889675140381 0.62883889675140381 0.62883889675140381
0.66896182298660278 0.66896182298660278 0.66896182298660278
0.49692052602767944 0.49692052602767944 0.49692052602767944
0.49618542194366455 0.49618542194366455 0.49618542194366455
0.49779453873634338 0.49779453873634338 0.49779453873634338
0.50254827737808228 0.50254827737808228 0.50254827737808228
0.51072925329208374 0.51072925329208374 0.51072925329208374
0.523193359375 0.523193359375 0.523193359375
0.53975093364715576 0.53975093364715576 0.53975093364715576
0.56060987710952759 0.56060987710952759 0.56060987710952759
0.58561545610427856 0.58561545610427856 0.58561545610427856
0.6141664981842041 0.6141664981842041 0.6141664981842041
0.64583033323287964 0.64583033323287964 0.64583033323287964
0.68034708499908447 0.68034708499908447 0.68034708499908447
0.71686184406280518 0.71686184406280518 0.71686184406280518
0.5835566520690918 0.5835566520690918 0.5835566520690918
0.58170944452285767 0.58170944452285767 0.58170944452285767
0.58095788955688477 0.58095788955688477 0.58095788955688477
0.58296418190002441 0.58296418190002441 0.58296418190002441
0.58819317817687988 0.58819317817687988 0.58819317817687988
0.59757477045059204 0.59757477045059204 0.59757477045059204
0.61079394817352295 0.61079394817352295 0.61079394817352295
0.62856185436248779 0.62856185436248779 0.62856185436248779
0.64962625503540039 0.64962625503540039 0.64962625503540039
0.67460161447525024 0.67460161447525024 0.67460161447525024
0.7029719352722168 0.7029719352722168 0.7029719352722168
0.73402190208435059 0.73402190208435059 0.73402190208435059
0.7673841118812561 0.7673841118812561 0.7673841118812561
0.66978961229324341 0.66978961229324341 0.66978961229324341
0.66632097959518433 0.66632097959518433 0.66632097959518433
0.66341698169708252 0.66341698169708252 0.66341698169708252
0.66288948059082031 0.66288948059082031 0.66288948059082031
0.66526460647583008 0.66526460647583008 0.66526460647583008
0.67149239778518677 0.67149239778518677 0.67149239778518677
0.68184369802474976 0.68184369802474976 0.68184369802474976
0.69615399837493896 0.69615399837493896 0.69615399837493896
0.71428245306015015 0.71428245306015015 0.71428245306015015
0.73610800504684448 0.73610800504684448 0.73610800504684448
0.76116859912872314 0.76116859912872314 0.76116859912872314
0.78913271427154541 0.78913271427154541 0.78913271427154541
0.81955116987228394 0.81955116987228394 0.81955116987228394
0.75291460752487183 0.75291460752487183 0.75291460752487183
0.74791884422302246 0.74791884422302246 0.74791884422302246
0.7430884838104248 0.7430884838104248 0.7430884838104248
0.74020051956176758 0.74020051956176758 0.74020051956176758
0.74061167240142822 0.74061167240142822 0.74061167240142822
0.74464273452758789 0.74464273452758789 0.74464273452758789
0.75230097770690918 0.75230097770690918 0.75230097770690918
0.76370757818222046 0.76370757818222046 0.76370757818222046
0.77902448177337646 0.77902448177337646 0.77902448177337646
0.79800260066986084 0.79800260066986084 0.79800260066986084
0.8202328085899353 0.8202328085899353 0.8202328085899353
0.8454241156578064 0.8454241156578064 0.8454241156578064
0.87335491180419922 0.87335491180419922 0.87335491180419922
0.020767003297805786 0.020767003297805786 0.020767003297805786
0.022664852440357208 0.022664852440357208 0.022664852440357208
0.028206201270222664 0.028206201270222664 0.028206201270222664
0.039143700152635574 0.039143700152635574 0.039143700152635574
0.056346055120229721 0.056346055120229721 0.056346055120229721
0.080342389643192291 0.080342389643192291 0.080342389643192291
0.11106660217046738 0.11106660217046738 0.11106660217046738
0.14816249907016754 0.14816249907016754 0.14816249907016754
0.19022180140018463 0.19022180140018463 0.19022180140018463
0.24127580225467682 0.24127580225467682 0.24127580225467682
0.30183756351470947 0.30183756351470947 0.30183756351470947
0.36692577600479126 0.36692577600479126 0.36692577600479126
0.43183690309524536 0.43183690309524536 0.43183690309524536
0.045231882482767105 0.045231882482767105 0.045231882482767105
0.047372046858072281 0.047372046858072281 0.047372046858072281
0.053668826818466187 0.053668826818466187 0.053668826818466187
0.065614543855190277 0.065614543855190277 0.065614543855190277
0.083592765033245087 0.083592765033245087 0.083592765033245087
0.10818635672330856 0.10818635672330856 0.10818635672330856
0.13978877663612366 0.13978877663612366 0.13978877663612366
0.17730516195297241 0.17730516195297241 0.17730516195297241
0.21980701386928558 0.21980701386928558 0.21980701386928558
0.26975235342979431 0.26975235342979431 0.26975235342979431
0.32758864760398865 0.32758864760398865 0.32758864760398865
0.38999971747398376 0.38999971747398376 0.38999971747398376
0.45233207941055298 0.45233207941055298 0.45233207941055298
0.073289491236209869 0.073289491236209869 0.073289491236209869
0.076067939400672913 0.076067939400672913 0.076067939400672913
0.083554364740848541 0.083554364740848541 0.083554364740848541
0.096333764493465424 0.096333764493465424 0.096333764493465424
0.11479393392801285 0.11479393392801285 0.11479393392801285
0.13979826867580414 0.13979826867580414 0.13979826867580414
0.17117415368556976 0.17117415368556976 0.17117415368556976
0.20853893458843231 0.20853893458843231 0.20853893458843231
0.25141742825508118 0.25141742825508118 0.25141742825508118
0.30039620399475098 0.30039620399475098 0.30039620399475098
0.35537415742874146 0.35537415742874146 0.35537415742874146
0.41403910517692566 0.41403910517692566 0.41403910517692566
0.47376337647438049 0.47376337647438049 0.47376337647438049
0.10737667977809906 0.10737667977809906 0.10737667977809906
0.11107508093118668 0.11107508093118668 0.11107508093118668
0.11953674256801605 0.11953674256801605 0.11953674256801605
0.13297684490680695 0.13297684490680695 0.13297684490680695
0.15154612064361572 0.15154612064361572 0.15154612064361572
0.17628037929534912 0.17628037929534912 0.17628037929534912
0.20725741982460022 0.20725741982460022 0.20725741982460022
0.24421054124832153 0.24421054124832153 0.24421054124832153
0.2864997386932373 0.2864997386932373 0.2864997386932373
0.33399772644042969 0.33399772644042969 0.33399772644042969
0.38605287671089172 0.38605287671089172 0.38605287671089172
0.44130930304527283 0.44130930304527283 0.44130930304527283
0.4976133406162262 0.4976133406162262 0.4976133406162262
0.15123477578163147 0.15123477578163147 0.15123477578163147
0.15484358370304108 0.15484358370304108 0.15484358370304108
0.16382743418216705 0.16382743418216705 0.16382743418216705
0.17739851772785187 0.17739851772785187 0.17739851772785187
0.19532211124897003 0.19532211124897003 0.19532211124897003
0.21898907423019409 0.21898907423019409 0.21898907423019409
0.24930432438850403 0.24930432438850403 0.24930432438850403
0.28535670042037964 0.28535670042037964 0.28535670042037964
0.32636597752571106 0.32636597752571106 0.32636597752571106
0.37149640917778015 0.37149640917778015 0.37149640917778015
0.42037388682365417 0.42037388682365417 0.42037388682365417
0.47216001152992249 0.47216001152992249 0.47216001152992249
0.52530562877655029 0.52530562877655029 0.52530562877655029
0.20618158578872681 0.20618158578872681 0.20618158578872681
0.20935936272144318 0.20935936272144318 0.20935936272144318
0.21788963675498962 0.21788963675498962 0.21788963675498962
0.23075085878372192 0.23075085878372192 0.23075085878372192
0.24823930859565735 0.24823930859565735 0.24823930859565735
0.27006241679191589 0.27006241679191589 0.27006241679191589
0.29883691668510437 0.29883691668510437 0.29883691668510437
0.33293607831001282 0.33293607831001282 0.33293607831001282
0.37156343460083008 0.37156343460083008 0.37156343460083008
0.41378077864646912 0.41378077864646912 0.41378077864646912
0.4594188928604126 0.4594188928604126 0.4594188928604126
0.50771880149841309 0.50771880149841309 0.50771880149841309
0.55731028318405151 0.55731028318405151 0.55731028318405151
0.27195087075233459 0.27195087075233459 0.27195087075233459
0.27427506446838379 0.27427506446838379 0.27427506446838379
0.28174102306365967 0.28174102306365967 0.28174102306365967
0.29324409365653992 0.29324409365653992 0.29324409365653992
0.3088652491569519 0.3088652491569519 0.3088652491569519
0.32958433032035828 0.32958433032035828 0.32958433032035828
0.35551661252975464 0.35551661252975464 0.35551661252975464
0.38664072751998901 0.38664072751998901 0.38664072751998901
0.42193418741226196 0.42193418741226196 0.42193418741226196
0.46098035573959351 0.46098035573959351 0.46098035573959351
0.5030062198638916 0.5030062198638916 0.5030062198638916
0.54745727777481079 0.54745727777481079 0.54745727777481079
0.5937199592590332 0.5937199592590332 0.5937199592590332
0.34736520051956177 0.34736520051956177 0.34736520051956177
0.3477230966091156 0.3477230966091156 0.3477230966091156
0.35332503914833069 0.35332503914833069 0.35332503914833069
0.36284378170967102 0.36284378170967102 0.36284378170967102
0.3767859935760498 0.3767859935760498 0.3767859935760498
0.39510408043861389 0.39510408043861389 0.39510408043861389
0.41786158084869385 0.41786158084869385 0.41786158084869385
0.44554749131202698 0.44554749131202698 0.44554749131202698
0.47710698843002319 0.47710698843002319 0.47710698843002319
0.51239621639251709 0.51239621639251709 0.51239621639251709
0.55066204071044922 0.55066204071044922 0.55066204071044922
0.59141826629638672 0.59141826629638672 0.59141826629638672
0.63398796319961548 0.63398796319961548 0.63398796319961548
0.42600008845329285 0.42600008845329285 0.42600008845329285
0.4262796938419342 0.4262796938419342 0.4262796938419342
0.43040359020233154 0.43040359020233154 0.43040359020233154
0.43753889203071594 0.43753889203071594 0.43753889203071594
0.44877186417579651 0.44877186417579651 0.44877186417579651
0.46415215730667114 0.46415215730667114 0.46415215730667114
0.48382952809333801 0.48382952809333801 0.48382952809333801
0.50795048475265503 0.50795048475265503 0.50795048475265503
0.53584116697311401 0.53584116697311401 0.53584116697311401
0.56725859642028809 0.56725859642028809 0.56725859642028809
0.60175669193267822 0.60175669193267822 0.60175669193267822
0.63870924711227417 0.63870924711227417 0.63870924711227417
0.677723228931427 0.677723228931427 0.677723228931427
0.50919836759567261 0.50919836759567261 0.50919836759567261
0.5087776780128479 0.5087776780128479 0.5087776780128479
0.51038408279418945 0.51038408279418945 0.51038408279418945
0.51521593332290649 0.51521593332290649 0.51521593332290649
0.52359437942504883 0.52359437942504883 0.52359437942504883
0.53592371940612793 0.53592371940612793 0.53592371940612793
0.55219441652297974 0.55219441652297974 0.55219441652297974
0.57261508703231812 0.57261508703231812 0.57261508703231812
0.5969616174697876 0.5969616174697876 0.5969616174697876
0.62460243701934814 0.62460243701934814 0.62460243701934814
0.6554369330406189 0.6554369330406189 0.6554369330406189
0.68872785568237305 0.68872785568237305 0.68872785568237305
0.72450333833694458 0.72450333833694458 0.72450333833694458
0.59354293346405029 0.59354293346405029 0.59354293346405029
0.59183168411254883 0.59183168411254883 0.59183168411254883
0.59158849716186523 0.59158849716186523 0.59158849716186523
0.59393942356109619 0.59393942356109619 0.59393942356109619
0.59935921430587769 0.59935921430587769 0.59935921430587769
0.60845732688903809 0.60845732688903809 0.60845732688903809
0.62151950597763062 0.62151950597763062 0.62151950597763062
0.63862049579620361 0.63862049579620361 0.63862049579620361
0.65935921669006348 0.65935921669006348 0.65935921669006348
0.68368303775787354 0.68368303775787354 0.68368303775787354
0.71097075939178467 0.71097075939178467 0.71097075939178467
0.74099421501159668 0.74099421501159668 0.74099421501159668
0.77351081371307373 0.77351081371307373 0.77351081371307373
0.67716944217681885 0.67716944217681885 0.67716944217681885
0.67432087659835815 0.67432087659835815 0.67432087659835815
0.67193770408630371 0.67193770408630371 0.67193770408630371
0.67155873775482178 0.67155873775482178 0.67155873775482178
0.67453908920288086 0.67453908920288086 0.67453908920288086
0.68084150552749634 0.68084150552749634 0.68084150552749634
0.69091761112213135 0.69091761112213135 0.69091761112213135
0.70472109317779541 0.70472109317779541 0.70472109317779541
0.72244071960449219 0.72244071960449219 0.72244071960449219
0.74337762594223022 0.74337762594223022 0.74337762594223022
0.76750290393829346 0.76750290393829346 0.76750290393829346
0.79461336135864258 0.79461336135864258 0.79461336135864258
0.82414442300796509 0.82414442300796509 0.82414442300796509
0.75772225856781006 0.75772225856781006 0.75772225856781006
0.75384962558746338 0.75384962558746338 0.75384962558746338
0.74975860118865967 0.74975860118865967 0.74975860118865967
0.74762803316116333 0.74762803316116333 0.74762803316116333
0.74812239408493042 0.74812239408493042 0.74812239408493042
0.75197803974151611 0.75197803974151611 0.75197803974151611
0.75938624143600464 0.75938624143600464 0.75938624143600464
0.77072125673294067 0.77072125673294067 0.77072125673294067
0.7854582667350769 0.7854582667350769 0.7854582667350769
0.80348426103591919 0.80348426103591919 0.80348426103591919
0.82503187656402588 0.82503187656402588 0.82503187656402588
0.84928518533706665 0.84928518533706665 0.84928518533706665
0.87617307901382446 0.87617307901382446 0.87617307901382446
0.03288206085562706 0.03288206085562706 0.03288206085562706
0.037552643567323685 0.037552643567323685 0.037552643567323685
0.046828102320432663 0.046828102320432663 0.046828102320432663
0.061996310949325562 0.061996310949325562 0.061996310949325562
0.083054482936859131 0.083054482936859131 0.083054482936859131
0.11104521155357361 0.11104521155357361 0.11104521155357361
0.14518770575523376 0.14518770575523376 0.14518770575523376
0.18491844832897186 0.18491844832897186 0.18491844832897186
0.22740061581134796 0.22740061581134796 0.22740061581134796
0.27509909868240356 0.27509909868240356 0.27509909868240356
0.32992762327194214 0.32992762327194214 0.32992762327194214
0.38894098997116089 0.38894098997116089 0.38894098997116089
0.44979047775268555 0.44979047775268555 0.44979047775268555
0.060103561729192734 0.060103561729192734 0.060103561729192734
0.064469203352928162 0.064469203352928162 0.064469203352928162
0.073880486190319061 0.073880486190319061 0.073880486190319061
0.089092656970024109 0.089092656970024109 0.089092656970024109
0.1101803332567215 0.1101803332567215 0.1101803332567215
0.13819409906864166 0.13819409906864166 0.13819409906864166
0.17221446335315704 0.17221446335315704 0.17221446335315704
0.21149204671382904 0.21149204671382904 0.21149204671382904
0.25375661253929138 0.25375661253929138 0.25375661253929138
0.30068251490592957 0.30068251490592957 0.30068251490592957
0.35384848713874817 0.35384848713874817 0.35384848713874817
0.41130435466766357 0.41130435466766357 0.41130435466766357
0.46979168057441711 0.46979168057441711 0.46979168057441711
0.091634191572666168 0.091634191572666168 0.091634191572666168
0.095775976777076721 0.095775976777076721 0.095775976777076721
0.10544101148843765 0.10544101148843765 0.10544101148843765
0.12052356451749802 0.12052356451749802 0.12052356451749802
0.14142777025699615 0.14142777025699615 0.14142777025699615
0.1685030460357666 0.1685030460357666 0.1685030460357666
0.20158354938030243 0.20158354938030243 0.20158354938030243
0.23957972228527069 0.23957972228527069 0.23957972228527069
0.28167524933815002 0.28167524933815002 0.28167524933815002
0.32805845141410828 0.32805845141410828 0.32805845141410828
0.37939903140068054 0.37939903140068054 0.37939903140068054
0.43412712216377258 0.43412712216377258 0.43412712216377258
0.49023893475532532 0.49023893475532532 0.49023893475532532
0.12941214442253113 0.12941214442253113 0.12941214442253113
0.13360121846199036 0.13360121846199036 0.13360121846199036
0.14300505816936493 0.14300505816936493 0.14300505816936493
0.157913938164711 0.157913938164711 0.157913938164711
0.1779683530330658 0.1779683530330658 0.1779683530330658
0.20363135635852814 0.20363135635852814 0.20363135635852814
0.23547318577766418 0.23547318577766418 0.23547318577766418
0.27237436175346375 0.27237436175346375 0.27237436175346375
0.31341460347175598 0.31341460347175598 0.31341460347175598
0.35856512188911438 0.35856512188911438 0.35856512188911438
0.40765950083732605 0.40765950083732605 0.40765950083732605
0.45992127060890198 0.45992127060890198 0.45992127060890198
0.51368981599807739 0.51368981599807739 0.51368981599807739
0.1756245493888855 0.1756245493888855 0.1756245493888855
0.17934463918209076 0.17934463918209076 0.17934463918209076
0.18846605718135834 0.18846605718135834 0.18846605718135834
0.2024616152048111 0.2024616152048111 0.2024616152048111
0.22122769057750702 0.22122769057750702 0.22122769057750702
0.24543577432632446 0.24543577432632446 0.24543577432632446
0.27571636438369751 0.27571636438369751 0.27571636438369751
