luts/bw/ilford_pan_f_plus_50.cube
# Created by: G'MIC (https://gmic.eu)
TITLE "ilford_pan_f_plus_50"
# LUT size
LUT_3D_SIZE 5
# Data domain
DOMAIN_MIN 0.0 0.0 0.0
DOMAIN_MAX 1.0 1.0 1.0
# LUT data points
0.024610003456473351 0.024610003456473351 0.024610003456473351
0.041925273835659027 0.041925273835659027 0.041925273835659027
0.074100121855735779 0.074100121855735779 0.074100121855735779
0.14238390326499939 0.14238390326499939 0.14238390326499939
0.29347118735313416 0.29347118735313416 0.29347118735313416
0.18451344966888428 0.18451344966888428 0.18451344966888428
0.2203710675239563 0.2203710675239563 0.2203710675239563
0.25811648368835449 0.25811648368835449 0.25811648368835449
0.3220660388469696 0.3220660388469696 0.3220660388469696
0.43223327398300171 0.43223327398300171 0.43223327398300171
0.43551510572433472 0.43551510572433472 0.43551510572433472
0.44916483759880066 0.44916483759880066 0.44916483759880066
0.46977543830871582 0.46977543830871582 0.46977543830871582
0.51202309131622314 0.51202309131622314 0.51202309131622314
0.58294451236724854 0.58294451236724854 0.58294451236724854
0.68408060073852539 0.68408060073852539 0.68408060073852539
0.67835134267807007 0.67835134267807007 0.67835134267807007
0.67814993858337402 0.67814993858337402 0.67814993858337402
0.69680345058441162 0.69680345058441162 0.69680345058441162
0.73929917812347412 0.73929917812347412 0.73929917812347412
0.86502587795257568 0.86502587795257568 0.86502587795257568
0.86485642194747925 0.86485642194747925 0.86485642194747925
0.86057913303375244 0.86057913303375244 0.86057913303375244
0.86814987659454346 0.86814987659454346 0.86814987659454346
0.89448297023773193 0.89448297023773193 0.89448297023773193
0.061164885759353638 0.061164885759353638 0.061164885759353638
0.095085442066192627 0.095085442066192627 0.095085442066192627
0.13665659725666046 0.13665659725666046 0.13665659725666046
0.22681225836277008 0.22681225836277008 0.22681225836277008
0.37446138262748718 0.37446138262748718 0.37446138262748718
0.24453316628932953 0.24453316628932953 0.24453316628932953
0.27533763647079468 0.27533763647079468 0.27533763647079468
0.31456202268600464 0.31456202268600464 0.31456202268600464
0.38291698694229126 0.38291698694229126 0.38291698694229126
0.49108323454856873 0.49108323454856873 0.49108323454856873
0.47564733028411865 0.47564733028411865 0.47564733028411865
0.49393537640571594 0.49393537640571594 0.49393537640571594
0.51765990257263184 0.51765990257263184 0.51765990257263184
0.55694419145584106 0.55694419145584106 0.55694419145584106
0.62333041429519653 0.62333041429519653 0.62333041429519653
0.7009773850440979 0.7009773850440979 0.7009773850440979
0.70773458480834961 0.70773458480834961 0.70773458480834961
0.71341639757156372 0.71341639757156372 0.71341639757156372
0.72892820835113525 0.72892820835113525 0.72892820835113525
0.76631700992584229 0.76631700992584229 0.76631700992584229
0.88056677579879761 0.88056677579879761 0.88056677579879761
0.883739173412323 0.883739173412323 0.883739173412323
0.88163304328918457 0.88163304328918457 0.88163304328918457
0.88664776086807251 0.88664776086807251 0.88664776086807251
0.90977829694747925 0.90977829694747925 0.90977829694747925
0.11701724678277969 0.11701724678277969 0.11701724678277969
0.15495903789997101 0.15495903789997101 0.15495903789997101
0.20518755912780762 0.20518755912780762 0.20518755912780762
0.307883620262146 0.307883620262146 0.307883620262146
0.43604591488838196 0.43604591488838196 0.43604591488838196
0.31469514966011047 0.31469514966011047 0.31469514966011047
0.34261038899421692 0.34261038899421692 0.34261038899421692
0.38301184773445129 0.38301184773445129 0.38301184773445129
0.44924896955490112 0.44924896955490112 0.44924896955490112
0.54276049137115479 0.54276049137115479 0.54276049137115479
0.52933508157730103 0.52933508157730103 0.52933508157730103
0.54979956150054932 0.54979956150054932 0.54979956150054932
0.57532298564910889 0.57532298564910889 0.57532298564910889
0.60786342620849609 0.60786342620849609 0.60786342620849609
0.66491901874542236 0.66491901874542236 0.66491901874542236
0.72548264265060425 0.72548264265060425 0.72548264265060425
0.73927396535873413 0.73927396535873413 0.73927396535873413
0.75171184539794922 0.75171184539794922 0.75171184539794922
0.76141542196273804 0.76141542196273804 0.76141542196273804
0.79232722520828247 0.79232722520828247 0.79232722520828247
0.8899836540222168 0.8899836540222168 0.8899836540222168
0.89615374803543091 0.89615374803543091 0.89615374803543091
0.8980371356010437 0.8980371356010437 0.8980371356010437
0.90091359615325928 0.90091359615325928 0.90091359615325928
0.9211767315864563 0.9211767315864563 0.9211767315864563
0.24285666644573212 0.24285666644573212 0.24285666644573212
0.27382472157478333 0.27382472157478333 0.27382472157478333
0.32567724585533142 0.32567724585533142 0.32567724585533142
0.41356253623962402 0.41356253623962402 0.41356253623962402
0.52105957269668579 0.52105957269668579 0.52105957269668579
0.42506963014602661 0.42506963014602661 0.42506963014602661
0.44570708274841309 0.44570708274841309 0.44570708274841309
0.4804568886756897 0.4804568886756897 0.4804568886756897
0.53886264562606812 0.53886264562606812 0.53886264562606812
0.6193774938583374 0.6193774938583374 0.6193774938583374
0.60964471101760864 0.60964471101760864 0.60964471101760864
0.62391817569732666 0.62391817569732666 0.62391817569732666
0.64265167713165283 0.64265167713165283 0.64265167713165283
0.67052555084228516 0.67052555084228516 0.67052555084228516
0.72023767232894897 0.72023767232894897 0.72023767232894897
0.76865905523300171 0.76865905523300171 0.76865905523300171
0.77926498651504517 0.77926498651504517 0.77926498651504517
0.78805339336395264 0.78805339336395264 0.78805339336395264
0.79610550403594971 0.79610550403594971 0.79610550403594971
0.82363992929458618 0.82363992929458618 0.82363992929458618
0.90679752826690674 0.90679752826690674 0.90679752826690674
0.9125978946685791 0.9125978946685791 0.9125978946685791
0.91509556770324707 0.91509556770324707 0.91509556770324707
0.91610181331634521 0.91610181331634521 0.91610181331634521
0.93437904119491577 0.93437904119491577 0.93437904119491577
0.41575706005096436 0.41575706005096436 0.41575706005096436
0.4320126473903656 0.4320126473903656 0.4320126473903656
0.46977934241294861 0.46977934241294861 0.46977934241294861
0.53817880153656006 0.53817880153656006 0.53817880153656006
0.62609809637069702 0.62609809637069702 0.62609809637069702
0.56414437294006348 0.56414437294006348 0.56414437294006348
0.5757717490196228 0.5757717490196228 0.5757717490196228
0.59852117300033569 0.59852117300033569 0.59852117300033569
0.64489978551864624 0.64489978551864624 0.64489978551864624
0.71079796552658081 0.71079796552658081 0.71079796552658081
0.71125227212905884 0.71125227212905884 0.71125227212905884
0.71473407745361328 0.71473407745361328 0.71473407745361328
0.7237359881401062 0.7237359881401062 0.7237359881401062
0.74704229831695557 0.74704229831695557 0.74704229831695557
0.790641188621521 0.790641188621521 0.790641188621521
0.83020895719528198 0.83020895719528198 0.83020895719528198
0.83391857147216797 0.83391857147216797 0.83391857147216797
0.83753323554992676 0.83753323554992676 0.83753323554992676
0.84488129615783691 0.84488129615783691 0.84488129615783691
0.87131041288375854 0.87131041288375854 0.87131041288375854
0.93933659791946411 0.93933659791946411 0.93933659791946411
0.94553196430206299 0.94553196430206299 0.94553196430206299
0.94710254669189453 0.94710254669189453 0.94710254669189453
0.94774490594863892 0.94774490594863892 0.94774490594863892
0.96295547485351562 0.96295547485351562 0.96295547485351562
