luts/bw/ilford_pan_f_plus_50.cube
# Created by: G'MIC (https://gmic.eu)
TITLE "ilford_pan_f_plus_50"
# LUT size
LUT_3D_SIZE 13
# Data domain
DOMAIN_MIN 0.0 0.0 0.0
DOMAIN_MAX 1.0 1.0 1.0
# LUT data points
0.024610003456473351 0.024610003456473351 0.024610003456473351
0.028864273801445961 0.028864273801445961 0.028864273801445961
0.034588579088449478 0.034588579088449478 0.034588579088449478
0.041925273835659027 0.041925273835659027 0.041925273835659027
0.050770629197359085 0.050770629197359085 0.050770629197359085
0.061147518455982208 0.061147518455982208 0.061147518455982208
0.074100121855735779 0.074100121855735779 0.074100121855735779
0.090833850204944611 0.090833850204944611 0.090833850204944611
0.11278535425662994 0.11278535425662994 0.11278535425662994
0.14238390326499939 0.14238390326499939 0.14238390326499939
0.18397179245948792 0.18397179245948792 0.18397179245948792
0.23741541802883148 0.23741541802883148 0.23741541802883148
0.29347118735313416 0.29347118735313416 0.29347118735313416
0.071502923965454102 0.071502923965454102 0.071502923965454102
0.078239858150482178 0.078239858150482178 0.078239858150482178
0.086835302412509918 0.086835302412509918 0.086835302412509918
0.096250288188457489 0.096250288188457489 0.096250288188457489
0.10658404976129532 0.10658404976129532 0.10658404976129532
0.11760873347520828 0.11760873347520828 0.11760873347520828
0.13095320761203766 0.13095320761203766 0.13095320761203766
0.14752493798732758 0.14752493798732758 0.14752493798732758
0.16969288885593414 0.16969288885593414 0.16969288885593414
0.19903725385665894 0.19903725385665894 0.19903725385665894
0.23873686790466309 0.23873686790466309 0.23873686790466309
0.28750118613243103 0.28750118613243103 0.28750118613243103
0.33891451358795166 0.33891451358795166 0.33891451358795166
0.12262056767940521 0.12262056767940521 0.12262056767940521
0.13200286030769348 0.13200286030769348 0.13200286030769348
0.14364352822303772 0.14364352822303772 0.14364352822303772
0.15528576076030731 0.15528576076030731 0.15528576076030731
0.16681452095508575 0.16681452095508575 0.16681452095508575
0.17875149846076965 0.17875149846076965 0.17875149846076965
0.19241218268871307 0.19241218268871307 0.19241218268871307
0.20910643041133881 0.20910643041133881 0.20910643041133881
0.23104840517044067 0.23104840517044067 0.23104840517044067
0.25989344716072083 0.25989344716072083 0.25989344716072083
0.29680675268173218 0.29680675268173218 0.29680675268173218
0.33925995230674744 0.33925995230674744 0.33925995230674744
0.38499942421913147 0.38499942421913147 0.38499942421913147
0.18451344966888428 0.18451344966888428 0.18451344966888428
0.19541308283805847 0.19541308283805847 0.19541308283805847
0.20801198482513428 0.20801198482513428 0.20801198482513428
0.2203710675239563 0.2203710675239563 0.2203710675239563
0.23238562047481537 0.23238562047481537 0.23238562047481537
0.24453169107437134 0.24453169107437134 0.24453169107437134
0.25811648368835449 0.25811648368835449 0.25811648368835449
0.27457407116889954 0.27457407116889954 0.27457407116889954
0.29553329944610596 0.29553329944610596 0.29553329944610596
0.3220660388469696 0.3220660388469696 0.3220660388469696
0.35517045855522156 0.35517045855522156 0.35517045855522156
0.3924802839756012 0.3924802839756012 0.3924802839756012
0.43223327398300171 0.43223327398300171 0.43223327398300171
0.26091152429580688 0.26091152429580688 0.26091152429580688
0.26983854174613953 0.26983854174613953 0.26983854174613953
0.28094035387039185 0.28094035387039185 0.28094035387039185
0.29211139678955078 0.29211139678955078 0.29211139678955078
0.3030337393283844 0.3030337393283844 0.3030337393283844
0.31427270174026489 0.31427270174026489 0.31427270174026489
0.32696723937988281 0.32696723937988281 0.32696723937988281
0.34226062893867493 0.34226062893867493 0.34226062893867493
0.36146211624145508 0.36146211624145508 0.36146211624145508
0.38515767455101013 0.38515767455101013 0.38515767455101013
0.4138125479221344 0.4138125479221344 0.4138125479221344
0.44627177715301514 0.44627177715301514 0.44627177715301514
0.48132216930389404 0.48132216930389404 0.48132216930389404
0.34636959433555603 0.34636959433555603 0.34636959433555603
0.35292455554008484 0.35292455554008484 0.35292455554008484
0.36080637574195862 0.36080637574195862 0.36080637574195862
0.3691648542881012 0.3691648542881012 0.3691648542881012
0.37781980633735657 0.37781980633735657 0.37781980633735657
0.38713330030441284 0.38713330030441284 0.38713330030441284
0.39802247285842896 0.39802247285842896 0.39802247285842896
0.41136708855628967 0.41136708855628967 0.41136708855628967
0.4280274510383606 0.4280274510383606 0.4280274510383606
0.4486231803894043 0.4486231803894043 0.4486231803894043
0.47313636541366577 0.47313636541366577 0.47313636541366577
0.50118571519851685 0.50118571519851685 0.50118571519851685
0.53151005506515503 0.53151005506515503 0.53151005506515503
0.43551510572433472 0.43551510572433472 0.43551510572433472
0.43994987010955811 0.43994987010955811 0.43994987010955811
0.44433426856994629 0.44433426856994629 0.44433426856994629
0.44916483759880066 0.44916483759880066 0.44916483759880066
0.45470157265663147 0.45470157265663147 0.45470157265663147
0.46142768859863281 0.46142768859863281 0.46142768859863281
0.46977543830871582 0.46977543830871582 0.46977543830871582
0.48083454370498657 0.48083454370498657 0.48083454370498657
0.49475067853927612 0.49475067853927612 0.49475067853927612
0.51202309131622314 0.51202309131622314 0.51202309131622314
0.53281813859939575 0.53281813859939575 0.53281813859939575
0.55663979053497314 0.55663979053497314 0.55663979053497314
0.58294451236724854 0.58294451236724854 0.58294451236724854
0.52463662624359131 0.52463662624359131 0.52463662624359131
0.52661556005477905 0.52661556005477905 0.52661556005477905
0.52760720252990723 0.52760720252990723 0.52760720252990723
0.52906012535095215 0.52906012535095215 0.52906012535095215
0.53141486644744873 0.53141486644744873 0.53141486644744873
0.53545582294464111 0.53545582294464111 0.53545582294464111
0.54134809970855713 0.54134809970855713 0.54134809970855713
0.54960066080093384 0.54960066080093384 0.54960066080093384
0.56065267324447632 0.56065267324447632 0.56065267324447632
0.57485407590866089 0.57485407590866089 0.57485407590866089
0.59211897850036621 0.59211897850036621 0.59211897850036621
0.61220324039459229 0.61220324039459229 0.61220324039459229
0.63475596904754639 0.63475596904754639 0.63475596904754639
0.60907232761383057 0.60907232761383057 0.60907232761383057
0.60905313491821289 0.60905313491821289 0.60905313491821289
0.60737073421478271 0.60737073421478271 0.60737073421478271
0.60621100664138794 0.60621100664138794 0.60621100664138794
0.60589921474456787 0.60589921474456787 0.60589921474456787
0.6075516939163208 0.6075516939163208 0.6075516939163208
0.61114025115966797 0.61114025115966797 0.61114025115966797
0.61690664291381836 0.61690664291381836 0.61690664291381836
0.62539100646972656 0.62539100646972656 0.62539100646972656
0.63664650917053223 0.63664650917053223 0.63664650917053223
0.65076011419296265 0.65076011419296265 0.65076011419296265
0.66765898466110229 0.66765898466110229 0.66765898466110229
0.68708515167236328 0.68708515167236328 0.68708515167236328
0.68408060073852539 0.68408060073852539 0.68408060073852539
0.68369728326797485 0.68369728326797485 0.68369728326797485
0.68099915981292725 0.68099915981292725 0.68099915981292725
0.67835134267807007 0.67835134267807007 0.67835134267807007
0.67663276195526123 0.67663276195526123 0.67663276195526123
0.6764758825302124 0.6764758825302124 0.6764758825302124
0.67814993858337402 0.67814993858337402 0.67814993858337402
0.68190556764602661 0.68190556764602661 0.68190556764602661
0.68816685676574707 0.68816685676574707 0.68816685676574707
0.69680345058441162 0.69680345058441162 0.69680345058441162
0.70861631631851196 0.70861631631851196 0.70861631631851196
0.72274422645568848 0.72274422645568848 0.72274422645568848
0.73929917812347412 0.73929917812347412 0.73929917812347412
0.74958318471908569 0.74958318471908569 0.74958318471908569
0.75014203786849976 0.75014203786849976 0.75014203786849976
0.74802792072296143 0.74802792072296143 0.74802792072296143
0.74533849954605103 0.74533849954605103 0.74533849954605103
0.74299889802932739 0.74299889802932739 0.74299889802932739
0.74172431230545044 0.74172431230545044 0.74172431230545044
0.74211466312408447 0.74211466312408447 0.74211466312408447
0.74430173635482788 0.74430173635482788 0.74430173635482788
0.74879324436187744 0.74879324436187744 0.74879324436187744
0.75563371181488037 0.75563371181488037 0.75563371181488037
0.76502954959869385 0.76502954959869385 0.76502954959869385
0.77708017826080322 0.77708017826080322 0.77708017826080322
0.79137855768203735 0.79137855768203735 0.79137855768203735
0.80924344062805176 0.80924344062805176 0.80924344062805176
0.80986517667770386 0.80986517667770386 0.80986517667770386
0.80946457386016846 0.80946457386016846 0.80946457386016846
0.80712896585464478 0.80712896585464478 0.80712896585464478
0.80492901802062988 0.80492901802062988 0.80492901802062988
0.80328220129013062 0.80328220129013062 0.80328220129013062
0.80254244804382324 0.80254244804382324 0.80254244804382324
0.80423188209533691 0.80423188209533691 0.80423188209533691
0.80732214450836182 0.80732214450836182 0.80732214450836182
0.81277233362197876 0.81277233362197876 0.81277233362197876
0.82052385807037354 0.82052385807037354 0.82052385807037354
0.83064770698547363 0.83064770698547363 0.83064770698547363
0.84307354688644409 0.84307354688644409 0.84307354688644409
0.86502587795257568 0.86502587795257568 0.86502587795257568
0.86683422327041626 0.86683422327041626 0.86683422327041626
0.86650866270065308 0.86650866270065308 0.86650866270065308
0.86485642194747925 0.86485642194747925 0.86485642194747925
0.86293745040893555 0.86293745040893555 0.86293745040893555
0.86147242784500122 0.86147242784500122 0.86147242784500122
0.86057913303375244 0.86057913303375244 0.86057913303375244
0.86141932010650635 0.86141932010650635 0.86141932010650635
0.8637547492980957 0.8637547492980957 0.8637547492980957
0.86814987659454346 0.86814987659454346 0.86814987659454346
0.87472349405288696 0.87472349405288696 0.87472349405288696
0.88349461555480957 0.88349461555480957 0.88349461555480957
0.89448297023773193 0.89448297023773193 0.89448297023773193
0.03570333868265152 0.03570333868265152 0.03570333868265152
0.041840318590402603 0.041840318590402603 0.041840318590402603
0.049346309155225754 0.049346309155225754 0.049346309155225754
0.058390822261571884 0.058390822261571884 0.058390822261571884
0.068298876285552979 0.068298876285552979 0.068298876285552979
0.079662531614303589 0.079662531614303589 0.079662531614303589
0.093544140458106995 0.093544140458106995 0.093544140458106995
0.11198842525482178 0.11198842525482178 0.11198842525482178
0.13649281859397888 0.13649281859397888 0.13649281859397888
0.16961348056793213 0.16961348056793213 0.16961348056793213
0.21328234672546387 0.21328234672546387 0.21328234672546387
0.26618519425392151 0.26618519425392151 0.26618519425392151
0.32118016481399536 0.32118016481399536 0.32118016481399536
0.085457898676395416 0.085457898676395416 0.085457898676395416
0.093001708388328552 0.093001708388328552 0.093001708388328552
0.10248831659555435 0.10248831659555435 0.10248831659555435
0.11300914734601974 0.11300914734601974 0.11300914734601974
0.12402065843343735 0.12402065843343735 0.12402065843343735
0.135849729180336 0.135849729180336 0.135849729180336
0.14982955157756805 0.14982955157756805 0.14982955157756805
0.16830611228942871 0.16830611228942871 0.16830611228942871
0.19164015352725983 0.19164015352725983 0.19164015352725983
0.22353275120258331 0.22353275120258331 0.22353275120258331
0.26481813192367554 0.26481813192367554 0.26481813192367554
0.3136560320854187 0.3136560320854187 0.3136560320854187
0.36468538641929626 0.36468538641929626 0.36468538641929626
0.13972792029380798 0.13972792029380798 0.13972792029380798
0.14876364171504974 0.14876364171504974 0.14876364171504974
0.16004733741283417 0.16004733741283417 0.16004733741283417
0.17205597460269928 0.17205597460269928 0.17205597460269928
0.18404491245746613 0.18404491245746613 0.18404491245746613
0.19635364413261414 0.19635364413261414 0.19635364413261414
0.21054349839687347 0.21054349839687347 0.21054349839687347
0.22826077044010162 0.22826077044010162 0.22826077044010162
0.25143605470657349 0.25143605470657349 0.25143605470657349
0.28153377771377563 0.28153377771377563 0.28153377771377563
0.31885111331939697 0.31885111331939697 0.31885111331939697
0.36247959733009338 0.36247959733009338 0.36247959733009338
0.40801826119422913 0.40801826119422913 0.40801826119422913
0.2032766193151474 0.2032766193151474 0.2032766193151474
0.21279294788837433 0.21279294788837433 0.21279294788837433
0.22470255196094513 0.22470255196094513 0.22470255196094513
0.2369416356086731 0.2369416356086731 0.2369416356086731
0.24905951321125031 0.24905951321125031 0.24905951321125031
0.26155561208724976 0.26155561208724976 0.26155561208724976
0.27551117539405823 0.27551117539405823 0.27551117539405823
0.29234346747398376 0.29234346747398376 0.29234346747398376
0.31408080458641052 0.31408080458641052 0.31408080458641052
0.34134295582771301 0.34134295582771301 0.34134295582771301
0.37437283992767334 0.37437283992767334 0.37437283992767334
0.41226470470428467 0.41226470470428467 0.41226470470428467
0.45240351557731628 0.45240351557731628 0.45240351557731628
0.27831369638442993 0.27831369638442993 0.27831369638442993
0.28664630651473999 0.28664630651473999 0.28664630651473999
0.2971501350402832 0.2971501350402832 0.2971501350402832
0.30818703770637512 0.30818703770637512 0.30818703770637512
0.31913727521896362 0.31913727521896362 0.31913727521896362
0.33060130476951599 0.33060130476951599 0.33060130476951599
0.3434654176235199 0.3434654176235199 0.3434654176235199
0.35898047685623169 0.35898047685623169 0.35898047685623169
0.37838685512542725 0.37838685512542725 0.37838685512542725
0.40249574184417725 0.40249574184417725 0.40249574184417725
0.43132379651069641 0.43132379651069641 0.43132379651069641
0.46411019563674927 0.46411019563674927 0.46411019563674927
0.49888515472412109 0.49888515472412109 0.49888515472412109
0.36129796504974365 0.36129796504974365 0.36129796504974365
0.36800837516784668 0.36800837516784668 0.36800837516784668
0.37597110867500305 0.37597110867500305 0.37597110867500305
0.38447767496109009 0.38447767496109009 0.38447767496109009
0.3931269645690918 0.3931269645690918 0.3931269645690918
0.40273201465606689 0.40273201465606689 0.40273201465606689
0.41370975971221924 0.41370975971221924 0.41370975971221924
0.42711737751960754 0.42711737751960754 0.42711737751960754
0.44376969337463379 0.44376969337463379 0.44376969337463379
0.46431455016136169 0.46431455016136169 0.46431455016136169
0.48886874318122864 0.48886874318122864 0.48886874318122864
0.51680725812911987 0.51680725812911987 0.51680725812911987
0.54711306095123291 0.54711306095123291 0.54711306095123291
0.44825565814971924 0.44825565814971924 0.44825565814971924
0.45297959446907043 0.45297959446907043 0.45297959446907043
0.45792871713638306 0.45792871713638306 0.45792871713638306
0.46320459246635437 0.46320459246635437 0.46320459246635437
0.46915864944458008 0.46915864944458008 0.46915864944458008
0.47624704241752625 0.47624704241752625 0.47624704241752625
0.4847986102104187 0.4847986102104187 0.4847986102104187
0.49562785029411316 0.49562785029411316 0.49562785029411316
0.50938141345977783 0.50938141345977783 0.50938141345977783
0.52634322643280029 0.52634322643280029 0.52634322643280029
0.54681962728500366 0.54681962728500366 0.54681962728500366
0.57043957710266113 0.57043957710266113 0.57043957710266113
0.59651285409927368 0.59651285409927368 0.59651285409927368
0.53475683927536011 0.53475683927536011 0.53475683927536011
0.53776842355728149 0.53776842355728149 0.53776842355728149
0.53967010974884033 0.53967010974884033 0.53967010974884033
0.5418274998664856 0.5418274998664856 0.5418274998664856
0.54498565196990967 0.54498565196990967 0.54498565196990967
0.54918843507766724 0.54918843507766724 0.54918843507766724
0.55521875619888306 0.55521875619888306 0.55521875619888306
0.5635075569152832 0.5635075569152832 0.5635075569152832
0.57417142391204834 0.57417142391204834 0.57417142391204834
0.58801162242889404 0.58801162242889404 0.58801162242889404
0.60471755266189575 0.60471755266189575 0.60471755266189575
0.62460583448410034 0.62460583448410034 0.62460583448410034
0.64690262079238892 0.64690262079238892 0.64690262079238892
0.61681216955184937 0.61681216955184937 0.61681216955184937
0.61814731359481812 0.61814731359481812 0.61814731359481812
0.61771565675735474 0.61771565675735474 0.61771565675735474
0.61769717931747437 0.61769717931747437 0.61769717931747437
0.61832654476165771 0.61832654476165771 0.61832654476165771
0.62016618251800537 0.62016618251800537 0.62016618251800537
0.62385290861129761 0.62385290861129761 0.62385290861129761
0.62952888011932373 0.62952888011932373 0.62952888011932373
0.63766252994537354 0.63766252994537354 0.63766252994537354
0.64851617813110352 0.64851617813110352 0.64851617813110352
0.66225683689117432 0.66225683689117432 0.66225683689117432
0.67871946096420288 0.67871946096420288 0.67871946096420288
0.69770961999893188 0.69770961999893188 0.69770961999893188
0.69095039367675781 0.69095039367675781 0.69095039367675781
0.6919407844543457 0.6919407844543457 0.6919407844543457
0.69063681364059448 0.69063681364059448 0.69063681364059448
0.68890786170959473 0.68890786170959473 0.68890786170959473
0.68803298473358154 0.68803298473358154 0.68803298473358154
0.68807578086853027 0.68807578086853027 0.68807578086853027
0.68983542919158936 0.68983542919158936 0.68983542919158936
0.69346386194229126 0.69346386194229126 0.69346386194229126
0.69919592142105103 0.69919592142105103 0.69919592142105103
0.70797848701477051 0.70797848701477051 0.70797848701477051
0.71867460012435913 0.71867460012435913 0.71867460012435913
0.73236489295959473 0.73236489295959473 0.73236489295959473
0.74863725900650024 0.74863725900650024 0.74863725900650024
0.75672405958175659 0.75672405958175659 0.75672405958175659
0.75814682245254517 0.75814682245254517 0.75814682245254517
0.75691264867782593 0.75691264867782593 0.75691264867782593
0.7548753023147583 0.7548753023147583 0.7548753023147583
0.75300306081771851 0.75300306081771851 0.75300306081771851
0.75212967395782471 0.75212967395782471 0.75212967395782471
0.75254684686660767 0.75254684686660767 0.75254684686660767
0.75454342365264893 0.75454342365264893 0.75454342365264893
0.75857412815093994 0.75857412815093994 0.75857412815093994
0.76509374380111694 0.76509374380111694 0.76509374380111694
0.77394956350326538 0.77394956350326538 0.77394956350326538
0.78548765182495117 0.78548765182495117 0.78548765182495117
0.79946959018707275 0.79946959018707275 0.79946959018707275
0.81664538383483887 0.81664538383483887 0.81664538383483887
0.81837433576583862 0.81837433576583862 0.81837433576583862
0.81768596172332764 0.81768596172332764 0.81768596172332764
0.81582003831863403 0.81582003831863403 0.81582003831863403
0.81380057334899902 0.81380057334899902 0.81380057334899902
0.81228327751159668 0.81228327751159668 0.81228327751159668
0.81200021505355835 0.81200021505355835 0.81200021505355835
0.81285178661346436 0.81285178661346436 0.81285178661346436
0.81576460599899292 0.81576460599899292 0.81576460599899292
0.82077395915985107 0.82077395915985107 0.82077395915985107
0.8280443549156189 0.8280443549156189 0.8280443549156189
0.83775144815444946 0.83775144815444946 0.83775144815444946
0.84980309009552002 0.84980309009552002 0.84980309009552002
0.87225687503814697 0.87225687503814697 0.87225687503814697
0.87415337562561035 0.87415337562561035 0.87415337562561035
0.87392312288284302 0.87392312288284302 0.87392312288284302
0.87263691425323486 0.87263691425323486 0.87263691425323486
0.87084519863128662 0.87084519863128662 0.87084519863128662
0.8692663311958313 0.8692663311958313 0.8692663311958313
0.86847341060638428 0.86847341060638428 0.86847341060638428
0.86893492937088013 0.86893492937088013 0.86893492937088013
0.87093096971511841 0.87093096971511841 0.87093096971511841
0.87491834163665771 0.87491834163665771 0.87491834163665771
0.88106989860534668 0.88106989860534668 0.88106989860534668
0.88944727182388306 0.88944727182388306 0.88944727182388306
0.90028983354568481 0.90028983354568481 0.90028983354568481
0.047552939504384995 0.047552939504384995 0.047552939504384995
0.055397514253854752 0.055397514253854752 0.055397514253854752
0.065258875489234924 0.065258875489234924 0.065258875489234924
0.076276175677776337 0.076276175677776337 0.076276175677776337
0.087671525776386261 0.087671525776386261 0.087671525776386261
0.099820077419281006 0.099820077419281006 0.099820077419281006
0.11503002792596817 0.11503002792596817 0.11503002792596817
0.13529206812381744 0.13529206812381744 0.13529206812381744
0.16281089186668396 0.16281089186668396 0.16281089186668396
0.19864591956138611 0.19864591956138611 0.19864591956138611
0.24372534453868866 0.24372534453868866 0.24372534453868866
0.29588180780410767 0.29588180780410767 0.29588180780410767
0.3496381938457489 0.3496381938457489 0.3496381938457489
0.10060912370681763 0.10060912370681763 0.10060912370681763
0.10902778804302216 0.10902778804302216 0.10902778804302216
0.11981232464313507 0.11981232464313507 0.11981232464313507
0.13179579377174377 0.13179579377174377 0.13179579377174377
0.1436174213886261 0.1436174213886261 0.1436174213886261
0.1558166891336441 0.1558166891336441 0.1558166891336441
0.1707526296377182 0.1707526296377182 0.1707526296377182
0.19006873667240143 0.19006873667240143 0.19006873667240143
0.21624027192592621 0.21624027192592621 0.21624027192592621
0.25012040138244629 0.25012040138244629 0.25012040138244629
0.2921968400478363 0.2921968400478363 0.2921968400478363
0.34058406949043274 0.34058406949043274 0.34058406949043274
0.39049994945526123 0.39049994945526123 0.39049994945526123
0.15833531320095062 0.15833531320095062 0.15833531320095062
0.16729272902011871 0.16729272902011871 0.16729272902011871
0.17866124212741852 0.17866124212741852 0.17866124212741852
0.19094803929328918 0.19094803929328918 0.19094803929328918
0.20317767560482025 0.20317767560482025 0.20317767560482025
0.21588537096977234 0.21588537096977234 0.21588537096977234
0.23072442412376404 0.23072442412376404 0.23072442412376404
0.24943828582763672 0.24943828582763672 0.24943828582763672
0.27369600534439087 0.27369600534439087 0.27369600534439087
0.30481508374214172 0.30481508374214172 0.30481508374214172
0.34270164370536804 0.34270164370536804 0.34270164370536804
0.38579964637756348 0.38579964637756348 0.38579964637756348
0.43078038096427917 0.43078038096427917 0.43078038096427917
0.22368945181369781 0.22368945181369781 0.22368945181369781
0.23234282433986664 0.23234282433986664 0.23234282433986664
0.24372392892837524 0.24372392892837524 0.24372392892837524
0.25570407509803772 0.25570407509803772 0.25570407509803772
0.26763269305229187 0.26763269305229187 0.26763269305229187
0.28014394640922546 0.28014394640922546 0.28014394640922546
0.2946171760559082 0.2946171760559082 0.2946171760559082
0.31223100423812866 0.31223100423812866 0.31223100423812866
0.33418035507202148 0.33418035507202148 0.33418035507202148
0.36180466413497925 0.36180466413497925 0.36180466413497925
0.39533218741416931 0.39533218741416931 0.39533218741416931
0.43263554573059082 0.43263554573059082 0.43263554573059082
0.47218140959739685 0.47218140959739685 0.47218140959739685
0.2975180447101593 0.2975180447101593 0.2975180447101593
0.30543977022171021 0.30543977022171021 0.30543977022171021
0.31521952152252197 0.31521952152252197 0.31521952152252197
0.3260694146156311 0.3260694146156311 0.3260694146156311
0.33694857358932495 0.33694857358932495 0.33694857358932495
0.34855842590332031 0.34855842590332031 0.34855842590332031
0.36152410507202148 0.36152410507202148 0.36152410507202148
