luts/bw/ilford_xp_2.cube
# Created by: G'MIC (https://gmic.eu)
TITLE "ilford_xp_2"
# LUT size
LUT_3D_SIZE 13
# Data domain
DOMAIN_MIN 0.0 0.0 0.0
DOMAIN_MAX 1.0 1.0 1.0
# LUT data points
0.01669941283762455 0.01669941283762455 0.01669941283762455
0.014967226423323154 0.014967226423323154 0.014967226423323154
0.015147504396736622 0.015147504396736622 0.015147504396736622
0.018032282590866089 0.018032282590866089 0.018032282590866089
0.024261593818664551 0.024261593818664551 0.024261593818664551
0.034064527601003647 0.034064527601003647 0.034064527601003647
0.047663655132055283 0.047663655132055283 0.047663655132055283
0.065378986299037933 0.065378986299037933 0.065378986299037933
0.089015036821365356 0.089015036821365356 0.089015036821365356
0.11970964074134827 0.11970964074134827 0.11970964074134827
0.15662285685539246 0.15662285685539246 0.15662285685539246
0.19757738709449768 0.19757738709449768 0.19757738709449768
0.23906360566616058 0.23906360566616058 0.23906360566616058
0.047241047024726868 0.047241047024726868 0.047241047024726868
0.045214425772428513 0.045214425772428513 0.045214425772428513
0.045847244560718536 0.045847244560718536 0.045847244560718536
0.049189116805791855 0.049189116805791855 0.049189116805791855
0.055512446910142899 0.055512446910142899 0.055512446910142899
0.065342999994754791 0.065342999994754791 0.065342999994754791
0.078754276037216187 0.078754276037216187 0.078754276037216187
0.096563555300235748 0.096563555300235748 0.096563555300235748
0.1198386549949646 0.1198386549949646 0.1198386549949646
0.14928483963012695 0.14928483963012695 0.14928483963012695
0.18440569937229156 0.18440569937229156 0.18440569937229156
0.22333554923534393 0.22333554923534393 0.22333554923534393
0.26351138949394226 0.26351138949394226 0.26351138949394226
0.080678559839725494 0.080678559839725494 0.080678559839725494
0.078935675323009491 0.078935675323009491 0.078935675323009491
0.080037042498588562 0.080037042498588562 0.080037042498588562
0.083728522062301636 0.083728522062301636 0.083728522062301636
0.090616814792156219 0.090616814792156219 0.090616814792156219
0.10052904486656189 0.10052904486656189 0.10052904486656189
0.11427413672208786 0.11427413672208786 0.11427413672208786
0.13215042650699615 0.13215042650699615 0.13215042650699615
0.15446282923221588 0.15446282923221588 0.15446282923221588
0.18245401978492737 0.18245401978492737 0.18245401978492737
0.21525980532169342 0.21525980532169342 0.21525980532169342
0.25153264403343201 0.25153264403343201 0.25153264403343201
0.28948405385017395 0.28948405385017395 0.28948405385017395
0.11737756431102753 0.11737756431102753 0.11737756431102753
0.11625932902097702 0.11625932902097702 0.11625932902097702
0.11784833669662476 0.11784833669662476 0.11784833669662476
0.12202558666467667 0.12202558666467667 0.12202558666467667
0.12942522764205933 0.12942522764205933 0.12942522764205933
0.13957762718200684 0.13957762718200684 0.13957762718200684
0.15326535701751709 0.15326535701751709 0.15326535701751709
0.17084404826164246 0.17084404826164246 0.17084404826164246
0.19231034815311432 0.19231034815311432 0.19231034815311432
0.21835550665855408 0.21835550665855408 0.21835550665855408
0.24885109066963196 0.24885109066963196 0.24885109066963196
0.28255659341812134 0.28255659341812134 0.28255659341812134
0.3186744749546051 0.3186744749546051 0.3186744749546051
0.15811984241008759 0.15811984241008759 0.15811984241008759
0.15730810165405273 0.15730810165405273 0.15730810165405273
0.15947023034095764 0.15947023034095764 0.15947023034095764
0.16444402933120728 0.16444402933120728 0.16444402933120728
0.17205415666103363 0.17205415666103363 0.17205415666103363
0.18250235915184021 0.18250235915184021 0.18250235915184021
0.19592501223087311 0.19592501223087311 0.19592501223087311
0.21248409152030945 0.21248409152030945 0.21248409152030945
0.23284268379211426 0.23284268379211426 0.23284268379211426
0.25700271129608154 0.25700271129608154 0.25700271129608154
0.28508102893829346 0.28508102893829346 0.28508102893829346
0.31666570901870728 0.31666570901870728 0.31666570901870728
0.35103863477706909 0.35103863477706909 0.35103863477706909
0.20257985591888428 0.20257985591888428 0.20257985591888428
0.20235076546669006 0.20235076546669006 0.20235076546669006
0.20523062348365784 0.20523062348365784 0.20523062348365784
0.21089984476566315 0.21089984476566315 0.21089984476566315
0.2187754362821579 0.2187754362821579 0.2187754362821579
0.22942763566970825 0.22942763566970825 0.22942763566970825
0.24237984418869019 0.24237984418869019 0.24237984418869019
0.25797021389007568 0.25797021389007568 0.25797021389007568
0.27678990364074707 0.27678990364074707 0.27678990364074707
0.29894959926605225 0.29894959926605225 0.29894959926605225
0.32471165060997009 0.32471165060997009 0.32471165060997009
0.35424631834030151 0.35424631834030151 0.35424631834030151
0.38686859607696533 0.38686859607696533 0.38686859607696533
0.25144466757774353 0.25144466757774353 0.25144466757774353
0.25172257423400879 0.25172257423400879 0.25172257423400879
0.25548070669174194 0.25548070669174194 0.25548070669174194
0.26176607608795166 0.26176607608795166 0.26176607608795166
0.27016523480415344 0.27016523480415344 0.27016523480415344
0.28050071001052856 0.28050071001052856 0.28050071001052856
0.29289606213569641 0.29289606213569641 0.29289606213569641
0.30728411674499512 0.30728411674499512 0.30728411674499512
0.32438305020332336 0.32438305020332336 0.32438305020332336
0.34435644745826721 0.34435644745826721 0.34435644745826721
0.36785316467285156 0.36785316467285156 0.36785316467285156
0.39546161890029907 0.39546161890029907 0.39546161890029907
0.42668157815933228 0.42668157815933228 0.42668157815933228
0.3049217164516449 0.3049217164516449 0.3049217164516449
0.30601674318313599 0.30601674318313599 0.30601674318313599
0.31065088510513306 0.31065088510513306 0.31065088510513306
0.31752291321754456 0.31752291321754456 0.31752291321754456
0.32621172070503235 0.32621172070503235 0.32621172070503235
0.33605355024337769 0.33605355024337769 0.33605355024337769
0.34757882356643677 0.34757882356643677 0.34757882356643677
0.36081746220588684 0.36081746220588684 0.36081746220588684
0.37610346078872681 0.37610346078872681 0.37610346078872681
0.3940504789352417 0.3940504789352417 0.3940504789352417
0.4156278669834137 0.4156278669834137 0.4156278669834137
0.44123756885528564 0.44123756885528564 0.44123756885528564
0.47103437781333923 0.47103437781333923 0.47103437781333923
0.36420109868049622 0.36420109868049622 0.36420109868049622
0.36631831526756287 0.36631831526756287 0.36631831526756287
0.37166011333465576 0.37166011333465576 0.37166011333465576
0.37870591878890991 0.37870591878890991 0.37870591878890991
0.38678589463233948 0.38678589463233948 0.38678589463233948
0.39612248539924622 0.39612248539924622 0.39612248539924622
0.40656560659408569 0.40656560659408569 0.40656560659408569
0.41852101683616638 0.41852101683616638 0.41852101683616638
0.43236130475997925 0.43236130475997925 0.43236130475997925
0.44888827204704285 0.44888827204704285 0.44888827204704285
0.46854075789451599 0.46854075789451599 0.46854075789451599
0.49269750714302063 0.49269750714302063 0.49269750714302063
0.52071666717529297 0.52071666717529297 0.52071666717529297
0.43113055825233459 0.43113055825233459 0.43113055825233459
0.43372637033462524 0.43372637033462524 0.43372637033462524
0.43895497918128967 0.43895497918128967 0.43895497918128967
0.44528797268867493 0.44528797268867493 0.44528797268867493
0.45237743854522705 0.45237743854522705 0.45237743854522705
0.46035996079444885 0.46035996079444885 0.46035996079444885
0.46957585215568542 0.46957585215568542 0.46957585215568542
0.48017686605453491 0.48017686605453491 0.48017686605453491
0.49282446503639221 0.49282446503639221 0.49282446503639221
0.50822269916534424 0.50822269916534424 0.50822269916534424
0.52664226293563843 0.52664226293563843 0.52664226293563843
0.54916566610336304 0.54916566610336304 0.54916566610336304
0.57526171207427979 0.57526171207427979 0.57526171207427979
0.50766676664352417 0.50766676664352417 0.50766676664352417
0.50881421566009521 0.50881421566009521 0.50881421566009521
0.51235866546630859 0.51235866546630859 0.51235866546630859
0.51669162511825562 0.51669162511825562 0.51669162511825562
0.52197718620300293 0.52197718620300293 0.52197718620300293
0.52831131219863892 0.52831131219863892 0.52831131219863892
0.53610014915466309 0.53610014915466309 0.53610014915466309
0.54556369781494141 0.54556369781494141 0.54556369781494141
0.55677449703216553 0.55677449703216553 0.55677449703216553
0.57109904289245605 0.57109904289245605 0.57109904289245605
0.58850443363189697 0.58850443363189697 0.58850443363189697
0.60953086614608765 0.60953086614608765 0.60953086614608765
0.63382643461227417 0.63382643461227417 0.63382643461227417
0.59053653478622437 0.59053653478622437 0.59053653478622437
0.58946377038955688 0.58946377038955688 0.58946377038955688
0.58980125188827515 0.58980125188827515 0.58980125188827515
0.59142088890075684 0.59142088890075684 0.59142088890075684
0.59450781345367432 0.59450781345367432 0.59450781345367432
0.59899801015853882 0.59899801015853882 0.59899801015853882
0.60492134094238281 0.60492134094238281 0.60492134094238281
0.61305636167526245 0.61305636167526245 0.61305636167526245
0.62320154905319214 0.62320154905319214 0.62320154905319214
0.63638591766357422 0.63638591766357422 0.63638591766357422
0.65292143821716309 0.65292143821716309 0.65292143821716309
0.67267251014709473 0.67267251014709473 0.67267251014709473
0.69546335935592651 0.69546335935592651 0.69546335935592651
0.67410910129547119 0.67410910129547119 0.67410910129547119
0.67071288824081421 0.67071288824081421 0.67071288824081421
0.66819983720779419 0.66819983720779419 0.66819983720779419
0.66751796007156372 0.66751796007156372 0.66751796007156372
0.66828668117523193 0.66828668117523193 0.66828668117523193
0.67091768980026245 0.67091768980026245 0.67091768980026245
0.67536407709121704 0.67536407709121704 0.67536407709121704
0.68195515871047974 0.68195515871047974 0.68195515871047974
0.69116503000259399 0.69116503000259399 0.69116503000259399
0.70345169305801392 0.70345169305801392 0.70345169305801392
0.71880030632019043 0.71880030632019043 0.71880030632019043
0.73742586374282837 0.73742586374282837 0.73742586374282837
0.7589535117149353 0.7589535117149353 0.7589535117149353
0.03428172692656517 0.03428172692656517 0.03428172692656517
0.033240508288145065 0.033240508288145065 0.033240508288145065
0.034269191324710846 0.034269191324710846 0.034269191324710846
0.03834635391831398 0.03834635391831398 0.03834635391831398
0.045531358569860458 0.045531358569860458 0.045531358569860458
0.05630989745259285 0.05630989745259285 0.05630989745259285
0.070571810007095337 0.070571810007095337 0.070571810007095337
0.089104883372783661 0.089104883372783661 0.089104883372783661
0.11307796090841293 0.11307796090841293 0.11307796090841293
0.14309144020080566 0.14309144020080566 0.14309144020080566
0.17873458564281464 0.17873458564281464 0.17873458564281464
0.21766705811023712 0.21766705811023712 0.21766705811023712
0.2577131986618042 0.2577131986618042 0.2577131986618042
0.064688198268413544 0.064688198268413544 0.064688198268413544
0.063351571559906006 0.063351571559906006 0.063351571559906006
0.064758896827697754 0.064758896827697754 0.064758896827697754
0.069055162370204926 0.069055162370204926 0.069055162370204926
0.076441355049610138 0.076441355049610138 0.076441355049610138
0.086927793920040131 0.086927793920040131 0.086927793920040131
0.10098548978567123 0.10098548978567123 0.10098548978567123
0.11926398426294327 0.11926398426294327 0.11926398426294327
0.14270512759685516 0.14270512759685516 0.14270512759685516
0.17159512639045715 0.17159512639045715 0.17159512639045715
0.20559853315353394 0.20559853315353394 0.20559853315353394
0.24305611848831177 0.24305611848831177 0.24305611848831177
0.28202950954437256 0.28202950954437256 0.28202950954437256
0.098210304975509644 0.098210304975509644 0.098210304975509644
0.097195930778980255 0.097195930778980255 0.097195930778980255
0.09898066520690918 0.09898066520690918 0.09898066520690918
0.10343804210424423 0.10343804210424423 0.10343804210424423
0.11098285764455795 0.11098285764455795 0.11098285764455795
0.12158270180225372 0.12158270180225372 0.12158270180225372
0.13552767038345337 0.13552767038345337 0.13552767038345337
0.15362973511219025 0.15362973511219025 0.15362973511219025
0.17601852118968964 0.17601852118968964 0.17601852118968964
0.20346637070178986 0.20346637070178986 0.20346637070178986
0.23529306054115295 0.23529306054115295 0.23529306054115295
0.27058535814285278 0.27058535814285278 0.27058535814285278
0.30760917067527771 0.30760917067527771 0.30760917067527771
0.1347496509552002 0.1347496509552002 0.1347496509552002
0.13474264740943909 0.13474264740943909 0.13474264740943909
0.13630811870098114 0.13630811870098114 0.13630811870098114
0.14138050377368927 0.14138050377368927 0.14138050377368927
0.14932633936405182 0.14932633936405182 0.14932633936405182
0.15995316207408905 0.15995316207408905 0.15995316207408905
0.17381283640861511 0.17381283640861511 0.17381283640861511
0.19133776426315308 0.19133776426315308 0.19133776426315308
0.21264630556106567 0.21264630556106567 0.21264630556106567
0.23815441131591797 0.23815441131591797 0.23815441131591797
0.26774632930755615 0.26774632930755615 0.26774632930755615
0.30075618624687195 0.30075618624687195 0.30075618624687195
0.33590424060821533 0.33590424060821533 0.33590424060821533
0.1753305196762085 0.1753305196762085 0.1753305196762085
0.1749693751335144 0.1749693751335144 0.1749693751335144
0.17781016230583191 0.17781016230583191 0.17781016230583191
0.18337799608707428 0.18337799608707428 0.18337799608707428
0.19143053889274597 0.19143053889274597 0.19143053889274597
0.20218399167060852 0.20218399167060852 0.20218399167060852
0.21564631164073944 0.21564631164073944 0.21564631164073944
0.23209536075592041 0.23209536075592041 0.23209536075592041
0.25213968753814697 0.25213968753814697 0.25213968753814697
0.27551832795143127 0.27551832795143127 0.27551832795143127
0.3031764030456543 0.3031764030456543 0.3031764030456543
0.33364576101303101 0.33364576101303101 0.33364576101303101
0.36712190508842468 0.36712190508842468 0.36712190508842468
0.21944631636142731 0.21944631636142731 0.21944631636142731
0.21957680583000183 0.21957680583000183 0.21957680583000183
0.22301621735095978 0.22301621735095978 0.22301621735095978
0.22917306423187256 0.22917306423187256 0.22917306423187256
0.23754848539829254 0.23754848539829254 0.23754848539829254
0.24823431670665741 0.24823431670665741 0.24823431670665741
0.26115855574607849 0.26115855574607849 0.26115855574607849
0.27651801705360413 0.27651801705360413 0.27651801705360413
0.29466235637664795 0.29466235637664795 0.29466235637664795
0.31621924042701721 0.31621924042701721 0.31621924042701721
0.34128028154373169 0.34128028154373169 0.34128028154373169
0.36980316042900085 0.36980316042900085 0.36980316042900085
0.40186327695846558 0.40186327695846558 0.40186327695846558
0.26738408207893372 0.26738408207893372 0.26738408207893372
0.26837024092674255 0.26837024092674255 0.26837024092674255
0.27257528901100159 0.27257528901100159 0.27257528901100159
0.2793973982334137 0.2793973982334137 0.2793973982334137
0.28814372420310974 0.28814372420310974 0.28814372420310974
0.29849955439567566 0.29849955439567566 0.29849955439567566
0.31076893210411072 0.31076893210411072 0.31076893210411072
0.32466587424278259 0.32466587424278259 0.32466587424278259
0.3411315381526947 0.3411315381526947 0.3411315381526947
0.36024001240730286 0.36024001240730286 0.36024001240730286
0.38313660025596619 0.38313660025596619 0.38313660025596619
0.40976196527481079 0.40976196527481079 0.40976196527481079
0.4402942955493927 0.4402942955493927 0.4402942955493927
0.31978276371955872 0.31978276371955872 0.31978276371955872
0.32159873843193054 0.32159873843193054 0.32159873843193054
0.32700243592262268 0.32700243592262268 0.32700243592262268
0.33433860540390015 0.33433860540390015 0.33433860540390015
0.34280866384506226 0.34280866384506226 0.34280866384506226
0.35313296318054199 0.35313296318054199 0.35313296318054199
0.36425489187240601 0.36425489187240601 0.36425489187240601
0.37698483467102051 0.37698483467102051 0.37698483467102051
0.39161902666091919 0.39161902666091919 0.39161902666091919
0.4087696373462677 0.4087696373462677 0.4087696373462677
0.42899200320243835 0.42899200320243835 0.42899200320243835
0.4539397656917572 0.4539397656917572 0.4539397656917572
0.48315900564193726 0.48315900564193726 0.48315900564193726
0.37747719883918762 0.37747719883918762 0.37747719883918762
0.38056948781013489 0.38056948781013489 0.38056948781013489
0.38668271899223328 0.38668271899223328 0.38668271899223328
0.39428016543388367 0.39428016543388367 0.39428016543388367
0.40284383296966553 0.40284383296966553 0.40284383296966553
0.4121536910533905 0.4121536910533905 0.4121536910533905
0.42213308811187744 0.42213308811187744 0.42213308811187744
0.43365931510925293 0.43365931510925293 0.43365931510925293
0.44655349850654602 0.44655349850654602 0.44655349850654602
0.46210357546806335 0.46210357546806335 0.46210357546806335
0.48074182868003845 0.48074182868003845 0.48074182868003845
0.50389105081558228 0.50389105081558228 0.50389105081558228
0.53138178586959839 0.53138178586959839 0.53138178586959839
0.442819744348526 0.442819744348526 0.442819744348526
0.44647079706192017 0.44647079706192017 0.44647079706192017
0.45269760489463806 0.45269760489463806 0.45269760489463806
0.45969805121421814 0.45969805121421814 0.45969805121421814
0.46710279583930969 0.46710279583930969 0.46710279583930969
0.47513008117675781 0.47513008117675781 0.47513008117675781
0.48395785689353943 0.48395785689353943 0.48395785689353943
0.49394729733467102 0.49394729733467102 0.49394729733467102
0.50582897663116455 0.50582897663116455 0.50582897663116455
0.5201188325881958 0.5201188325881958 0.5201188325881958
0.53782904148101807 0.53782904148101807 0.53782904148101807
0.55915689468383789 0.55915689468383789 0.55915689468383789
0.58463048934936523 0.58463048934936523 0.58463048934936523
0.51790529489517212 0.51790529489517212 0.51790529489517212
0.52035009860992432 0.52035009860992432 0.52035009860992432
0.52472257614135742 0.52472257614135742 0.52472257614135742
0.52994734048843384 0.52994734048843384 0.52994734048843384
0.53563994169235229 0.53563994169235229 0.53563994169235229
0.5419277548789978 0.5419277548789978 0.5419277548789978
0.54916852712631226 0.54916852712631226 0.54916852712631226
0.55778664350509644 0.55778664350509644 0.55778664350509644
0.56839299201965332 0.56839299201965332 0.56839299201965332
0.58162599802017212 0.58162599802017212 0.58162599802017212
0.59816145896911621 0.59816145896911621 0.59816145896911621
0.61827278137207031 0.61827278137207031 0.61827278137207031
0.6419028639793396 0.6419028639793396 0.6419028639793396
0.59917658567428589 0.59917658567428589 0.59917658567428589
0.59928452968597412 0.59928452968597412 0.59928452968597412
0.60084271430969238 0.60084271430969238 0.60084271430969238
0.60342073440551758 0.60342073440551758 0.60342073440551758
0.6069023609161377 0.6069023609161377 0.6069023609161377
0.61124336719512939 0.61124336719512939 0.61124336719512939
0.61682844161987305 0.61682844161987305 0.61682844161987305
0.62405920028686523 0.62405920028686523 0.62405920028686523
0.633567214012146 0.633567214012146 0.633567214012146
0.64577680826187134 0.64577680826187134 0.64577680826187134
0.66122156381607056 0.66122156381607056 0.66122156381607056
0.68003475666046143 0.68003475666046143 0.68003475666046143
0.70196294784545898 0.70196294784545898 0.70196294784545898
0.68074494600296021 0.68074494600296021 0.68074494600296021
0.67896950244903564 0.67896950244903564 0.67896950244903564
0.67790907621383667 0.67790907621383667 0.67790907621383667
0.67823529243469238 0.67823529243469238 0.67823529243469238
0.67947351932525635 0.67947351932525635 0.67947351932525635
0.68199235200881958 0.68199235200881958 0.68199235200881958
0.68601614236831665 0.68601614236831665 0.68601614236831665
0.69198524951934814 0.69198524951934814 0.69198524951934814
0.70001071691513062 0.70001071691513062 0.70001071691513062
0.71155852079391479 0.71155852079391479 0.71155852079391479
0.72593849897384644 0.72593849897384644 0.72593849897384644
0.74337494373321533 0.74337494373321533 0.74337494373321533
0.76423287391662598 0.76423287391662598 0.76423287391662598
0.05503782257437706 0.05503782257437706 0.05503782257437706
0.054796673357486725 0.054796673357486725 0.054796673357486725
0.057460546493530273 0.057460546493530273 0.057460546493530273
0.062824919819831848 0.062824919819831848 0.062824919819831848
0.071588881313800812 0.071588881313800812 0.071588881313800812
0.083068445324897766 0.083068445324897766 0.083068445324897766
0.098438635468482971 0.098438635468482971 0.098438635468482971
0.11794025450944901 0.11794025450944901 0.11794025450944901
0.14199382066726685 0.14199382066726685 0.14199382066726685
0.17112228274345398 0.17112228274345398 0.17112228274345398
0.20478720963001251 0.20478720963001251 0.20478720963001251
0.24148277938365936 0.24148277938365936 0.24148277938365936
0.27956125140190125 0.27956125140190125 0.27956125140190125
0.085913173854351044 0.085913173854351044 0.085913173854351044
0.085568763315677643 0.085568763315677643 0.085568763315677643
0.088134929537773132 0.088134929537773132 0.088134929537773132
0.093550018966197968 0.093550018966197968 0.093550018966197968
0.10190589725971222 0.10190589725971222 0.10190589725971222
0.11336450278759003 0.11336450278759003 0.11336450278759003
0.12835498154163361 0.12835498154163361 0.12835498154163361
0.14719679951667786 0.14719679951667786 0.14719679951667786
0.17056955397129059 0.17056955397129059 0.17056955397129059
0.1987188458442688 0.1987188458442688 0.1987188458442688
0.23092985153198242 0.23092985153198242 0.23092985153198242
0.2663276195526123 0.2663276195526123 0.2663276195526123
0.30343618988990784 0.30343618988990784 0.30343618988990784
0.11986449360847473 0.11986449360847473 0.11986449360847473
0.11971253156661987 0.11971253156661987 0.11971253156661987
0.12226089835166931 0.12226089835166931 0.12226089835166931
0.12776006758213043 0.12776006758213043 0.12776006758213043
0.13623233139514923 0.13623233139514923 0.13623233139514923
0.14763365685939789 0.14763365685939789 0.14763365685939789
0.16213086247444153 0.16213086247444153 0.16213086247444153
0.18025736510753632 0.18025736510753632 0.18025736510753632
0.20262309908866882 0.20262309908866882 0.20262309908866882
0.22919741272926331 0.22919741272926331 0.22919741272926331
0.25982749462127686 0.25982749462127686 0.25982749462127686
0.29335513710975647 0.29335513710975647 0.29335513710975647
0.32892224192619324 0.32892224192619324 0.32892224192619324
0.15690888464450836 0.15690888464450836 0.15690888464450836
0.15682263672351837 0.15682263672351837 0.15682263672351837
0.16000619530677795 0.16000619530677795 0.16000619530677795
0.16570809483528137 0.16570809483528137 0.16570809483528137
0.17415864765644073 0.17415864765644073 0.17415864765644073
0.18534649908542633 0.18534649908542633 0.18534649908542633
0.19952027499675751 0.19952027499675751 0.19952027499675751
0.21724383533000946 0.21724383533000946 0.21724383533000946
0.23785530030727386 0.23785530030727386 0.23785530030727386
0.26269322633743286 0.26269322633743286 0.26269322633743286
0.29116863012313843 0.29116863012313843 0.29116863012313843
0.32278794050216675 0.32278794050216675 0.32278794050216675
0.35659435391426086 0.35659435391426086 0.35659435391426086
0.19765408337116241 0.19765408337116241 0.19765408337116241
0.19789494574069977 0.19789494574069977 0.19789494574069977
0.20110869407653809 0.20110869407653809 0.20110869407653809
0.20733809471130371 0.20733809471130371 0.20733809471130371
0.21590794622898102 0.21590794622898102 0.21590794622898102
0.22695149481296539 0.22695149481296539 0.22695149481296539
