luts/bw/ilford_hps_800.cube
# Created by: G'MIC (https://gmic.eu)
TITLE "ilford_hps_800"
# LUT size
LUT_3D_SIZE 5
# Data domain
DOMAIN_MIN 0.0 0.0 0.0
DOMAIN_MAX 1.0 1.0 1.0
# LUT data points
0.011487339623272419 0.011487339623272419 0.011487339623272419
0.02027486078441143 0.02027486078441143 0.02027486078441143
0.078475236892700195 0.078475236892700195 0.078475236892700195
0.20906977355480194 0.20906977355480194 0.20906977355480194
0.41563689708709717 0.41563689708709717 0.41563689708709717
0.091675929725170135 0.091675929725170135 0.091675929725170135
0.11417742073535919 0.11417742073535919 0.11417742073535919
0.18430371582508087 0.18430371582508087 0.18430371582508087
0.31227022409439087 0.31227022409439087 0.31227022409439087
0.4827226996421814 0.4827226996421814 0.4827226996421814
0.25440692901611328 0.25440692901611328 0.25440692901611328
0.27647390961647034 0.27647390961647034 0.27647390961647034
0.33903241157531738 0.33903241157531738 0.33903241157531738
0.44627463817596436 0.44627463817596436 0.44627463817596436
0.58224815130233765 0.58224815130233765 0.58224815130233765
0.49692052602767944 0.49692052602767944 0.49692052602767944
0.50254827737808228 0.50254827737808228 0.50254827737808228
0.53975093364715576 0.53975093364715576 0.53975093364715576
0.6141664981842041 0.6141664981842041 0.6141664981842041
0.71686184406280518 0.71686184406280518 0.71686184406280518
0.75291460752487183 0.75291460752487183 0.75291460752487183
0.74020051956176758 0.74020051956176758 0.74020051956176758
0.75230097770690918 0.75230097770690918 0.75230097770690918
0.79800260066986084 0.79800260066986084 0.79800260066986084
0.87335491180419922 0.87335491180419922 0.87335491180419922
0.04944426566362381 0.04944426566362381 0.04944426566362381
0.088354282081127167 0.088354282081127167 0.088354282081127167
0.17869122326374054 0.17869122326374054 0.17869122326374054
0.30737382173538208 0.30737382173538208 0.30737382173538208
0.4690641462802887 0.4690641462802887 0.4690641462802887
0.15627601742744446 0.15627601742744446 0.15627601742744446
0.18840934336185455 0.18840934336185455 0.18840934336185455
0.26790288090705872 0.26790288090705872 0.26790288090705872
0.38536572456359863 0.38536572456359863 0.38536572456359863
0.53161931037902832 0.53161931037902832 0.53161931037902832
0.32446151971817017 0.32446151971817017 0.32446151971817017
0.3459155261516571 0.3459155261516571 0.3459155261516571
0.40634369850158691 0.40634369850158691 0.40634369850158691
0.50177842378616333 0.50177842378616333 0.50177842378616333
0.62311482429504395 0.62311482429504395 0.62311482429504395
0.54411715269088745 0.54411715269088745 0.54411715269088745
0.55183988809585571 0.55183988809585571 0.55183988809585571
0.58855503797531128 0.58855503797531128 0.58855503797531128
0.65514934062957764 0.65514934062957764 0.65514934062957764
0.74597543478012085 0.74597543478012085 0.74597543478012085
0.76968926191329956 0.76968926191329956 0.76968926191329956
0.76548391580581665 0.76548391580581665 0.76548391580581665
0.7798578143119812 0.7798578143119812 0.7798578143119812
0.82063752412796021 0.82063752412796021 0.82063752412796021
0.88623088598251343 0.88623088598251343 0.88623088598251343
0.13653624057769775 0.13653624057769775 0.13653624057769775
0.19740724563598633 0.19740724563598633 0.19740724563598633
0.29312708973884583 0.29312708973884583 0.29312708973884583
0.41023978590965271 0.41023978590965271 0.41023978590965271
0.54520189762115479 0.54520189762115479 0.54520189762115479
0.27014949917793274 0.27014949917793274 0.27014949917793274
0.31064656376838684 0.31064656376838684 0.31064656376838684
0.38655754923820496 0.38655754923820496 0.38655754923820496
0.48385536670684814 0.48385536670684814 0.48385536670684814
0.60438573360443115 0.60438573360443115 0.60438573360443115
0.43753403425216675 0.43753403425216675 0.43753403425216675
0.46202343702316284 0.46202343702316284 0.46202343702316284
0.51648104190826416 0.51648104190826416 0.51648104190826416
0.59204894304275513 0.59204894304275513 0.59204894304275513
0.68934065103530884 0.68934065103530884 0.68934065103530884
0.62142443656921387 0.62142443656921387 0.62142443656921387
0.63433396816253662 0.63433396816253662 0.63433396816253662
0.67024964094161987 0.67024964094161987 0.67024964094161987
0.72510147094726562 0.72510147094726562 0.72510147094726562
0.7969052791595459 0.7969052791595459 0.7969052791595459
0.80733615159988403 0.80733615159988403 0.80733615159988403
0.8091360330581665 0.8091360330581665 0.8091360330581665
0.82640558481216431 0.82640558481216431 0.82640558481216431
0.86087179183959961 0.86087179183959961 0.86087179183959961
0.91325855255126953 0.91325855255126953 0.91325855255126953
0.31108734011650085 0.31108734011650085 0.31108734011650085
0.36049968004226685 0.36049968004226685 0.36049968004226685
0.43922477960586548 0.43922477960586548 0.43922477960586548
0.53709959983825684 0.53709959983825684 0.53709959983825684
0.64926469326019287 0.64926469326019287 0.64926469326019287
0.43987551331520081 0.43987551331520081 0.43987551331520081
0.47366708517074585 0.47366708517074585 0.47366708517074585
0.53316682577133179 0.53316682577133179 0.53316682577133179
0.61159086227416992 0.61159086227416992 0.61159086227416992
0.70662605762481689 0.70662605762481689 0.70662605762481689
0.58711564540863037 0.58711564540863037 0.58711564540863037
0.60713636875152588 0.60713636875152588 0.60713636875152588
0.64921319484710693 0.64921319484710693 0.64921319484710693
0.70713049173355103 0.70713049173355103 0.70713049173355103
0.77959465980529785 0.77959465980529785 0.77959465980529785
0.728141188621521 0.728141188621521 0.728141188621521
0.74014723300933838 0.74014723300933838 0.74014723300933838
0.77110451459884644 0.77110451459884644 0.77110451459884644
0.81392109394073486 0.81392109394073486 0.81392109394073486
0.86563146114349365 0.86563146114349365 0.86563146114349365
0.86961454153060913 0.86961454153060913 0.86961454153060913
0.87214362621307373 0.87214362621307373 0.87214362621307373
0.88821244239807129 0.88821244239807129 0.88821244239807129
0.91418236494064331 0.91418236494064331 0.91418236494064331
0.94989877939224243 0.94989877939224243 0.94989877939224243
0.51601290702819824 0.51601290702819824 0.51601290702819824
0.54666399955749512 0.54666399955749512 0.54666399955749512
0.60082954168319702 0.60082954168319702 0.60082954168319702
0.67695730924606323 0.67695730924606323 0.67695730924606323
0.76949119567871094 0.76949119567871094 0.76949119567871094
0.62994050979614258 0.62994050979614258 0.62994050979614258
0.64930367469787598 0.64930367469787598 0.64930367469787598
0.68671339750289917 0.68671339750289917 0.68671339750289917
0.74457842111587524 0.74457842111587524 0.74457842111587524
0.81883519887924194 0.81883519887924194 0.81883519887924194
0.75234580039978027 0.75234580039978027 0.75234580039978027
0.75729209184646606 0.75729209184646606 0.75729209184646606
0.7800058126449585 0.7800058126449585 0.7800058126449585
0.82020831108093262 0.82020831108093262 0.82020831108093262
0.87466204166412354 0.87466204166412354 0.87466204166412354
0.8497159481048584 0.8497159481048584 0.8497159481048584
0.85364925861358643 0.85364925861358643 0.85364925861358643
0.87004512548446655 0.87004512548446655 0.87004512548446655
0.89796543121337891 0.89796543121337891 0.89796543121337891
0.93414175510406494 0.93414175510406494 0.93414175510406494
0.95120096206665039 0.95120096206665039 0.95120096206665039
0.95161783695220947 0.95161783695220947 0.95161783695220947
0.95942515134811401 0.95942515134811401 0.95942515134811401
0.97061067819595337 0.97061067819595337 0.97061067819595337
0.9834437370300293 0.9834437370300293 0.9834437370300293
