luts/bw/ilford_fp_4_plus_125.cube
# Created by: G'MIC (https://gmic.eu)
TITLE "ilford_fp_4_plus_125"
# LUT size
LUT_3D_SIZE 5
# Data domain
DOMAIN_MIN 0.0 0.0 0.0
DOMAIN_MAX 1.0 1.0 1.0
# LUT data points
0.049583330750465393 0.049583330750465393 0.049583330750465393
0.088128015398979187 0.088128015398979187 0.088128015398979187
0.13330367207527161 0.13330367207527161 0.13330367207527161
0.22171187400817871 0.22171187400817871 0.22171187400817871
0.35010746121406555 0.35010746121406555 0.35010746121406555
0.20415689051151276 0.20415689051151276 0.20415689051151276
0.23037797212600708 0.23037797212600708 0.23037797212600708
0.27204889059066772 0.27204889059066772 0.27204889059066772
0.34754630923271179 0.34754630923271179 0.34754630923271179
0.45279121398925781 0.45279121398925781 0.45279121398925781
0.38971841335296631 0.38971841335296631 0.38971841335296631
0.40638378262519836 0.40638378262519836 0.40638378262519836
0.43806180357933044 0.43806180357933044 0.43806180357933044
0.49256458878517151 0.49256458878517151 0.49256458878517151
0.5726398229598999 0.5726398229598999 0.5726398229598999
0.60525935888290405 0.60525935888290405 0.60525935888290405
0.61101961135864258 0.61101961135864258 0.61101961135864258
0.62499707937240601 0.62499707937240601 0.62499707937240601
0.65788334608078003 0.65788334608078003 0.65788334608078003
0.71181660890579224 0.71181660890579224 0.71181660890579224
0.82070630788803101 0.82070630788803101 0.82070630788803101
0.81371891498565674 0.81371891498565674 0.81371891498565674
0.81178957223892212 0.81178957223892212 0.81178957223892212
0.82708263397216797 0.82708263397216797 0.82708263397216797
0.86236870288848877 0.86236870288848877 0.86236870288848877
0.15521018207073212 0.15521018207073212 0.15521018207073212
0.18136453628540039 0.18136453628540039 0.18136453628540039
0.21518076956272125 0.21518076956272125 0.21518076956272125
0.29547765851020813 0.29547765851020813 0.29547765851020813
0.40747955441474915 0.40747955441474915 0.40747955441474915
0.28464382886886597 0.28464382886886597 0.28464382886886597
0.3070032000541687 0.3070032000541687 0.3070032000541687
0.34335854649543762 0.34335854649543762 0.34335854649543762
0.41113638877868652 0.41113638877868652 0.41113638877868652
0.50678461790084839 0.50678461790084839 0.50678461790084839
0.44877949357032776 0.44877949357032776 0.44877949357032776
0.46574065089225769 0.46574065089225769 0.46574065089225769
0.49682968854904175 0.49682968854904175 0.49682968854904175
0.54576140642166138 0.54576140642166138 0.54576140642166138
0.61757391691207886 0.61757391691207886 0.61757391691207886
0.64417892694473267 0.64417892694473267 0.64417892694473267
0.65227645635604858 0.65227645635604858 0.65227645635604858
0.66728889942169189 0.66728889942169189 0.66728889942169189
0.6957855224609375 0.6957855224609375 0.6957855224609375
0.74352467060089111 0.74352467060089111 0.74352467060089111
0.83788037300109863 0.83788037300109863 0.83788037300109863
0.83685570955276489 0.83685570955276489 0.83685570955276489
0.83709311485290527 0.83709311485290527 0.83709311485290527
0.84964889287948608 0.84964889287948608 0.84964889287948608
0.88086426258087158 0.88086426258087158 0.88086426258087158
0.24098725616931915 0.24098725616931915 0.24098725616931915
0.27391380071640015 0.27391380071640015 0.27391380071640015
0.31241735816001892 0.31241735816001892 0.31241735816001892
0.38783806562423706 0.38783806562423706 0.38783806562423706
0.48513168096542358 0.48513168096542358 0.48513168096542358
0.37420287728309631 0.37420287728309631 0.37420287728309631
0.39937150478363037 0.39937150478363037 0.39937150478363037
0.43603453040122986 0.43603453040122986 0.43603453040122986
0.49586784839630127 0.49586784839630127 0.49586784839630127
0.57667893171310425 0.57667893171310425 0.57667893171310425
0.52534002065658569 0.52534002065658569 0.52534002065658569
0.5456312894821167 0.5456312894821167 0.5456312894821167
0.57650446891784668 0.57650446891784668 0.57650446891784668
0.61634570360183716 0.61634570360183716 0.61634570360183716
0.67416983842849731 0.67416983842849731 0.67416983842849731
0.69029313325881958 0.69029313325881958 0.69029313325881958
0.70317733287811279 0.70317733287811279 0.70317733287811279
0.72152054309844971 0.72152054309844971 0.72152054309844971
0.74248355627059937 0.74248355627059937 0.74248355627059937
0.78067302703857422 0.78067302703857422 0.78067302703857422
0.85637378692626953 0.85637378692626953 0.85637378692626953
0.85966473817825317 0.85966473817825317 0.85966473817825317
0.86363798379898071 0.86363798379898071 0.86363798379898071
0.87328553199768066 0.87328553199768066 0.87328553199768066
0.89991408586502075 0.89991408586502075 0.89991408586502075
0.36678561568260193 0.36678561568260193 0.36678561568260193
0.40011653304100037 0.40011653304100037 0.40011653304100037
0.44179454445838928 0.44179454445838928 0.44179454445838928
0.50596874952316284 0.50596874952316284 0.50596874952316284
0.58652424812316895 0.58652424812316895 0.58652424812316895
0.48766738176345825 0.48766738176345825 0.48766738176345825
0.51264983415603638 0.51264983415603638 0.51264983415603638
0.5473138689994812 0.5473138689994812 0.5473138689994812
0.59793972969055176 0.59793972969055176 0.59793972969055176
0.66395145654678345 0.66395145654678345 0.66395145654678345
0.61486196517944336 0.61486196517944336 0.61486196517944336
0.63514506816864014 0.63514506816864014 0.63514506816864014
0.66245198249816895 0.66245198249816895 0.66245198249816895
0.69436770677566528 0.69436770677566528 0.69436770677566528
0.74120688438415527 0.74120688438415527 0.74120688438415527
0.74726122617721558 0.74726122617721558 0.74726122617721558
0.76098322868347168 0.76098322868347168 0.76098322868347168
0.77787500619888306 0.77787500619888306 0.77787500619888306
0.79309231042861938 0.79309231042861938 0.79309231042861938
0.8239283561706543 0.8239283561706543 0.8239283561706543
0.88573712110519409 0.88573712110519409 0.88573712110519409
0.89010417461395264 0.89010417461395264 0.89010417461395264
0.89504122734069824 0.89504122734069824 0.89504122734069824
0.90106004476547241 0.90106004476547241 0.90106004476547241
0.92323952913284302 0.92323952913284302 0.92323952913284302
0.53191876411437988 0.53191876411437988 0.53191876411437988
0.54967451095581055 0.54967451095581055 0.54967451095581055
0.58052432537078857 0.58052432537078857 0.58052432537078857
0.63242870569229126 0.63242870569229126 0.63242870569229126
0.69921547174453735 0.69921547174453735 0.69921547174453735
0.62133967876434326 0.62133967876434326 0.62133967876434326
0.63985931873321533 0.63985931873321533 0.63985931873321533
0.66576504707336426 0.66576504707336426 0.66576504707336426
0.70673233270645142 0.70673233270645142 0.70673233270645142
0.76153403520584106 0.76153403520584106 0.76153403520584106
0.71548545360565186 0.71548545360565186 0.71548545360565186
0.73131603002548218 0.73131603002548218 0.73131603002548218
0.75124937295913696 0.75124937295913696 0.75124937295913696
0.77837759256362915 0.77837759256362915 0.77837759256362915
0.81912863254547119 0.81912863254547119 0.81912863254547119
0.81792384386062622 0.81792384386062622 0.81792384386062622
0.82784950733184814 0.82784950733184814 0.82784950733184814
0.83989709615707397 0.83989709615707397 0.83989709615707397
0.85346394777297974 0.85346394777297974 0.85346394777297974
0.88157892227172852 0.88157892227172852 0.88157892227172852
0.93244993686676025 0.93244993686676025 0.93244993686676025
0.93708568811416626 0.93708568811416626 0.93708568811416626
0.94154411554336548 0.94154411554336548 0.94154411554336548
0.94481343030929565 0.94481343030929565 0.94481343030929565
0.96223926544189453 0.96223926544189453 0.96223926544189453
